%
(Header)
(Generated by gcodetools from Inkscape.)
(Using default header. To add your own header create file "header" in the output dir.)
M3
(Header end.)
G21 (All units in mm)

(Start cutting path id: path1062)
(Change tool to Default tool)

G00 Z5.000000
G00 X56.245141 Y123.212450

G01 Z-0.125000 F1000.0(Penetrate)
G01 X59.264384 Y128.972240 Z-0.125000 F1400.000000
G00 Z5.000000

(End cutting path id: path1062)


(Start cutting path id: path1062)
(Change tool to Default tool)

G00 Z5.000000
G00 X59.264384 Y128.972240

G01 Z-0.125000 F1000.0(Penetrate)
G01 X60.170157 Y126.556850 Z-0.125000 F1400.000000
G00 Z5.000000

(End cutting path id: path1062)


(Start cutting path id: path1062)
(Change tool to Default tool)

G00 Z5.000000
G00 X61.023656 Y124.141610

G01 Z-0.125000 F1000.0(Penetrate)
G01 X60.170157 Y126.556850 Z-0.125000 F1400.000000
G01 X56.245141 Y123.212450 Z-0.125000
G01 X61.023656 Y124.141610 Z-0.125000
G00 Z5.000000

(End cutting path id: path1062)


(Start cutting path id: path1062)
(Change tool to Default tool)

G00 Z5.000000
G00 X56.012890 Y126.138810

G01 Z-0.125000 F1000.0(Penetrate)
G01 X59.264384 Y128.972240 Z-0.125000 F1400.000000
G01 X63.700350 Y130.458640 Z-0.125000
G01 X70.853638 Y130.969600 Z-0.125000
G01 X75.289608 Y130.899900 Z-0.125000
G01 X79.957816 Y130.690870 Z-0.125000
G01 X82.419670 Y130.249600 Z-0.125000
G01 X77.054699 Y126.278130 Z-0.125000
G01 X81.026174 Y124.954300 Z-0.125000
G01 X75.010909 Y124.187880 Z-0.125000
G01 X76.329458 Y122.105190 Z-0.125000
G01 X81.026174 Y124.954300 Z-0.125000
G00 Z5.000000

(End cutting path id: path1062)


(Start cutting path id: path1062)
(Change tool to Default tool)

G00 Z5.000000
G00 X81.026174 Y124.954470

G01 Z-0.125000 F1000.0(Penetrate)
G01 X90.734196 Y127.416310 Z-0.125000 F1400.000000
G01 X88.179465 Y123.421610 Z-0.125000
G01 X93.381852 Y119.519820 Z-0.125000
G01 X90.734196 Y127.416310 Z-0.125000
G00 Z5.000000

(End cutting path id: path1062)


(Start cutting path id: path1062)
(Change tool to Default tool)

G00 Z5.000000
G00 X88.179465 Y123.421610

G01 Z-0.125000 F1000.0(Penetrate)
G01 X81.026174 Y124.954470 Z-0.125000 F1400.000000
G01 X86.971243 Y121.579830 Z-0.125000
G01 X88.179465 Y123.421610 Z-0.125000
G00 Z5.000000

(End cutting path id: path1062)


(Start cutting path id: path1062)
(Change tool to Default tool)

G00 Z5.000000
G00 X86.971243 Y121.579830

G01 Z-0.125000 F1000.0(Penetrate)
G01 X93.381852 Y119.519820 Z-0.125000 F1400.000000
G01 X94.000089 Y115.930470 Z-0.125000
G01 X95.750797 Y116.407670 Z-0.125000
G01 X95.313886 Y111.989070 Z-0.125000
G01 X97.608794 Y108.139590 Z-0.125000
G01 X95.750797 Y116.407670 Z-0.125000
G01 X99.699033 Y110.647890 Z-0.125000
G00 Z5.000000

(End cutting path id: path1062)


(Start cutting path id: path1062)
(Change tool to Default tool)

G00 Z5.000000
G00 X99.977732 Y109.068590

G01 Z-0.125000 F1000.0(Penetrate)
G01 X97.608794 Y108.139590 Z-0.125000 F1400.000000
G01 X95.379579 Y106.865230 Z-0.125000
G01 X100.024190 Y104.098440 Z-0.125000
G01 X97.608794 Y108.139590 Z-0.125000
G00 Z5.000000

(End cutting path id: path1062)


(Start cutting path id: path1062)
(Change tool to Default tool)

G00 Z5.000000
G00 X93.343106 Y106.799420

G01 Z-0.125000 F1000.0(Penetrate)
G01 X93.408826 Y102.529570 Z-0.125000 F1400.000000
G01 X95.248162 Y101.938350 Z-0.125000
G00 Z5.000000

(End cutting path id: path1062)


(Start cutting path id: path1062)
(Change tool to Default tool)

G00 Z5.000000
G00 X93.408779 Y102.529570

G01 Z-0.125000 F1000.0(Penetrate)
G01 X89.992918 Y98.982290 Z-0.125000 F1400.000000
G01 X92.029306 Y97.142970 Z-0.125000
G00 Z5.000000

(End cutting path id: path1062)


(Start cutting path id: path1062)
(Change tool to Default tool)

G00 Z5.000000
G00 X89.992918 Y98.982290

G01 Z-0.125000 F1000.0(Penetrate)
G01 X84.080804 Y89.917060 Z-0.125000 F1400.000000
G01 X79.022663 Y99.507820 Z-0.125000
G01 X89.992918 Y98.982290 Z-0.125000
G00 Z5.000000

(End cutting path id: path1062)


(Start cutting path id: path1062)
(Change tool to Default tool)

G00 Z5.000000
G00 X89.992918 Y98.982290

G01 Z-0.125000 F1000.0(Penetrate)
G01 X90.452746 Y105.551310 Z-0.125000 F1400.000000
G00 Z5.000000

(End cutting path id: path1062)


(Start cutting path id: path1062)
(Change tool to Default tool)

G00 Z5.000000
G00 X90.452821 Y105.551340

G01 Z-0.125000 F1000.0(Penetrate)
G01 X93.343180 Y106.799450 Z-0.125000 F1400.000000
G01 X90.255743 Y109.624120 Z-0.125000
G00 Z5.000000

(End cutting path id: path1062)


(Start cutting path id: path1062)
(Change tool to Default tool)

G00 Z5.000000
G00 X90.255743 Y109.624120

G01 Z-0.125000 F1000.0(Penetrate)
G01 X94.000076 Y115.930360 Z-0.125000 F1400.000000
G00 Z5.000000

(End cutting path id: path1062)


(Start cutting path id: path1062)
(Change tool to Default tool)

G00 Z5.000000
G00 X94.000076 Y115.930360

G01 Z-0.125000 F1000.0(Penetrate)
G01 X85.328986 Y112.317420 Z-0.125000 F1400.000000
G01 X89.336088 Y111.660510 Z-0.125000
G01 X86.971239 Y109.886870 Z-0.125000
G01 X87.102623 Y106.930820 Z-0.125000
G01 X90.255743 Y109.624120 Z-0.125000
G01 X89.204713 Y111.594830 Z-0.125000
G01 X94.000076 Y115.930360 Z-0.125000
G00 Z5.000000

(End cutting path id: path1062)


(Start cutting path id: path1062)
(Change tool to Default tool)

G00 Z5.000000
G00 X95.750797 Y116.407670

G01 Z-0.125000 F1000.0(Penetrate)
G01 X95.472088 Y123.700320 Z-0.125000 F1400.000000
G00 Z5.000000

(End cutting path id: path1062)


(Start cutting path id: path1062)
(Change tool to Default tool)

G00 Z5.000000
G00 X95.472088 Y123.700320

G01 Z-0.125000 F1000.0(Penetrate)
G01 X93.381852 Y119.519820 Z-0.125000 F1400.000000
G01 X95.750797 Y116.407670 Z-0.125000
G01 X99.791930 Y115.757390 Z-0.125000
G00 Z5.000000

(End cutting path id: path1062)


(Start cutting path id: path1062)
(Change tool to Default tool)

G00 Z5.000000
G00 X95.313882 Y111.988960

G01 Z-0.125000 F1000.0(Penetrate)
G01 X90.255743 Y109.624120 Z-0.125000 F1400.000000
G01 X90.452821 Y105.551340 Z-0.125000
G01 X87.102623 Y106.930820 Z-0.125000
G00 Z5.000000

(End cutting path id: path1062)


(Start cutting path id: path1062)
(Change tool to Default tool)

G00 Z5.000000
G00 X87.102549 Y106.930790

G01 Z-0.125000 F1000.0(Penetrate)
G01 X84.803392 Y106.536660 Z-0.125000 F1400.000000
G01 X83.423900 Y103.252150 Z-0.125000
G00 Z5.000000

(End cutting path id: path1062)


(Start cutting path id: path1062)
(Change tool to Default tool)

G00 Z5.000000
G00 X83.423900 Y103.252150

G01 Z-0.125000 F1000.0(Penetrate)
G01 X79.022663 Y99.507820 Z-0.125000 F1400.000000
G01 X79.022663 Y102.726630 Z-0.125000
G01 X83.423900 Y103.252150 Z-0.125000
G00 Z5.000000

(End cutting path id: path1062)


(Start cutting path id: path1062)
(Change tool to Default tool)

G00 Z5.000000
G00 X80.120314 Y104.469910

G01 Z-0.125000 F1000.0(Penetrate)
G01 X77.960389 Y104.330570 Z-0.125000 F1400.000000
G01 X77.890699 Y105.909840 Z-0.125000
G00 Z5.000000

(End cutting path id: path1062)


(Start cutting path id: path1062)
(Change tool to Default tool)

G00 Z5.000000
G00 X78.633998 Y106.490480

G01 Z-0.125000 F1000.0(Penetrate)
G01 X78.680358 Y108.789750 Z-0.125000 F1400.000000
G01 X79.446788 Y109.834880 Z-0.125000
G01 X81.815735 Y111.390950 Z-0.125000
G01 X85.438824 Y109.184580 Z-0.125000
G00 Z5.000000

(End cutting path id: path1062)


(Start cutting path id: path1062)
(Change tool to Default tool)

G00 Z5.000000
G00 X85.438805 Y109.184580

G01 Z-0.125000 F1000.0(Penetrate)
G01 X84.803392 Y106.536660 Z-0.125000 F1400.000000
G01 X82.535688 Y104.446690 Z-0.125000
G01 X83.423900 Y103.252150 Z-0.125000
G00 Z5.000000

(End cutting path id: path1062)


(Start cutting path id: path1062)
(Change tool to Default tool)

G00 Z5.000000
G00 X79.022663 Y102.726630

G01 Z-0.125000 F1000.0(Penetrate)
G01 X80.120302 Y104.469910 Z-0.125000 F1400.000000
G01 X82.535688 Y104.446710 Z-0.125000
G00 Z5.000000

(End cutting path id: path1062)


(Start cutting path id: path1062)
(Change tool to Default tool)

G00 Z5.000000
G00 X78.866163 Y105.979540

G01 Z-0.125000 F1000.0(Penetrate)
G01 X80.120314 Y104.469910 Z-0.125000 F1400.000000
G00 Z5.000000

(End cutting path id: path1062)


(Start cutting path id: path1062)
(Change tool to Default tool)

G00 Z5.000000
G00 X77.960389 Y104.330570

G01 Z-0.125000 F1000.0(Penetrate)
G01 X76.920595 Y98.588160 Z-0.125000 F1400.000000
G00 Z5.000000

(End cutting path id: path1062)


(Start cutting path id: path1062)
(Change tool to Default tool)

G00 Z5.000000
G00 X74.687130 Y98.982290

G01 Z-0.125000 F1000.0(Penetrate)
G01 X69.901332 Y97.804350 Z-0.125000 F1400.000000
G01 X72.322288 Y94.186920 Z-0.125000
G00 Z5.000000

(End cutting path id: path1062)


(Start cutting path id: path1062)
(Change tool to Default tool)

G00 Z5.000000
G00 X70.220262 Y94.909540

G01 Z-0.125000 F1000.0(Penetrate)
G01 X72.322349 Y94.186950 Z-0.125000 F1400.000000
G01 X70.285955 Y86.566890 Z-0.125000
G00 Z5.000000

(End cutting path id: path1062)


(Start cutting path id: path1062)
(Change tool to Default tool)

G00 Z5.000000
G00 X72.059596 Y83.742220

G01 Z-0.125000 F1000.0(Penetrate)
G01 X78.168765 Y86.107060 Z-0.125000 F1400.000000
G01 X77.380494 Y84.136360 Z-0.125000
G00 Z5.000000

(End cutting path id: path1062)


(Start cutting path id: path1062)
(Change tool to Default tool)

G00 Z5.000000
G00 X78.168765 Y86.107060

G01 Z-0.125000 F1000.0(Penetrate)
G01 X84.080879 Y89.917090 Z-0.125000 F1400.000000
G01 X85.066236 Y88.340530 Z-0.125000
G00 Z5.000000

(End cutting path id: path1062)


(Start cutting path id: path1062)
(Change tool to Default tool)

G00 Z5.000000
G00 X84.080879 Y89.917090

G01 Z-0.125000 F1000.0(Penetrate)
G01 X92.029380 Y97.143000 Z-0.125000 F1400.000000
G01 X85.985901 Y89.654330 Z-0.125000
G00 Z5.000000

(End cutting path id: path1062)


(Start cutting path id: path1062)
(Change tool to Default tool)

G00 Z5.000000
G00 X84.080804 Y89.917060

G01 Z-0.125000 F1000.0(Penetrate)
G01 X74.030223 Y94.186920 Z-0.125000 F1400.000000
G00 Z5.000000

(End cutting path id: path1062)


(Start cutting path id: path1062)
(Change tool to Default tool)

G00 Z5.000000
G00 X69.901332 Y97.804350

G01 Z-0.125000 F1000.0(Penetrate)
G01 X64.373784 Y96.551770 Z-0.125000 F1400.000000
G01 X72.322288 Y94.186920 Z-0.125000
G00 Z5.000000

(End cutting path id: path1062)


(Start cutting path id: path1062)
(Change tool to Default tool)

G00 Z5.000000
G00 X67.461281 Y92.873140

G01 Z-0.125000 F1000.0(Penetrate)
G01 X70.220264 Y94.909540 Z-0.125000 F1400.000000
G01 X70.285954 Y86.566890 Z-0.125000
G01 X67.461280 Y92.873140 Z-0.125000
G00 Z5.000000

(End cutting path id: path1062)


(Start cutting path id: path1062)
(Change tool to Default tool)

G00 Z5.000000
G00 X65.604714 Y99.824920

G01 Z-0.125000 F1000.0(Penetrate)
G01 X65.883411 Y106.072430 Z-0.125000 F1400.000000
G01 X66.069212 Y109.138120 Z-0.125000
G00 Z5.000000

(End cutting path id: path1062)


(Start cutting path id: path1062)
(Change tool to Default tool)

G00 Z5.000000
G00 X65.883411 Y106.072430

G01 Z-0.125000 F1000.0(Penetrate)
G01 X70.435500 Y107.071110 Z-0.125000 F1400.000000
G01 X69.994228 Y102.681590 Z-0.125000
G01 X75.196617 Y102.960260 Z-0.125000
G01 X74.687130 Y98.982290 Z-0.125000
G01 X69.994228 Y102.704810 Z-0.125000
G01 X69.901328 Y97.804350 Z-0.125000
G01 X65.604711 Y99.824920 Z-0.125000
G01 X69.971003 Y102.681590 Z-0.125000
G01 X65.883411 Y106.072430 Z-0.125000
G00 Z5.000000

(End cutting path id: path1062)


(Start cutting path id: path1062)
(Change tool to Default tool)

G00 Z5.000000
G00 X65.883411 Y106.072430

G01 Z-0.125000 F1000.0(Penetrate)
G01 X64.617652 Y105.143440 Z-0.125000 F1400.000000
G01 X64.838288 Y96.898580 Z-0.125000
G01 X65.604714 Y99.824920 Z-0.125000
G00 Z5.000000

(End cutting path id: path1062)


(Start cutting path id: path1062)
(Change tool to Default tool)

G00 Z5.000000
G00 X65.720429 Y104.828710

G01 Z-0.125000 F1000.0(Penetrate)
G01 X63.166087 Y105.515040 Z-0.125000 F1400.000000
G00 Z5.000000

(End cutting path id: path1062)


(Start cutting path id: path1062)
(Change tool to Default tool)

G00 Z5.000000
G00 X63.166087 Y105.515040

G01 Z-0.125000 F1000.0(Penetrate)
G01 X65.883407 Y106.072430 Z-0.125000 F1400.000000
G00 Z5.000000

(End cutting path id: path1062)


(Start cutting path id: path1062)
(Change tool to Default tool)

G00 Z5.000000
G00 X61.261640 Y107.489160

G01 Z-0.125000 F1000.0(Penetrate)
G01 X61.006167 Y109.300700 Z-0.125000 F1400.000000
G01 X61.099067 Y110.438730 Z-0.125000
G01 X61.517117 Y111.019360 Z-0.125000
G01 X62.748039 Y112.203830 Z-0.125000
G01 X63.235763 Y112.807680 Z-0.125000
G00 Z5.000000

(End cutting path id: path1062)


(Start cutting path id: path1062)
(Change tool to Default tool)

G00 Z5.000000
G00 X63.235766 Y112.807680

G01 Z-0.125000 F1000.0(Penetrate)
G01 X60.588121 Y112.273500 Z-0.125000 F1400.000000
G01 X59.249958 Y109.952540 Z-0.125000
G01 X60.216523 Y109.765210 Z-0.125000
G01 X59.078499 Y108.859430 Z-0.125000
G01 X61.354546 Y106.606610 Z-0.125000
G01 X62.534461 Y103.974740 Z-0.125000
G01 X63.166091 Y105.515040 Z-0.125000
G01 X61.261644 Y107.489160 Z-0.125000
G01 X61.261644 Y106.745950 Z-0.125000
G00 Z5.000000

(End cutting path id: path1062)


(Start cutting path id: path1062)
(Change tool to Default tool)

G00 Z5.000000
G00 X59.078493 Y108.859430

G01 Z-0.125000 F1000.0(Penetrate)
G01 X61.006167 Y109.300700 Z-0.125000 F1400.000000
G00 Z5.000000

(End cutting path id: path1062)


(Start cutting path id: path1062)
(Change tool to Default tool)

G00 Z5.000000
G00 X60.216517 Y109.765210

G01 Z-0.125000 F1000.0(Penetrate)
G01 X61.006167 Y109.300700 Z-0.125000 F1400.000000
G00 Z5.000000

(End cutting path id: path1062)


(Start cutting path id: path1062)
(Change tool to Default tool)

G00 Z5.000000
G00 X62.132668 Y109.881330

G01 Z-0.125000 F1000.0(Penetrate)
G02 X62.141045 Y110.099731 Z-0.125000 I0.948479 J0.072980 F1400.000000
G02 X62.219768 Y110.299380 Z-0.125000 I0.481367 J-0.074460
G02 X62.384001 Y110.449100 Z-0.125000 I0.396375 J-0.269860
G02 X62.591366 Y110.543240 Z-0.125000 I0.696815 J-1.259446
G02 X62.843077 Y110.590645 Z-0.125000 I0.271910 J-0.751823
G03 X63.102316 Y110.601340 Z-0.125000 I-0.205281 J8.122724
G02 X63.415770 Y110.603142 Z-0.125000 I0.174470 J-3.085606
G03 X63.729389 Y110.601340 Z-0.125000 I0.179758 J3.993159
G03 X63.908367 Y110.635099 Z-0.125000 I-0.020663 J0.600873
G02 X64.077764 Y110.624540 Z-0.125000 I0.072237 J-0.205201
G02 X64.220270 Y110.483189 Z-0.125000 I-0.142908 J-0.286587
G02 X64.298402 Y110.287780 Z-0.125000 I-1.039464 J-0.528940
G02 X64.329291 Y110.133233 Z-0.125000 I-0.817771 J-0.243806
G02 X64.298402 Y109.985850 Z-0.125000 I-0.244404 J-0.025706
G02 X64.231047 Y109.925510 Z-0.125000 I-0.123937 J0.070583
G02 X64.141631 Y109.892950 Z-0.125000 I-0.321675 J0.744322
G02 X63.946517 Y109.846831 Z-0.125000 I-0.493502 J1.652043
G02 X63.758421 Y109.875550 Z-0.125000 I-0.051495 J0.293062
G02 X63.703263 Y109.952389 Z-0.125000 I0.047878 J0.092586
G03 X63.653908 Y110.038130 Z-0.125000 I-0.134993 J-0.020630
G03 X63.544135 Y110.075201 Z-0.125000 I-0.105448 J-0.131184
G02 X63.421658 Y110.084530 Z-0.125000 I-0.015544 J0.604571
G03 X63.307311 Y110.081489 Z-0.125000 I-0.049855 J-0.276711
G03 X63.195214 Y110.049730 Z-0.125000 I0.299389 J-1.270437
G02 X63.058754 Y110.012652 Z-0.125000 I-0.374936 J1.110240
G03 X62.928126 Y109.962630 Z-0.125000 I0.088911 J-0.427755
G02 X62.768768 Y109.909058 Z-0.125000 I-0.210512 J0.362395
G03 X62.626202 Y109.834890 Z-0.125000 I0.028038 J-0.227999
G03 X62.597808 Y109.726621 Z-0.125000 I0.090486 J-0.081588
G02 X62.562332 Y109.625860 Z-0.125000 I-0.098220 J-0.022044
G02 X62.402448 Y109.561963 Z-0.125000 I-0.186036 J0.233521
G02 X62.237183 Y109.602660 Z-0.125000 I-0.023061 J0.262260
G02 X62.154448 Y109.723735 Z-0.125000 I0.101213 J0.157969
G02 X62.132676 Y109.881310 Z-0.125000 I1.286751 J0.258079
G01 X62.132668 Y109.881330 Z-0.125000
G00 Z5.000000

(End cutting path id: path1062)


(Start cutting path id: path1062)
(Change tool to Default tool)

G00 Z5.000000
G00 X60.588117 Y112.273500

G01 Z-0.125000 F1000.0(Penetrate)
G01 X61.517111 Y111.019360 Z-0.125000 F1400.000000
G00 Z5.000000

(End cutting path id: path1062)


(Start cutting path id: path1062)
(Change tool to Default tool)

G00 Z5.000000
G00 X59.250016 Y109.952570

G01 Z-0.125000 F1000.0(Penetrate)
G01 X53.666358 Y103.186490 Z-0.125000 F1400.000000
G01 X61.354604 Y106.606640 Z-0.125000
G01 X54.257575 Y99.442160 Z-0.125000
G01 X62.534520 Y103.974770 Z-0.125000
G01 X56.293967 Y93.332980 Z-0.125000
G01 X64.373841 Y96.551800 Z-0.125000
G01 X58.067593 Y90.114150 Z-0.125000
G01 X67.461278 Y92.873140 Z-0.125000
G01 X65.293513 Y83.939290 Z-0.125000
G00 Z5.000000

(End cutting path id: path1062)


(Start cutting path id: path1062)
(Change tool to Default tool)

G00 Z5.000000
G00 X65.753349 Y82.428530

G01 Z-0.125000 F1000.0(Penetrate)
G01 X62.862986 Y79.111170 Z-0.125000 F1400.000000
G01 X66.870081 Y75.071230 Z-0.125000
G01 X65.753349 Y82.428530 Z-0.125000
G00 Z5.000000

(End cutting path id: path1062)


(Start cutting path id: path1062)
(Change tool to Default tool)

G00 Z5.000000
G00 X62.862986 Y79.111170

G01 Z-0.125000 F1000.0(Penetrate)
G01 X60.104003 Y83.052570 Z-0.125000 F1400.000000
G01 X57.870539 Y78.290040 Z-0.125000
G01 X54.159046 Y84.136470 Z-0.125000
G01 X48.000267 Y79.154850 Z-0.125000
G00 Z5.000000

(End cutting path id: path1062)


(Start cutting path id: path1062)
(Change tool to Default tool)

G00 Z5.000000
G00 X49.068628 Y80.501900

G01 Z-0.125000 F1000.0(Penetrate)
G01 X29.623810 Y70.538620 Z-0.125000 F1400.000000
G00 Z5.000000

(End cutting path id: path1062)


(Start cutting path id: path1062)
(Change tool to Default tool)

G00 Z5.000000
G00 X29.623806 Y70.538890

G01 Z-0.125000 F1000.0(Penetrate)
G01 X30.215015 Y56.415530 Z-0.125000 F1400.000000
G00 Z5.000000

(End cutting path id: path1062)


(Start cutting path id: path1062)
(Change tool to Default tool)

G00 Z5.000000
G00 X30.215015 Y56.415530

G01 Z-0.125000 F1000.0(Penetrate)
G01 X43.123035 Y38.557890 Z-0.125000 F1400.000000
G01 X46.243400 Y45.313900 Z-0.125000
G01 X57.673476 Y68.436810 Z-0.125000
G01 X30.215015 Y56.415530 Z-0.125000
G00 Z5.000000

(End cutting path id: path1062)


(Start cutting path id: path1062)
(Change tool to Default tool)

G00 Z5.000000
G00 X30.215005 Y56.415250

G01 Z-0.125000 F1000.0(Penetrate)
G01 X37.502587 Y70.097110 Z-0.125000 F1400.000000
G01 X48.000267 Y79.154850 Z-0.125000
G01 X55.200003 Y78.504540 Z-0.125000
G01 X48.139615 Y75.067260 Z-0.125000
G01 X30.215005 Y56.415250 Z-0.125000
G00 Z5.000000

(End cutting path id: path1062)


(Start cutting path id: path1062)
(Change tool to Default tool)

G00 Z5.000000
G00 X37.502600 Y70.097110

G01 Z-0.125000 F1000.0(Penetrate)
G01 X29.623810 Y70.538620 Z-0.125000 F1400.000000
G01 X39.128348 Y81.430900 Z-0.125000
G01 X46.653234 Y90.488620 Z-0.125000
G01 X43.076589 Y93.647220 Z-0.125000
G01 X52.877522 Y99.314110 Z-0.125000
G01 X55.107117 Y94.158170 Z-0.125000
G01 X59.020130 Y87.749430 Z-0.125000
G00 Z5.000000

(End cutting path id: path1062)


(Start cutting path id: path1062)
(Change tool to Default tool)

G00 Z5.000000
G00 X59.020116 Y87.749430

G01 Z-0.125000 F1000.0(Penetrate)
G01 X57.345016 Y86.764070 Z-0.125000 F1400.000000
G01 X65.753351 Y82.428530 Z-0.125000
G01 X65.293510 Y83.939400 Z-0.125000
G00 Z5.000000

(End cutting path id: path1062)


(Start cutting path id: path1062)
(Change tool to Default tool)

G00 Z5.000000
G00 X60.104003 Y83.052570

G01 Z-0.125000 F1000.0(Penetrate)
G01 X57.345016 Y86.764070 Z-0.125000 F1400.000000
G01 X54.159046 Y84.136470 Z-0.125000
G00 Z5.000000

(End cutting path id: path1062)


(Start cutting path id: path1062)
(Change tool to Default tool)

G00 Z5.000000
G00 X55.200001 Y78.504540

G01 Z-0.125000 F1000.0(Penetrate)
G01 X30.215005 Y56.415250 Z-0.125000 F1400.000000
G00 Z5.000000

(End cutting path id: path1062)


(Start cutting path id: path1062)
(Change tool to Default tool)

G00 Z5.000000
G00 X46.243390 Y45.182240

G01 Z-0.125000 F1000.0(Penetrate)
G01 X59.906931 Y53.065060 Z-0.125000 F1400.000000
G01 X57.673466 Y68.436540 Z-0.125000
G01 X57.870539 Y78.290040 Z-0.125000
G01 X62.271774 Y73.888820 Z-0.125000
G01 X59.824819 Y53.032200 Z-0.125000
G01 X60.038313 Y46.693100 Z-0.125000
G00 Z5.000000

(End cutting path id: path1062)


(Start cutting path id: path1062)
(Change tool to Default tool)

G00 Z5.000000
G00 X59.052971 Y35.526070

G01 Z-0.125000 F1000.0(Penetrate)
G01 X40.289590 Y17.562530 Z-0.125000 F1400.000000
G01 X61.943333 Y24.095990 Z-0.125000
G01 X59.052971 Y35.526070 Z-0.125000
G00 Z5.000000

(End cutting path id: path1062)


(Start cutting path id: path1062)
(Change tool to Default tool)

G00 Z5.000000
G00 X59.052961 Y35.525800

G01 Z-0.125000 F1000.0(Penetrate)
G01 X75.405710 Y46.314760 Z-0.125000 F1400.000000
G01 X73.077800 Y61.966060 Z-0.125000
G01 X59.052961 Y35.525800 Z-0.125000
G00 Z5.000000

(End cutting path id: path1062)


(Start cutting path id: path1062)
(Change tool to Default tool)

G00 Z5.000000
G00 X46.243390 Y45.182240

G01 Z-0.125000 F1000.0(Penetrate)
G01 X60.038313 Y46.693100 Z-0.125000 F1400.000000
G01 X59.052961 Y35.525800 Z-0.125000
G01 X46.243390 Y45.182240 Z-0.125000
G00 Z5.000000

(End cutting path id: path1062)


(Start cutting path id: path1062)
(Change tool to Default tool)

G00 Z5.000000
G00 X36.805846 Y35.840570

G01 Z-0.125000 F1000.0(Penetrate)
G01 X30.215015 Y56.415530 Z-0.125000 F1400.000000
G01 X17.529132 Y29.360810 Z-0.125000
G01 X15.106293 Y41.700940 Z-0.125000
G01 X5.266354 Y19.513430 Z-0.125000
G00 Z5.000000

(End cutting path id: path1062)


(Start cutting path id: path1062)
(Change tool to Default tool)

G00 Z5.000000
G00 X5.266358 Y19.513020

G01 Z-0.125000 F1000.0(Penetrate)
G01 X2.386464 Y5.624490 Z-0.125000 F1400.000000
G01 X17.529136 Y29.360400 Z-0.125000
G01 X10.654549 Y12.406180 Z-0.125000
G01 X22.072776 Y27.903550 Z-0.125000
G01 X17.250436 Y13.195830 Z-0.125000
G01 X29.606114 Y25.551510 Z-0.125000
G01 X17.529136 Y29.360400 Z-0.125000
G00 Z5.000000

(End cutting path id: path1062)


(Start cutting path id: path1062)
(Change tool to Default tool)

G00 Z5.000000
G00 X15.106293 Y41.700940

G01 Z-0.125000 F1000.0(Penetrate)
G01 X30.215015 Y56.415530 Z-0.125000 F1400.000000
G01 X23.580316 Y58.648990 Z-0.125000
G01 X15.106293 Y41.700940 Z-0.125000
G00 Z5.000000

(End cutting path id: path1062)


(Start cutting path id: path1062)
(Change tool to Default tool)

G00 Z5.000000
G00 X15.106293 Y41.700940

G01 Z-0.125000 F1000.0(Penetrate)
G01 X22.792034 Y62.918840 Z-0.125000 F1400.000000
G01 X29.623806 Y70.538890 Z-0.125000
G01 X23.580316 Y58.648990 Z-0.125000
G00 Z5.000000

(End cutting path id: path1062)


(Start cutting path id: path1062)
(Change tool to Default tool)

G00 Z5.000000
G00 X36.805846 Y35.840570

G01 Z-0.125000 F1000.0(Penetrate)
G01 X43.123035 Y38.557890 Z-0.125000 F1400.000000
G01 X40.289590 Y17.562530 Z-0.125000
G01 X36.805846 Y35.840570 Z-0.125000
G00 Z5.000000

(End cutting path id: path1062)


(Start cutting path id: path1062)
(Change tool to Default tool)

G00 Z5.000000
G00 X38.617393 Y25.784170

G01 Z-0.125000 F1000.0(Penetrate)
G01 X25.054018 Y11.756300 Z-0.125000 F1400.000000
G01 X25.890116 Y3.627560 Z-0.125000
G01 X38.617393 Y25.784170 Z-0.125000
G00 Z5.000000

(End cutting path id: path1062)


(Start cutting path id: path1062)
(Change tool to Default tool)

G00 Z5.000000
G00 X1.039416 Y10.873340

G01 Z-0.125000 F1000.0(Penetrate)
G01 X2.386464 Y5.624490 Z-0.125000 F1400.000000
G01 X5.870208 Y0.515010 Z-0.125000
G01 X10.654549 Y12.406180 Z-0.125000
G01 X13.906043 Y2.326550 Z-0.125000
G01 X17.250436 Y13.195830 Z-0.125000
G01 X19.433583 Y3.998750 Z-0.125000
G01 X29.606114 Y25.551510 Z-0.125000
G01 X36.805850 Y35.840160 Z-0.125000
G01 X17.529136 Y29.360400 Z-0.125000
G01 X5.266358 Y19.513020 Z-0.125000
G01 X1.039416 Y10.873340 Z-0.125000
G00 Z5.000000

(End cutting path id: path1062)


(Start cutting path id: path1062)
(Change tool to Default tool)

G00 Z5.000000
G00 X38.988997 Y81.337990

G01 Z-0.125000 F1000.0(Penetrate)
G01 X43.076589 Y93.647220 Z-0.125000 F1400.000000
G01 X49.068628 Y108.789890 Z-0.125000
G01 X52.878041 Y107.062310 Z-0.125000
G01 X46.839031 Y98.942510 Z-0.125000
G00 Z5.000000

(End cutting path id: path1062)


(Start cutting path id: path1062)
(Change tool to Default tool)

G00 Z5.000000
G00 X46.839031 Y98.942510

G01 Z-0.125000 F1000.0(Penetrate)
G01 X43.076589 Y93.647220 Z-0.125000 F1400.000000
G00 Z5.000000

(End cutting path id: path1062)


(Start cutting path id: path1062)
(Change tool to Default tool)

G00 Z5.000000
G00 X46.653234 Y90.488620

G01 Z-0.125000 F1000.0(Penetrate)
G01 X49.068628 Y80.501900 Z-0.125000 F1400.000000
G01 X38.988997 Y81.337990 Z-0.125000
G00 Z5.000000

(End cutting path id: path1062)


(Start cutting path id: path1062)
(Change tool to Default tool)

G00 Z5.000000
G00 X49.068628 Y80.501900

G01 Z-0.125000 F1000.0(Penetrate)
G01 X55.107117 Y94.158170 Z-0.125000 F1400.000000
G01 X46.653234 Y90.488620 Z-0.125000
G01 X52.877522 Y99.314110 Z-0.125000
G01 X52.878041 Y107.062310 Z-0.125000
G00 Z5.000000

(End cutting path id: path1062)


(Start cutting path id: path1062)
(Change tool to Default tool)

G00 Z5.000000
G00 X49.068628 Y108.789890

G01 Z-0.125000 F1000.0(Penetrate)
G01 X46.839031 Y98.942510 Z-0.125000 F1400.000000
G01 X45.491984 Y99.825060 Z-0.125000
G00 Z5.000000

(End cutting path id: path1062)


(Start cutting path id: path1062)
(Change tool to Default tool)

G00 Z5.000000
G00 X53.402558 Y112.836680

G01 Z-0.125000 F1000.0(Penetrate)
G01 X50.183427 Y111.669800 Z-0.125000 F1400.000000
G01 X53.140854 Y111.003740 Z-0.125000
G01 X49.068628 Y108.789900 Z-0.125000
G01 X50.183427 Y111.669800 Z-0.125000
G01 X51.902074 Y114.735490 Z-0.125000
G01 X53.732065 Y114.682390 Z-0.125000
G00 Z5.000000

(End cutting path id: path1062)


(Start cutting path id: path1062)
(Change tool to Default tool)

G00 Z5.000000
G00 X51.902073 Y114.735350

G01 Z-0.125000 F1000.0(Penetrate)
G01 X53.086546 Y119.403570 Z-0.125000 F1400.000000
G01 X56.425348 Y119.411570 Z-0.125000
G00 Z5.000000

(End cutting path id: path1062)


(Start cutting path id: path1062)
(Change tool to Default tool)

G00 Z5.000000
G00 X56.425341 Y119.411940

G01 Z-0.125000 F1000.0(Penetrate)
G01 X61.023648 Y124.141630 Z-0.125000 F1400.000000
G01 X66.541615 Y124.929910 Z-0.125000
G01 X71.993894 Y120.660060 Z-0.125000
G01 X76.329443 Y122.105240 Z-0.125000
G01 X81.059132 Y122.565070 Z-0.125000
G01 X86.971237 Y121.579720 Z-0.125000
G01 X94.000074 Y115.930360 Z-0.125000
G01 X95.313880 Y111.988960 Z-0.125000
G01 X95.248160 Y101.938370 Z-0.125000
G01 X89.738153 Y92.124720 Z-0.125000
G01 X85.985851 Y89.654330 Z-0.125000
G01 X85.066187 Y88.340530 Z-0.125000
G01 X81.190470 Y84.596180 Z-0.125000
G01 X77.708897 Y84.267740 Z-0.125000
G01 X72.059548 Y83.742220 Z-0.125000
G01 X65.293467 Y83.939290 Z-0.125000
G01 X59.315667 Y87.158100 Z-0.125000
G01 X56.293922 Y93.332980 Z-0.125000
G01 X54.257529 Y99.442160 Z-0.125000
G01 X53.469248 Y103.120800 Z-0.125000
G01 X52.878037 Y107.062210 Z-0.125000
G01 X53.140797 Y111.003620 Z-0.125000
G01 X53.732009 Y114.682260 Z-0.125000
G01 X56.425341 Y119.411940 Z-0.125000
G00 Z5.000000

(End cutting path id: path1062)


(Start cutting path id: path1062)
(Change tool to Default tool)

G00 Z5.000000
G00 X56.425341 Y119.411940

G01 Z-0.125000 F1000.0(Penetrate)
G01 X63.060040 Y113.302760 Z-0.125000 F1400.000000
G01 X61.023648 Y124.141630 Z-0.125000
G00 Z5.000000

(End cutting path id: path1062)


(Start cutting path id: path1062)
(Change tool to Default tool)

G00 Z5.000000
G00 X66.541615 Y124.929910

G01 Z-0.125000 F1000.0(Penetrate)
G01 X63.060040 Y113.302760 Z-0.125000 F1400.000000
G01 X71.993894 Y120.660060 Z-0.125000
G01 X70.417331 Y110.543780 Z-0.125000
G01 X63.060040 Y113.302760 Z-0.125000
G00 Z5.000000

(End cutting path id: path1062)


(Start cutting path id: path1062)
(Change tool to Default tool)

G00 Z5.000000
G00 X63.060040 Y113.302760

G01 Z-0.125000 F1000.0(Penetrate)
G01 X53.140842 Y111.003620 Z-0.125000 F1400.000000
G01 X59.250016 Y109.952570 Z-0.125000
G01 X52.878084 Y107.062210 Z-0.125000
G00 Z5.000000

(End cutting path id: path1062)


(Start cutting path id: path1062)
(Change tool to Default tool)

G00 Z5.000000
G00 X59.249954 Y109.952540

G01 Z-0.125000 F1000.0(Penetrate)
G01 X61.099061 Y110.438730 Z-0.125000 F1400.000000
G00 Z5.000000

(End cutting path id: path1062)


(Start cutting path id: path1062)
(Change tool to Default tool)

G00 Z5.000000
G00 X63.060040 Y113.302760

G01 Z-0.125000 F1000.0(Penetrate)
G01 X53.732055 Y114.682260 Z-0.125000 F1400.000000
G00 Z5.000000

(End cutting path id: path1062)


(Start cutting path id: path1062)
(Change tool to Default tool)

G00 Z5.000000
G00 X53.086546 Y119.403570

G01 Z-0.125000 F1000.0(Penetrate)
G01 X54.340694 Y122.655060 Z-0.125000 F1400.000000
G01 X56.425348 Y119.411440 Z-0.125000
G01 X56.012890 Y126.138820 Z-0.125000
G01 X54.340694 Y122.655060 Z-0.125000
G00 Z5.000000

(End cutting path id: path1062)


(Start cutting path id: path1062)
(Change tool to Default tool)

G00 Z5.000000
G00 X63.700350 Y130.458640

G01 Z-0.125000 F1000.0(Penetrate)
G01 X64.443552 Y127.160700 Z-0.125000 F1400.000000
G00 Z5.000000

(End cutting path id: path1062)


(Start cutting path id: path1062)
(Change tool to Default tool)

G00 Z5.000000
G00 X73.292254 Y126.858770

G01 Z-0.125000 F1000.0(Penetrate)
G01 X64.443552 Y127.160700 Z-0.125000 F1400.000000
G01 X70.853638 Y130.969600 Z-0.125000
G01 X73.292254 Y126.858770 Z-0.125000
G00 Z5.000000

(End cutting path id: path1062)


(Start cutting path id: path1062)
(Change tool to Default tool)

G00 Z5.000000
G00 X75.196702 Y130.899920

G01 Z-0.125000 F1000.0(Penetrate)
G01 X73.292254 Y126.858770 Z-0.125000 F1400.000000
G01 X79.957816 Y130.690860 Z-0.125000
G00 Z5.000000

(End cutting path id: path1062)


(Start cutting path id: path1062)
(Change tool to Default tool)

G00 Z5.000000
G00 X79.957816 Y130.690860

G01 Z-0.125000 F1000.0(Penetrate)
G01 X77.054699 Y126.278120 Z-0.125000 F1400.000000
G01 X73.292254 Y126.858770 Z-0.125000
G01 X75.010899 Y124.187880 Z-0.125000
G00 Z5.000000

(End cutting path id: path1062)


(Start cutting path id: path1062)
(Change tool to Default tool)

G00 Z5.000000
G00 X71.993903 Y120.660030

G01 Z-0.125000 F1000.0(Penetrate)
G01 X73.292254 Y126.858770 Z-0.125000 F1400.000000
G01 X66.541623 Y124.929890 Z-0.125000
G01 X64.443552 Y127.160700 Z-0.125000
G01 X60.170157 Y126.556850 Z-0.125000
G01 X66.541623 Y124.929890 Z-0.125000
G00 Z5.000000

(End cutting path id: path1062)


(Start cutting path id: path1062)
(Change tool to Default tool)

G00 Z5.000000
G00 X81.059132 Y122.565070

G01 Z-0.125000 F1000.0(Penetrate)
G01 X84.672089 Y117.901080 Z-0.125000 F1400.000000
G01 X85.328984 Y112.317420 Z-0.125000
G01 X82.307240 Y111.463440 Z-0.125000
G01 X78.497215 Y111.134990 Z-0.125000
G01 X84.540704 Y117.901080 Z-0.125000
G01 X86.971237 Y121.579720 Z-0.125000
G00 Z5.000000

(End cutting path id: path1062)


(Start cutting path id: path1062)
(Change tool to Default tool)

G00 Z5.000000
G00 X81.059132 Y122.565070

G01 Z-0.125000 F1000.0(Penetrate)
G01 X78.497215 Y111.134990 Z-0.125000 F1400.000000
G00 Z5.000000

(End cutting path id: path1062)


(Start cutting path id: path1062)
(Change tool to Default tool)

G00 Z5.000000
G00 X78.497215 Y111.134990

G01 Z-0.125000 F1000.0(Penetrate)
G01 X76.329443 Y122.105240 Z-0.125000 F1400.000000
G00 Z5.000000

(End cutting path id: path1062)


(Start cutting path id: path1062)
(Change tool to Default tool)

G00 Z5.000000
G00 X78.982253 Y110.996130

G01 Z-0.125000 F1000.0(Penetrate)
G01 X79.446755 Y109.834880 Z-0.125000 F1400.000000
G01 X78.982253 Y110.996130 Z-0.125000
G00 Z5.000000

(End cutting path id: path1062)


(Start cutting path id: path1062)
(Change tool to Default tool)

G00 Z5.000000
G00 X78.982267 Y110.996130

G01 Z-0.125000 F1000.0(Penetrate)
G01 X77.426198 Y107.883990 Z-0.125000 F1400.000000
G01 X78.633900 Y106.490480 Z-0.125000
G01 X78.866151 Y105.979540 Z-0.125000
G01 X77.890699 Y105.909840 Z-0.125000
G01 X77.379749 Y107.930400 Z-0.125000
G01 X75.196604 Y102.960260 Z-0.125000
G01 X76.920583 Y98.588130 Z-0.125000
G01 X79.022663 Y102.726600 Z-0.125000
G00 Z5.000000

(End cutting path id: path1062)


(Start cutting path id: path1062)
(Change tool to Default tool)

G00 Z5.000000
G00 X79.022663 Y99.507820

G01 Z-0.125000 F1000.0(Penetrate)
G01 X76.920583 Y98.588160 Z-0.125000 F1400.000000
G01 X74.030223 Y94.186920 Z-0.125000
G01 X72.322274 Y94.186920 Z-0.125000
G01 X76.854881 Y98.588160 Z-0.125000
G01 X74.687118 Y98.982290 Z-0.125000
G01 X72.322274 Y94.186920 Z-0.125000
G00 Z5.000000

(End cutting path id: path1062)


(Start cutting path id: path1062)
(Change tool to Default tool)

G00 Z5.000000
G00 X81.190519 Y84.596180

G01 Z-0.125000 F1000.0(Penetrate)
G01 X78.168765 Y86.107060 Z-0.125000 F1400.000000
G01 X85.066236 Y88.340530 Z-0.125000
G00 Z5.000000

(End cutting path id: path1062)


(Start cutting path id: path1062)
(Change tool to Default tool)

G00 Z5.000000
G00 X90.316152 Y91.185380

G01 Z-0.125000 F1000.0(Penetrate)
G01 X98.584236 Y95.412320 Z-0.125000 F1400.000000
G00 Z5.000000

(End cutting path id: path1062)


(Start cutting path id: path1062)
(Change tool to Default tool)

G00 Z5.000000
G00 X100.024190 Y104.098440

G01 Z-0.125000 F1000.0(Penetrate)
G01 X95.248213 Y101.938480 Z-0.125000 F1400.000000
G01 X98.584236 Y95.412320 Z-0.125000
G01 X92.452858 Y94.343970 Z-0.125000
G01 X90.316152 Y91.185380 Z-0.125000
G00 Z5.000000

(End cutting path id: path1062)


(Start cutting path id: path1062)
(Change tool to Default tool)

G00 Z5.000000
G00 X87.102549 Y106.930790

G01 Z-0.125000 F1000.0(Penetrate)
G01 X86.971164 Y104.565950 Z-0.125000 F1400.000000
G01 X89.992918 Y98.982290 Z-0.125000
G01 X83.423900 Y103.252150 Z-0.125000
G01 X87.102549 Y104.697330 Z-0.125000
G00 Z5.000000

(End cutting path id: path1062)


(Start cutting path id: path1062)
(Change tool to Default tool)

G00 Z5.000000
G00 X86.971164 Y109.886850

G01 Z-0.125000 F1000.0(Penetrate)
G01 X85.438805 Y109.184580 Z-0.125000 F1400.000000
G01 X87.102549 Y106.930790 Z-0.125000
G00 Z5.000000

(End cutting path id: path1062)


(Start cutting path id: path1062)
(Change tool to Default tool)

G00 Z5.000000
G00 X85.328912 Y112.317390

G01 Z-0.125000 F1000.0(Penetrate)
G01 X86.971164 Y109.886850 Z-0.125000 F1400.000000
G01 X82.307167 Y111.463420 Z-0.125000
G00 Z5.000000

(End cutting path id: path1062)


(Start cutting path id: path1062)
(Change tool to Default tool)

G00 Z5.000000
G00 X81.165528 Y109.358770

G01 Z-0.125000 F1000.0(Penetrate)
G02 X81.334345 Y109.647539 Z-0.125000 I0.348688 J-0.010116 F1400.000000
G02 X81.676469 Y109.811650 Z-0.125000 I1.036931 J-1.723029
G02 X81.968474 Y109.841152 Z-0.125000 I0.203179 J-0.551181
G03 X82.268701 Y109.800050 Z-0.125000 I1.456135 J9.519281
G02 X82.560003 Y109.759310 Z-0.125000 I-0.937696 J-7.766698
G02 X82.837714 Y109.672310 Z-0.125000 I-0.157299 J-0.988841
G02 X83.037787 Y109.550353 Z-0.125000 I-0.521479 J-1.080590
G02 X83.197704 Y109.381990 Z-0.125000 I-0.422795 J-0.561713
G02 X83.256503 Y109.254503 Z-0.125000 I-0.359898 J-0.243293
G02 X83.279004 Y109.114900 Z-0.125000 I-0.620545 J-0.171634
G02 X83.273920 Y108.962707 Z-0.125000 I-0.939667 J-0.044791
G02 X83.220934 Y108.824600 Z-0.125000 I-0.294775 J0.033875
G02 X83.133673 Y108.750249 Z-0.125000 I-0.190816 J0.135565
G02 X83.023517 Y108.708470 Z-0.125000 I-0.272510 J0.552406
G02 X82.880747 Y108.680917 Z-0.125000 I-0.254227 J0.933659
G02 X82.744818 Y108.708470 Z-0.125000 I-0.025747 J0.222049
G02 X82.657255 Y108.809164 Z-0.125000 I0.099142 J0.174633
G02 X82.605473 Y108.940720 Z-0.125000 I31.575316 J12.504383
G02 X82.584527 Y109.084367 Z-0.125000 I0.297992 J0.116803
G03 X82.547403 Y109.219420 Z-0.125000 I-0.202281 J0.017025
G03 X82.470726 Y109.287022 Z-0.125000 I-0.182709 J-0.129952
G03 X82.373215 Y109.323920 Z-0.125000 I-0.188955 J-0.352052
G03 X82.015645 Y109.315922 Z-0.125000 I-0.163279 J-0.697260
G02 X81.653233 Y109.265820 Z-0.125000 I-0.362412 J1.285685
G03 X81.433345 Y109.260116 Z-0.125000 I-0.000587 J-4.218512
G02 X81.223566 Y109.300720 Z-0.125000 I-0.023063 J0.443051
G02 X81.183768 Y109.323165 Z-0.125000 I0.120500 J0.260174
G01 X81.165586 Y109.358820 Z-0.125000
G01 X81.165528 Y109.358770 Z-0.125000
G00 Z5.000000

(End cutting path id: path1062)


(Start cutting path id: path1062)
(Change tool to Default tool)

G00 Z5.000000
G00 X77.379762 Y107.930400

G01 Z-0.125000 F1000.0(Penetrate)
G01 X70.435502 Y107.071110 Z-0.125000 F1400.000000
G01 X75.196617 Y102.960260 Z-0.125000
G00 Z5.000000

(End cutting path id: path1062)


(Start cutting path id: path1062)
(Change tool to Default tool)

G00 Z5.000000
G00 X70.417329 Y110.543780

G01 Z-0.125000 F1000.0(Penetrate)
G01 X78.497215 Y111.134990 Z-0.125000 F1400.000000
G01 X71.993894 Y120.660060 Z-0.125000
G00 Z5.000000

(End cutting path id: path1062)


(Start cutting path id: path1062)
(Change tool to Default tool)

G00 Z5.000000
G00 X70.417271 Y110.543750

G01 Z-0.125000 F1000.0(Penetrate)
G01 X77.379762 Y107.930400 Z-0.125000 F1400.000000
G00 Z5.000000

(End cutting path id: path1062)


(Start cutting path id: path1062)
(Change tool to Default tool)

G00 Z5.000000
G00 X70.417271 Y110.543750

G01 Z-0.125000 F1000.0(Penetrate)
G01 X66.069212 Y109.138120 Z-0.125000 F1400.000000
G01 X64.745388 Y111.646420 Z-0.125000
G01 X63.059983 Y113.302740 Z-0.125000
G00 Z5.000000

(End cutting path id: path1062)


(Start cutting path id: path1062)
(Change tool to Default tool)

G00 Z5.000000
G00 X85.328986 Y112.317420

G01 Z-0.125000 F1000.0(Penetrate)
G01 X90.321436 Y118.557970 Z-0.125000 F1400.000000
G00 Z5.000000

(End cutting path id: path1062)


(Start cutting path id: path1062)
(Change tool to Default tool)

G00 Z5.000000
G00 X95.313882 Y111.988940

G01 Z-0.125000 F1000.0(Penetrate)
G01 X93.343180 Y106.799420 Z-0.125000 F1400.000000
G01 X95.379575 Y106.865120 Z-0.125000
G00 Z5.000000

(End cutting path id: path1062)


(Start cutting path id: path1062)
(Change tool to Default tool)

G00 Z5.000000
G00 X92.545755 Y73.627310

G01 Z-0.125000 F1000.0(Penetrate)
G01 X95.051145 Y84.333530 Z-0.125000 F1400.000000
G01 X98.584236 Y95.412320 Z-0.125000
G01 X100.024190 Y104.098440 Z-0.125000
G01 X99.884836 Y110.462090 Z-0.125000
G01 X99.791916 Y115.757390 Z-0.125000
G01 X95.472075 Y123.700320 Z-0.125000
G01 X90.734182 Y127.416310 Z-0.125000
G01 X86.646601 Y129.088500 Z-0.125000
G01 X82.419656 Y130.249750 Z-0.125000
G01 X81.026160 Y124.954470 Z-0.125000
G01 X86.785946 Y129.134960 Z-0.125000
G00 Z5.000000

(End cutting path id: path1062)


(Start cutting path id: path1062)
(Change tool to Default tool)

G00 Z5.000000
G00 X66.870081 Y75.071230

G01 Z-0.125000 F1000.0(Penetrate)
G01 X72.059587 Y83.742330 Z-0.125000 F1400.000000
G01 X77.840331 Y73.823120 Z-0.125000
G01 X75.212722 Y83.906560 Z-0.125000
G01 X85.329005 Y70.867070 Z-0.125000
G01 X89.738202 Y92.124820 Z-0.125000
G01 X95.051132 Y84.333530 Z-0.125000
G01 X85.296154 Y70.801380 Z-0.125000
G01 X77.741797 Y73.823120 Z-0.125000
G01 X66.870081 Y75.071230 Z-0.125000
G01 X79.055597 Y61.309160 Z-0.125000
G01 X73.077800 Y61.966060 Z-0.125000
G01 X62.862986 Y79.111170 Z-0.125000
G00 Z5.000000

(End cutting path id: path1062)


(Start cutting path id: path1062)
(Change tool to Default tool)

G00 Z5.000000
G00 X57.870539 Y78.290040

G01 Z-0.125000 F1000.0(Penetrate)
G01 X30.215005 Y56.415250 Z-0.125000 F1400.000000
G00 Z5.000000

(End cutting path id: path1062)


(Start cutting path id: path1062)
(Change tool to Default tool)

G00 Z5.000000
G00 X55.200001 Y78.504540

G01 Z-0.125000 F1000.0(Penetrate)
G01 X57.870539 Y78.290040 Z-0.125000 F1400.000000
G01 X57.870539 Y78.290040 Z-0.125000
G01 X57.870539 Y78.290040 Z-0.125000
G01 X62.862986 Y79.111170 Z-0.125000
G01 X62.271774 Y73.888820 Z-0.125000
G00 Z5.000000

(End cutting path id: path1062)


(Start cutting path id: path1062)
(Change tool to Default tool)

G00 Z5.000000
G00 X85.329005 Y70.867070

G01 Z-0.125000 F1000.0(Penetrate)
G01 X90.176794 Y70.422270 Z-0.125000 F1400.000000
G01 X88.225900 Y75.160150 Z-0.125000
G01 X92.545741 Y73.627310 Z-0.125000
G01 X90.083897 Y70.282910 Z-0.125000
G01 X87.018197 Y57.323390 Z-0.125000
G00 Z5.000000

(End cutting path id: path1062)


(Start cutting path id: path1062)
(Change tool to Default tool)

G00 Z5.000000
G00 X87.250461 Y54.907980

G01 Z-0.125000 F1000.0(Penetrate)
G01 X79.055611 Y61.309160 Z-0.125000 F1400.000000
G00 Z5.000000

(End cutting path id: path1062)


(Start cutting path id: path1062)
(Change tool to Default tool)

G00 Z5.000000
G00 X75.405710 Y46.314760

G01 Z-0.125000 F1000.0(Penetrate)
G01 X61.943323 Y24.095720 Z-0.125000 F1400.000000
G01 X80.793910 Y37.303470 Z-0.125000
G01 X87.250448 Y54.907980 Z-0.125000
G01 X85.329005 Y70.867070 Z-0.125000
G01 X79.055597 Y61.309160 Z-0.125000
G01 X77.840331 Y73.823120 Z-0.125000
G00 Z5.000000

(End cutting path id: path1062)


(Start cutting path id: path1062)
(Change tool to Default tool)

G00 Z5.000000
G00 X75.405710 Y46.314760

G01 Z-0.125000 F1000.0(Penetrate)
G01 X79.055597 Y61.309160 Z-0.125000 F1400.000000
G01 X80.793910 Y37.303470 Z-0.125000
G01 X75.405710 Y46.314760 Z-0.125000
G00 Z5.000000

(End cutting path id: path1062)


(Footer)
M5
G00 X0.0000 Y0.0000
M2
(Using default footer. To add your own footer create file "footer" in the output dir.)
(end)
%