%
(Header)
(Generated by gcodetools from Inkscape.)
(Using default header. To add your own header create file "header" in the output dir.)
M3
(Header end.)
G21 (All units in mm)

(Start cutting path id: path848)
(Change tool to Cylindrical cutter)

G00 Z5.000000
G00 X34.503600 Y0.655360

G01 Z0.000000 F1000.0(Penetrate)
G02 X33.865130 Y0.730891 Z0.000000 I1.269406 J13.466603 F1100.000000
G02 X32.102139 Y0.997427 Z0.000000 I14.748656 J103.518430
G02 X12.993916 Y9.928985 Z0.000000 I6.053700 J37.857215
G02 X1.580112 Y27.547999 Z0.000000 I24.924833 J28.653103
G02 X0.417692 Y32.823331 Z0.000000 I33.203673 J10.082170
G02 X0.000124 Y38.843998 Z0.000000 I42.895596 J5.999873
G02 X0.183306 Y43.039749 Z0.000000 I48.680649 J-0.023472
G02 X0.655773 Y46.380195 Z0.000000 I31.294209 J-2.722559
G02 X4.338745 Y56.721159 Z0.000000 I36.542193 J-7.188303
G02 X10.951601 Y65.680083 Z0.000000 I33.811545 J-18.037299
G02 X13.956326 Y68.423205 Z0.000000 I29.347267 J-29.128834
G02 X17.115575 Y70.774682 Z0.000000 I24.683343 J-29.864483
G02 X20.544910 Y72.817127 Z0.000000 I21.395368 J-32.023360
G02 X23.759462 Y74.278618 Z0.000000 I14.061490 J-26.662311
G03 X24.598015 Y74.632779 Z0.000000 I-5.197119 J13.475106
G03 X24.755629 Y74.736856 Z0.000000 I-0.259866 J0.564923
G01 X24.732746 Y74.800798 Z0.000000
G03 X22.714746 Y74.836382 Z0.000000 I-1.580952 J-32.418084
G01 X20.531555 Y74.806978 Z0.000000
G01 X18.325736 Y76.409710 Z0.000000
G03 X16.099690 Y77.969706 Z0.000000 I-46.738881 J-64.326113
G03 X15.848302 Y78.083470 Z0.000000 I-0.458674 J-0.678912
G02 X15.692334 Y78.243789 Z0.000000 I0.054721 J0.209263
G02 X15.576693 Y79.252657 Z0.000000 I4.342806 J1.008855
G02 X15.614652 Y80.335095 Z0.000000 I15.453487 J-0.000045
G02 X15.659626 Y80.433743 Z0.000000 I0.154468 J-0.010847
G03 X15.704885 Y80.532880 Z0.000000 I-0.110214 J0.110215
G03 X15.790597 Y82.271903 Z0.000000 I-39.685522 J2.827618
G02 X17.785571 Y91.258923 Z0.000000 I24.227203 J-0.663115
G02 X22.853092 Y98.542664 Z0.000000 I20.654593 J-8.965345
G02 X25.045916 Y100.426623 Z0.000000 I18.260308 J-19.035848
G02 X27.031781 Y101.752112 Z0.000000 I10.959142 J-14.268765
G02 X30.174633 Y103.228231 Z0.000000 I10.437149 J-18.138224
G02 X33.704803 Y104.233714 Z0.000000 I8.151388 J-21.919060
G01 X35.286606 Y104.552581 Z0.000000
G01 X35.325424 Y107.139643 Z0.000000
G02 X35.431471 Y109.603976 Z0.000000 I44.040187 J-0.660732
G01 X35.503318 Y109.640752 Z0.000000
G02 X35.576231 Y109.517913 Z0.000000 I-0.081066 J-0.131177
G02 X35.642385 Y107.072785 Z0.000000 I-45.149951 J-2.444998
G01 X35.642377 Y104.590772 Z0.000000
G01 X37.560780 Y104.590766 Z0.000000
G01 X39.479181 Y104.590761 Z0.000000
G01 X39.517541 Y111.208179 Z0.000000
G03 X39.467503 Y117.737974 Z0.000000 I-242.484412 J1.406960
G03 X39.378027 Y117.825561 Z0.000000 I-0.089457 J-0.001890
G02 X39.281206 Y117.906606 Z0.000000 I-0.000021 J0.098332
G02 X39.200141 Y118.821688 Z0.000000 I5.124129 J0.915067
G02 X39.335152 Y119.682869 Z0.000000 I2.814111 J-0.000008
G02 X39.520340 Y119.817868 Z0.000000 I0.185198 J-0.059531
G01 X39.840532 Y119.817884 Z0.000000
G01 X39.840510 Y112.169212 Z0.000000
G01 X39.840488 Y104.520538 Z0.000000
G01 X40.716222 Y104.412183 Z0.000000
G02 X45.677400 Y103.106227 Z0.000000 I-2.352574 J-19.013620
G02 X50.442521 Y100.394955 Z0.000000 I-8.352675 J-20.223050
G02 X56.225334 Y93.969379 Z0.000000 I-13.367942 J-17.845683
G02 X59.354532 Y85.450106 Z0.000000 I-21.108878 J-12.587787
G02 X59.812568 Y80.189928 Z0.000000 I-32.804360 J-5.506507
G02 X59.401993 Y79.039041 Z0.000000 I-1.781343 J-0.013192
G02 X59.192287 Y78.833115 Z0.000000 I-1.113228 J0.923923
G02 X57.140287 Y77.230394 Z0.000000 I-70.903096 J88.663894
G03 X55.084472 Y75.633274 Z0.000000 I88.996611 J-116.678213
G03 X54.980798 Y75.521805 Z0.000000 I0.311375 J-0.393547
G02 X54.862049 Y75.451993 Z0.000000 I-0.133086 J0.090476
G02 X52.490386 Y75.299058 Z0.000000 I-4.266962 J47.704614
G01 X50.086656 Y75.203865 Z0.000000
G01 X51.652057 Y74.635713 Z0.000000
G02 X53.194754 Y74.014839 Z0.000000 I-8.233401 J-22.684687
G02 X55.352091 Y72.996289 Z0.000000 I-20.119695 J-45.408427
G02 X68.501317 Y62.172834 Z0.000000 I-17.227985 J-34.329088
G02 X75.612442 Y46.813087 Z0.000000 I-30.004477 J-23.217214
G02 X76.182674 Y43.092473 Z0.000000 I-32.581196 J-6.897499
G02 X76.389775 Y38.701458 Z0.000000 I-45.215212 J-4.332952
G02 X76.289990 Y35.364495 Z0.000000 I-58.150429 J0.068900
G02 X76.074010 Y33.314258 Z0.000000 I-22.207325 J1.302916
G02 X73.266289 Y23.547469 Z0.000000 I-39.162224 J5.971240
G02 X68.086485 Y14.863253 Z0.000000 I-35.992796 J15.581445
G02 X63.715986 Y10.238326 Z0.000000 I-27.798317 J21.891575
G02 X58.269240 Y6.189531 Z0.000000 I-26.649896 J30.163373
G02 X54.827670 Y4.300990 Z0.000000 I-19.541103 J31.530467
G02 X51.082610 Y2.727392 Z0.000000 I-17.238663 J35.783585
G02 X47.597780 Y1.659915 Z0.000000 I-12.542224 J34.722768
G02 X43.895989 Y0.908663 Z0.000000 I-9.729429 J38.445790
G02 X39.294079 Y0.494419 Z0.000000 I-5.594154 J36.377662
G02 X34.503573 Y0.655350 Z0.000000 I-1.067829 J39.594573
G01 X34.503600 Y0.655360 Z0.000000
G00 Z5.000000

(End cutting path id: path848)


(Start cutting path id: path848)
(Change tool to Cylindrical cutter)

G00 Z5.000000
G00 X35.072845 Y3.603438

G01 Z0.000000 F1000.0(Penetrate)
G01 X35.049202 Y3.639031 Z0.000000 F1100.000000
G03 X34.183414 Y3.977601 Z0.000000 I-7.110737 J-16.907260
G02 X31.383603 Y5.350066 Z0.000000 I4.908751 J13.555810
G02 X29.481311 Y6.952695 Z0.000000 I4.905318 J7.752831
G02 X29.452924 Y7.563827 Z0.000000 I0.357329 J0.322824
G02 X30.269920 Y8.007742 Z0.000000 I0.890940 J-0.665945
G03 X31.583312 Y8.122068 Z0.000000 I-2.151402 J32.316993
G03 X32.684755 Y8.267485 Z0.000000 I-2.467654 J22.934999
G01 X33.783228 Y8.439532 Z0.000000
G01 X34.534774 Y7.733370 Z0.000000
G03 X36.615956 Y6.390916 Z0.000000 I4.700497 J5.002656
G03 X38.937098 Y5.916057 Z0.000000 I2.397099 J5.806805
G03 X40.217417 Y5.952355 Z0.000000 I0.189570 J15.911688
G01 X40.245059 Y6.006153 Z0.000000
G03 X40.157306 Y6.073672 Z0.000000 I-0.133056 J-0.082145
G03 X39.892483 Y6.112874 Z0.000000 I-0.264826 J-0.874905
G02 X39.611745 Y6.149377 Z0.000000 I0.000003 J1.097848
G02 X38.540302 Y6.470548 Z0.000000 I4.382306 J16.567348
G02 X35.209510 Y9.407100 Z0.000000 I1.819988 J5.421582
G02 X35.185759 Y13.423588 Z0.000000 I4.214333 J2.033235
G02 X36.094799 Y14.817345 Z0.000000 I5.390852 J-2.522709
G02 X37.578769 Y16.162041 Z0.000000 I6.491443 J-5.672598
G02 X43.281080 Y18.368300 Z0.000000 I7.160330 J-10.034389
G02 X49.368031 Y17.566287 Z0.000000 I1.470113 J-12.342183
G03 X50.291772 Y17.336665 Z0.000000 I1.295101 J3.237173
G03 X50.594015 Y17.434953 Z0.000000 I0.041405 J0.386530
G03 X50.839738 Y17.697095 Z0.000000 I-1.468840 J1.623079
G03 X50.869218 Y17.781652 Z0.000000 I-0.106529 J0.084558
G03 X50.830021 Y17.855996 Z0.000000 I-0.090100 J0.000000
G03 X50.174028 Y18.257654 Z0.000000 I-4.263896 J-6.227320
G01 X49.478833 Y18.636037 Z0.000000
G01 X49.224332 Y18.247607 Z0.000000
G02 X48.987695 Y17.996800 Z0.000000 I-0.822331 J0.538832
G01 X48.916464 Y18.019258 Z0.000000
G02 X48.931503 Y18.170925 Z0.000000 I0.176944 J0.059034
G02 X50.364253 Y20.549697 Z0.000000 I53.734600 J-30.743837
G03 X51.830836 Y22.930090 Z0.000000 I-95.535078 J60.502085
G03 X51.865397 Y23.055011 Z0.000000 I-0.208487 J0.124921
G02 X51.983177 Y23.145920 Z0.000000 I0.093975 J-0.000000
G02 X53.239511 Y22.695198 Z0.000000 I-1.915836 J-7.316465
G02 X55.792666 Y21.078637 Z0.000000 I-4.828482 J-10.450455
G02 X57.463406 Y19.165683 Z0.000000 I-5.214281 J-6.240134
G02 X57.582557 Y18.659594 Z0.000000 I-0.679468 J-0.427042
G02 X57.404604 Y18.571584 Z0.000000 I-0.116440 J0.011525
G03 X57.208090 Y18.470658 Z0.000000 I-0.067819 J-0.109729
G03 X57.323110 Y17.380204 Z0.000000 I3.170525 J-0.216868
G02 X57.532628 Y16.568410 Z0.000000 I-15.569837 J-4.451380
G02 X57.591453 Y16.216783 Z0.000000 I-2.852482 J-0.657939
G03 X57.733110 Y15.982208 Z0.000000 I0.320952 J0.033760
G03 X58.092327 Y15.882102 Z0.000000 I0.332045 J0.496941
G02 X58.484359 Y15.614096 Z0.000000 I0.017904 J-0.394540
G02 X58.629966 Y14.292390 Z0.000000 I-2.933092 J-0.992002
G03 X58.759637 Y13.629991 Z0.000000 I1.135494 J-0.121608
G03 X58.998983 Y13.606079 Z0.000000 I0.127729 J0.068675
G03 X59.109940 Y13.871744 Z0.000000 I-0.378869 J0.314240
G03 X59.185970 Y15.491678 Z0.000000 I-15.540798 J1.541147
G03 X59.065639 Y17.122668 Z0.000000 I-11.936262 J-0.060698
G03 X58.788879 Y18.264810 Z0.000000 I-6.098063 J-0.873060
G03 X57.285379 Y20.923300 Z0.000000 I-7.997600 J-2.768621
G03 X54.764662 Y23.080204 Z0.000000 I-7.662440 J-6.403491
G03 X52.002222 Y24.403214 Z0.000000 I-8.379847 J-13.951603
G03 X51.491908 Y24.283797 Z0.000000 I-0.164474 J-0.447230
G03 X51.356652 Y24.097433 Z0.000000 I0.640483 J-0.607103
G03 X50.203980 Y21.909182 Z0.000000 I89.497546 J-48.541028
G02 X48.507880 Y19.456481 Z0.000000 I-10.060767 J5.144456
G02 X47.618954 Y19.063002 Z0.000000 I-0.888922 J0.807358
G02 X45.966533 Y19.362870 Z0.000000 I0.000014 J4.702841
G02 X45.571692 Y19.831335 Z0.000000 I0.219920 J0.585984
G02 X45.557403 Y20.155504 Z0.000000 I1.103534 J0.211042
G02 X45.833566 Y22.419302 Z0.000000 I55.259085 J-5.592379
G03 X46.139767 Y24.685660 Z0.000000 I-148.335266 J21.194985
G03 X46.165110 Y25.022901 Z0.000000 I-3.248735 J0.413707
G01 X46.173011 Y25.361578 Z0.000000
G01 X43.860485 Y25.282345 Z0.000000
G03 X41.558331 Y25.124437 Z0.000000 I1.154352 J-33.690003
G03 X40.314012 Y24.916766 Z0.000000 I1.032975 J-10.021048
G03 X34.497110 Y22.768765 Z0.000000 I5.590002 J-24.088269
G03 X30.238619 Y19.678492 Z0.000000 I8.213038 J-15.797120
G03 X29.222767 Y18.498575 Z0.000000 I6.505069 J-6.627807
G03 X29.242450 Y18.303265 Z0.000000 I0.119551 J-0.086599
G03 X29.468472 Y18.134039 Z0.000000 I0.953296 J1.037688
G03 X31.870900 Y16.719388 Z0.000000 I70.914069 J117.682367
G02 X34.258589 Y15.290937 Z0.000000 I-40.564903 J-70.514963
G02 X34.468041 Y15.104680 Z0.000000 I-0.435819 J-0.700987
G02 X34.604399 Y14.626553 Z0.000000 I-0.504435 J-0.402369
G02 X34.284951 Y13.556031 Z0.000000 I-3.235244 J0.382486
G02 X33.464272 Y12.817466 Z0.000000 I-1.346560 J0.671028
G02 X32.211952 Y12.782657 Z0.000000 I-0.677090 J1.814904
G03 X27.431102 Y14.179982 Z0.000000 I-43.122309 J-138.662611
G03 X27.157238 Y14.166391 Z0.000000 I-0.116203 J-0.424487
G03 X26.700690 Y13.466915 Z0.000000 I0.255358 J-0.665404
G03 X27.365590 Y9.812961 Z0.000000 I14.074322 J0.673594
G03 X29.032197 Y6.947552 Z0.000000 I7.405709 J2.390002
G03 X32.155415 Y4.582297 Z0.000000 I8.016721 J7.341072
G03 X34.862895 Y3.452415 Z0.000000 I9.228439 J18.304812
G03 X35.072825 Y3.603408 Z0.000000 I0.050663 J0.150994
G01 X35.072845 Y3.603438 Z0.000000
G00 Z5.000000

(End cutting path id: path848)


(Start cutting path id: path848)
(Change tool to Cylindrical cutter)

G00 Z5.000000
G00 X36.576935 Y4.654084

G01 Z0.000000 F1000.0(Penetrate)
G03 X37.743456 Y5.489943 Z0.000000 I-17.449350 J25.584165 F1100.000000
G03 X37.776716 Y5.556570 Z0.000000 I-0.050125 J0.066637
G03 X37.739716 Y5.613196 Z0.000000 I-0.061817 J0.000010
G03 X37.171914 Y5.821642 Z0.000000 I-1.982798 J-4.523539
G02 X35.786286 Y6.420657 Z0.000000 I1.845164 J6.170305
G02 X34.456618 Y7.396230 Z0.000000 I3.856223 J6.649807
G01 X33.658370 Y8.125792 Z0.000000
G01 X31.933300 Y7.901987 Z0.000000
G02 X30.206839 Y7.699703 Z0.000000 I-9.028978 J69.592047
G02 X29.794358 Y7.678184 Z0.000000 I-0.412469 J3.942205
G03 X29.434101 Y7.624563 Z0.000000 I-0.000004 J-1.236994
G03 X29.380485 Y7.552195 Z0.000000 I0.022031 J-0.072368
G03 X29.676974 Y6.908254 Z0.000000 I0.847523 J-0.000002
G03 X32.138780 Y5.191837 Z0.000000 I9.875634 J11.540672
G03 X34.302739 Y4.133584 Z0.000000 I10.679205 J19.095684
G03 X35.331738 Y3.842728 Z0.000000 I1.678576 J3.972862
G03 X35.373563 Y3.851620 Z0.000000 I0.009388 J0.058651
G03 X36.576935 Y4.654084 Z0.000000 I-37.859081 J58.076857
G01 X36.576935 Y4.654084 Z0.000000
G00 Z5.000000

(End cutting path id: path848)


(Start cutting path id: path848)
(Change tool to Cylindrical cutter)

G00 Z5.000000
G00 X38.337077 Y4.421739

G01 Z0.000000 F1000.0(Penetrate)
G02 X38.292101 Y4.702974 Z0.000000 I0.384310 J0.205673 F1100.000000
G02 X38.431008 Y4.955399 Z0.000000 I0.439337 J-0.077331
G02 X38.485875 Y4.968053 Z0.000000 I0.038687 J-0.042467
G01 X38.496418 Y4.936198 Z0.000000
G03 X38.430417 Y4.690034 Z0.000000 I0.271654 J-0.204766
G03 X38.561847 Y4.402538 Z0.000000 I0.519474 J0.063690
G02 X38.696082 Y4.174242 Z0.000000 I-0.484643 J-0.438576
G01 X38.657646 Y4.120588 Z0.000000
G02 X38.528846 Y4.171608 Z0.000000 I0.000001 J0.188088
G02 X38.337080 Y4.421809 Z0.000000 I0.666995 J0.709809
G01 X38.337077 Y4.421739 Z0.000000
G00 Z5.000000

(End cutting path id: path848)


(Start cutting path id: path848)
(Change tool to Cylindrical cutter)

G00 Z5.000000
G00 X38.873763 Y4.494037

G01 Z0.000000 F1000.0(Penetrate)
G02 X38.750851 Y4.826329 Z0.000000 I0.299767 J0.299759 F1100.000000
G02 X38.910754 Y4.974397 Z0.000000 I0.159903 J-0.012308
G02 X38.975702 Y4.924272 Z0.000000 I-0.000000 J-0.067140
G02 X38.966684 Y4.760937 Z0.000000 I-0.258263 J-0.067657
G03 X38.998571 Y4.625693 Z0.000000 I0.115226 J-0.044214
G03 X39.199837 Y4.547476 Z0.000000 I0.201267 J0.219841
G03 X39.401100 Y4.625685 Z0.000000 I0.000001 J0.298067
G03 X39.432996 Y4.760936 Z0.000000 I-0.083340 J0.091040
G02 X39.427778 Y4.921700 Z0.000000 I0.229019 J0.087900
G02 X39.499356 Y4.974395 Z0.000000 I0.071579 J-0.022266
G02 X39.581069 Y4.919320 Z0.000000 I-0.000000 J-0.088154
G02 X39.600169 Y4.725355 Z0.000000 I-0.319650 J-0.129399
G02 X39.302604 Y4.389753 Z0.000000 I-0.430562 J0.082041
G02 X38.873781 Y4.494037 Z0.000000 I-0.128761 J0.404341
G01 X38.873763 Y4.494037 Z0.000000
G00 Z5.000000

(End cutting path id: path848)


(Start cutting path id: path848)
(Change tool to Cylindrical cutter)

G00 Z5.000000
G00 X39.021931 Y4.072457

G01 Z0.000000 F1000.0(Penetrate)
G02 X39.199821 Y4.107010 Z0.000000 I0.177888 J-0.440627 F1100.000000
G02 X39.377702 Y4.072456 Z0.000000 I-0.000001 J-0.475137
G01 X39.377700 Y4.035200 Z0.000000
G02 X39.199814 Y4.000656 Z0.000000 I-0.177885 J0.440746
G02 X39.021933 Y4.035200 Z0.000000 I0.000001 J0.475279
G01 X39.021931 Y4.072457 Z0.000000
G01 X39.021931 Y4.072457 Z0.000000
G00 Z5.000000

(End cutting path id: path848)


(Start cutting path id: path848)
(Change tool to Cylindrical cutter)

G00 Z5.000000
G00 X39.837794 Y4.402534

G01 Z0.000000 F1000.0(Penetrate)
G03 X39.847900 Y4.818538 Z0.000000 I-0.236317 J0.213865 F1100.000000
G03 X39.224568 Y5.150106 Z0.000000 I-0.709380 J-0.581898
G02 X38.947097 Y5.241822 Z0.000000 I0.061325 J0.651111
G01 X38.951097 Y5.315707 Z0.000000
G02 X39.896908 Y5.193862 Z0.000000 I0.376739 J-0.807406
G02 X40.051918 Y4.401924 Z0.000000 I-0.407486 J-0.490898
G02 X39.871408 Y4.170563 Z0.000000 I-0.759441 J0.406422
G02 X39.741991 Y4.120585 Z0.000000 I-0.129417 J0.142573
G01 X39.703556 Y4.174241 Z0.000000
G02 X39.837792 Y4.402534 Z0.000000 I0.619067 J-0.210396
G01 X39.837794 Y4.402534 Z0.000000
G00 Z5.000000

(End cutting path id: path848)


(Start cutting path id: path848)
(Change tool to Cylindrical cutter)

G00 Z5.000000
G00 X40.064437 Y3.159924

G01 Z0.000000 F1000.0(Penetrate)
G03 X40.411562 Y3.635686 Z0.000000 I-5.794703 J4.592440 F1100.000000
G03 X40.808228 Y4.269622 Z0.000000 I-9.900709 J6.636139
G01 X41.185472 Y4.916821 Z0.000000
G01 X40.884450 Y5.174561 Z0.000000
G03 X40.062198 Y5.669015 Z0.000000 I-1.880396 J-2.196100
G03 X39.222365 Y5.828226 Z0.000000 I-0.839840 J-2.135468
G03 X38.717805 Y5.688091 Z0.000000 I-0.000003 J-0.978396
G03 X35.881079 Y3.817076 Z0.000000 I21.247944 J-35.300868
G01 X35.337372 Y3.425358 Z0.000000
G01 X35.889131 Y3.276786 Z0.000000
G03 X36.446399 Y3.156101 Z0.000000 I1.491363 J5.539482
G03 X37.998238 Y2.928760 Z0.000000 I7.058069 J42.768555
G02 X39.555027 Y2.726118 Z0.000000 I-48.226855 J-376.581564
G02 X39.626741 Y2.713365 Z0.000000 I-0.107406 J-0.812022
G03 X39.686085 Y2.730746 Z0.000000 I0.014169 J0.061620
G03 X40.064437 Y3.159924 Z0.000000 I-3.902986 J3.822139
G01 X40.064437 Y3.159924 Z0.000000
G00 Z5.000000

(End cutting path id: path848)


(Start cutting path id: path848)
(Change tool to Cylindrical cutter)

G00 Z5.000000
G00 X40.871942 Y0.945451

G01 Z0.000000 F1000.0(Penetrate)
G03 X40.622900 Y0.977460 Z0.000000 I-0.249045 J-0.952856 F1100.000000
G03 X40.373858 Y0.945453 Z0.000000 I-0.000003 J-0.984865
G01 X40.373857 Y0.912367 Z0.000000
G03 X40.622900 Y0.880352 Z0.000000 I0.249045 J0.952674
G03 X40.871942 Y0.912365 Z0.000000 I0.000003 J0.984701
G01 X40.871942 Y0.945451 Z0.000000
G01 X40.871942 Y0.945451 Z0.000000
G00 Z5.000000

(End cutting path id: path848)


(Start cutting path id: path848)
(Change tool to Cylindrical cutter)

G00 Z5.000000
G00 X41.476756 Y0.918550

G01 Z0.000000 F1000.0(Penetrate)
G03 X41.455922 Y0.968887 Z0.000000 I-0.071228 J0.000000 F1100.000000
G03 X41.405596 Y0.989750 Z0.000000 I-0.050327 J-0.050269
G03 X41.355307 Y0.968918 Z0.000000 I-0.000000 J-0.071115
G03 X41.334446 Y0.918550 Z0.000000 I0.050374 J-0.050368
G03 X41.355280 Y0.868209 Z0.000000 I0.071235 J-0.000000
G03 X41.405595 Y0.847350 Z0.000000 I0.050316 J0.050255
G03 X41.455895 Y0.868185 Z0.000000 I0.000000 J0.071132
G03 X41.476756 Y0.918550 Z0.000000 I-0.050367 J0.050365
G01 X41.476756 Y0.918550 Z0.000000
G00 Z5.000000

(End cutting path id: path848)


(Start cutting path id: path848)
(Change tool to Cylindrical cutter)

G00 Z5.000000
G00 X43.469085 Y1.420554

G01 Z0.000000 F1000.0(Penetrate)
G03 X47.136151 Y2.132801 Z0.000000 I-4.624547 J33.606090 F1100.000000
G03 X50.288278 Y3.139474 Z0.000000 I-6.506080 J25.810412
G03 X55.074860 Y5.224273 Z0.000000 I-24.016370 J61.677517
G03 X55.280767 Y5.552490 Z0.000000 I-0.158638 J0.328218
G03 X55.235153 Y5.608876 Z0.000000 I-0.057658 J0.000000
G03 X54.157023 Y5.792513 Z0.000000 I-2.737791 J-12.816884
G01 X53.033280 Y5.935976 Z0.000000
G01 X51.132950 Y4.986942 Z0.000000
G02 X46.132070 Y3.180655 Z0.000000 I-10.213730 J20.451851
G02 X40.723234 Y2.548982 Z0.000000 I-5.467924 J23.347269
G02 X33.383616 Y3.749464 Z0.000000 I-0.056059 J22.694322
G02 X29.096369 Y6.488896 Z0.000000 I3.408756 J10.059264
G01 X28.129630 Y7.505318 Z0.000000
G01 X25.588676 Y7.663246 Z0.000000
G02 X23.052635 Y7.850772 Z0.000000 I6.693138 J107.757867
G02 X22.727528 Y7.908634 Z0.000000 I0.156086 J1.819254
G03 X22.605827 Y7.756535 Z0.000000 I-0.027963 J-0.102364
G03 X23.396322 Y6.648122 Z0.000000 I4.578724 J2.429356
G03 X28.490077 Y3.178720 Z0.000000 I10.244969 J9.567589
G03 X36.994014 Y1.275363 Z0.000000 I10.298837 J26.064890
G03 X40.684442 Y1.198436 Z0.000000 I2.734061 J42.602322
G03 X43.469085 Y1.420554 Z0.000000 I-0.547412 J24.429038
G01 X43.469085 Y1.420554 Z0.000000
G00 Z5.000000

(End cutting path id: path848)


(Start cutting path id: path848)
(Change tool to Cylindrical cutter)

G00 Z5.000000
G00 X42.544079 Y2.843667

G01 Z0.000000 F1000.0(Penetrate)
G03 X46.321691 Y3.409354 Z0.000000 I-6.055356 J53.333262 F1100.000000
G03 X46.457589 Y3.572915 Z0.000000 I-0.030479 J0.163562
G02 X46.500191 Y3.622722 Z0.000000 I0.050416 J-0.000000
G02 X46.664239 Y3.605315 Z0.000000 I0.049482 J-0.315382
G03 X46.865943 Y3.577398 Z0.000000 I0.160796 J0.419149
G03 X47.055590 Y3.641214 Z0.000000 I-0.039425 J0.430868
G02 X47.247923 Y3.736000 Z0.000000 I0.568171 J-0.910360
G02 X47.453754 Y3.790142 Z0.000000 I0.371101 J-0.992480
G03 X47.661690 Y3.844214 Z0.000000 I-0.173041 J1.092289
G03 X49.284978 Y4.462217 Z0.000000 I-24.785791 J67.544939
G03 X53.175645 Y6.443204 Z0.000000 I-8.437661 J21.382738
G03 X56.027903 Y8.746818 Z0.000000 I-8.694013 J13.682235
G03 X56.672065 Y9.445794 Z0.000000 I-10.119171 J9.971922
G03 X56.703873 Y9.531446 Z0.000000 I-0.099419 J0.085652
G03 X56.655689 Y9.582636 Z0.000000 I-0.051284 J0.000000
G03 X54.604811 Y9.658592 Z0.000000 I-2.643911 J-43.662179
G02 X52.525081 Y9.733216 Z0.000000 I0.635667 J46.733157
G02 X52.404942 Y9.786698 Z0.000000 I0.010824 J0.185993
G02 X52.366884 Y9.893500 Z0.000000 I0.091834 J0.092906
G02 X52.438333 Y10.098608 Z0.000000 I0.476447 J-0.050971
G02 X52.531590 Y10.166184 Z0.000000 I0.131230 J-0.082965
G01 X52.574716 Y10.133008 Z0.000000
G03 X52.661261 Y10.040549 Z0.000000 I0.093850 J0.001114
G03 X54.852949 Y9.955111 Z0.000000 I2.191770 J28.070417
G01 X57.129001 Y9.955104 Z0.000000
G01 X57.570205 Y10.559923 Z0.000000
G03 X58.681875 Y12.349599 Z0.000000 I-11.446940 J8.350452
G03 X58.838507 Y12.987689 Z0.000000 I-1.221438 J0.638094
G03 X58.748577 Y13.066292 Z0.000000 I-0.079316 J0.000000
G03 X57.237529 Y12.771504 Z0.000000 I1.763485 J-13.059536
G03 X53.545717 Y11.654090 Z0.000000 I11.202754 J-43.670029
G03 X53.208515 Y11.361236 Z0.000000 I0.199685 J-0.570484
G02 X53.098649 Y11.310210 Z0.000000 I-0.087891 J0.045451
G02 X53.051764 Y11.396936 Z0.000000 I0.014556 J0.063905
G02 X53.267844 Y11.801313 Z0.000000 I1.595192 J-0.592475
G02 X53.501909 Y12.019695 Z0.000000 I0.672301 J-0.485953
G02 X53.804384 Y12.154389 Z0.000000 I0.637464 J-1.024543
G02 X55.959028 Y12.729758 Z0.000000 I15.203389 J-52.611698
G03 X58.100600 Y13.305262 Z0.000000 I-12.041045 J49.079609
G03 X58.208659 Y13.387561 Z0.000000 I-0.053200 J0.181942
G03 X58.257373 Y13.521680 Z0.000000 I-0.297318 J0.183896
G03 X58.368451 Y14.498261 Z0.000000 I-16.426085 J2.362945
G01 X58.451114 Y15.484150 Z0.000000
G01 X57.971419 Y15.530252 Z0.000000
G02 X57.624281 Y15.753594 Z0.000000 I0.043111 J0.448454
G02 X57.123821 Y16.999414 Z0.000000 I4.130825 J2.382828
G02 X56.921493 Y18.415401 Z0.000000 I7.043830 J1.728932
G02 X57.047576 Y18.764935 Z0.000000 I0.488992 J0.021119
G03 X57.101857 Y19.031002 Z0.000000 I-0.197673 J0.178898
G03 X56.704396 Y19.756846 Z0.000000 I-2.339898 J-0.809549
G03 X56.085384 Y20.448213 Z0.000000 I-5.937556 J-4.693362
G03 X55.311992 Y21.132134 Z0.000000 I-6.582759 J-6.664676
G03 X53.172547 Y22.542732 Z0.000000 I-9.246530 J-11.696407
G03 X52.304402 Y22.762957 Z0.000000 I-0.868150 J-1.601058
G03 X52.120715 Y22.671548 Z0.000000 I-0.000001 J-0.230263
G03 X50.936003 Y20.952731 Z0.000000 I19.016373 J-14.374928
G03 X49.822896 Y19.133679 Z0.000000 I85.681096 J-53.679698
G03 X49.766816 Y18.995986 Z0.000000 I0.421943 J-0.252116
G03 X49.803797 Y18.878635 Z0.000000 I0.116306 J-0.027850
G03 X50.439668 Y18.399594 Z0.000000 I3.322577 J3.748789
G03 X51.138480 Y18.131226 Z0.000000 I1.013355 J1.594699
G03 X51.493356 Y18.221701 Z0.000000 I0.075285 J0.445920
G02 X52.107132 Y18.399825 Z0.000000 I0.527266 J-0.670311
G02 X52.870003 Y18.081337 Z0.000000 I-0.144749 J-1.419607
G02 X53.766437 Y16.588526 Z0.000000 I-1.657640 J-2.010972
G02 X53.341799 Y15.755785 Z0.000000 I-0.736019 J-0.149321
G03 X53.112155 Y15.517577 Z0.000000 I0.186709 J-0.409793
G03 X53.065219 Y15.084656 Z0.000000 I0.721132 J-0.297188
G02 X53.305070 Y12.862917 Z0.000000 I-16.343742 J-2.888230
G02 X53.165092 Y12.599556 Z0.000000 I-0.295402 J-0.011872
G02 X53.078647 Y12.634084 Z0.000000 I-0.030445 J0.049253
G02 X53.003831 Y13.212826 Z0.000000 I2.200981 J0.578736
G03 X52.965784 Y13.921733 Z0.000000 I-6.622911 J0.000019
G03 X52.849729 Y14.644327 Z0.000000 I-6.998831 J-0.753453
G03 X52.606811 Y15.252976 Z0.000000 I-1.910638 J-0.409755
G03 X52.410945 Y15.362868 Z0.000000 I-0.195867 J-0.119608
G03 X52.227373 Y15.295617 Z0.000000 I-0.000001 J-0.284167
G03 X52.200778 Y15.184989 Z0.000000 I0.062163 J-0.073455
G02 X52.710468 Y12.790000 Z0.000000 I-6.073272 J-2.544213
G02 X52.298366 Y10.880128 Z0.000000 I-4.191342 J-0.095011
G02 X51.884586 Y10.219774 Z0.000000 I-3.141174 J1.508452
G02 X50.879261 Y9.095522 Z0.000000 I-10.215968 J8.123676
G02 X49.725376 Y8.129840 Z0.000000 I-6.142474 J6.167366
G02 X48.285647 Y7.281650 Z0.000000 I-6.152378 J8.797120
G02 X45.410154 Y6.259948 Z0.000000 I-5.936115 J12.149418
G02 X42.363783 Y5.905567 Z0.000000 I-3.091371 J13.303444
G03 X40.867492 Y5.772349 Z0.000000 I0.028148 J-8.785843
G03 X40.836158 Y5.636822 Z0.000000 I0.013111 J-0.074417
G02 X41.191329 Y4.974636 Z0.000000 I-0.509698 J-0.699725
G02 X40.912383 Y3.880681 Z0.000000 I-1.952263 J-0.084737
G03 X40.365511 Y2.921236 Z0.000000 I19.176595 J-11.565995
G03 X40.338280 Y2.813103 Z0.000000 I0.201080 J-0.108133
G03 X40.442703 Y2.710113 Z0.000000 I0.102999 J-0.000000
G03 X42.544071 Y2.843597 Z0.000000 I-0.293423 J21.226389
G01 X42.544079 Y2.843667 Z0.000000
G00 Z5.000000

(End cutting path id: path848)


(Start cutting path id: path848)
(Change tool to Cylindrical cutter)

G00 Z5.000000
G00 X42.899866 Y6.389836

G01 Z0.000000 F1000.0(Penetrate)
G02 X43.023007 Y6.555057 Z0.000000 I0.172412 J-0.000000 F1100.000000
G02 X43.789296 Y6.655073 Z0.000000 I0.692965 J-2.323746
G01 X44.678732 Y6.628170 Z0.000000
G01 X43.860451 Y6.576873 Z0.000000
G03 X43.131798 Y6.441358 Z0.000000 I0.191754 J-3.057750
G03 X43.042174 Y6.319165 Z0.000000 I0.038487 J-0.122193
G03 X43.171430 Y6.185447 Z0.000000 I0.133795 J-0.000000
G03 X44.453611 Y6.271261 Z0.000000 I0.216696 J6.383935
G03 X45.208336 Y6.550121 Z0.000000 I-0.362200 J2.141032
G03 X45.169698 Y6.700769 Z0.000000 I-0.041731 J0.069576
G01 X44.678732 Y6.719470 Z0.000000
G01 X45.176812 Y6.807469 Z0.000000
G02 X45.619906 Y6.809927 Z0.000000 I0.228736 J-1.294787
G02 X45.720907 Y6.717567 Z0.000000 I-0.020452 J-0.123772
G03 X45.853539 Y6.632000 Z0.000000 I0.112730 J0.029160
G03 X46.860252 Y6.915204 Z0.000000 I-0.873673 J5.036565
G03 X50.252897 Y8.631184 Z0.000000 I-7.647350 J19.331264
G03 X50.364719 Y9.111574 Z0.000000 I-0.185799 J0.296459
G03 X50.267964 Y9.136933 Z0.000000 I-0.061699 J-0.038146
G03 X49.568612 Y8.672066 Z0.000000 I2.470018 J-4.474415
G02 X48.838929 Y8.140668 Z0.000000 I-7.096114 J8.977269
G02 X48.721772 Y8.105069 Z0.000000 I-0.117157 J0.174981
G03 X48.606940 Y8.069584 Z0.000000 I-0.000001 J-0.203543
G03 X48.312810 Y7.825640 Z0.000000 I1.160982 J-1.699122
G02 X48.045190 Y7.647593 Z0.000000 I-0.576756 J0.576763
G02 X47.952011 Y7.677881 Z0.000000 I-0.028719 J0.070122
G02 X47.968245 Y7.782224 Z0.000000 I0.069078 J0.042687
G02 X48.451318 Y8.105779 Z0.000000 I1.601220 J-1.868245
G03 X49.005935 Y8.439851 Z0.000000 I-2.091189 J4.099160
G03 X49.589110 Y8.905326 Z0.000000 I-3.514226 J5.000884
G02 X50.169461 Y9.301608 Z0.000000 I1.742429 J-1.928672
G02 X50.421383 Y9.321324 Z0.000000 I0.150260 J-0.300624
G03 X50.932819 Y9.457666 Z0.000000 I0.148858 J0.469014
G03 X52.037561 Y11.082799 Z0.000000 I-4.997468 J4.585269
G03 X52.525677 Y13.908855 Z0.000000 I-4.658387 J2.259777
G03 X51.574079 Y15.295130 Z0.000000 I-1.769133 J-0.194661
G02 X51.227881 Y15.547743 Z0.000000 I0.645314 J1.247920
G02 X50.674161 Y16.191603 Z0.000000 I3.893748 J3.908653
G03 X49.632076 Y17.087186 Z0.000000 I-2.454057 J-1.801431
G03 X47.491660 Y17.857742 Z0.000000 I-3.870288 J-7.392656
G03 X46.174003 Y17.705236 Z0.000000 I-0.431810 J-2.037695
G03 X45.307299 Y16.831319 Z0.000000 I0.762720 J-1.623158
G03 X44.804906 Y15.593805 Z0.000000 I13.383884 J-6.154179
G03 X44.807194 Y15.418850 Z0.000000 I0.238307 J-0.084377
G02 X44.797803 Y14.703253 Z0.000000 I-0.901749 J-0.346026
G02 X44.187363 Y13.922212 Z0.000000 I-1.712132 J0.709082
G03 X43.854069 Y13.561808 Z0.000000 I0.781517 J-1.057046
G03 X43.115415 Y12.206805 Z0.000000 I11.017568 J-6.884845
G01 X42.449859 Y10.791847 Z0.000000
G01 X42.808393 Y10.459566 Z0.000000
G03 X43.165616 Y10.196464 Z0.000000 I1.341915 J1.447910
G03 X43.246868 Y10.207215 Z0.000000 I0.033610 J0.058401
G01 X43.291200 Y10.201169 Z0.000000
G02 X43.326797 Y10.065744 Z0.000000 I-0.239798 J-0.135424
G02 X43.268762 Y9.862683 Z0.000000 I-0.384273 J0.000001
G02 X42.112482 Y8.114848 Z0.000000 I-32.122050 J19.993966
G03 X40.968532 Y6.383286 Z0.000000 I29.979884 J-21.049745
G03 X40.968428 Y6.271671 Z0.000000 I0.090047 J-0.055891
G03 X41.067089 Y6.207058 Z0.000000 I0.118485 J0.073290
G03 X41.969275 Y6.127848 Z0.000000 I1.167752 J8.122982
G03 X42.775690 Y6.225913 Z0.000000 I0.085959 J2.657876
G03 X42.899862 Y6.389856 Z0.000000 I-0.046142 J0.163943
G01 X42.899866 Y6.389836 Z0.000000
G00 Z5.000000

(End cutting path id: path848)


(Start cutting path id: path848)
(Change tool to Cylindrical cutter)

G00 Z5.000000
G00 X41.134897 Y7.215641

G01 Z0.000000 F1000.0(Penetrate)
G02 X41.818419 Y8.173125 Z0.000000 I107.194414 J-75.800448 F1100.000000
G02 X42.160445 Y8.638738 Z0.000000 I25.759691 J-18.563929
G01 X42.506727 Y9.101237 Z0.000000
G01 X41.975009 Y9.101238 Z0.000000
G03 X41.491391 Y8.985122 Z0.000000 I-0.000003 J-1.065165
G03 X40.890800 Y8.548751 Z0.000000 I1.077504 J-2.114498
G02 X40.386255 Y8.112019 Z0.000000 I-3.282912 J3.282844
G01 X40.338304 Y8.136053 Z0.000000
G02 X40.380234 Y8.258499 Z0.000000 I0.199750 J-0.000001
G02 X40.822157 Y8.759702 Z0.000000 I4.207784 J-3.264680
G02 X41.356280 Y9.122181 Z0.000000 I1.213850 J-1.213878
G02 X41.944264 Y9.243548 Z0.000000 I0.587980 J-1.363585
G03 X42.518505 Y9.362010 Z0.000000 I0.000004 J1.451022
G03 X42.833657 Y9.626826 Z0.000000 I-0.283005 J0.656735
G03 X42.887959 Y9.980856 Z0.000000 I-0.361025 J0.236554
G03 X42.614094 Y10.403076 Z0.000000 I-0.819974 J-0.231931
G01 X42.143395 Y10.796038 Z0.000000
G01 X42.802235 Y12.158796 Z0.000000
G01 X43.461081 Y13.521564 Z0.000000
G01 X42.717976 Y13.435566 Z0.000000
G03 X40.750733 Y13.001723 Z0.000000 I1.138512 J-9.839635
G03 X39.400708 Y12.340216 Z0.000000 I1.729667 J-5.238304
G03 X38.078336 Y11.116303 Z0.000000 I3.269458 J-4.858805
G03 X37.757362 Y10.264231 Z0.000000 I1.172546 J-0.928188
G02 X37.716613 Y10.192172 Z0.000000 I-0.092415 J0.004709
G01 X37.675642 Y10.209231 Z0.000000
G02 X37.816752 Y11.005029 Z0.000000 I1.112337 J0.213171
G02 X38.837809 Y12.146507 Z0.000000 I3.487274 J-2.091972
G02 X40.282098 Y12.990314 Z0.000000 I4.139004 J-5.426511
G02 X42.201718 Y13.592188 Z0.000000 I3.898093 J-9.070449
G03 X44.000213 Y14.147879 Z0.000000 I-1.929205 J9.432120
G03 X44.396694 Y14.513971 Z0.000000 I-0.306381 J0.729556
G03 X44.507411 Y14.924651 Z0.000000 I-0.889829 J0.460157
G03 X44.435576 Y15.300141 Z0.000000 I-0.808343 J0.039973
G03 X44.166480 Y15.517194 Z0.000000 I-0.351125 J-0.159979
G03 X43.034995 Y15.604865 Z0.000000 I-0.883947 J-4.062913
G02 X41.696514 Y15.765000 Z0.000000 I-0.225894 J3.785771
G02 X41.499942 Y16.076240 Z0.000000 I0.082863 J0.270030
G02 X41.872199 Y16.593865 Z0.000000 I0.687014 J-0.101406
G02 X43.451590 Y17.068584 Z0.000000 I2.105905 J-4.141675
G03 X44.636047 Y17.225778 Z0.000000 I-3.686534 J32.319087
G03 X44.908905 Y17.289330 Z0.000000 I-0.267413 J1.765658
G03 X45.428805 Y17.689176 Z0.000000 I-0.290430 J0.915555
G03 X45.388844 Y18.043348 Z0.000000 I-0.239361 J0.152333
G03 X44.814636 Y18.258745 Z0.000000 I-0.527968 J-0.534400
G03 X41.974905 Y17.832728 Z0.000000 I1.013424 J-16.432772
G03 X37.563799 Y15.854149 Z0.000000 I3.067531 J-12.745267
G03 X35.390705 Y13.259287 Z0.000000 I3.665518 J-5.277096
G03 X35.141226 Y10.177629 Z0.000000 I4.098200 J-1.882703
G03 X36.960690 Y7.566183 Z0.000000 I4.607489 J1.270603
G03 X37.642510 Y7.249095 Z0.000000 I1.176506 J1.638200
G03 X37.986242 Y7.306730 Z0.000000 I0.106269 J0.420036
G01 X38.333612 Y7.534329 Z0.000000
G01 X37.985417 Y8.282230 Z0.000000
G02 X37.693179 Y9.041831 Z0.000000 I5.393658 J2.511099
G02 X37.645440 Y9.385901 Z0.000000 I1.035736 J0.319051
G01 X37.694980 Y9.399480 Z0.000000
G02 X37.828692 Y9.092570 Z0.000000 I-0.966149 J-0.603508
G03 X38.052059 Y8.466281 Z0.000000 I4.057285 J1.094060
G03 X38.317982 Y8.002139 Z0.000000 I2.481562 J1.113522
G01 X38.632236 Y7.560808 Z0.000000
G01 X38.240067 Y7.274329 Z0.000000
G01 X37.847902 Y6.987850 Z0.000000
G01 X38.274828 Y6.823889 Z0.000000
G03 X39.649591 Y6.370249 Z0.000000 I5.412161 J14.091699
G03 X40.290244 Y6.264453 Z0.000000 I0.812365 J2.926668
G03 X40.424248 Y6.320291 Z0.000000 I0.009164 J0.166722
G03 X41.134913 Y7.215671 Z0.000000 I-7.720606 J6.857582
G01 X41.134897 Y7.215641 Z0.000000
G00 Z5.000000

(End cutting path id: path848)


(Start cutting path id: path848)
(Change tool to Cylindrical cutter)

G00 Z5.000000
G00 X40.477754 Y7.183443

G01 Z0.000000 F1000.0(Penetrate)
G02 X40.346709 Y7.398074 Z0.000000 I0.671581 J0.557358 F1100.000000
G02 X40.358988 Y7.461583 Z0.000000 I0.053102 J0.022675
G01 X40.413349 Y7.462687 Z0.000000
G02 X40.593936 Y7.244682 Z0.000000 I-0.720697 J-0.780796
G02 X40.572314 Y7.164644 Z0.000000 I-0.047996 J-0.029974
G02 X40.477754 Y7.183483 Z0.000000 I-0.035668 J0.067708
G01 X40.477754 Y7.183443 Z0.000000
G00 Z5.000000

(End cutting path id: path848)


(Start cutting path id: path848)
(Change tool to Cylindrical cutter)

G00 Z5.000000
G00 X38.559417 Y0.917558

G01 Z0.000000 F1000.0(Penetrate)
G01 X38.555959 Y0.943313 Z0.000000 F1100.000000
G03 X37.677272 Y0.978361 Z0.000000 I-1.046395 J-15.202007
G02 X34.983268 Y1.185168 Z0.000000 I0.226505 J20.600912
G02 X31.601917 Y1.848448 Z0.000000 I4.747950 J33.155244
G02 X26.132531 Y4.075210 Z0.000000 I5.082389 J20.313747
G02 X22.634134 Y7.080174 Z0.000000 I6.435414 J11.031057
G01 X21.852919 Y8.047077 Z0.000000
G01 X20.542089 Y8.298360 Z0.000000
G02 X17.586505 Y9.062011 Z0.000000 I4.532495 J23.643644
G02 X14.633610 Y10.232058 Z0.000000 I8.107107 J24.771446
G03 X13.400312 Y10.799361 Z0.000000 I-40.541457 J-86.511509
G03 X13.355524 Y10.809001 Z0.000000 I-0.044788 J-0.099218
G01 X13.344211 Y10.789405 Z0.000000
G03 X13.837727 Y9.973870 Z0.000000 I20.073511 J11.590263
G03 X16.900512 Y7.001508 Z0.000000 I7.721704 J4.892446
G03 X26.036203 Y2.747794 Z0.000000 I25.974205 J43.847539
G03 X28.995647 Y1.872988 Z0.000000 I10.342211 J29.544123
G03 X32.368963 Y1.210826 Z0.000000 I9.160506 J37.743683
G03 X37.254175 Y0.728297 Z0.000000 I7.158780 J47.506163
G03 X38.559417 Y0.917528 Z0.000000 I0.164120 J3.464110
G01 X38.559417 Y0.917558 Z0.000000
G00 Z5.000000

(End cutting path id: path848)


(Start cutting path id: path848)
(Change tool to Cylindrical cutter)

G00 Z5.000000
G00 X33.080532 Y9.191634

G01 Z0.000000 F1000.0(Penetrate)
G03 X33.069319 Y9.280178 Z0.000000 I-0.355216 J0.000001 F1100.000000
G03 X32.915699 Y9.832035 Z0.000000 I-14.169246 J-3.646997
G03 X32.656945 Y10.256014 Z0.000000 I-0.936461 J-0.280570
G03 X32.343751 Y10.382196 Z0.000000 I-0.313196 J-0.325600
G03 X32.090652 Y10.260671 Z0.000000 I-0.000001 J-0.324324
G03 X32.030189 Y9.990847 Z0.000000 I0.245479 J-0.196694
G03 X32.377736 Y9.272403 Z0.000000 I1.811526 J0.433039
G03 X32.729764 Y9.101415 Z0.000000 I0.352030 J0.276887
G03 X33.041145 Y9.140816 Z0.000000 I0.000004 J1.250086
G03 X33.080532 Y9.191614 Z0.000000 I-0.013065 J0.050799
G01 X33.080532 Y9.191634 Z0.000000
G00 Z5.000000

(End cutting path id: path848)


(Start cutting path id: path848)
(Change tool to Cylindrical cutter)

G00 Z5.000000
G00 X32.371939 Y8.940636

G01 Z0.000000 F1000.0(Penetrate)
G02 X32.099797 Y9.123509 Z0.000000 I0.146822 J0.512421 F1100.000000
G02 X31.849219 Y9.605218 Z0.000000 I1.148789 J0.903613
G02 X31.803451 Y10.462456 Z0.000000 I1.732442 J0.522335
G02 X32.048793 Y10.664877 Z0.000000 I0.244107 J-0.045974
G02 X32.782912 Y10.418452 Z0.000000 I-0.006327 J-1.235560
G02 X33.245751 Y9.768744 Z0.000000 I-0.785448 J-1.049251
G02 X33.465950 Y9.034033 Z0.000000 I-19.661863 J-6.293166
G01 X33.458921 Y9.006243 Z0.000000
G02 X33.134543 Y8.856925 Z0.000000 I-0.354040 J0.342115
G02 X32.371939 Y8.940646 Z0.000000 I-0.136897 J2.268101
G01 X32.371939 Y8.940636 Z0.000000
G00 Z5.000000

(End cutting path id: path848)


(Start cutting path id: path848)
(Change tool to Cylindrical cutter)

G00 Z5.000000
G00 X31.274115 Y9.635079

G01 Z0.000000 F1000.0(Penetrate)
G03 X30.883831 Y10.328930 Z0.000000 I-1.972741 J-0.652956 F1100.000000
G03 X30.466238 Y10.584312 Z0.000000 I-0.598288 J-0.509194
G03 X30.232147 Y10.498097 Z0.000000 I-0.051957 J-0.219836
G03 X30.155338 Y10.160563 Z0.000000 I0.350742 J-0.257320
G03 X30.568279 Y9.185116 Z0.000000 I2.439706 J0.457684
G03 X31.004886 Y8.959110 Z0.000000 I0.436608 J0.308727
G01 X31.497852 Y8.959109 Z0.000000
G01 X31.274115 Y9.635079 Z0.000000
G00 Z5.000000

(End cutting path id: path848)


(Start cutting path id: path848)
(Change tool to Cylindrical cutter)

G00 Z5.000000
G00 X30.088413 Y9.279303

G01 Z0.000000 F1000.0(Penetrate)
G03 X29.931050 Y9.884008 Z0.000000 I-402.349280 J-104.380979 F1100.000000
G03 X29.810091 Y10.345514 Z0.000000 I-232.139762 J-60.596312
G02 X29.741907 Y10.783006 Z0.000000 I2.088017 J0.549480
G02 X29.783622 Y10.855084 Z0.000000 I0.076282 J0.003962
G02 X29.883402 Y10.878067 Z0.000000 I0.096206 J-0.189581
G02 X30.552741 Y10.841981 Z0.000000 I-0.152131 J-9.047466
G01 X31.226910 Y10.780679 Z0.000000
G01 X31.513326 Y9.818929 Z0.000000
G02 X31.787772 Y8.855435 Z0.000000 I-40.176215 J-11.964784
G02 X31.799743 Y8.765798 Z0.000000 I-0.329584 J-0.089636
G01 X31.756697 Y8.717396 Z0.000000
G02 X31.022526 Y8.674400 Z0.000000 I-0.734152 J6.246360
G01 X30.245315 Y8.674402 Z0.000000
G01 X30.088413 Y9.279303 Z0.000000
G00 Z5.000000

(End cutting path id: path848)


(Start cutting path id: path848)
(Change tool to Cylindrical cutter)

G00 Z5.000000
G00 X27.815084 Y7.968409

G01 Z0.000000 F1000.0(Penetrate)
G03 X27.787731 Y8.109830 Z0.000000 I-0.379261 J0.000001 F1100.000000
G03 X27.535000 Y8.665400 Z0.000000 I-6.321059 J-2.540207
G02 X26.915345 Y10.457868 Z0.000000 I6.101007 J3.112455
G02 X26.694738 Y12.943563 Z0.000000 I11.635512 J2.285299
G02 X26.770578 Y14.567638 Z0.000000 I27.312100 J-0.461597
G02 X26.836395 Y14.793582 Z0.000000 I0.570777 J-0.043708
G03 X26.939793 Y15.011918 Z0.000000 I-2.210642 J1.180549
G03 X27.296707 Y15.900581 Z0.000000 I-36.379259 J15.127042
G02 X28.267862 Y17.741596 Z0.000000 I8.409142 J-3.259257
G02 X29.949758 Y19.769663 Z0.000000 I11.917795 J-8.172105
G02 X34.443181 Y23.093510 Z0.000000 I13.223631 J-13.177490
G02 X40.073147 Y25.125558 Z0.000000 I10.012186 J-18.924457
G03 X41.258201 Y25.385983 Z0.000000 I-12.196901 J58.327993
G03 X41.313462 Y25.411396 Z0.000000 I-0.033624 J0.145904
G03 X41.343828 Y25.486141 Z0.000000 I-0.045862 J0.062173
G03 X40.825805 Y28.493190 Z0.000000 I-210.897958 J-34.783119
G03 X40.266772 Y31.484250 Z0.000000 I-212.808067 J-38.226329
G03 X40.196870 Y31.627522 Z0.000000 I-0.301966 J-0.058640
G03 X39.929610 Y31.719173 Z0.000000 I-0.212855 J-0.185201
G03 X36.660155 Y30.932520 Z0.000000 I7.706403 J-39.216523
G03 X28.785172 Y27.475254 Z0.000000 I8.743264 J-30.612943
G03 X23.511839 Y22.886246 Z0.000000 I10.978836 J-17.940384
G03 X20.874466 Y18.085201 Z0.000000 I11.481103 J-9.431872
G03 X20.393406 Y13.378761 Z0.000000 I10.531302 J-3.454243
G03 X20.917332 Y10.805904 Z0.000000 I14.898568 J1.694109
G03 X21.692140 Y9.003567 Z0.000000 I8.024804 J2.382081
G03 X22.214008 Y8.406243 Z0.000000 I1.776057 J1.025066
G03 X22.774141 Y8.167124 Z0.000000 I0.739445 J0.956529
G03 X27.552539 Y7.716011 Z0.000000 I6.506657 J43.388483
G03 X27.815084 Y7.968409 Z0.000000 I0.009950 J0.252399
G01 X27.815084 Y7.968409 Z0.000000
G00 Z5.000000

(End cutting path id: path848)


(Start cutting path id: path848)
(Change tool to Cylindrical cutter)

G00 Z5.000000
G00 X21.195188 Y9.421499

G01 Z0.000000 F1000.0(Penetrate)
G02 X20.071822 Y13.442921 Z0.000000 I11.274671 J5.317143 F1100.000000
G02 X20.360667 Y17.406561 Z0.000000 I11.231826 J1.173840
G03 X20.545582 Y18.232527 Z0.000000 I-13.961484 J3.559337
G03 X20.529739 Y18.281570 Z0.000000 I-0.052455 J0.010135
G03 X20.482266 Y18.317235 Z0.000000 I-0.185672 J-0.197719
G03 X19.063096 Y19.149955 Z0.000000 I-104.807871 J-176.994158
G02 X17.667065 Y20.001195 Z0.000000 I19.632525 J33.767623
G02 X17.592570 Y20.089388 Z0.000000 I0.104850 J0.164123
G03 X17.520719 Y20.164592 Z0.000000 I-0.135177 J-0.057224
G03 X17.358271 Y20.201435 Z0.000000 I-0.162449 J-0.339720
G02 X16.626616 Y20.551519 Z0.000000 I0.000003 J0.939605
G02 X16.293641 Y21.522751 Z0.000000 I1.172391 J0.944633
G01 X16.355697 Y21.557906 Z0.000000
G02 X16.487661 Y21.411064 Z0.000000 I-0.158278 J-0.274959
G03 X16.712897 Y21.011802 Z0.000000 I2.144481 J0.946606
G03 X16.944595 Y20.759470 Z0.000000 I1.071732 J0.751551
G03 X20.095491 Y18.564285 Z0.000000 I13.977643 J16.704108
G03 X20.616743 Y18.655840 Z0.000000 I0.205622 J0.358936
G03 X20.653813 Y18.711352 Z0.000000 I-0.222417 J0.188661
G03 X21.263812 Y19.916801 Z0.000000 I-106.747130 J54.774753
G02 X22.491348 Y22.002203 Z0.000000 I15.660095 J-7.814060
G02 X23.859950 Y23.701743 Z0.000000 I11.735486 J-8.049508
G03 X24.500393 Y24.443537 Z0.000000 I-8.402952 J7.902225
G03 X24.542019 Y24.563167 Z0.000000 I-0.151089 J0.119630
G03 X23.505899 Y26.992314 Z0.000000 I-3.365562 J0.000010
G03 X20.928465 Y28.028434 Z0.000000 I-2.577444 J-2.687755
G03 X20.302546 Y27.770862 Z0.000000 I-0.000003 J-0.889295
G03 X18.663593 Y25.784382 Z0.000000 I9.061565 J-9.145632
G03 X17.456956 Y23.939822 Z0.000000 I88.445615 J-59.174527
G03 X16.862837 Y22.968379 Z0.000000 I23.932701 J-15.304256
G02 X16.343803 Y22.190640 Z0.000000 I-6.772428 J3.957600
G01 X16.288073 Y22.209360 Z0.000000
G02 X16.338985 Y22.418714 Z0.000000 I0.455907 J-0.000001
G02 X16.838635 Y23.274423 Z0.000000 I8.567047 J-4.428592
G03 X17.388070 Y24.115676 Z0.000000 I-313.918126 J205.624677
G03 X18.456287 Y25.758503 Z0.000000 I-1196.881690 J779.417617
G02 X20.177394 Y27.885392 Z0.000000 I11.001474 J-7.142730
G02 X20.865733 Y28.170743 Z0.000000 I0.688335 J-0.687538
G02 X21.241364 Y28.040486 Z0.000000 I-0.000002 J-0.606747
G02 X23.053942 Y26.445706 Z0.000000 I-13.851927 J-17.571129
G01 X24.813318 Y24.720670 Z0.000000
G01 X25.638259 Y25.458143 Z0.000000
G02 X27.949851 Y27.226279 Z0.000000 I12.689203 J-14.194258
G02 X31.375275 Y29.187933 Z0.000000 I19.090837 J-29.364704
G01 X33.340127 Y30.170504 Z0.000000
G01 X32.019478 Y32.906226 Z0.000000
G02 X30.712294 Y35.648283 Z0.000000 I279.255725 J134.808436
G02 X29.525942 Y38.203519 Z0.000000 I241.288859 J113.579326
G03 X28.343092 Y40.758422 Z0.000000 I-304.520557 J-139.433394
G03 X28.300527 Y40.821441 Z0.000000 I-0.221301 J-0.103588
G03 X28.238774 Y40.836822 Z0.000000 I-0.042717 J-0.039848
G03 X26.786382 Y40.299529 Z0.000000 I11.259464 J-32.667892
G02 X22.137534 Y38.926679 Z0.000000 I-9.966036 J25.190160
G02 X17.746735 Y38.490036 Z0.000000 I-4.405989 J22.010943
G01 X15.007225 Y38.488443 Z0.000000
G01 X14.943483 Y38.061514 Z0.000000
G03 X14.897133 Y37.632879 Z0.000000 I5.265199 J-0.786174
G03 X14.796295 Y35.874935 Z0.000000 I88.609894 J-5.964648
G02 X14.644393 Y34.130697 Z0.000000 I-22.155821 J1.050775
G02 X14.511577 Y33.633560 Z0.000000 I-1.900335 J0.241387
G02 X14.213918 Y33.296577 Z0.000000 I-0.644402 J0.269250
G02 X13.669381 Y33.151850 Z0.000000 I-0.544534 J0.952041
G02 X12.315594 Y33.402780 Z0.000000 I0.000011 J3.777417
G02 X8.745722 Y35.042019 Z0.000000 I11.019803 J28.705307
G02 X7.547133 Y36.104813 Z0.000000 I1.659746 J3.079076
G02 X7.180326 Y37.261165 Z0.000000 I1.639267 J1.156346
G02 X7.290006 Y38.462733 Z0.000000 I6.636751 J-0.000019
G02 X7.695488 Y40.059541 Z0.000000 I12.169038 J-2.240233
G01 X8.210643 Y41.638904 Z0.000000
G01 X7.818164 Y42.056006 Z0.000000
G02 X6.274050 Y44.068814 Z0.000000 I9.197586 J8.654560
G02 X5.118481 Y46.422203 Z0.000000 I11.472899 J7.093863
G03 X4.838604 Y47.060240 Z0.000000 I-6.012014 J-2.256786
G03 X4.777337 Y47.097709 Z0.000000 I-0.060901 J-0.030756
G03 X4.577669 Y46.981213 Z0.000000 I0.001132 J-0.231299
G03 X2.844465 Y43.717076 Z0.000000 I51.348758 J-29.357565
G03 X1.990861 Y41.733680 Z0.000000 I19.208519 J-9.442253
G03 X1.475397 Y40.034683 Z0.000000 I13.563825 J-5.042868
G01 X1.197936 Y38.866438 Z0.000000
G01 X1.635180 Y36.898590 Z0.000000
G03 X2.906186 Y32.033955 Z0.000000 I66.486601 J14.772908
G03 X4.520304 Y27.317188 Z0.000000 I64.114854 J19.306091
G03 X7.303103 Y21.113423 Z0.000000 I58.033202 J22.305708
G03 X11.917943 Y12.980815 Z0.000000 I104.494730 J53.919782
G01 X12.911771 Y11.381143 Z0.000000
G01 X14.350863 Y10.675568 Z0.000000
G03 X17.113002 Y9.517590 Z0.000000 I11.204701 J22.853434
G03 X20.037265 Y8.676192 Z0.000000 I8.714597 J24.785105
G03 X21.031943 Y8.851979 Z0.000000 I0.287779 J1.273671
G03 X21.195188 Y9.421749 Z0.000000 I-0.243386 J0.378003
G01 X21.195188 Y9.421499 Z0.000000
G00 Z5.000000

(End cutting path id: path848)


(Start cutting path id: path848)
(Change tool to Cylindrical cutter)

G00 Z5.000000
G00 X14.550799 Y14.402338

G01 Z0.000000 F1000.0(Penetrate)
G03 X14.621343 Y14.856097 Z0.000000 I-0.344552 J0.285930 F1100.000000
G03 X13.990655 Y15.787779 Z0.000000 I-2.491769 J-1.007457
G02 X13.929360 Y15.913897 Z0.000000 I0.140221 J0.146103
G01 X13.975065 Y15.944969 Z0.000000
G02 X14.972562 Y14.792467 Z0.000000 I-0.936216 J-1.818220
G02 X14.567381 Y14.224458 Z0.000000 I-0.405179 J-0.139491
G02 X14.511525 Y14.275350 Z0.000000 I0.000000 J0.056098
G02 X14.550802 Y14.402338 Z0.000000 I0.172844 J0.016108
G01 X14.550799 Y14.402338 Z0.000000
G00 Z5.000000

(End cutting path id: path848)


(Start cutting path id: path848)
(Change tool to Cylindrical cutter)

G00 Z5.000000
G00 X13.517973 Y14.666121

G01 Z0.000000 F1000.0(Penetrate)
G02 X13.064240 Y15.130118 Z0.000000 I2.818084 J3.209583 F1100.000000
G02 X13.014940 Y15.265562 Z0.000000 I0.161403 J0.135443
G01 X13.064986 Y15.290976 Z0.000000
G02 X13.406289 Y14.979651 Z0.000000 I-1.258903 J-1.722870
G03 X13.820905 Y14.565419 Z0.000000 I3.487231 J3.075842
G03 X14.082258 Y14.384539 Z0.000000 I0.903635 J1.026407
G02 X14.214062 Y14.269201 Z0.000000 I-0.180568 J-0.339326
G01 X14.193941 Y14.228779 Z0.000000
G02 X14.038454 Y14.272864 Z0.000000 I-0.005798 J0.275790
G02 X13.517973 Y14.666121 Z0.000000 I2.411288 J3.732444
G01 X13.517973 Y14.666121 Z0.000000
G00 Z5.000000

(End cutting path id: path848)


(Start cutting path id: path848)
(Change tool to Cylindrical cutter)

G00 Z5.000000
G00 X13.589183 Y15.068951

G01 Z0.000000 F1000.0(Penetrate)
G02 X13.466272 Y15.350344 Z0.000000 I1.703655 J0.911685 F1100.000000
G02 X13.441868 Y15.495881 Z0.000000 I0.421757 J0.145535
G02 X13.615931 Y15.643462 Z0.000000 I0.149596 J-0.000000
G02 X14.029259 Y15.398479 Z0.000000 I-0.108452 J-0.654146
G01 X14.024855 Y15.349217 Z0.000000
G01 X13.972089 Y15.347579 Z0.000000
G03 X13.723566 Y15.479885 Z0.000000 I-0.495716 J-0.631588
G03 X13.631614 Y15.457750 Z0.000000 I-0.027892 J-0.086193
G03 X13.633925 Y15.093216 Z0.000000 I0.181125 J-0.181126
G03 X14.105058 Y14.996169 Z0.000000 I0.311342 J0.319342
G02 X14.247362 Y14.998944 Z0.000000 I0.074993 J-0.195628
G02 X14.295722 Y14.931469 Z0.000000 I-0.022892 J-0.067475
G02 X14.049929 Y14.728877 Z0.000000 I-0.206389 J0.000001
G02 X13.589183 Y15.068891 Z0.000000 I0.127349 J0.654749
G01 X13.589183 Y15.068951 Z0.000000
G00 Z5.000000

(End cutting path id: path848)


(Start cutting path id: path848)
(Change tool to Cylindrical cutter)

G00 Z5.000000
G00 X12.929801 Y15.861013

G01 Z0.000000 F1000.0(Penetrate)
G02 X13.026128 Y16.064081 Z0.000000 I0.292633 J-0.014431 F1100.000000
G02 X13.266165 Y16.164562 Z0.000000 I0.263053 J-0.291454
G02 X13.317619 Y16.145011 Z0.000000 I0.003937 J-0.067123
G01 X13.310495 Y16.120261 Z0.000000
G03 X13.085331 Y16.003337 Z0.000000 I0.111497 J-0.489977
G03 X12.974130 Y15.816712 Z0.000000 I0.246841 J-0.273523
G01 X12.949559 Y15.809811 Z0.000000
G02 X12.929800 Y15.861013 Z0.000000 I0.047848 J0.047879
G01 X12.929801 Y15.861013 Z0.000000
G00 Z5.000000

(End cutting path id: path848)


(Start cutting path id: path848)
(Change tool to Cylindrical cutter)

G00 Z5.000000
G00 X12.678494 Y11.270883

G01 Z0.000000 F1000.0(Penetrate)
G02 X7.374820 Y20.396095 Z0.000000 I95.531884 J61.628068 F1100.000000
G02 X3.956551 Y28.022010 Z0.000000 I63.216923 J32.915661
G02 X2.196537 Y33.445213 Z0.000000 I54.503088 J20.685294
G02 X0.739603 Y39.881160 Z0.000000 I75.362193 J20.442965
G03 X0.370992 Y41.583183 Z0.000000 I-26.024247 J-4.745197
G01 X0.307476 Y41.600734 Z0.000000
G03 X-0.005629 Y40.827725 Z0.000000 I0.756239 J-0.756229
G03 X0.420725 Y34.383823 Z0.000000 I64.116268 J1.006125
G03 X3.153528 Y24.067455 Z0.000000 I37.316794 J4.365068
G03 X8.797440 Y14.651394 Z0.000000 I36.594293 J15.534839
G03 X12.949212 Y10.000337 Z0.000000 I48.313788 J38.948784
G03 X13.390731 Y9.998931 Z0.000000 I0.221458 J0.218639
G03 X13.400667 Y10.070715 Z0.000000 I-0.042443 J0.042455
G03 X12.678494 Y11.270883 Z0.000000 I-19.563431 J-10.954490
G01 X12.678494 Y11.270883 Z0.000000
G00 Z5.000000

(End cutting path id: path848)


(Start cutting path id: path848)
(Change tool to Cylindrical cutter)

G00 Z5.000000
G00 X31.515143 Y13.939779

G01 Z0.000000 F1000.0(Penetrate)
G02 X31.282616 Y14.245972 Z0.000000 I1.003329 J1.003330 F1100.000000
G02 X31.230526 Y14.444339 Z0.000000 I0.351656 J0.198366
G02 X31.510394 Y15.097743 Z0.000000 I0.902686 J-0.000003
G02 X32.184649 Y15.353777 Z0.000000 I0.641166 J-0.672655
G01 X32.210370 Y15.294962 Z0.000000
G02 X31.979294 Y15.115267 Z0.000000 I-0.561072 J0.483082
G03 X31.532858 Y14.549220 Z0.000000 I0.376203 J-0.755781
G03 X31.718309 Y13.983698 Z0.000000 I0.560663 J-0.129311
G02 X31.974237 Y13.701908 Z0.000000 I-1.010835 J-1.175178
G01 X31.950006 Y13.655167 Z0.000000
G02 X31.816280 Y13.695039 Z0.000000 I0.000001 J0.244190
G02 X31.515143 Y13.939779 Z0.000000 I1.034213 J1.580167
G01 X31.515143 Y13.939779 Z0.000000
G00 Z5.000000

(End cutting path id: path848)


(Start cutting path id: path848)
(Change tool to Cylindrical cutter)

G00 Z5.000000
G00 X32.014234 Y14.222817

G01 Z0.000000 F1000.0(Penetrate)
G01 X32.031668 Y14.277051 Z0.000000 F1100.000000
G02 X32.148144 Y14.278717 Z0.000000 I0.060318 J-0.144545
G02 X32.280895 Y14.152441 Z0.000000 I-0.085487 J-0.222787
G02 X32.235094 Y14.082107 Z0.000000 I-0.045801 J-0.020255
G02 X32.119903 Y14.115676 Z0.000000 I0.000001 J0.214424
G02 X32.014239 Y14.222787 Z0.000000 I0.181086 J0.284311
G01 X32.014234 Y14.222817 Z0.000000
G00 Z5.000000

(End cutting path id: path848)


(Start cutting path id: path848)
(Change tool to Cylindrical cutter)

G00 Z5.000000
G00 X32.084383 Y14.793627

G01 Z0.000000 F1000.0(Penetrate)
G02 X32.307323 Y14.897181 Z0.000000 I0.481422 J-0.744687 F1100.000000
G02 X32.511311 Y14.923756 Z0.000000 I0.181183 J-0.594577
G01 X32.535835 Y14.880680 Z0.000000
G02 X32.440151 Y14.793626 Z0.000000 I-0.173922 J0.095052
G02 X32.104737 Y14.724613 Z0.000000 I-0.335412 J0.780567
G01 X32.084378 Y14.793627 Z0.000000
G01 X32.084383 Y14.793627 Z0.000000
G00 Z5.000000

(End cutting path id: path848)


(Start cutting path id: path848)
(Change tool to Cylindrical cutter)

G00 Z5.000000
G00 X32.558748 Y15.315436

G01 Z0.000000 F1000.0(Penetrate)
G02 X32.653622 Y15.354690 Z0.000000 I0.094873 J-0.095019 F1100.000000
G02 X32.748494 Y15.315435 Z0.000000 I-0.000000 J-0.134274
G01 X32.748494 Y15.259842 Z0.000000
G02 X32.653624 Y15.220535 Z0.000000 I-0.094870 J0.094835
G02 X32.558755 Y15.259839 Z0.000000 I0.000000 J0.134147
G01 X32.558754 Y15.315436 Z0.000000
G01 X32.558748 Y15.315436 Z0.000000
G00 Z5.000000

(End cutting path id: path848)


(Start cutting path id: path848)
(Change tool to Cylindrical cutter)

G00 Z5.000000
G00 X32.790755 Y14.289315

G01 Z0.000000 F1000.0(Penetrate)
G03 X32.889310 Y14.503066 Z0.000000 I-0.351314 J0.291577 F1100.000000
G03 X32.858457 Y14.680665 Z0.000000 I-0.263840 J0.045643
G01 X32.870464 Y14.718506 Z0.000000
G01 X32.922027 Y14.710665 Z0.000000
G02 X33.044433 Y14.301032 Z0.000000 I-0.282236 J-0.307442
G02 X32.763278 Y14.082055 Z0.000000 I-0.281154 J0.071004
G01 X32.721155 Y14.130133 Z0.000000
G02 X32.790758 Y14.289285 Z0.000000 I0.311076 J-0.041250
G01 X32.790755 Y14.289315 Z0.000000
G00 Z5.000000

(End cutting path id: path848)


(Start cutting path id: path848)
(Change tool to Cylindrical cutter)

G00 Z5.000000
G00 X33.121443 Y13.984774

G01 Z0.000000 F1000.0(Penetrate)
G03 X33.287861 Y14.539708 Z0.000000 I-0.851057 J0.557643 F1100.000000
G03 X33.124045 Y14.966484 Z0.000000 I-0.633436 J0.001686
G02 X33.049823 Y15.118514 Z0.000000 I0.225848 J0.204393
G01 X33.091526 Y15.152834 Z0.000000
G02 X33.529382 Y14.760799 Z0.000000 I-0.295877 J-0.770994
G02 X33.575691 Y14.215393 Z0.000000 I-0.636437 J-0.328707
G02 X33.440752 Y13.978895 Z0.000000 I-0.619148 J0.196523
G02 X33.182894 Y13.776164 Z0.000000 I-0.702665 J0.628382
G02 X33.095939 Y13.812550 Z0.000000 I-0.028672 J0.053574
G02 X33.121375 Y13.984774 Z0.000000 I0.198808 J0.058628
G01 X33.121443 Y13.984774 Z0.000000
G00 Z5.000000

(End cutting path id: path848)


(Start cutting path id: path848)
(Change tool to Cylindrical cutter)

G00 Z5.000000
G00 X32.342315 Y13.610066

G01 Z0.000000 F1000.0(Penetrate)
G02 X32.520042 Y13.640501 Z0.000000 I0.159917 J-0.399711 F1100.000000
G02 X32.615074 Y13.598865 Z0.000000 I-0.005911 J-0.142764
G01 X32.605980 Y13.554583 Z0.000000
G02 X32.428294 Y13.524166 Z0.000000 I-0.159901 J0.399891
G02 X32.333250 Y13.565880 Z0.000000 I0.006033 J0.142880
G01 X32.342314 Y13.610166 Z0.000000
G01 X32.342315 Y13.610066 Z0.000000
G00 Z5.000000

(End cutting path id: path848)


(Start cutting path id: path848)
(Change tool to Cylindrical cutter)

G00 Z5.000000
G00 X33.662254 Y13.098392

G01 Z0.000000 F1000.0(Penetrate)
G03 X34.195060 Y13.866337 Z0.000000 I-1.857714 J1.857703 F1100.000000
G03 X34.361330 Y14.631910 Z0.000000 I-1.679392 J0.765579
G03 X34.222425 Y14.893255 Z0.000000 I-0.315306 J0.000001
G03 X30.973184 Y16.918820 Z0.000000 I-29.523784 J-43.740711
G03 X28.948994 Y17.948026 Z0.000000 I-11.137917 J-19.400349
G03 X28.732719 Y17.918307 Z0.000000 I-0.084233 J-0.188819
G03 X26.924453 Y15.553940 Z0.000000 I4.257050 J-5.129452
G03 X27.218993 Y14.597901 Z0.000000 I0.685095 J-0.312324
G03 X27.322737 Y14.551410 Z0.000000 I0.238477 J0.393157
G03 X29.807431 Y13.804664 Z0.000000 I70.132839 J228.850182
G02 X32.291756 Y13.054233 Z0.000000 I-53.770280 J-182.495766
G02 X32.582461 Y12.945736 Z0.000000 I-0.804675 J-2.599714
G03 X33.188939 Y12.862167 Z0.000000 I0.449995 J1.023264
G03 X33.662254 Y13.098392 Z0.000000 I-0.116834 J0.826389
G01 X33.662254 Y13.098392 Z0.000000
G00 Z5.000000

(End cutting path id: path848)


(Start cutting path id: path848)
(Change tool to Cylindrical cutter)

G00 Z5.000000
G00 X33.494870 Y16.892843

G01 Z0.000000 F1000.0(Penetrate)
G02 X32.284913 Y17.865793 Z0.000000 I46.366833 J58.900438 F1100.000000
G02 X31.608616 Y18.442068 Z0.000000 I15.570209 J18.957628
G01 X30.942629 Y19.030700 Z0.000000
G01 X31.425070 Y19.454279 Z0.000000
G02 X36.708523 Y22.723160 Z0.000000 I12.368911 J-14.087491
G02 X43.220114 Y24.269409 Z0.000000 I8.221872 J-20.140104
G01 X44.465321 Y24.367615 Z0.000000
G01 X44.465314 Y21.999938 Z0.000000
G01 X44.465307 Y19.632271 Z0.000000
G01 X43.552815 Y19.632274 Z0.000000
G03 X39.336868 Y18.850557 Z0.000000 I-0.000034 J-11.759375
G03 X35.513968 Y16.545007 Z0.000000 I4.570216 J-11.900217
G02 X34.807683 Y15.947728 Z0.000000 I-18.212039 J20.819593
G02 X34.764315 Y15.932259 Z0.000000 I-0.043367 J0.053056
G02 X34.720257 Y15.947050 Z0.000000 I0.000000 J0.073016
G02 X33.494870 Y16.892843 Z0.000000 I48.877236 J64.592965
G01 X33.494870 Y16.892843 Z0.000000
G00 Z5.000000

(End cutting path id: path848)


(Start cutting path id: path848)
(Change tool to Cylindrical cutter)

G00 Z5.000000
G00 X32.705594 Y18.504005

G01 Z0.000000 F1000.0(Penetrate)
G03 X32.971225 Y19.018500 Z0.000000 I-0.431540 J0.548622 F1100.000000
G03 X32.760367 Y19.622975 Z0.000000 I-0.852266 J0.041719
G01 X32.440172 Y19.987923 Z0.000000
G01 X32.831522 Y19.642925 Z0.000000
G02 X33.155171 Y19.267354 Z0.000000 I-1.200488 J-1.361760
G02 X33.222870 Y19.038104 Z0.000000 I-0.354300 J-0.229249
G02 X32.995540 Y18.436389 Z0.000000 I-0.910005 J0.000003
G02 X32.492130 Y18.209056 Z0.000000 I-0.503408 J0.443710
G01 X32.467867 Y18.256561 Z0.000000
G02 X32.705594 Y18.504005 Z0.000000 I1.003278 J-0.725961
G01 X32.705594 Y18.504005 Z0.000000
G00 Z5.000000

(End cutting path id: path848)


(Start cutting path id: path848)
(Change tool to Cylindrical cutter)

G00 Z5.000000
G00 X34.437047 Y20.064094

G01 Z0.000000 F1000.0(Penetrate)
G03 X34.535386 Y20.349655 Z0.000000 I-0.284889 J0.257820 F1100.000000
G03 X34.393989 Y20.658922 Z0.000000 I-0.485838 J-0.035169
G03 X34.065462 Y20.835069 Z0.000000 I-0.455949 J-0.455943
G03 X33.718038 Y20.795183 Z0.000000 I-0.112138 J-0.556275
G01 X33.347276 Y20.626254 Z0.000000
G01 X33.650540 Y20.200355 Z0.000000
G03 X34.068684 Y19.937161 Z0.000000 I0.529001 J0.376683
G03 X34.437053 Y20.064094 Z0.000000 I0.068939 J0.397921
G01 X34.437047 Y20.064094 Z0.000000
G00 Z5.000000

(End cutting path id: path848)


(Start cutting path id: path848)
(Change tool to Cylindrical cutter)

G00 Z5.000000
G00 X35.810625 Y17.143576

G01 Z0.000000 F1000.0(Penetrate)
G02 X39.267886 Y19.058341 Z0.000000 I8.527648 J-11.318789 F1100.000000
G02 X42.928081 Y19.870598 Z0.000000 I4.563210 J-11.909838
G01 X44.180686 Y19.959514 Z0.000000
G01 X44.170692 Y22.037262 Z0.000000
G03 X44.108000 Y23.832297 Z0.000000 I-29.839038 J-0.143526
G01 X44.053273 Y23.840802 Z0.000000
G02 X43.946529 Y23.761177 Z0.000000 I-0.117368 J0.045979
G02 X43.847312 Y23.823383 Z0.000000 I-0.008215 J0.097124
G03 X43.674746 Y23.961123 Z0.000000 I-0.203614 J-0.078127
G03 X42.719535 Y23.985589 Z0.000000 I-0.581469 J-4.042815
G03 X38.844275 Y23.218001 Z0.000000 I1.742435 J-18.963034
G03 X35.247416 Y21.678625 Z0.000000 I5.509684 J-17.845605
G01 X34.354612 Y21.180020 Z0.000000
G01 X34.642599 Y20.813904 Z0.000000
G02 X34.797169 Y20.317457 Z0.000000 I-0.572937 J-0.450671
G02 X34.581277 Y19.839313 Z0.000000 I-0.740636 J0.046601
G02 X34.075501 Y19.654376 Z0.000000 I-0.451959 J0.451964
G02 X33.517212 Y19.929226 Z0.000000 I0.071857 J0.850397
G03 X33.001579 Y20.080292 Z0.000000 I-0.382222 J-0.349102
G03 X31.927255 Y19.505137 Z0.000000 I0.686231 J-2.572742
G01 X31.379270 Y19.022169 Z0.000000
G01 X32.002286 Y18.473767 Z0.000000
G03 X34.406116 Y16.469463 Z0.000000 I38.614378 J43.867882
G03 X34.672146 Y16.366239 Z0.000000 I0.300991 J0.381301
G03 X34.760404 Y16.389939 Z0.000000 I0.010298 J0.137838
G03 X35.810623 Y17.143606 Z0.000000 I-15.701085 J22.987660
G01 X35.810625 Y17.143576 Z0.000000
G00 Z5.000000

(End cutting path id: path848)


(Start cutting path id: path848)
(Change tool to Cylindrical cutter)

G00 Z5.000000
G00 X37.947546 Y22.222164

G01 Z0.000000 F1000.0(Penetrate)
G02 X37.904372 Y22.412515 Z0.000000 I0.129430 J0.129428 F1100.000000
G02 X38.025817 Y22.443918 Z0.000000 I0.071289 J-0.025162
G03 X38.292516 Y22.256827 Z0.000000 I0.952332 J1.073919
G03 X38.559475 Y22.153745 Z0.000000 I0.529214 J0.973324
G01 X38.572597 Y22.110759 Z0.000000
G02 X38.481205 Y22.067905 Z0.000000 I-0.097375 J0.088786
G02 X38.140384 Y22.108293 Z0.000000 I-0.048011 J1.053082
G02 X37.947546 Y22.222168 Z0.000000 I0.124760 J0.431488
G01 X37.947546 Y22.222164 Z0.000000
G00 Z5.000000

(End cutting path id: path848)


(Start cutting path id: path848)
(Change tool to Cylindrical cutter)

G00 Z5.000000
G00 X39.095843 Y22.292321

G01 Z0.000000 F1000.0(Penetrate)
G02 X39.345289 Y22.322714 Z0.000000 I0.237748 J-0.912415 F1100.000000
G02 X39.522774 Y22.286919 Z0.000000 I-0.006054 J-0.487932
G01 X39.520491 Y22.251723 Z0.000000
G02 X39.271020 Y22.221310 Z0.000000 I-0.237860 J0.912729
G02 X39.093550 Y22.256955 Z0.000000 I0.005608 J0.487541
G01 X39.095843 Y22.292181 Z0.000000
G01 X39.095843 Y22.292321 Z0.000000
G00 Z5.000000

(End cutting path id: path848)


(Start cutting path id: path848)
(Change tool to Cylindrical cutter)

G00 Z5.000000
G00 X40.480653 Y22.559840

G01 Z0.000000 F1000.0(Penetrate)
G02 X42.419594 Y22.942011 Z0.000000 I5.086971 J-20.699013 F1100.000000
G02 X42.464966 Y22.856156 Z0.000000 I0.007601 J-0.050899
G02 X41.813978 Y22.489180 Z0.000000 I-0.896812 J0.829989
G02 X40.008841 Y22.351745 Z0.000000 I-1.442597 J7.024278
G01 X40.000611 Y22.396404 Z0.000000
G02 X40.480653 Y22.559840 Z0.000000 I1.175273 J-2.665298
G01 X40.480653 Y22.559840 Z0.000000
G00 Z5.000000

(End cutting path id: path848)


(Start cutting path id: path848)
(Change tool to Cylindrical cutter)

G00 Z5.000000
G00 X42.722026 Y22.999486

G01 Z0.000000 F1000.0(Penetrate)
G02 X42.899916 Y23.034015 Z0.000000 I0.177888 J-0.440961 F1100.000000
G02 X43.077797 Y22.999485 Z0.000000 I-0.000001 J-0.475447
G01 X43.077799 Y22.962246 Z0.000000
G02 X42.899913 Y22.927706 Z0.000000 I-0.177884 J0.440784
G02 X42.722022 Y22.962250 Z0.000000 I0.000001 J0.475326
G01 X42.722026 Y22.999486 Z0.000000
G01 X42.722026 Y22.999486 Z0.000000
G00 Z5.000000

(End cutting path id: path848)


(Start cutting path id: path848)
(Change tool to Cylindrical cutter)

G00 Z5.000000
G00 X43.611462 Y23.239229

G01 Z0.000000 F1000.0(Penetrate)
G02 X43.963053 Y23.385532 Z0.000000 I0.980223 J-1.860014 F1100.000000
G02 X44.034269 Y23.371701 Z0.000000 I0.022812 J-0.072804
G02 X44.019173 Y23.196805 Z0.000000 I-0.067526 J-0.082271
G02 X43.469148 Y23.051818 Z0.000000 I-0.550464 J0.972463
G01 X43.445817 Y23.098809 Z0.000000
G02 X43.611462 Y23.239229 Z0.000000 I0.399535 J-0.303400
G01 X43.611462 Y23.239229 Z0.000000
G00 Z5.000000

(End cutting path id: path848)


(Start cutting path id: path848)
(Change tool to Cylindrical cutter)

G00 Z5.000000
G00 X46.742257 Y21.290579

G01 Z0.000000 F1000.0(Penetrate)
G02 X46.855023 Y21.553935 Z0.000000 I0.363907 J-0.000001 F1100.000000
G02 X47.453807 Y21.969136 Z0.000000 I1.624768 J-1.703794
G01 X47.472088 Y21.949513 Z0.000000
G02 X47.382656 Y21.845390 Z0.000000 I-0.318484 J0.183077
G03 X47.113000 Y21.603780 Z0.000000 I1.976817 J-2.477576
G03 X46.920150 Y21.380709 Z0.000000 I1.490035 J-1.483066
G02 X46.783010 Y21.265544 Z0.000000 I-0.314987 J0.235853
G01 X46.742261 Y21.290579 Z0.000000
G01 X46.742257 Y21.290579 Z0.000000
G00 Z5.000000

(End cutting path id: path848)


(Start cutting path id: path848)
(Change tool to Cylindrical cutter)

G00 Z5.000000
G00 X46.599948 Y20.912908

G01 Z0.000000 F1000.0(Penetrate)
G02 X46.639245 Y21.007786 Z0.000000 I0.134184 J-0.000000 F1100.000000
G01 X46.694818 Y21.007788 Z0.000000
G02 X46.734110 Y20.912928 Z0.000000 I-0.094860 J-0.094859
G02 X46.694817 Y20.818038 Z0.000000 I-0.134226 J0.000000
G01 X46.639257 Y20.818032 Z0.000000
G02 X46.599948 Y20.912908 Z0.000000 I0.094838 J0.094875
G01 X46.599948 Y20.912908 Z0.000000
G00 Z5.000000

(End cutting path id: path848)


(Start cutting path id: path848)
(Change tool to Cylindrical cutter)

G00 Z5.000000
G00 X47.343446 Y21.079917

G01 Z0.000000 F1000.0(Penetrate)
G02 X47.809925 Y21.406901 Z0.000000 I0.453901 J-0.151306 F1100.000000
G02 X48.283366 Y21.055234 Z0.000000 I-0.013482 J-0.512675
G01 X48.245578 Y21.000214 Z0.000000
G02 X48.105784 Y21.046734 Z0.000000 I-0.009767 J0.203952
G03 X47.850591 Y21.145154 Z0.000000 I-0.275040 J-0.333100
G03 X47.569071 Y21.071416 Z0.000000 I-0.022468 J-0.488492
G02 X47.383573 Y21.022053 Z0.000000 I-0.173061 J0.277119
G01 X47.343446 Y21.080017 Z0.000000
G01 X47.343446 Y21.079917 Z0.000000
G00 Z5.000000

(End cutting path id: path848)


(Start cutting path id: path848)
(Change tool to Cylindrical cutter)

G00 Z5.000000
G00 X47.482262 Y20.372132

G01 Z0.000000 F1000.0(Penetrate)
G02 X47.346837 Y20.556951 Z0.000000 I0.531645 J0.531585 F1100.000000
G02 X47.315823 Y20.692330 Z0.000000 I0.245033 J0.127377
G01 X47.353186 Y20.711695 Z0.000000
G02 X47.465202 Y20.592709 Z0.000000 I-0.200529 J-0.301001
G03 X47.641522 Y20.398065 Z0.000000 I0.547844 J0.319087
G03 X47.809573 Y20.343666 Z0.000000 I0.168052 J0.232377
G03 X47.977627 Y20.398064 Z0.000000 I0.000001 J0.286787
G03 X48.153951 Y20.592707 Z0.000000 I-0.371497 J0.513718
G02 X48.265897 Y20.711666 Z0.000000 I0.312769 J-0.182179
G01 X48.303330 Y20.692327 Z0.000000
G02 X48.166119 Y20.348463 Z0.000000 I-0.465780 J-0.013448
G02 X47.809573 Y20.201362 Z0.000000 I-0.356545 J0.358549
G02 X47.667465 Y20.236204 Z0.000000 I0.000001 J0.307228
G02 X47.482262 Y20.372132 Z0.000000 I0.350274 J0.671384
G01 X47.482262 Y20.372132 Z0.000000
G00 Z5.000000

(End cutting path id: path848)


(Start cutting path id: path848)
(Change tool to Cylindrical cutter)

G00 Z5.000000
G00 X47.596109 Y19.845568

G01 Z0.000000 F1000.0(Penetrate)
G02 X47.616939 Y19.895869 Z0.000000 I0.071150 J-0.000000 F1100.000000
G02 X47.667259 Y19.916718 Z0.000000 I0.050320 J-0.050302
G02 X47.717588 Y19.895860 Z0.000000 I-0.000000 J-0.071150
G02 X47.738409 Y19.845568 Z0.000000 I-0.050329 J-0.050292
G02 X47.717551 Y19.795239 Z0.000000 I-0.071150 J0.000000
G02 X47.667258 Y19.774418 Z0.000000 I-0.050292 J0.050329
G02 X47.616952 Y19.795253 Z0.000000 I0.000000 J0.071150
G02 X47.596109 Y19.845568 Z0.000000 I0.050306 J0.050315
G01 X47.596109 Y19.845568 Z0.000000
G00 Z5.000000

(End cutting path id: path848)


(Start cutting path id: path848)
(Change tool to Cylindrical cutter)

G00 Z5.000000
G00 X46.965884 Y20.140355

G01 Z0.000000 F1000.0(Penetrate)
G02 X46.783951 Y20.380628 Z0.000000 I0.778331 J0.778364 F1100.000000
G02 X46.746584 Y20.531706 Z0.000000 I0.256087 J0.143500
G01 X46.787648 Y20.555919 Z0.000000
G02 X46.893424 Y20.454926 Z0.000000 I-0.122175 J-0.233852
G03 X47.061871 Y20.236343 Z0.000000 I0.927976 J0.540929
G03 X47.280451 Y20.067897 Z0.000000 I0.759413 J0.759395
G02 X47.381417 Y19.962184 Z0.000000 I-0.132882 J-0.227987
G01 X47.357231 Y19.921056 Z0.000000
G02 X47.206153 Y19.958536 Z0.000000 I-0.007032 J0.294880
G02 X46.965880 Y20.140359 Z0.000000 I0.536396 J0.958500
G01 X46.965884 Y20.140355 Z0.000000
G00 Z5.000000

(End cutting path id: path848)


(Start cutting path id: path848)
(Change tool to Cylindrical cutter)

G00 Z5.000000
G00 X48.288472 Y20.329010

G01 Z0.000000 F1000.0(Penetrate)
G02 X48.665385 Y20.686440 Z0.000000 I2.602408 J-2.366815 F1100.000000
G01 X48.723287 Y20.684220 Z0.000000
G02 X48.737645 Y20.233217 Z0.000000 I-0.221960 J-0.232796
G02 X48.014619 Y19.916722 Z0.000000 I-0.723023 J0.667612
G01 X47.995236 Y19.952865 Z0.000000
G02 X48.288472 Y20.329010 Z0.000000 I2.621049 J-1.740949
G01 X48.288472 Y20.329010 Z0.000000
G00 Z5.000000

(End cutting path id: path848)


(Start cutting path id: path848)
(Change tool to Cylindrical cutter)

G00 Z5.000000
G00 X48.585874 Y19.576779

G01 Z0.000000 F1000.0(Penetrate)
G03 X48.806407 Y19.869873 Z0.000000 I-1.181099 J1.118211 F1100.000000
G03 X49.665634 Y21.410965 Z0.000000 I-32.437176 J19.095240
G03 X50.936811 Y24.386555 Z0.000000 I-17.592315 J9.274788
G03 X50.762504 Y24.695638 Z0.000000 I-0.226857 J0.075756
G02 X50.371484 Y24.785176 Z0.000000 I11.907663 J52.900028
G02 X49.873074 Y24.902730 Z0.000000 I20.592517 J88.424180
G03 X46.907134 Y25.429911 Z0.000000 I-5.981468 J-25.045159
G03 X46.525542 Y25.297495 Z0.000000 I-0.054219 J-0.459790
G03 X46.496000 Y25.238784 Z0.000000 I0.074048 J-0.074049
G03 X46.128877 Y22.618129 Z0.000000 I167.626795 J-24.818588
G03 X45.870800 Y20.012876 Z0.000000 I39.770904 J-5.255123
G03 X45.941538 Y19.788187 Z0.000000 I0.324070 J-0.021453
G03 X47.283831 Y19.077010 Z0.000000 I1.495045 J1.199457
G03 X48.585874 Y19.576779 Z0.000000 I0.128759 J1.610528
G01 X48.585874 Y19.576779 Z0.000000
G00 Z5.000000

(End cutting path id: path848)


(Start cutting path id: path848)
(Change tool to Cylindrical cutter)

G00 Z5.000000
G00 X48.263140 Y21.640727

G01 Z0.000000 F1000.0(Penetrate)
G02 X47.966013 Y22.007875 Z0.000000 I1.835890 J1.789556 F1100.000000
G01 X47.989294 Y22.051382 Z0.000000
G02 X48.736599 Y21.732494 Z0.000000 I-0.000003 J-1.035097
G02 X48.723289 Y21.285514 Z0.000000 I-0.226368 J-0.216947
G01 X48.664795 Y21.282884 Z0.000000
G02 X48.263140 Y21.640727 Z0.000000 I2.336762 J3.027195
G01 X48.263140 Y21.640727 Z0.000000
G00 Z5.000000

(End cutting path id: path848)


(Start cutting path id: path848)
(Change tool to Cylindrical cutter)

G00 Z5.000000
G00 X44.780252 Y16.419340

G01 Z0.000000 F1000.0(Penetrate)
G03 X44.660550 Y16.693149 Z0.000000 I-0.171614 J0.088045 F1100.000000
G03 X43.429646 Y16.796774 Z0.000000 I-0.887035 J-3.174179
G03 X42.015846 Y16.392642 Z0.000000 I0.443306 J-4.225898
G03 X41.761415 Y15.986129 Z0.000000 I0.197537 J-0.406514
G03 X41.848519 Y15.890352 Z0.000000 I0.096208 J-0.000000
G03 X43.140295 Y15.855055 Z0.000000 I0.907132 J9.543028
G01 X44.519169 Y15.910451 Z0.000000
G01 X44.780252 Y16.419340 Z0.000000
G00 Z5.000000

(End cutting path id: path848)


(Start cutting path id: path848)
(Change tool to Cylindrical cutter)

G00 Z5.000000
G00 X52.434615 Y15.777108

G01 Z0.000000 F1000.0(Penetrate)
G03 X52.247847 Y16.391868 Z0.000000 I-1.105138 J0.000003 F1100.000000
G03 X51.388932 Y17.339201 Z0.000000 I-3.637440 J-2.434903
G03 X51.151556 Y17.408858 Z0.000000 I-0.200535 J-0.244088
G03 X50.861828 Y17.277303 Z0.000000 I0.060949 J-0.519044
G03 X50.805849 Y17.011402 Z0.000000 I0.155221 J-0.171521
G03 X51.310500 Y16.273281 Z0.000000 I2.286823 J1.021919
G03 X52.066797 Y15.625787 Z0.000000 I4.241744 J4.189069
G03 X52.240223 Y15.603289 Z0.000000 I0.107530 J0.149213
G03 X52.400666 Y15.701201 Z0.000000 I-0.186159 J0.485457
G03 X52.434615 Y15.777108 Z0.000000 I-0.067888 J0.075907
G01 X52.434615 Y15.777108 Z0.000000
G00 Z5.000000

(End cutting path id: path848)


(Start cutting path id: path848)
(Change tool to Cylindrical cutter)

G00 Z5.000000
G00 X53.256805 Y16.011266

G01 Z0.000000 F1000.0(Penetrate)
G03 X53.475718 Y16.537050 Z0.000000 I-0.305009 J0.435456 F1100.000000
G03 X52.991760 Y17.548566 Z0.000000 I-2.030890 J-0.350142
G03 X52.182137 Y18.096291 Z0.000000 I-1.458761 J-1.284041
G03 X51.661356 Y18.020030 Z0.000000 I-0.188205 J-0.531084
G03 X51.590006 Y17.804018 Z0.000000 I0.115478 J-0.157933
G03 X51.937851 Y17.130599 Z0.000000 I2.073955 J0.644727
G02 X52.448579 Y16.415623 Z0.000000 I-10.947671 J-8.360144
G02 X52.618843 Y16.109927 Z0.000000 I-1.816611 J-1.212062
G03 X52.868538 Y15.920839 Z0.000000 I0.300133 J0.136923
G03 X53.256805 Y16.011226 Z0.000000 I0.081708 J0.528132
G01 X53.256805 Y16.011266 Z0.000000
G00 Z5.000000

(End cutting path id: path848)


(Start cutting path id: path848)
(Change tool to Cylindrical cutter)

G00 Z5.000000
G00 X54.189748 Y11.757843

G01 Z0.000000 F1000.0(Penetrate)
G02 X54.284608 Y11.797103 Z0.000000 I0.094860 J-0.094970 F1100.000000
G02 X54.379493 Y11.757842 Z0.000000 I-0.000000 J-0.134289
G01 X54.379490 Y11.702252 Z0.000000
G02 X54.284623 Y11.662943 Z0.000000 I-0.094866 J0.094817
G02 X54.189755 Y11.702246 Z0.000000 I0.000000 J0.134146
G01 X54.189753 Y11.757843 Z0.000000
G01 X54.189748 Y11.757843 Z0.000000
G00 Z5.000000

(End cutting path id: path848)


(Start cutting path id: path848)
(Change tool to Cylindrical cutter)

G00 Z5.000000
G00 X55.138476 Y11.603670

G01 Z0.000000 F1000.0(Penetrate)
G02 X54.984934 Y11.749707 Z0.000000 I0.204738 J0.368994 F1100.000000
G01 X55.014321 Y11.803180 Z0.000000
G02 X55.221989 Y11.753569 Z0.000000 I0.003491 J-0.444829
G02 X55.423093 Y11.591809 Z0.000000 I-0.297341 J-0.575551
G01 X55.393453 Y11.531951 Z0.000000
G02 X55.138476 Y11.603610 Z0.000000 I0.023816 J0.574207
G01 X55.138476 Y11.603670 Z0.000000
G00 Z5.000000

(End cutting path id: path848)


(Start cutting path id: path848)
(Change tool to Cylindrical cutter)

G00 Z5.000000
G00 X54.782702 Y10.666761

G01 Z0.000000 F1000.0(Penetrate)
G02 X54.883156 Y10.786670 Z0.000000 I0.464320 J-0.286955 F1100.000000
G02 X54.941808 Y10.809071 Z0.000000 I0.058652 J-0.065583
G01 X54.965380 Y10.782550 Z0.000000
G02 X54.925028 Y10.666761 Z0.000000 I-0.281891 J0.033312
G02 X54.824569 Y10.546849 Z0.000000 I-0.464294 J0.286939
G02 X54.765922 Y10.524451 Z0.000000 I-0.058647 J0.065581
G01 X54.742350 Y10.550972 Z0.000000
G02 X54.782702 Y10.666761 Z0.000000 I0.281891 J-0.033312
G01 X54.782702 Y10.666761 Z0.000000
G00 Z5.000000

(End cutting path id: path848)


(Start cutting path id: path848)
(Change tool to Cylindrical cutter)

G00 Z5.000000
G00 X54.840945 Y10.394961

G01 Z0.000000 F1000.0(Penetrate)
G03 X55.156133 Y10.568394 Z0.000000 I-0.545786 J1.364998 F1100.000000
G03 X55.370078 Y10.777289 Z0.000000 I-0.594799 J0.823186
G02 X55.512053 Y10.884949 Z0.000000 I0.263678 J-0.200278
G01 X55.560876 Y10.852689 Z0.000000
G02 X55.355033 Y10.439260 Z0.000000 I-0.491799 J-0.013095
G02 X54.715456 Y10.248831 Z0.000000 I-0.596979 J0.835762
G01 X54.696775 Y10.291855 Z0.000000
G02 X54.840945 Y10.394941 Z0.000000 I0.282401 J-0.242593
G01 X54.840945 Y10.394961 Z0.000000
G00 Z5.000000

(End cutting path id: path848)


(Start cutting path id: path848)
(Change tool to Cylindrical cutter)

G00 Z5.000000
G00 X54.017955 Y10.775513

G01 Z0.000000 F1000.0(Penetrate)
G02 X54.062335 Y11.288464 Z0.000000 I0.415626 J0.222436 F1100.000000
G02 X54.582125 Y11.496452 Z0.000000 I0.438954 J-0.343499
G02 X54.850708 Y11.390911 Z0.000000 I-0.092547 J-0.630032
G02 X54.960275 Y11.235991 Z0.000000 I-0.155956 J-0.226505
G01 X54.937063 Y11.195173 Z0.000000
G01 X54.883215 Y11.214391 Z0.000000
G03 X54.720762 Y11.337476 Z0.000000 I-0.272919 J-0.191461
G03 X54.482664 Y11.355072 Z0.000000 I-0.151601 J-0.431672
G03 X54.150231 Y11.040518 Z0.000000 I0.080420 J-0.417932
G03 X54.306193 Y10.650393 Z0.000000 I0.347965 J-0.087130
G02 X54.360147 Y10.567873 Z0.000000 I-0.063728 J-0.100566
G01 X54.325173 Y10.526602 Z0.000000
G02 X54.182770 Y10.576154 Z0.000000 I-0.002341 J0.222669
G02 X54.017925 Y10.775483 Z0.000000 I0.410324 J0.507164
G01 X54.017955 Y10.775513 Z0.000000
G00 Z5.000000

(End cutting path id: path848)


(Start cutting path id: path848)
(Change tool to Cylindrical cutter)

G00 Z5.000000
G00 X53.601532 Y10.410565

G01 Z0.000000 F1000.0(Penetrate)
G02 X53.438862 Y10.897909 Z0.000000 I0.406538 J0.406519 F1100.000000
G02 X53.750962 Y11.462954 Z0.000000 I0.898544 J-0.127590
G02 X53.812181 Y11.474360 Z0.000000 I0.040608 J-0.047963
G01 X53.822112 Y11.438254 Z0.000000
G03 X53.607057 Y10.780708 Z0.000000 I0.706980 J-0.595164
G03 X53.893269 Y10.386574 Z0.000000 I0.457065 J0.030924
G02 X54.013939 Y10.292247 Z0.000000 I-0.103024 J-0.256146
G01 X53.992879 Y10.248853 Z0.000000
G02 X53.789888 Y10.284826 Z0.000000 I-0.019751 J0.479258
G02 X53.601531 Y10.410595 Z0.000000 I0.221301 J0.535363
G01 X53.601532 Y10.410565 Z0.000000
G00 Z5.000000

(End cutting path id: path848)


(Start cutting path id: path848)
(Change tool to Cylindrical cutter)

G00 Z5.000000
G00 X52.719217 Y10.737967

G01 Z0.000000 F1000.0(Penetrate)
G02 X52.740051 Y10.788308 Z0.000000 I0.071235 J-0.000000 F1100.000000
G02 X52.790367 Y10.809167 Z0.000000 I0.050316 J-0.050256
G02 X52.840656 Y10.788335 Z0.000000 I-0.000000 J-0.071115
G02 X52.861517 Y10.737967 Z0.000000 I-0.050374 J-0.050368
G02 X52.840637 Y10.687580 Z0.000000 I-0.071235 J0.000000
G02 X52.790367 Y10.666767 Z0.000000 I-0.050270 J0.050301
G02 X52.740078 Y10.687599 Z0.000000 I0.000000 J0.071115
G02 X52.719217 Y10.737967 Z0.000000 I0.050374 J0.050368
G01 X52.719217 Y10.737967 Z0.000000
G00 Z5.000000

(End cutting path id: path848)


(Start cutting path id: path848)
(Change tool to Cylindrical cutter)

G00 Z5.000000
G00 X56.472550 Y6.667736

G01 Z0.000000 F1000.0(Penetrate)
G03 X59.600089 Y9.767368 Z0.000000 I-12.625570 J15.866903 F1100.000000
G03 X61.641198 Y13.045161 Z0.000000 I-12.113873 J9.817815
G03 X62.675165 Y17.436351 Z0.000000 I-10.227902 J4.725628
G03 X61.896234 Y21.633386 Z0.000000 I-10.083266 J0.299437
G03 X57.727522 Y26.377207 Z0.000000 I-9.140850 J-3.829100
G03 X48.629886 Y29.327627 Z0.000000 I-11.403931 J-19.662570
G03 X41.991054 Y29.634381 Z0.000000 I-6.081990 J-59.634778
G03 X41.093219 Y29.257589 Z0.000000 I0.011952 J-1.286575
G03 X40.992177 Y28.956914 Z0.000000 I0.251998 J-0.251999
G03 X41.566801 Y25.822575 Z0.000000 I35.634202 J4.913043
G03 X41.739338 Y25.672336 Z0.000000 I0.189571 J0.043514
G03 X44.863171 Y25.532777 Z0.000000 I3.182067 J36.194967
G02 X49.082085 Y25.252545 Z0.000000 I-0.052201 J-32.684068
G02 X52.007709 Y24.591093 Z0.000000 I-2.149629 J-16.308675
G02 X55.041933 Y23.222094 Z0.000000 I-4.669582 J-14.396564
G02 X57.088371 Y21.586659 Z0.000000 I-4.771146 J-8.068275
G02 X58.297638 Y19.988788 Z0.000000 I-6.727712 J-6.348045
G02 X59.067274 Y18.280139 Z0.000000 I-6.941280 J-4.154260
G02 X59.385682 Y14.340442 Z0.000000 I-8.389173 J-2.660732
G02 X57.938549 Y10.595442 Z0.000000 I-8.984375 J1.319620
G02 X56.405360 Y8.706107 Z0.000000 I-11.227018 J7.543928
G02 X54.360460 Y6.918522 Z0.000000 I-12.079112 J11.754432
G01 X53.368990 Y6.183865 Z0.000000
G01 X53.862373 Y6.095864 Z0.000000
G03 X55.330518 Y6.124630 Z0.000000 I0.661667 J3.709764
G03 X56.472550 Y6.667736 Z0.000000 I-0.598118 J2.729984
G01 X56.472550 Y6.667736 Z0.000000
G00 Z5.000000

(End cutting path id: path848)


(Start cutting path id: path848)
(Change tool to Cylindrical cutter)

G00 Z5.000000
G00 X58.867267 Y8.083289

G01 Z0.000000 F1000.0(Penetrate)
G03 X62.323429 Y11.746720 Z0.000000 I-11.603302 J14.408836 F1100.000000
G03 X64.268819 Y15.653464 Z0.000000 I-11.308060 J8.068660
G03 X64.685228 Y18.379060 Z0.000000 I-8.648817 J2.715949
G03 X64.262537 Y21.553168 Z0.000000 I-12.226675 J-0.013012
G03 X62.444151 Y25.404931 Z0.000000 I-11.653350 J-3.146345
G03 X59.365537 Y28.435298 Z0.000000 I-10.116060 J-7.198122
G03 X55.378627 Y30.423160 Z0.000000 I-9.040567 J-13.139950
G03 X49.308089 Y31.795125 Z0.000000 I-9.862718 J-29.523443
G03 X44.747058 Y32.102075 Z0.000000 I-5.071318 J-41.315587
G03 X41.263363 Y31.893768 Z0.000000 I-0.297430 J-24.260389
G03 X40.846086 Y31.541943 Z0.000000 I0.066543 J-0.502288
G03 X40.781104 Y30.343041 Z0.000000 I2.341278 J-0.728113
G01 X40.926852 Y29.598122 Z0.000000
G01 X43.727826 Y29.685414 Z0.000000
G02 X57.381295 Y26.720311 Z0.000000 I0.897093 J-28.786884
G02 X62.637854 Y20.343549 Z0.000000 I-4.462850 J-9.033815
G02 X63.004946 Y17.456838 Z0.000000 I-10.031446 J-2.742358
G02 X62.558938 Y14.658199 Z0.000000 I-9.862642 J0.136914
G02 X61.102682 Y11.468187 Z0.000000 I-13.314399 J4.150689
G02 X58.590302 Y8.247270 Z0.000000 I-16.091195 J9.961141
G03 X57.418336 Y7.017746 Z0.000000 I66.682910 J-64.734569
G01 X57.423911 Y6.978735 Z0.000000
G01 X57.476145 Y6.982048 Z0.000000
G03 X58.867250 Y8.083289 Z0.000000 I-65.320889 J83.943648
G01 X58.867267 Y8.083289 Z0.000000
G00 Z5.000000

(End cutting path id: path848)


(Start cutting path id: path848)
(Change tool to Cylindrical cutter)

G00 Z5.000000
G00 X52.617829 Y3.630187

G01 Z0.000000 F1000.0(Penetrate)
G03 X59.912980 Y7.365627 Z0.000000 I-14.068671 J36.466781 F1100.000000
G03 X63.826986 Y10.946445 Z0.000000 I-8.950142 J13.712442
G03 X66.844857 Y15.247448 Z0.000000 I-37.352144 J29.418035
G03 X66.791554 Y15.711326 Z0.000000 I-0.318828 J0.198366
G03 X65.130563 Y15.961797 Z0.000000 I-1.000214 J-1.000252
G03 X64.106294 Y14.292684 Z0.000000 I0.898124 J-1.699976
G02 X63.926103 Y13.665310 Z0.000000 I-1.250737 J0.019667
G02 X62.130007 Y11.022550 Z0.000000 I-25.678962 J15.520445
G02 X59.955639 Y8.647913 Z0.000000 I-14.068835 J10.699505
G02 X56.649786 Y6.036826 Z0.000000 I-20.360647 J22.379984
G02 X54.714167 Y4.873217 Z0.000000 I-11.061143 J16.208067
G02 X51.438415 Y3.299221 Z0.000000 I-23.633226 J44.989053
G01 X51.457894 Y3.244652 Z0.000000
G03 X52.617829 Y3.630187 Z0.000000 I-3.492128 J12.444215
G01 X52.617829 Y3.630187 Z0.000000
G00 Z5.000000

(End cutting path id: path848)


(Start cutting path id: path848)
(Change tool to Cylindrical cutter)

G00 Z5.000000
G00 X51.011483 Y3.053262

G01 Z0.000000 F1000.0(Penetrate)
G03 X50.990649 Y3.103603 Z0.000000 I-0.071235 J0.000000 F1100.000000
G03 X50.940333 Y3.124462 Z0.000000 I-0.050316 J-0.050255
G03 X50.890044 Y3.103631 Z0.000000 I-0.000000 J-0.071115
G03 X50.869183 Y3.053262 Z0.000000 I0.050374 J-0.050368
G03 X50.890017 Y3.002922 Z0.000000 I0.071235 J-0.000000
G03 X50.940333 Y2.982062 Z0.000000 I0.050316 J0.050255
G03 X50.990621 Y3.002894 Z0.000000 I0.000000 J0.071115
G03 X51.011483 Y3.053262 Z0.000000 I-0.050374 J0.050368
G01 X51.011483 Y3.053262 Z0.000000
G00 Z5.000000

(End cutting path id: path848)


(Start cutting path id: path848)
(Change tool to Cylindrical cutter)

G00 Z5.000000
G00 X50.015318 Y2.626235

G01 Z0.000000 F1000.0(Penetrate)
G03 X49.994484 Y2.676576 Z0.000000 I-0.071235 J0.000000 F1100.000000
G03 X49.944168 Y2.697435 Z0.000000 I-0.050316 J-0.050255
G03 X49.893879 Y2.676603 Z0.000000 I-0.000000 J-0.071115
G03 X49.873018 Y2.626235 Z0.000000 I0.050374 J-0.050368
G03 X49.893897 Y2.575849 Z0.000000 I0.071235 J-0.000000
G03 X49.944167 Y2.555035 Z0.000000 I0.050271 J0.050301
G03 X49.994456 Y2.575867 Z0.000000 I0.000000 J0.071115
G03 X50.015318 Y2.626235 Z0.000000 I-0.050374 J0.050368
G01 X50.015318 Y2.626235 Z0.000000
G00 Z5.000000

(End cutting path id: path848)


(Start cutting path id: path848)
(Change tool to Cylindrical cutter)

G00 Z5.000000
G00 X65.955444 Y12.876899

G01 Z0.000000 F1000.0(Penetrate)
G03 X71.876299 Y21.193603 Z0.000000 I-28.405742 J26.488656 F1100.000000
G03 X75.257058 Y30.447531 Z0.000000 I-31.968673 J16.923705
G03 X75.410341 Y32.484036 Z0.000000 I-7.226593 J1.567948
G03 X75.111132 Y32.745887 Z0.000000 I-0.279726 J-0.017760
G02 X74.536811 Y32.786966 Z0.000000 I-0.142499 J2.043046
G02 X73.947319 Y32.996880 Z0.000000 I0.510265 J2.365638
G02 X72.764347 Y33.853955 Z0.000000 I2.146866 J4.208125
G02 X70.692442 Y36.231155 Z0.000000 I15.516056 J15.614896
G01 X69.901511 Y37.282010 Z0.000000
G01 X68.809269 Y35.252299 Z0.000000
G02 X65.199303 Y29.168209 Z0.000000 I-74.486283 J40.083054
G02 X63.049690 Y26.410118 Z0.000000 I-17.317074 J11.279930
G01 X62.539839 Y25.859249 Z0.000000
G01 X63.171185 Y24.844715 Z0.000000
G02 X64.898338 Y20.209689 Z0.000000 I-10.571089 J-6.578420
G02 X64.598668 Y15.811253 Z0.000000 I-9.769606 J-1.543813
G03 X64.413018 Y15.061096 Z0.000000 I7.378764 J-2.224157
G03 X64.437123 Y14.982193 Z0.000000 I0.086204 J-0.016798
G03 X64.512703 Y14.968534 Z0.000000 I0.047638 J0.047663
G03 X65.566698 Y15.496970 Z0.000000 I-6.572240 J14.424047
G02 X66.867181 Y15.953735 Z0.000000 I2.028804 J-3.696608
G02 X67.092468 Y15.764515 Z0.000000 I0.033181 J-0.189219
G02 X66.970411 Y15.333372 Z0.000000 I-0.822506 J0.000002
G02 X64.923601 Y12.240952 Z0.000000 I-47.972199 J29.528234
G03 X65.034543 Y12.122524 Z0.000000 I0.067500 J-0.047945
G03 X65.955444 Y12.876899 Z0.000000 I-2.337820 J3.793170
G01 X65.955444 Y12.876899 Z0.000000
G00 Z5.000000

(End cutting path id: path848)


(Start cutting path id: path848)
(Change tool to Cylindrical cutter)

G00 Z5.000000
G00 X68.616464 Y25.413287

G01 Z0.000000 F1000.0(Penetrate)
G02 X68.623034 Y25.560742 Z0.000000 I0.070725 J0.070723 F1100.000000
G02 X68.809478 Y25.574661 Z0.000000 I0.102933 J-0.123114
G03 X69.079333 Y25.536853 Z0.000000 I0.178649 J0.293156
G03 X69.378712 Y25.731530 Z0.000000 I-0.156644 J0.568426
G03 X69.492281 Y26.057805 Z0.000000 I-0.387902 J0.317924
G03 X69.372413 Y26.109803 Z0.000000 I-0.071731 J-0.001195
G02 X69.126138 Y26.003061 Z0.000000 I-0.280706 J0.310172
G02 X69.004603 Y26.079424 Z0.000000 I-0.009846 J0.119225
G02 X68.957845 Y26.306170 Z0.000000 I0.666331 J0.255600
G02 X68.985144 Y26.561303 Z0.000000 I0.874972 J0.035404
G01 X69.027226 Y26.575961 Z0.000000
G02 X69.068334 Y26.498453 Z0.000000 I-0.062591 J-0.082852
G03 X69.243980 Y26.287279 Z0.000000 I0.228951 J0.011798
G03 X69.464884 Y26.403652 Z0.000000 I0.044046 J0.184241
G02 X69.565597 Y26.486336 Z0.000000 I0.123073 J-0.047229
G02 X69.671701 Y26.439251 Z0.000000 I0.017746 J-0.103104
G01 X69.753546 Y26.465171 Z0.000000
G03 X69.645142 Y26.987294 Z0.000000 I-1.711074 J-0.082942
G02 X69.596214 Y27.228697 Z0.000000 I0.718547 J0.271297
G01 X69.635083 Y27.245601 Z0.000000
G02 X69.745546 Y27.086034 Z0.000000 I-0.393480 J-0.390411
G02 X69.864891 Y26.743955 Z0.000000 I-1.757015 J-0.804847
G02 X69.520560 Y25.427708 Z0.000000 I-1.383616 J-0.341208
G02 X68.616503 Y25.413296 Z0.000000 I-0.459008 J0.430633
G01 X68.616464 Y25.413287 Z0.000000
G00 Z5.000000

(End cutting path id: path848)


(Start cutting path id: path848)
(Change tool to Cylindrical cutter)

G00 Z5.000000
G00 X68.526827 Y26.545904

G01 Z0.000000 F1000.0(Penetrate)
G02 X68.568511 Y26.640972 Z0.000000 I0.142591 J-0.005849 F1100.000000
G01 X68.612807 Y26.631884 Z0.000000
G02 X68.643243 Y26.454187 Z0.000000 I-0.400055 J-0.159975
G02 X68.601566 Y26.359128 Z0.000000 I-0.142641 J0.005872
G01 X68.557283 Y26.368199 Z0.000000
G02 X68.526817 Y26.545905 Z0.000000 I0.399799 J0.160007
G01 X68.526827 Y26.545904 Z0.000000
G00 Z5.000000

(End cutting path id: path848)


(Start cutting path id: path848)
(Change tool to Cylindrical cutter)

G00 Z5.000000
G00 X68.657903 Y26.960973

G01 Z0.000000 F1000.0(Penetrate)
G02 X68.678760 Y27.011298 Z0.000000 I0.071143 J-0.000000 F1100.000000
G02 X68.729063 Y27.032123 Z0.000000 I0.050303 J-0.050343
G02 X68.779365 Y27.011292 Z0.000000 I-0.000000 J-0.071150
G02 X68.800213 Y26.960972 Z0.000000 I-0.050302 J-0.050320
G02 X68.779352 Y26.910633 Z0.000000 I-0.071167 J0.000000
G02 X68.729063 Y26.889813 Z0.000000 I-0.050289 J0.050322
G02 X68.678727 Y26.910673 Z0.000000 I0.000000 J0.071160
G02 X68.657903 Y26.960973 Z0.000000 I0.050336 J0.050299
G01 X68.657903 Y26.960973 Z0.000000
G00 Z5.000000

(End cutting path id: path848)


(Start cutting path id: path848)
(Change tool to Cylindrical cutter)

G00 Z5.000000
G00 X69.084829 Y27.015332

G01 Z0.000000 F1000.0(Penetrate)
G02 X69.119730 Y27.138181 Z0.000000 I0.233669 J-0.000001 F1100.000000
G02 X69.227138 Y27.245592 Z0.000000 I0.281233 J-0.173818
G02 X69.325603 Y27.254918 Z0.000000 I0.058661 J-0.094884
G02 X69.369452 Y27.191232 Z0.000000 I-0.024325 J-0.063686
G02 X69.334552 Y27.068385 Z0.000000 I-0.233661 J0.000001
G02 X69.227137 Y26.960972 Z0.000000 I-0.281227 J0.173818
G02 X69.128676 Y26.951647 Z0.000000 I-0.058658 J0.094878
G02 X69.084829 Y27.015333 Z0.000000 I0.024326 J0.063685
G01 X69.084829 Y27.015332 Z0.000000
G00 Z5.000000

(End cutting path id: path848)


(Start cutting path id: path848)
(Change tool to Cylindrical cutter)

G00 Z5.000000
G00 X68.966375 Y27.459042

G01 Z0.000000 F1000.0(Penetrate)
G02 X69.646920 Y27.878976 Z0.000000 I0.769055 J-0.484917 F1100.000000
G02 X70.028988 Y27.562983 Z0.000000 I0.034024 J-0.347837
G01 X70.010628 Y27.519558 Z0.000000
G01 X69.984948 Y27.527383 Z0.000000
G03 X69.717536 Y27.701233 Z0.000000 I-0.238290 J-0.073943
G03 X69.100524 Y27.423442 Z0.000000 I0.131070 J-1.115254
G01 X68.742074 Y27.103252 Z0.000000
G01 X68.966375 Y27.459042 Z0.000000
G00 Z5.000000

(End cutting path id: path848)


(Start cutting path id: path848)
(Change tool to Cylindrical cutter)

G00 Z5.000000
G00 X69.938684 Y27.032109

G01 Z0.000000 F1000.0(Penetrate)
G02 X69.977981 Y27.126987 Z0.000000 I0.134184 J-0.000000 F1100.000000
G01 X70.033555 Y27.126989 Z0.000000
G02 X70.072873 Y27.032130 Z0.000000 I-0.094768 J-0.094859
G02 X70.033554 Y26.937239 Z0.000000 I-0.134164 J0.000000
G01 X69.977994 Y26.937234 Z0.000000
G02 X69.938684 Y27.032109 Z0.000000 I0.094838 J0.094875
G01 X69.938684 Y27.032109 Z0.000000
G00 Z5.000000

(End cutting path id: path848)


(Start cutting path id: path848)
(Change tool to Cylindrical cutter)

G00 Z5.000000
G00 X63.463481 Y27.352354

G01 Z0.000000 F1000.0(Penetrate)
G03 X66.041289 Y30.975945 Z0.000000 I-29.202174 J23.503021 F1100.000000
G03 X69.163125 Y36.464010 Z0.000000 I-64.064324 J40.074352
G01 X69.700642 Y37.508174 Z0.000000
G01 X68.626709 Y39.136583 Z0.000000
G02 X64.947659 Y45.125413 Z0.000000 I91.290047 J60.205660
G02 X62.318253 Y50.186811 Z0.000000 I62.538689 J35.702660
G02 X59.083200 Y57.618868 Z0.000000 I126.635499 J59.542468
G02 X57.197279 Y62.949393 Z0.000000 I63.197760 J25.358030
G03 X56.131423 Y64.514250 Z0.000000 I-3.067531 J-0.943941
G03 X53.977270 Y65.518518 Z0.000000 I-3.154227 J-3.953345
G03 X50.037990 Y66.130679 Z0.000000 I-8.783586 J-43.541977
G03 X46.766987 Y66.309583 Z0.000000 I-3.271089 J-29.814828
G03 X45.041011 Y66.190751 Z0.000000 I-0.000037 J-12.593300
G03 X44.966968 Y66.060546 Z0.000000 I0.012938 J-0.093514
G02 X45.296657 Y64.430940 Z0.000000 I-3.863845 J-1.629856
G02 X44.967236 Y60.452058 Z0.000000 I-24.176627 J-0.001443
G02 X43.350548 Y55.191843 Z0.000000 I-20.476110 J3.414637
G02 X40.202010 Y50.092304 Z0.000000 I-22.368584 J10.288977
G02 X35.839954 Y45.684284 Z0.000000 I-23.090018 J18.486953
G02 X30.146694 Y41.867117 Z0.000000 I-22.879629 J27.970394
G03 X28.670663 Y40.995075 Z0.000000 I10.735856 J-19.856881
G03 X28.624672 Y40.888088 Z0.000000 I0.056350 J-0.087602
G03 X28.791086 Y40.368156 Z0.000000 I2.193750 J0.415554
G03 X32.445664 Y32.607434 Z0.000000 I500.565298 J230.978821
G03 X33.604275 Y30.388980 Z0.000000 I33.764304 J16.222004
G03 X33.747619 Y30.305369 Z0.000000 I0.143344 J0.081070
G03 X33.938053 Y30.332813 Z0.000000 I0.000002 J0.674432
G03 X34.410577 Y30.500505 Z0.000000 I-1.293124 J4.393352
G02 X37.283770 Y31.455089 Z0.000000 I7.787758 J-18.639015
G02 X40.907574 Y32.130102 Z0.000000 I7.284552 J-29.042364
G02 X45.556880 Y32.375012 Z0.000000 I4.072607 J-33.060346
G02 X50.210799 Y31.968995 Z0.000000 I-0.580601 J-33.530617
G02 X53.207274 Y31.364578 Z0.000000 I-5.639833 J-35.690112
G02 X55.569247 Y30.650017 Z0.000000 I-5.628116 J-22.864673
G02 X59.291251 Y28.836484 Z0.000000 I-6.565280 J-18.200441
G02 X61.613557 Y26.855560 Z0.000000 I-5.591441 J-8.906766
G03 X62.207108 Y26.253507 Z0.000000 I5.361815 J4.692481
G03 X62.350660 Y26.191721 Z0.000000 I0.162946 J0.180930
G03 X62.489946 Y26.244666 Z0.000000 I0.013880 J0.173174
G03 X63.463444 Y27.352365 Z0.000000 I-12.289701 J11.782395
G01 X63.463481 Y27.352354 Z0.000000
G00 Z5.000000

(End cutting path id: path848)


(Start cutting path id: path848)
(Change tool to Cylindrical cutter)

G00 Z5.000000
G00 X62.301440 Y34.242501

G01 Z0.000000 F1000.0(Penetrate)
G02 X62.396300 Y34.281793 Z0.000000 I0.094859 J-0.094860 F1100.000000
G02 X62.491190 Y34.242501 Z0.000000 I-0.000000 J-0.134226
G01 X62.491195 Y34.186942 Z0.000000
G02 X62.396310 Y34.147631 Z0.000000 I-0.094884 J0.094854
G02 X62.301440 Y34.186927 Z0.000000 I0.000000 J0.134168
G01 X62.301440 Y34.242501 Z0.000000
G01 X62.301440 Y34.242501 Z0.000000
G00 Z5.000000

(End cutting path id: path848)


(Start cutting path id: path848)
(Change tool to Cylindrical cutter)

G00 Z5.000000
G00 X61.874515 Y34.242503

G01 Z0.000000 F1000.0(Penetrate)
G02 X61.969376 Y34.281795 Z0.000000 I0.094860 J-0.094861 F1100.000000
G02 X62.064259 Y34.242502 Z0.000000 I-0.000000 J-0.134209
G01 X62.064265 Y34.186942 Z0.000000
G02 X61.969389 Y34.147632 Z0.000000 I-0.094875 J0.094838
G02 X61.874519 Y34.186928 Z0.000000 I0.000000 J0.134168
G01 X61.874519 Y34.242503 Z0.000000
G01 X61.874515 Y34.242503 Z0.000000
G00 Z5.000000

(End cutting path id: path848)


(Start cutting path id: path848)
(Change tool to Cylindrical cutter)

G00 Z5.000000
G00 X61.318897 Y34.641162

G01 Z0.000000 F1000.0(Penetrate)
G02 X61.137506 Y34.997635 Z0.000000 I1.533006 J1.004459 F1100.000000
G02 X61.137731 Y35.120466 Z0.000000 I0.161705 J0.061119
G01 X61.191735 Y35.128843 Z0.000000
G02 X61.417733 Y34.769254 Z0.000000 I-1.486770 J-1.185231
G02 X61.404021 Y34.637878 Z0.000000 I-0.113238 J-0.054585
G02 X61.318902 Y34.641162 Z0.000000 I-0.041391 J0.031935
G01 X61.318897 Y34.641162 Z0.000000
G00 Z5.000000

(End cutting path id: path848)


(Start cutting path id: path848)
(Change tool to Cylindrical cutter)

G00 Z5.000000
G00 X61.771149 Y34.941979

G01 Z0.000000 F1000.0(Penetrate)
G02 X61.772636 Y35.103522 Z0.000000 I0.205582 J0.078887 F1100.000000
G01 X61.838480 Y35.108226 Z0.000000
G03 X62.409905 Y35.010917 Z0.000000 I0.326369 J0.190091
G03 X62.541507 Y35.707666 Z0.000000 I-0.366702 J0.430066
G03 X62.185814 Y35.935052 Z0.000000 I-0.380819 J-0.203810
G03 X61.838482 Y35.748638 Z0.000000 I-0.021908 J-0.375967
G02 X61.726533 Y35.629678 Z0.000000 I-0.312743 J0.182156
G01 X61.689096 Y35.649018 Z0.000000
G02 X61.829860 Y35.989434 Z0.000000 I0.450526 J0.013017
G02 X62.208035 Y36.139983 Z0.000000 I0.378174 J-0.399705
G02 X62.359342 Y36.083684 Z0.000000 I-0.000001 J-0.231478
G02 X62.626690 Y35.778381 Z0.000000 I-0.956096 J-1.106940
G02 X62.759193 Y35.408795 Z0.000000 I-0.702904 J-0.460548
G02 X62.704168 Y35.066834 Z0.000000 I-0.650154 J-0.070791
G02 X62.195892 Y34.689868 Z0.000000 I-0.594983 J0.271090
G02 X61.771145 Y34.941993 Z0.000000 I-0.052829 J0.394843
G01 X61.771149 Y34.941979 Z0.000000
G00 Z5.000000

(End cutting path id: path848)


(Start cutting path id: path848)
(Change tool to Cylindrical cutter)

G00 Z5.000000
G00 X61.126768 Y35.653749

G01 Z0.000000 F1000.0(Penetrate)
G02 X61.168453 Y35.748817 Z0.000000 I0.142591 J-0.005849 F1100.000000
G01 X61.212749 Y35.739728 Z0.000000
G02 X61.243199 Y35.562023 Z0.000000 I-0.399354 J-0.159891
G02 X61.201508 Y35.466968 Z0.000000 I-0.142694 J0.005914
G01 X61.157232 Y35.476049 Z0.000000
G02 X61.126768 Y35.653749 Z0.000000 I0.399536 J0.159954
G01 X61.126768 Y35.653749 Z0.000000
G00 Z5.000000

(End cutting path id: path848)


(Start cutting path id: path848)
(Change tool to Cylindrical cutter)

G00 Z5.000000
G00 X61.336022 Y36.178110

G01 Z0.000000 F1000.0(Penetrate)
G02 X61.712475 Y36.575583 Z0.000000 I0.669175 J-0.256778 F1100.000000
G02 X62.074993 Y36.508736 Z0.000000 I0.132722 J-0.296642
G01 X62.072197 Y36.460569 Z0.000000
G02 X61.968738 Y36.424586 Z0.000000 I-0.103459 J0.130742
G03 X61.794928 Y36.381537 Z0.000000 I-0.000001 J-0.372395
G03 X61.511969 Y36.183530 Z0.000000 I0.646538 J-1.225107
G02 X61.372197 Y36.127196 Z0.000000 I-0.146470 J0.161848
G01 X61.336022 Y36.178130 Z0.000000
G01 X61.336022 Y36.178110 Z0.000000
G00 Z5.000000

(End cutting path id: path848)


(Start cutting path id: path848)
(Change tool to Cylindrical cutter)

G00 Z5.000000
G00 X63.034882 Y35.888396

G01 Z0.000000 F1000.0(Penetrate)
G03 X62.847636 Y36.161503 Z0.000000 I-0.824644 J-0.364645 F1100.000000
G03 X62.538633 Y36.384386 Z0.000000 I-0.843979 J-0.844447
G02 X62.401989 Y36.511833 Z0.000000 I0.148398 J0.296081
G01 X62.431899 Y36.564796 Z0.000000
G02 X63.014730 Y36.334322 Z0.000000 I0.007398 J-0.833471
G02 X63.250173 Y35.784195 Z0.000000 I-0.524978 J-0.550125
G01 X63.178793 Y35.739441 Z0.000000
G02 X63.034882 Y35.888396 Z0.000000 I0.130907 J0.270470
G01 X63.034882 Y35.888396 Z0.000000
G00 Z5.000000

(End cutting path id: path848)


(Start cutting path id: path848)
(Change tool to Cylindrical cutter)

G00 Z5.000000
G00 X62.844128 Y34.503410

G01 Z0.000000 F1000.0(Penetrate)
G03 X63.045509 Y34.804524 Z0.000000 I-1.409417 J1.160495 F1100.000000
G03 X63.147819 Y35.072648 Z0.000000 I-1.010831 J0.539291
G01 X63.193767 Y35.103274 Z0.000000
G01 X63.233659 Y35.059148 Z0.000000
G02 X63.174969 Y34.793382 Z0.000000 I-0.504339 J-0.027988
G02 X62.929974 Y34.489916 Z0.000000 I-0.915478 J0.488456
G02 X62.857018 Y34.469466 Z0.000000 I-0.058816 J0.069468
G01 X62.844124 Y34.503416 Z0.000000
G01 X62.844128 Y34.503410 Z0.000000
G00 Z5.000000

(End cutting path id: path848)


(Start cutting path id: path848)
(Change tool to Cylindrical cutter)

G00 Z5.000000
G00 X66.343880 Y36.509111

G01 Z0.000000 F1000.0(Penetrate)
G02 X66.327817 Y36.602351 Z0.000000 I0.057996 J0.057995 F1100.000000
G02 X66.902588 Y37.683162 Z0.000000 I12.404845 J-5.903621
G02 X67.647853 Y38.802091 Z0.000000 I10.675981 J-6.303102
G02 X67.744027 Y38.809007 Z0.000000 I0.051081 J-0.038177
G02 X67.963161 Y37.321455 Z0.000000 I-0.891207 J-0.891202
G02 X66.463400 Y36.424573 Z0.000000 I-1.499757 J0.805498
G02 X66.432470 Y36.434411 Z0.000000 I0.000000 J0.053538
G02 X66.343880 Y36.509114 Z0.000000 I0.395976 J0.559474
G01 X66.343880 Y36.509111 Z0.000000
G00 Z5.000000

(End cutting path id: path848)


(Start cutting path id: path848)
(Change tool to Cylindrical cutter)

G00 Z5.000000
G00 X65.579679 Y37.921738

G01 Z0.000000 F1000.0(Penetrate)
G02 X66.482682 Y39.597315 Z0.000000 I6.967072 J-2.673589 F1100.000000
G02 X66.955532 Y39.840074 Z0.000000 I0.472847 J-0.339127
G02 X67.018277 Y39.741206 Z0.000000 I-0.000000 J-0.069345
G02 X66.416567 Y38.694607 Z0.000000 I-6.669178 J3.137974
G02 X65.684575 Y37.850623 Z0.000000 I-4.162880 J2.871069
G02 X65.579679 Y37.921738 Z0.000000 I-0.044146 J0.047802
G01 X65.579679 Y37.921738 Z0.000000
G00 Z5.000000

(End cutting path id: path848)


(Start cutting path id: path848)
(Change tool to Cylindrical cutter)

G00 Z5.000000
G00 X64.815585 Y38.916924

G01 Z0.000000 F1000.0(Penetrate)
G02 X65.285460 Y40.170306 Z0.000000 I1.906636 J-0.000006 F1100.000000
G02 X66.358775 Y40.685935 Z0.000000 I1.137039 J-0.991919
G01 X66.399681 Y40.617677 Z0.000000
G02 X65.844019 Y39.810890 Z0.000000 I-5.927675 J3.487845
G02 X64.934227 Y38.862854 Z0.000000 I-5.683123 J4.543304
G02 X64.815585 Y38.916924 Z0.000000 I-0.047000 J0.054070
G01 X64.815585 Y38.916924 Z0.000000
G00 Z5.000000

(End cutting path id: path848)


(Start cutting path id: path848)
(Change tool to Cylindrical cutter)

G00 Z5.000000
G00 X63.961732 Y40.096811

G01 Z0.000000 F1000.0(Penetrate)
G02 X64.650589 Y41.782276 Z0.000000 I2.406407 J-0.000007 F1100.000000
G02 X65.620227 Y41.786843 Z0.000000 I0.487081 J-0.477984
G02 X65.626699 Y41.679735 Z0.000000 I-0.057207 J-0.057206
G02 X64.844529 Y40.796956 Z0.000000 I-7.695068 J6.030173
G02 X64.024769 Y40.066349 Z0.000000 I-6.762742 J6.762781
G01 X63.961732 Y40.096811 Z0.000000
G01 X63.961732 Y40.096811 Z0.000000
G00 Z5.000000

(End cutting path id: path848)


(Start cutting path id: path848)
(Change tool to Cylindrical cutter)

G00 Z5.000000
G00 X72.651045 Y38.012681

G01 Z0.000000 F1000.0(Penetrate)
G03 X72.890283 Y39.061458 Z0.000000 I-17.452041 J4.532675 F1100.000000
G03 X72.924777 Y39.402696 Z0.000000 I-1.798431 J0.354160
G03 X71.965251 Y42.416408 Z0.000000 I-5.088766 J0.039411
G03 X70.049096 Y43.397690 Z0.000000 I-1.916162 J-1.380217
G03 X69.263185 Y42.872346 Z0.000000 I-0.000002 J-0.850526
G03 X69.140705 Y41.202284 Z0.000000 I2.466075 J-1.020380
G03 X71.129428 Y36.998486 Z0.000000 I11.581795 J2.906778
G03 X72.321989 Y36.910349 Z0.000000 I0.634283 J0.470144
G03 X72.362381 Y36.978080 Z0.000000 I-0.113738 J0.113739
G03 X72.651045 Y38.012681 Z0.000000 I-28.605624 J8.538825
G01 X72.651045 Y38.012681 Z0.000000
G00 Z5.000000

(End cutting path id: path848)


(Start cutting path id: path848)
(Change tool to Cylindrical cutter)

G00 Z5.000000
G00 X72.713730 Y36.139825

G01 Z0.000000 F1000.0(Penetrate)
G03 X72.926775 Y37.547860 Z0.000000 I-22.381880 J4.106659 F1100.000000
G03 X72.893408 Y37.644247 Z0.000000 I-0.115910 J0.013844
G01 X72.838877 Y37.634636 Z0.000000
G03 X72.710857 Y37.252983 Z0.000000 I1.619485 J-0.755529
G02 X72.380490 Y36.618236 Z0.000000 I-1.315892 J0.281536
G02 X72.104100 Y36.600375 Z0.000000 I-0.147643 J0.137270
G02 X71.308307 Y37.434892 Z0.000000 I3.170227 J3.819812
G02 X69.300642 Y40.324840 Z0.000000 I36.929495 J27.797495
G02 X69.011174 Y41.380142 Z0.000000 I1.552724 J0.993261
G02 X69.387109 Y42.892316 Z0.000000 I3.735277 J-0.125795
G02 X70.024034 Y43.623664 Z0.000000 I1.677550 J-0.817944
G02 X70.383882 Y43.561828 Z0.000000 I0.147501 J-0.219601
G03 X73.027611 Y40.035258 Z0.000000 I411.071221 J305.409421
G03 X73.292558 Y39.716428 Z0.000000 I3.612753 J2.732699
G01 X73.325759 Y39.721754 Z0.000000
G03 X73.431378 Y40.026956 Z0.000000 I-1.691054 J0.756088
G03 X73.386475 Y40.359582 Z0.000000 I-0.438741 J0.110116
G03 X72.557557 Y41.573575 Z0.000000 I-7.553617 J-4.267646
G02 X70.357087 Y44.566587 Z0.000000 I28.838208 J23.507319
G02 X67.759001 Y48.833908 Z0.000000 I56.139881 J37.104375
G02 X64.670127 Y55.098386 Z0.000000 I59.028837 J32.999567
G02 X62.465578 Y61.132948 Z0.000000 I52.555323 J22.619494
G03 X61.925987 Y62.805731 Z0.000000 I-46.863702 J-14.193444
G03 X61.854871 Y62.916004 Z0.000000 I-0.258157 J-0.088420
G03 X60.755099 Y63.610203 Z0.000000 I-2.333511 J-2.478576
G03 X57.367404 Y64.660997 Z0.000000 I-9.177655 J-23.601940
G03 X57.134738 Y64.581459 Z0.000000 I-0.052912 J-0.225289
G03 X57.064547 Y64.287488 Z0.000000 I0.271582 J-0.220209
G03 X57.189419 Y63.825774 Z0.000000 I4.535464 J0.978884
G03 X58.054197 Y61.257541 Z0.000000 I141.573128 J46.240916
G03 X62.984024 Y49.490488 Z0.000000 I95.965382 J33.288657
G03 X69.076870 Y38.986106 Z0.000000 I82.477317 J40.820031
G03 X72.030862 Y34.877008 Z0.000000 I66.352569 J44.583901
G03 X72.355882 Y34.716817 Z0.000000 I0.325021 J0.249631
G03 X72.414549 Y34.762559 Z0.000000 I0.000000 J0.060494
G03 X72.713732 Y36.139825 Z0.000000 I-21.072206 J5.298630
G01 X72.713730 Y36.139825 Z0.000000
G00 Z5.000000

(End cutting path id: path848)


(Start cutting path id: path848)
(Change tool to Cylindrical cutter)

G00 Z5.000000
G00 X75.895987 Y35.413159

G01 Z0.000000 F1000.0(Penetrate)
G03 X76.005932 Y35.584275 Z0.000000 I-0.129164 J0.203869 F1100.000000
G03 X76.164172 Y37.370971 Z0.000000 I-18.597301 J2.547445
G01 X76.238608 Y39.206016 Z0.000000
G01 X75.661675 Y39.206018 Z0.000000
G02 X75.117030 Y39.306308 Z0.000000 I0.000004 J1.529058
G02 X74.432074 Y39.674742 Z0.000000 I1.074250 J2.818059
G03 X73.964211 Y39.599441 Z0.000000 I-0.196053 J-0.272997
G03 X73.365482 Y38.208295 Z0.000000 I2.776310 J-2.019299
G01 X73.075054 Y36.647792 Z0.000000
G01 X73.463634 Y36.233507 Z0.000000
G03 X74.921994 Y35.295986 Z0.000000 I2.595671 J2.434658
G03 X75.895989 Y35.413159 Z0.000000 I0.364153 J1.079729
G01 X75.895987 Y35.413159 Z0.000000
G00 Z5.000000

(End cutting path id: path848)


(Start cutting path id: path848)
(Change tool to Cylindrical cutter)

G00 Z5.000000
G00 X75.683460 Y33.329482

G01 Z0.000000 F1000.0(Penetrate)
G03 X75.828440 Y33.668603 Z0.000000 I-0.997643 J0.627063 F1100.000000
G03 X75.949271 Y34.384271 Z0.000000 I-4.425354 J1.115192
G01 X76.013823 Y35.118859 Z0.000000
G01 X75.545564 Y35.042870 Z0.000000
G02 X74.738036 Y35.107165 Z0.000000 I-0.272579 J1.679794
G02 X73.706875 Y35.651711 Z0.000000 I1.108576 J3.347799
