%
(Header)
(Generated by gcodetools from Inkscape.)
(Using default header. To add your own header create file "header" in the output dir.)
M3
(Header end.)
G21 (All units in mm)

(Start cutting path id: path861)
(Change tool to Cylindrical cutter)

G00 Z5.000000
G00 X134.352430 Y30.912129

G01 Z0.000000 F1000.0(Penetrate)
G02 X134.129162 Y28.572301 Z0.000000 I-28.699234 J1.557931 F1100.000000
G02 X133.611024 Y25.494487 Z0.000000 I-50.291153 J6.883798
G02 X133.338376 Y24.383858 Z0.000000 I-12.988620 J2.599788
G02 X132.667215 Y22.259959 Z0.000000 I-48.238710 J14.075662
G02 X132.310236 Y21.332323 Z0.000000 I-12.025638 J4.095277
G02 X131.672878 Y19.950030 Z0.000000 I-27.365585 J11.779841
G02 X130.983574 Y18.591489 Z0.000000 I-57.201636 J28.169116
G02 X130.734873 Y18.154838 Z0.000000 I-6.143442 J3.209944
G02 X129.962500 Y17.012602 Z0.000000 I-14.445405 J8.935631
G02 X128.842525 Y15.587432 Z0.000000 I-23.623568 J17.412023
G02 X127.702877 Y14.613904 Z0.000000 I-3.459100 J2.895530
G02 X126.302911 Y14.064964 Z0.000000 I-2.334627 J3.894371
G02 X125.384325 Y13.970903 Z0.000000 I-0.904389 J4.299732
G02 X124.603621 Y14.070469 Z0.000000 I0.010311 J3.191428
G02 X124.316245 Y14.172294 Z0.000000 I0.420221 J1.642400
G02 X122.711543 Y14.939509 Z0.000000 I24.086944 J52.441880
G03 X120.726928 Y15.672311 Z0.000000 I-4.381966 J-8.813670
G03 X119.816315 Y15.666573 Z0.000000 I-0.444179 J-1.768761
G02 X119.001987 Y15.521218 Z0.000000 I-1.291623 J4.882386
G02 X118.081715 Y15.501912 Z0.000000 I-0.590930 J6.224762
G02 X117.460097 Y15.665155 Z0.000000 I0.083485 J1.583060
G02 X116.658077 Y16.208913 Z0.000000 I1.602740 J3.227327
G03 X116.153559 Y16.627669 Z0.000000 I-5.776277 J-6.445969
G03 X116.043498 Y16.680890 Z0.000000 I-0.183355 J-0.238759
G03 X115.925714 Y16.681754 Z0.000000 I-0.060667 J-0.241768
G03 X115.754158 Y16.612841 Z0.000000 I0.141031 J-0.599095
G03 X115.313895 Y16.313958 Z0.000000 I2.134772 J-3.618286
G03 X112.721201 Y14.260025 Z0.000000 I99.510673 J-128.276315
G02 X111.087706 Y13.029186 Z0.000000 I-18.690688 J23.105810
G02 X108.452363 Y11.268058 Z0.000000 I-40.965500 J58.448246
G02 X106.574969 Y10.141811 Z0.000000 I-22.133595 J34.767627
G02 X104.561276 Y9.072174 Z0.000000 I-21.973863 J38.937561
G02 X102.214461 Y8.066108 Z0.000000 I-9.868345 J19.779343
G02 X101.056913 Y7.804065 Z0.000000 I-1.625021 J4.490673
G02 X99.792127 Y7.785269 Z0.000000 I-0.745125 J7.576439
G02 X98.470926 Y7.981012 Z0.000000 I0.579283 J8.466665
G02 X96.658980 Y8.461596 Z0.000000 I6.285077 J27.352718
G02 X93.588974 Y9.452027 Z0.000000 I23.976516 J79.572471
G03 X91.301151 Y10.215193 Z0.000000 I-41.239893 J-119.818382
G03 X88.586193 Y11.068101 Z0.000000 I-54.234877 J-167.891606
G03 X85.704976 Y11.906883 Z0.000000 I-33.616574 J-110.105087
G03 X84.574295 Y12.179536 Z0.000000 I-4.616986 J-16.665701
G02 X83.756097 Y12.363203 Z0.000000 I4.741446 J23.036451
G02 X82.906695 Y12.585231 Z0.000000 I6.094180 J25.049980
G03 X82.058441 Y12.812591 Z0.000000 I-10.907748 J-38.999506
G03 X81.094093 Y13.050076 Z0.000000 I-12.884283 J-50.242096
G02 X78.905804 Y13.837517 Z0.000000 I2.358941 J9.989802
G02 X77.734576 Y14.710144 Z0.000000 I1.793457 J3.629471
G02 X77.248450 Y15.400488 Z0.000000 I2.287181 J2.126913
G02 X77.055657 Y16.020769 Z0.000000 I1.641556 J0.850323
G02 X77.143031 Y17.117717 Z0.000000 I2.692621 J0.337482
G02 X77.643407 Y18.036854 Z0.000000 I2.355909 J-0.686781
G03 X77.826638 Y18.422503 Z0.000000 I-0.605429 J0.524007
G03 X77.793220 Y18.890825 Z0.000000 I-0.953649 J0.167303
G02 X77.706882 Y19.193470 Z0.000000 I3.905903 J1.277898
G02 X77.663197 Y19.423415 Z0.000000 I2.193528 J0.535851
G03 X77.601639 Y19.642434 Z0.000000 I-0.824865 J-0.113678
G03 X77.495553 Y19.807945 Z0.000000 I-0.569269 J-0.248123
G01 X77.359851 Y19.959814 Z0.000000
G01 X76.496001 Y19.991746 Z0.000000
G03 X75.632812 Y20.003281 Z0.000000 I-0.676324 J-18.308391
G03 X75.197111 Y19.978560 Z0.000000 I0.047902 J-4.696202
G02 X74.761185 Y19.947806 Z0.000000 I-0.686535 J6.626404
G02 X72.925306 Y19.893057 Z0.000000 I-4.420959 J117.437775
G03 X71.090041 Y19.830733 Z0.000000 I1.691861 J-76.874081
G03 X70.460159 Y19.779866 Z0.000000 I0.417821 J-9.099079
G02 X69.830858 Y19.718767 Z0.000000 I-1.963542 J16.952669
G02 X69.130916 Y19.675622 Z0.000000 I-1.641850 J20.936303
G03 X68.431227 Y19.630928 Z0.000000 I0.831280 J-18.513143
G03 X67.922518 Y19.575456 Z0.000000 I0.815963 J-9.843164
G02 X67.414146 Y19.514516 Z0.000000 I-2.256514 J16.673184
G02 X66.786614 Y19.456795 Z0.000000 I-2.647419 J25.342472
G03 X65.937439 Y19.367125 Z0.000000 I1.309874 J-16.470217
G03 X64.756497 Y19.189196 Z0.000000 I4.219929 J-32.016292
G02 X64.078214 Y19.086514 Z0.000000 I-3.224110 J19.005783
G02 X63.499749 Y19.021756 Z0.000000 I-1.833377 J13.760961
G03 X62.921257 Y18.956877 Z0.000000 I1.241531 J-13.681560
G03 X62.033344 Y18.825767 Z0.000000 I4.331261 J-32.404753
G02 X61.145510 Y18.693021 Z0.000000 I-6.015880 J37.199944
G02 X60.269151 Y18.583432 Z0.000000 I-4.965384 J36.148488
G03 X58.940517 Y18.394371 Z0.000000 I2.588355 J-22.952831
G03 X56.732685 Y17.974913 Z0.000000 I10.985592 J-63.843291
G03 X54.888619 Y17.530118 Z0.000000 I6.116338 J-29.402619
G03 X54.219204 Y17.283965 Z0.000000 I1.125329 J-4.093648
G02 X52.370272 Y16.517101 Z0.000000 I-9.774746 J20.954871
G02 X51.222358 Y16.190478 Z0.000000 I-2.817657 J7.722159
G03 X50.652593 Y16.040058 Z0.000000 I1.118312 J-5.390263
G03 X50.238836 Y15.873616 Z0.000000 I0.966612 J-3.000392
G03 X49.868417 Y15.630645 Z0.000000 I0.764141 J-1.568803
G03 X48.786093 Y14.630453 Z0.000000 I12.555691 J-14.672411
G03 X47.550754 Y13.282658 Z0.000000 I14.428466 J-14.464636
G03 X46.391775 Y11.771217 Z0.000000 I16.999715 J-14.235530
G03 X45.444952 Y10.242248 Z0.000000 I12.983936 J-9.098025
G03 X44.343291 Y8.001002 Z0.000000 I26.863450 J-14.595826
G03 X43.648750 Y6.285464 Z0.000000 I27.032663 J-11.942624
G03 X43.319308 Y5.224824 Z0.000000 I9.984284 J-3.682669
G03 X43.004862 Y3.673825 Z0.000000 I15.680603 J-3.986424
G03 X42.643130 Y0.783907 Z0.000000 I54.173144 J-8.248466
G02 X42.580841 Y0.366570 Z0.000000 I-4.185137 J0.411331
G02 X42.543539 Y0.288462 Z0.000000 I-0.173413 J0.034855
G02 X42.399440 Y0.222037 Z0.000000 I-0.141485 J0.117418
G02 X42.086048 Y0.294963 Z0.000000 I0.010749 J0.756037
G02 X41.961411 Y0.406072 Z0.000000 I0.127290 J0.268247
G02 X41.630824 Y1.024781 Z0.000000 I4.446766 J2.773660
G02 X40.656607 Y3.490053 Z0.000000 I25.496405 J11.500705
G02 X40.173833 Y5.293254 Z0.000000 I13.126887 J4.480707
G02 X40.137499 Y5.886494 Z0.000000 I2.197588 J0.432329
G02 X40.276605 Y6.720094 Z0.000000 I4.516956 J-0.325358
G03 X40.374484 Y7.107875 Z0.000000 I-16.748728 J4.433745
G03 X40.492753 Y7.620126 Z0.000000 I-29.058402 J6.978810
G02 X40.625140 Y8.128279 Z0.000000 I6.973213 J-1.545381
G02 X40.972055 Y9.216810 Z0.000000 I32.387829 J-9.722441
G03 X41.332715 Y10.300952 Z0.000000 I-126.993131 J42.848800
G03 X41.337587 Y10.331439 Z0.000000 I-0.092967 J0.030488
G01 X41.291136 Y10.361363 Z0.000000
G03 X40.423808 Y9.916555 Z0.000000 I4.228728 J-9.313560
G02 X39.092484 Y9.253319 Z0.000000 I-6.245765 J10.869413
G02 X37.689399 Y8.751333 Z0.000000 I-4.932981 J11.576155
G02 X36.036451 Y8.318399 Z0.000000 I-8.507440 J29.109605
G02 X34.669739 Y8.050707 Z0.000000 I-4.553538 J19.625533
G03 X32.833877 Y7.726851 Z0.000000 I9.354505 J-58.393891
G03 X32.468552 Y7.626528 Z0.000000 I0.462150 J-2.398227
G03 X32.134599 Y7.497106 Z0.000000 I2.519150 J-6.995864
G03 X32.033526 Y7.445773 Z0.000000 I0.285981 J-0.688259
G02 X31.930763 Y7.399590 Z0.000000 I-0.237120 J0.390196
G02 X31.404494 Y7.252117 Z0.000000 I-3.158318 J10.257951
G03 X30.652825 Y7.004615 Z0.000000 I1.381309 J-5.460247
G03 X29.435133 Y6.446283 Z0.000000 I6.111805 J-14.936525
G03 X28.698785 Y6.005475 Z0.000000 I2.868663 J-5.627376
G03 X27.851779 Y5.345744 Z0.000000 I5.641759 J-8.116862
G02 X27.161430 Y4.816198 Z0.000000 I-4.628396 J5.319100
G02 X26.985592 Y4.762518 Z0.000000 I-0.175837 J0.261147
G01 X26.952077 Y4.782419 Z0.000000
G02 X26.878290 Y4.959365 Z0.000000 I0.810507 J0.441838
G02 X26.854829 Y5.298077 Z0.000000 I0.738887 J0.221348
G02 X27.106583 Y6.441691 Z0.000000 I9.057902 J-1.394474
G02 X27.691082 Y7.988143 Z0.000000 I9.839010 J-2.835081
G02 X28.355113 Y9.078795 Z0.000000 I5.520818 J-2.613822
G03 X28.353690 Y9.248641 Z0.000000 I-0.110137 J0.084006
G03 X28.153888 Y9.333640 Z0.000000 I-0.177658 J-0.140278
G03 X27.499258 Y9.237238 Z0.000000 I0.671112 J-6.828097
G03 X25.797499 Y8.869582 Z0.000000 I9.180984 J-46.618111
G03 X22.564074 Y7.808621 Z0.000000 I4.539515 J-19.292435
G03 X20.311337 Y6.530573 Z0.000000 I4.502580 J-10.560826
G02 X19.537960 Y6.081291 Z0.000000 I-2.563996 J3.523290
G02 X19.379313 Y6.110466 Z0.000000 I-0.058244 J0.129216
G02 X19.296244 Y6.324553 Z0.000000 I0.202400 J0.201694
G02 X19.416265 Y6.961836 Z0.000000 I2.276743 J-0.098843
G02 X19.816068 Y7.925877 Z0.000000 I7.692889 J-2.625434
G02 X20.300546 Y8.758541 Z0.000000 I6.214977 J-3.058856
G02 X20.715654 Y9.257727 Z0.000000 I2.768800 J-1.880262
G02 X21.302237 Y9.749392 Z0.000000 I3.271340 J-3.307137
G03 X21.766543 Y10.104124 Z0.000000 I-4.536956 J6.419615
G03 X22.662323 Y10.870953 Z0.000000 I-20.368932 J24.700801
G02 X23.328373 Y11.401337 Z0.000000 I5.246075 J-5.904575
G02 X23.960733 Y11.795087 Z0.000000 I3.505969 J-4.925905
G03 X25.574746 Y12.748766 Z0.000000 I-11.602327 J21.478462
G03 X26.417342 Y13.376951 Z0.000000 I-4.153622 J6.450515
G01 X26.602147 Y13.535534 Z0.000000
G01 X25.523123 Y13.528037 Z0.000000
G03 X23.591076 Y13.403206 Z0.000000 I0.118977 J-16.855240
G03 X21.376796 Y13.019638 Z0.000000 I2.761105 J-22.522612
G03 X20.387402 Y12.755027 Z0.000000 I2.788800 J-12.409475
G03 X19.597877 Y12.466227 Z0.000000 I2.545717 J-8.183115
G02 X18.578290 Y12.078346 Z0.000000 I-5.862352 J13.875816
G02 X16.963535 Y11.571823 Z0.000000 I-11.655306 J34.329096
G02 X15.220299 Y11.166102 Z0.000000 I-4.772957 J16.559772
G02 X15.005182 Y11.222097 Z0.000000 I-0.046731 J0.261678
G02 X14.940337 Y11.328621 Z0.000000 I0.119119 J0.145510
G02 X14.938002 Y11.539030 Z0.000000 I0.523906 J0.111029
G02 X15.050778 Y11.758773 Z0.000000 I0.428018 J-0.080855
G02 X16.057765 Y12.713349 Z0.000000 I9.949500 J-9.487338
G02 X18.068723 Y14.313266 Z0.000000 I23.126004 J-27.003648
G02 X19.619328 Y15.342482 Z0.000000 I11.074896 J-15.002643
G02 X20.134994 Y15.604433 Z0.000000 I2.238163 J-3.767422
G02 X21.791642 Y16.271113 Z0.000000 I16.419507 J-38.409542
G03 X23.121338 Y16.830600 Z0.000000 I-6.880727 J18.212791
G01 X23.130019 Y16.893581 Z0.000000
G03 X22.982033 Y16.973667 Z0.000000 I-0.258919 J-0.301671
G03 X21.717151 Y17.304133 Z0.000000 I-6.695378 J-23.041070
G02 X20.785559 Y17.546546 Z0.000000 I4.150061 J17.859953
G02 X19.711202 Y17.882746 Z0.000000 I6.946818 J24.083867
G03 X18.636583 Y18.218984 Z0.000000 I-8.009539 J-23.713174
G03 X17.097009 Y18.636578 Z0.000000 I-13.919088 J-48.269614
G02 X15.550397 Y19.030432 Z0.000000 I541.197567 J2128.443910
G02 X15.101392 Y19.145546 Z0.000000 I45.779819 J179.498661
G03 X14.128135 Y19.342148 Z0.000000 I-2.342894 J-9.090939
G03 X12.335899 Y19.553381 Z0.000000 I-4.524985 J-30.684014
G03 X11.779365 Y19.590898 Z0.000000 I-1.175356 J-13.288737
G03 X10.644131 Y19.631936 Z0.000000 I-2.565552 J-55.248800
G03 X9.512342 Y19.614757 Z0.000000 I-0.356730 J-13.788651
G03 X8.879860 Y19.532651 Z0.000000 I0.246114 J-4.373019
G03 X7.064283 Y19.115104 Z0.000000 I7.765601 J-37.922381
G03 X6.591974 Y18.948180 Z0.000000 I0.692801 J-2.711919
G02 X6.044449 Y18.795319 Z0.000000 I-0.756371 J1.652196
G02 X5.955521 Y18.874552 Z0.000000 I-0.009167 J0.079233
G02 X6.039995 Y19.042096 Z0.000000 I0.208390 J-0.000001
G02 X8.420670 Y20.697763 Z0.000000 I29.595919 J-40.016413
G02 X9.554380 Y21.389074 Z0.000000 I11.727909 J-17.957803
G02 X10.657759 Y21.968609 Z0.000000 I9.332990 J-16.428991
G02 X12.216281 Y22.648288 Z0.000000 I9.398666 J-19.424688
G02 X13.085118 Y22.915213 Z0.000000 I2.240460 J-5.745180
G03 X13.655456 Y23.065946 Z0.000000 I-1.925085 J8.438429
G03 X13.733118 Y23.110319 Z0.000000 I-0.057385 J0.190583
G01 X13.704006 Y23.180623 Z0.000000
G03 X12.505085 Y23.061823 Z0.000000 I0.401060 J-10.156584
G02 X11.177006 Y22.868148 Z0.000000 I-7.967978 J49.988314
G02 X10.098335 Y22.743369 Z0.000000 I-4.346741 J32.851116
G02 X9.588855 Y22.737375 Z0.000000 I-0.289093 J2.917082
G02 X9.433712 Y22.793481 Z0.000000 I0.023104 J0.306442
G02 X9.310813 Y22.905658 Z0.000000 I0.399286 J0.560858
G02 X9.290728 Y22.959853 Z0.000000 I0.063073 J0.054195
G02 X9.334372 Y23.062715 Z0.000000 I0.143038 J-0.000000
G02 X10.209118 Y23.847268 Z0.000000 I10.990108 J-11.373605
G02 X11.346251 Y24.718653 Z0.000000 I11.430813 J-13.739252
G02 X12.360084 Y25.362694 Z0.000000 I7.235444 J-10.269839
G02 X14.565645 Y26.405792 Z0.000000 I7.920206 J-13.893453
G02 X16.057806 Y26.777421 Z0.000000 I2.270125 J-5.933499
G03 X17.186128 Y26.980911 Z0.000000 I-1.262336 J10.229443
G03 X17.937038 Y27.225531 Z0.000000 I-1.134093 J4.756166
G03 X18.058082 Y27.300673 Z0.000000 I-0.172522 J0.412973
G01 X18.058029 Y27.330668 Z0.000000
G03 X16.771025 Y28.224259 Z0.000000 I-4.880534 J-5.655635
G03 X14.404815 Y29.335166 Z0.000000 I-10.002285 J-18.229219
G03 X12.516387 Y29.952241 Z0.000000 I-6.061940 J-15.353176
G03 X10.474981 Y30.362154 Z0.000000 I-4.584322 J-17.542247
G03 X8.469399 Y30.509582 Z0.000000 I-2.095645 J-14.793211
G03 X6.970608 Y30.383294 Z0.000000 I-0.050389 J-8.358972
G03 X5.951694 Y30.159661 Z0.000000 I2.156850 J-12.260050
G03 X4.470805 Y29.723728 Z0.000000 I6.954378 J-26.357685
G03 X3.621147 Y29.364807 Z0.000000 I1.679146 J-5.160113
G03 X2.291710 Y28.575991 Z0.000000 I7.103116 J-13.485990
G03 X0.736082 Y27.415210 Z0.000000 I9.800682 J-14.757218
G03 X0.517365 Y27.093984 Z0.000000 I0.455237 J-0.545037
G02 X0.438287 Y26.943654 Z0.000000 I-0.494909 J0.164372
G02 X0.335661 Y26.853909 Z0.000000 I-0.267765 J0.202646
G02 X0.215233 Y26.828845 Z0.000000 I-0.099471 J0.176091
G02 X0.105270 Y26.877910 Z0.000000 I0.020082 J0.192762
G02 X0.044412 Y27.037401 Z0.000000 I0.126288 J0.139546
G02 X0.298986 Y28.695404 Z0.000000 I18.068574 J-1.925757
G02 X0.720629 Y30.377304 Z0.000000 I18.048146 J-3.630764
G02 X1.082069 Y31.293541 Z0.000000 I5.687640 J-1.714266
G02 X1.368195 Y31.768535 Z0.000000 I2.983299 J-1.473398
G02 X1.793879 Y32.278904 Z0.000000 I3.874210 J-2.798664
G02 X3.012469 Y33.436426 Z0.000000 I13.090478 J-12.560893
G02 X3.842335 Y34.051636 Z0.000000 I4.485088 J-5.182688
G03 X4.220046 Y34.398616 Z0.000000 I-0.761761 J1.208299
G03 X4.312131 Y34.673149 Z0.000000 I-0.363193 J0.274534
G02 X4.333347 Y34.808029 Z0.000000 I0.439359 J-0.000001
G02 X4.425964 Y35.025987 Z0.000000 I1.256959 J-0.405459
G02 X4.823035 Y35.689492 Z0.000000 I7.140480 J-3.822626
G02 X5.743989 Y37.007202 Z0.000000 I29.149978 J-19.392361
G02 X6.558980 Y37.957995 Z0.000000 I6.676395 J-4.898116
G02 X7.944541 Y39.212457 Z0.000000 I13.057344 J-13.029510
G02 X9.758159 Y40.421164 Z0.000000 I7.102583 J-8.692165
G02 X12.577642 Y41.687422 Z0.000000 I10.636406 J-19.911209
G03 X13.509951 Y42.051471 Z0.000000 I-9.280216 J25.141903
G03 X13.590978 Y42.105081 Z0.000000 I-0.096239 J0.233498
G03 X13.578557 Y42.205875 Z0.000000 I-0.044957 J0.045622
G03 X12.746822 Y42.602879 Z0.000000 I-2.678872 J-4.542558
G02 X11.734335 Y43.007089 Z0.000000 I8.665675 J23.176426
G02 X11.030887 Y43.332147 Z0.000000 I4.890321 J11.506673
G02 X9.167439 Y44.406248 Z0.000000 I8.155479 J16.302355
G02 X7.851570 Y45.423870 Z0.000000 I5.992827 J9.108790
G02 X5.884687 Y47.351154 Z0.000000 I22.740320 J25.174848
G02 X5.063508 Y48.386986 Z0.000000 I5.693012 J5.356683
G02 X4.544329 Y49.264747 Z0.000000 I8.249466 J5.471826
G02 X4.016576 Y50.385261 Z0.000000 I12.933477 J6.776102
G02 X3.367303 Y52.284857 Z0.000000 I13.539343 J5.688439
G02 X3.472681 Y52.422066 Z0.000000 I0.105377 J0.028139
G02 X3.615634 Y52.370134 Z0.000000 I-0.000001 J-0.222722
G02 X4.142720 Y51.861234 Z0.000000 I-3.317229 J-3.963188
G03 X4.724549 Y51.306705 Z0.000000 I3.865724 J3.473529
G03 X5.786432 Y50.521191 Z0.000000 I8.868125 J10.877726
G02 X6.361834 Y50.126392 Z0.000000 I-16.834858 J-25.152746
G02 X6.914357 Y49.728006 Z0.000000 I-16.578299 J-23.574871
G03 X7.200224 Y49.589410 Z0.000000 I0.513063 J0.694130
G01 X7.226932 Y49.642725 Z0.000000
G03 X6.851064 Y49.926603 Z0.000000 I-9.293307 J-11.913973
G03 X6.749886 Y49.991474 Z0.000000 I-0.580433 J-0.793953
G02 X6.670208 Y50.069815 Z0.000000 I0.102877 J0.184324
G02 X6.590141 Y50.266648 Z0.000000 I0.660033 J0.383187
G02 X6.611314 Y50.505835 Z0.000000 I0.354169 J0.089180
G02 X6.742721 Y50.605359 Z0.000000 I0.156936 J-0.070696
G02 X6.948089 Y50.600470 Z0.000000 I0.088661 J-0.591473
G02 X8.398234 Y50.275972 Z0.000000 I-6.106153 J-30.690168
G03 X9.850156 Y49.931290 Z0.000000 I16.660800 J66.950943
G03 X10.877646 Y49.715618 Z0.000000 I7.529613 J33.316726
G01 X11.908625 Y49.515696 Z0.000000
G01 X14.092004 Y49.534240 Z0.000000
G01 X16.275381 Y49.552764 Z0.000000
G01 X17.000424 Y49.710722 Z0.000000
G03 X17.721409 Y49.876140 Z0.000000 I-7.130335 J32.731952
G03 X17.747926 Y49.890926 Z0.000000 I-0.013238 J0.054911
G01 X17.754403 Y49.915092 Z0.000000
G03 X17.719386 Y49.995456 Z0.000000 I-0.294609 J-0.080559
G03 X17.643609 Y50.070310 Z0.000000 I-0.193120 J-0.119719
G03 X16.106204 Y50.968322 Z0.000000 I-32.775421 J-54.346759
G02 X15.438882 Y51.409419 Z0.000000 I2.837161 J5.017587
G02 X14.724648 Y52.026255 Z0.000000 I4.877965 J6.370116
G02 X12.360952 Y54.772997 Z0.000000 I14.207330 J14.616459
G02 X11.329876 Y56.765608 Z0.000000 I6.352073 J4.549949
G01 X11.151761 Y57.279833 Z0.000000
G01 X11.136875 Y58.591832 Z0.000000
G02 X11.154889 Y59.897404 Z0.000000 I26.019502 J0.293898
G02 X11.194839 Y60.078168 Z0.000000 I0.520576 J-0.020255
G02 X11.343198 Y60.214804 Z0.000000 I0.222849 J-0.093107
G02 X11.572443 Y60.200599 Z0.000000 I0.096601 J-0.297939
G02 X11.763065 Y60.054024 Z0.000000 I-0.235122 J-0.503019
G02 X13.026336 Y58.464060 Z0.000000 I-30.372329 J-25.428491
G03 X13.502437 Y57.881267 Z0.000000 I7.663580 J5.774741
G03 X13.694278 Y57.708920 Z0.000000 I0.844077 J0.746611
G03 X14.980896 Y56.990019 Z0.000000 I3.967236 J5.589377
G03 X17.429073 Y56.121869 Z0.000000 I8.326475 J19.594628
G03 X18.562038 Y55.854268 Z0.000000 I3.363187 J11.706850
G03 X20.412683 Y55.566159 Z0.000000 I5.774625 J31.004974
G03 X23.040615 Y55.400923 Z0.000000 I2.646364 J21.108046
G03 X23.598329 Y55.563150 Z0.000000 I0.000898 J1.036702
G03 X23.604861 Y55.666414 Z0.000000 I-0.034434 J0.054017
G03 X22.918210 Y56.128900 Z0.000000 I-2.622529 J-3.152688
G02 X21.388948 Y57.062842 Z0.000000 I7.472632 J13.954885
G02 X20.414568 Y57.859766 Z0.000000 I4.442266 J6.425592
G02 X18.851833 Y59.703322 Z0.000000 I8.273499 J8.597353
G02 X18.067269 Y61.278373 Z0.000000 I5.214360 J3.580306
G02 X17.898089 Y62.013294 Z0.000000 I3.718161 J1.242860
G02 X17.726457 Y63.886666 Z0.000000 I24.189172 J3.160671
G02 X17.679441 Y65.321052 Z0.000000 I35.774329 J1.890579
G02 X17.701223 Y65.868449 Z0.000000 I5.218817 J0.066463
G02 X17.818194 Y66.702465 Z0.000000 I8.909233 J-0.824310
G02 X17.884134 Y66.838218 Z0.000000 I0.282342 J-0.053253
G02 X18.211824 Y66.944937 Z0.000000 I0.253253 J-0.221175
G02 X18.650963 Y66.664137 Z0.000000 I-0.170281 J-0.750083
G03 X19.122900 Y66.083418 Z0.000000 I11.305957 J8.705950
G03 X20.318088 Y64.719230 Z0.000000 I63.657084 J54.565366
G03 X21.944177 Y63.201614 Z0.000000 I9.258529 J8.290328
G03 X23.574173 Y62.185380 Z0.000000 I5.692060 J7.314490
G03 X25.969635 Y61.333155 Z0.000000 I4.990647 J10.235130
G03 X28.625301 Y61.003082 Z0.000000 I2.874944 J12.282561
G02 X30.496339 Y60.903132 Z0.000000 I-0.452537 J-26.033979
G02 X31.858197 Y60.713427 Z0.000000 I-1.251275 J-13.965800
G03 X32.878044 Y60.570045 Z0.000000 I2.009519 J10.594632
G01 X32.927219 Y60.614896 Z0.000000
G01 X32.921084 Y60.637421 Z0.000000
G03 X32.277095 Y61.719964 Z0.000000 I-111.984385 J-65.885075
G02 X31.045023 Y64.282327 Z0.000000 I13.076021 J7.864795
G02 X30.723670 Y65.911731 Z0.000000 I4.882021 J1.809227
G02 X30.872919 Y67.097289 Z0.000000 I3.753097 J0.129701
G02 X31.110941 Y67.233554 Z0.000000 I0.189861 J-0.055626
G02 X31.209942 Y67.176373 Z0.000000 I-0.050733 J-0.202131
G02 X31.264909 Y67.074509 Z0.000000 I-0.153491 J-0.148588
G03 X31.294359 Y66.947137 Z0.000000 I9.340600 J2.092611
G03 X31.336028 Y66.776173 Z0.000000 I17.068506 J4.069508
G03 X31.586833 Y66.300319 Z0.000000 I1.093464 J0.272302
G03 X34.424542 Y63.297540 Z0.000000 I49.711356 J44.136358
G03 X35.456881 Y62.406697 Z0.000000 I6.813064 J6.851638
G03 X36.731519 Y61.575093 Z0.000000 I7.201464 J9.645366
G03 X38.523013 Y60.690441 Z0.000000 I8.766655 J15.496923
G03 X41.096707 Y59.716424 Z0.000000 I13.231553 J31.075079
G02 X43.290661 Y58.972343 Z0.000000 I-61.569303 J-185.146172
G02 X43.972032 Y58.722185 Z0.000000 I-6.260097 J-18.104078
G02 X46.462359 Y57.471888 Z0.000000 I-5.351256 J-13.763814
G02 X48.265277 Y56.031824 Z0.000000 I-5.376767 J-8.580189
G02 X49.029042 Y55.131823 Z0.000000 I-5.307147 J-5.277864
G02 X49.309546 Y54.583698 Z0.000000 I-1.651799 J-1.191148
G03 X49.573666 Y54.120072 Z0.000000 I1.296102 J0.431322
G03 X49.941536 Y53.854940 Z0.000000 I0.745310 J0.646342
G03 X50.634117 Y53.623461 Z0.000000 I1.995864 J4.819758
G03 X52.019990 Y53.318660 Z0.000000 I4.922372 J19.078034
G03 X53.745890 Y53.041949 Z0.000000 I7.301021 J40.017096
G03 X55.524360 Y52.833790 Z0.000000 I5.850538 J42.284366
G03 X56.250255 Y52.776709 Z0.000000 I2.036194 J21.249838
G03 X57.506143 Y52.711917 Z0.000000 I3.908501 J63.556568
G02 X58.761381 Y52.642757 Z0.000000 I-1.959044 J-46.981621
G02 X59.246245 Y52.592697 Z0.000000 I-0.483402 J-7.055263
G03 X60.572504 Y52.479024 Z0.000000 I1.757848 J12.715561
G03 X63.814003 Y52.439037 Z0.000000 I2.559574 J76.084855
G03 X66.590730 Y52.494415 Z0.000000 I-1.133815 J126.492766
G03 X67.052533 Y52.539211 Z0.000000 I-0.109103 J3.527558
G02 X67.514110 Y52.585225 Z0.000000 I0.594920 J-3.629625
G02 X69.136479 Y52.614805 Z0.000000 I1.631306 J-44.967286
G03 X71.123179 Y52.696783 Z0.000000 I-0.006961 J24.282972
G03 X71.402161 Y52.801608 Z0.000000 I-0.044701 J0.542623
G03 X71.500580 Y52.907814 Z0.000000 I-0.232167 J0.313847
G03 X71.668011 Y53.224954 Z0.000000 I-2.024461 J1.271565
G02 X72.459738 Y54.395718 Z0.000000 I3.542355 J-1.542426
G02 X73.399551 Y54.980398 Z0.000000 I1.687039 J-1.664076
G02 X73.930325 Y55.129130 Z0.000000 I1.826786 J-5.497732
G02 X75.849730 Y55.542768 Z0.000000 I16.437674 J-71.615656
G03 X80.562733 Y56.525933 Z0.000000 I-70.370007 J349.121205
G03 X81.215051 Y56.699911 Z0.000000 I-1.476269 J6.845031
G02 X81.723432 Y56.859051 Z0.000000 I14.782830 J-46.333000
G02 X82.471786 Y57.085762 Z0.000000 I30.717316 J-100.046852
G03 X85.295428 Y57.980703 Z0.000000 I-25.677055 J85.916027
G03 X87.450416 Y58.754693 Z0.000000 I-17.031571 J50.807271
G03 X87.856378 Y58.923648 Z0.000000 I-2.794839 J7.287608
G03 X88.900504 Y59.406715 Z0.000000 I-21.893791 J48.692280
G02 X90.401801 Y60.090380 Z0.000000 I21.115536 J-44.378509
G02 X92.042355 Y60.774270 Z0.000000 I22.769749 J-52.311710
G02 X93.527447 Y61.263801 Z0.000000 I4.752057 J-11.918902
G02 X94.652521 Y61.461493 Z0.000000 I1.743496 J-6.622064
G03 X95.206977 Y61.522653 Z0.000000 I-1.297682 J14.308097
G03 X95.764250 Y61.606024 Z0.000000 I-1.889181 J14.531876
G02 X97.993762 Y61.905653 Z0.000000 I5.499649 J-32.477848
G02 X100.235340 Y62.052096 Z0.000000 I3.260874 J-32.684631
G02 X103.146177 Y62.106865 Z0.000000 I3.695449 J-119.023587
G02 X103.884730 Y62.076138 Z0.000000 I0.050575 J-7.675633
G03 X104.296163 Y62.049253 Z0.000000 I0.755392 J8.398427
G03 X105.431480 Y62.013006 Z0.000000 I2.607238 J63.864410
G02 X106.564891 Y61.969473 Z0.000000 I-0.850325 J-36.915254
G02 X106.732020 Y61.943023 Z0.000000 I-0.044117 J-0.820004
G03 X106.894485 Y61.914108 Z0.000000 I0.253371 J0.952733
G03 X106.936870 Y61.924057 Z0.000000 I0.006326 J0.068307
G03 X107.102968 Y62.109962 Z0.000000 I-0.230059 J0.372703
G03 X107.242781 Y62.572283 Z0.000000 I-1.491945 J0.703489
G02 X107.520574 Y63.465141 Z0.000000 I2.997231 J-0.442876
G02 X107.975386 Y64.063811 Z0.000000 I1.758110 J-0.863548
G02 X108.248411 Y64.263128 Z0.000000 I1.156753 J-1.297869
G02 X109.211138 Y64.793233 Z0.000000 I9.343168 J-15.828931
G03 X110.185263 Y65.307774 Z0.000000 I-20.025347 J39.091213
G03 X110.344660 Y65.410285 Z0.000000 I-0.620980 J1.140760
G02 X110.507951 Y65.502972 Z0.000000 I0.440490 J-0.585847
G02 X111.153091 Y65.740579 Z0.000000 I3.720533 J-9.107208
G03 X112.519214 Y66.244172 Z0.000000 I-6.460308 J19.629989
G03 X114.447805 Y67.088775 Z0.000000 I-16.360963 J39.983264
G03 X115.132715 Y67.459931 Z0.000000 I-2.775159 J5.938656
G03 X116.113798 Y68.124156 Z0.000000 I-8.002702 J12.876923
G02 X117.127408 Y68.805812 Z0.000000 I8.579378 J-11.662938
G02 X117.806581 Y69.161610 Z0.000000 I2.979891 J-4.862104
G02 X119.125074 Y69.316626 Z0.000000 I0.911359 J-2.066837
G02 X121.115179 Y68.555339 Z0.000000 I-1.048776 J-5.723484
G02 X122.282976 Y67.710834 Z0.000000 I-4.917598 J-8.029822
G02 X123.976462 Y66.132054 Z0.000000 I-15.705506 J-18.544242
G02 X126.050579 Y63.795906 Z0.000000 I-23.940688 J-23.344225
G02 X127.885578 Y61.291316 Z0.000000 I-25.698193 J-20.752399
G02 X129.695612 Y58.351276 Z0.000000 I-43.033356 J-28.520661
G02 X130.918612 Y55.974328 Z0.000000 I-26.880529 J-15.333823
G02 X131.765244 Y53.967302 Z0.000000 I-30.151900 J-13.901175
G02 X132.513640 Y51.817412 Z0.000000 I-33.862366 J-12.993002
G02 X132.761751 Y50.989854 Z0.000000 I-33.460602 J-10.482806
G02 X133.081285 Y49.835626 Z0.000000 I-64.763401 J-18.550300
G02 X133.234631 Y48.953750 Z0.000000 I-4.863233 J-1.299923
G02 X133.319036 Y46.982522 Z0.000000 I-24.372051 J-2.030996
G02 X133.148691 Y45.068652 Z0.000000 I-10.529911 J-0.027294
G02 X132.867659 Y44.502466 Z0.000000 I-1.122799 J0.204472
G02 X132.518735 Y44.246856 Z0.000000 I-0.814058 J0.745286
G02 X130.977097 Y43.623890 Z0.000000 I-6.873516 J14.790713
G03 X128.404185 Y42.617210 Z0.000000 I11.317426 J-32.716811
G03 X127.303552 Y42.014728 Z0.000000 I2.864929 J-6.540322
G03 X126.272760 Y41.258040 Z0.000000 I7.997391 J-11.974813
G03 X126.215979 Y41.139459 Z0.000000 I0.095432 J-0.118581
G03 X126.239543 Y41.079483 Z0.000000 I0.088109 J-0.000000
G03 X126.348959 Y40.996418 Z0.000000 I0.292764 J0.272042
G03 X126.639245 Y40.890699 Z0.000000 I0.556726 J1.077283
G03 X129.592647 Y40.265867 Z0.000000 I25.436468 J112.938546
G02 X130.957126 Y39.972833 Z0.000000 I-8.423273 J-42.545210
G02 X131.284406 Y39.873965 Z0.000000 I-0.587282 J-2.535202
G02 X132.316580 Y39.297821 Z0.000000 I-1.389999 J-3.702867
G02 X133.158311 Y38.422331 Z0.000000 I-2.557050 J-3.300831
G02 X133.755242 Y37.286245 Z0.000000 I-3.852241 J-2.748938
G02 X134.138644 Y35.718044 Z0.000000 I-7.040835 J-2.552346
G02 X134.177445 Y35.333689 Z0.000000 I-6.091129 J-0.809050
G02 X134.238919 Y34.271374 Z0.000000 I-46.690942 J-3.234855
G03 X134.290214 Y33.208069 Z0.000000 I306.727644 J14.263902
G03 X134.335414 Y32.337926 Z0.000000 I221.811394 J11.085786
G02 X134.375710 Y31.467877 Z0.000000 I-57.381197 J-3.093573
G02 X134.374611 Y31.322867 Z0.000000 I-1.565926 J-0.060637
G02 X134.366958 Y31.177873 Z0.000000 I-27.712030 J1.390025
G03 X134.352410 Y30.912010 Z0.000000 I193.989661 J-10.748402
G01 X134.352430 Y30.912129 Z0.000000
G00 Z5.000000

(End cutting path id: path861)


(Start cutting path id: path861)
(Change tool to Cylindrical cutter)

G00 Z5.000000
G00 X133.075872 Y31.724027

G01 Z0.000000 F1000.0(Penetrate)
G03 X132.999959 Y31.857397 Z0.000000 I-0.400608 J-0.139735 F1100.000000
G03 X132.761693 Y32.097500 Z0.000000 I-1.575500 J-1.325170
G02 X132.538869 Y32.339430 Z0.000000 I0.896058 J1.048874
G02 X132.499664 Y32.460813 Z0.000000 I0.168305 J0.121382
G02 X132.524611 Y32.594660 Z0.000000 I0.371547 J-0.000001
G02 X132.789676 Y33.212058 Z0.000000 I8.472235 J-3.271758
G03 X133.044624 Y33.889920 Z0.000000 I-3.949214 J1.872197
G01 X132.995108 Y33.935177 Z0.000000
G02 X132.909395 Y33.905801 Z0.000000 I-0.452874 J1.181642
G02 X132.636258 Y33.826435 Z0.000000 I-3.559745 J11.741209
G02 X132.363102 Y33.801118 Z0.000000 I-0.206618 J0.743022
G02 X131.942988 Y33.886477 Z0.000000 I0.162480 J1.876198
G02 X131.544376 Y34.195236 Z0.000000 I0.230873 J0.709747
G02 X131.481720 Y34.610574 Z0.000000 I0.436887 J0.278301
G02 X131.738980 Y35.246028 Z0.000000 I2.834327 J-0.777658
G02 X131.918373 Y35.406881 Z0.000000 I0.318321 J-0.174549
G02 X132.087880 Y35.437600 Z0.000000 I0.155635 J-0.375770
G02 X132.671003 Y35.381189 Z0.000000 I-0.160405 J-4.700212
G01 X132.866513 Y35.349879 Z0.000000
G01 X132.833314 Y35.737485 Z0.000000
G03 X132.679369 Y36.432256 Z0.000000 I-2.690931 J-0.231804
G03 X132.421917 Y36.863507 Z0.000000 I-1.261953 J-0.460899
G02 X132.245900 Y37.116131 Z0.000000 I0.980200 J0.870592
G02 X132.209748 Y37.260467 Z0.000000 I0.270050 J0.144334
G03 X132.097556 Y37.640289 Z0.000000 I-0.699025 J0.000002
G03 X131.530491 Y38.309913 Z0.000000 I-2.880317 J-1.864250
G01 X131.099202 Y38.703651 Z0.000000
G01 X131.047202 Y38.567159 Z0.000000
G03 X131.002977 Y38.428449 Z0.000000 I1.256286 J-0.476948
G03 X130.926200 Y38.102261 Z0.000000 I6.967225 J-1.812038
G02 X130.618622 Y37.636296 Z0.000000 I-0.743797 J0.156475
G02 X130.138489 Y37.550222 Z0.000000 I-0.332952 J0.475088
G02 X129.442337 Y37.926102 Z0.000000 I0.424667 J1.619103
G02 X129.348631 Y38.262325 Z0.000000 I0.218144 J0.241967
G02 X129.406186 Y38.452585 Z0.000000 I190.280972 J-57.456606
G03 X129.462912 Y38.639881 Z0.000000 I-570.308374 J172.827969
G03 X129.454479 Y38.975496 Z0.000000 I-0.512265 J0.155041
G03 X129.270004 Y39.175968 Z0.000000 I-0.329500 J-0.118093
G03 X128.599820 Y39.364674 Z0.000000 I-0.943142 J-2.065116
G03 X128.234014 Y39.301444 Z0.000000 I-0.077606 J-0.640791
G03 X127.878985 Y38.881556 Z0.000000 I0.310805 J-0.622835
G03 X127.948871 Y38.365976 Z0.000000 I0.596178 J-0.181715
G03 X128.001554 Y38.319649 Z0.000000 I0.105697 J0.067080
G03 X128.443581 Y38.134715 Z0.000000 I2.472622 J5.289279
G02 X129.428081 Y37.556673 Z0.000000 I-1.135734 J-3.061744
G02 X130.052997 Y36.760823 Z0.000000 I-1.665603 J-1.951135
G03 X130.282301 Y36.385806 Z0.000000 I2.406952 J1.214122
G03 X130.352825 Y36.349965 Z0.000000 I0.070524 J0.051465
G03 X130.410842 Y36.388545 Z0.000000 I0.000000 J0.062912
G03 X130.478406 Y36.649178 Z0.000000 I-0.868365 J0.364183
G02 X130.683840 Y37.196678 Z0.000000 I1.178431 J-0.129881
G02 X130.959888 Y37.340854 Z0.000000 I0.276047 J-0.192179
G02 X131.667338 Y37.234819 Z0.000000 I-0.000007 J-2.413068
G02 X132.004247 Y37.020594 Z0.000000 I-0.220359 J-0.718594
G02 X132.080268 Y36.826063 Z0.000000 I-0.217981 J-0.197304
G02 X132.011245 Y36.291539 Z0.000000 I-1.961056 J-0.018489
G02 X131.791884 Y35.794707 Z0.000000 I-1.775062 J0.486882
G02 X131.604713 Y35.648583 Z0.000000 I-0.297476 J0.188102
G02 X131.407627 Y35.638007 Z0.000000 I-0.118017 J0.357597
G02 X130.724104 Y35.837712 Z0.000000 I1.029102 J4.791855
G01 X130.325324 Y35.986428 Z0.000000
G01 X130.325324 Y35.779576 Z0.000000
G02 X130.103501 Y34.869979 Z0.000000 I-1.975863 J0.000006
G02 X129.176277 Y33.563817 Z0.000000 I-5.134070 J2.662404
G03 X128.915277 Y33.232547 Z0.000000 I1.726546 J-1.628758
G01 X128.926456 Y33.181144 Z0.000000
G03 X128.998471 Y33.145239 Z0.000000 I0.210125 J0.331273
G03 X129.045316 Y33.136344 Z0.000000 I0.049006 J0.130285
G02 X129.091072 Y33.124481 Z0.000000 I-0.001428 J-0.099685
G02 X129.274896 Y33.013022 Z0.000000 I-0.977657 J-1.819705
G02 X129.411178 Y32.867074 Z0.000000 I-0.253882 J-0.373669
G02 X129.455305 Y32.703928 Z0.000000 I-0.279524 J-0.163146
G02 X129.395662 Y32.265839 Z0.000000 I-1.638772 J0.000005
G02 X129.182842 Y31.721772 Z0.000000 I-2.757725 J0.765068
G02 X129.020415 Y31.611619 Z0.000000 I-0.182173 J0.093793
G02 X128.577652 Y31.663184 Z0.000000 I-0.101860 J1.052049
G03 X128.236150 Y31.643424 Z0.000000 I-0.146452 J-0.429815
G03 X128.042971 Y31.408843 Z0.000000 I0.153919 J-0.323586
G02 X127.947449 Y31.198740 Z0.000000 I-0.639774 J0.164104
G02 X127.667000 Y30.862090 Z0.000000 I-1.959773 J1.347466
G02 X127.135601 Y30.548535 Z0.000000 I-0.877219 J0.879598
G02 X126.656289 Y30.569148 Z0.000000 I-0.209078 J0.721362
G03 X126.265466 Y30.704058 Z0.000000 I-2.085386 J-5.407616
G03 X126.166809 Y30.718803 Z0.000000 I-0.098658 J-0.322687
G02 X126.068684 Y30.731580 Z0.000000 I0.000001 J0.383203
G02 X125.965829 Y30.772094 Z0.000000 I0.121996 J0.460534
G02 X125.908430 Y30.847255 Z0.000000 I0.053906 J0.100665
G02 X125.896730 Y31.074193 Z0.000000 I0.640704 J0.146804
G02 X126.084828 Y31.968542 Z0.000000 I5.306780 J-0.649158
G02 X126.229993 Y32.179899 Z0.000000 I0.403680 J-0.121727
G02 X126.415148 Y32.236390 Z0.000000 I0.166743 J-0.214841
G02 X126.748453 Y32.144727 Z0.000000 I-0.058720 J-0.865338
G03 X127.193936 Y32.118884 Z0.000000 I0.252385 J0.498056
G03 X127.496824 Y32.420563 Z0.000000 I-0.177220 J0.480821
G03 X127.447970 Y32.760709 Z0.000000 I-0.335901 J0.125337
G03 X126.993366 Y33.093387 Z0.000000 I-0.771559 J-0.577388
G03 X126.730419 Y33.162122 Z0.000000 I-0.563261 J-1.617430
G03 X126.640546 Y33.156218 Z0.000000 I-0.032969 J-0.185109
G03 X126.570781 Y33.104883 Z0.000000 I0.040885 J-0.128637
G03 X126.429265 Y32.853670 Z0.000000 I1.223019 J-0.854432
G02 X126.291451 Y32.590950 Z0.000000 I-2.030521 J0.897639
G02 X126.177924 Y32.443707 Z0.000000 I-0.743204 J0.455635
G02 X125.989554 Y32.371637 Z0.000000 I-0.170376 J0.163105
G02 X125.262124 Y32.513780 Z0.000000 I0.243021 J3.176107
G02 X124.846997 Y32.680143 Z0.000000 I0.952629 J2.978214
G02 X124.815015 Y32.731265 Z0.000000 I0.024867 J0.051122
G02 X124.822633 Y32.804860 Z0.000000 I0.359286 J-0.000001
G02 X124.966617 Y33.455504 Z0.000000 I28.396929 J-5.942822
G03 X125.105018 Y34.101519 Z0.000000 I-17.655924 J4.120410
G01 X125.097579 Y34.125940 Z0.000000
G03 X125.074281 Y34.140651 Z0.000000 I-0.041033 J-0.039182
G03 X124.452460 Y34.338469 Z0.000000 I-10.290404 J-31.270564
G02 X123.787176 Y34.630609 Z0.000000 I0.924338 J3.008564
G02 X123.703311 Y34.776856 Z0.000000 I0.085582 J0.146247
G02 X123.715030 Y34.850707 Z0.000000 I0.238546 J-0.000001
G02 X123.884582 Y35.333755 Z0.000000 I10.671995 J-3.474636
G02 X124.099496 Y35.788008 Z0.000000 I2.888971 J-1.088849
G02 X124.223244 Y35.920614 Z0.000000 I0.348303 J-0.200993
G02 X124.385052 Y36.000697 Z0.000000 I0.380707 J-0.565707
G02 X124.468304 Y36.003663 Z0.000000 I0.046574 J-0.137401
G03 X124.571161 Y36.046265 Z0.000000 I0.023325 J0.089152
G03 X124.713426 Y36.422486 Z0.000000 I-1.037864 J0.607468
G02 X124.789160 Y36.732291 Z0.000000 I3.400185 J-0.667049
G02 X124.873077 Y36.965310 Z0.000000 I1.985522 J-0.583424
G03 X124.899427 Y37.250648 Z0.000000 I-0.427506 J0.183363
G03 X124.769299 Y37.427096 Z0.000000 I-0.265616 J-0.059680
G02 X124.623558 Y37.659446 Z0.000000 I0.145169 J0.252939
G02 X124.706201 Y38.318774 Z0.000000 I1.707358 J0.120836
G02 X124.943062 Y38.861148 Z0.000000 I3.063696 J-1.015043
G02 X125.040153 Y38.924929 Z0.000000 I0.108914 J-0.060005
G02 X125.249294 Y38.900880 Z0.000000 I0.047972 J-0.504226
G02 X126.518941 Y38.428541 Z0.000000 I-6.667893 J-19.865883
G03 X126.574891 Y38.436543 Z0.000000 I0.021150 J0.051718
G03 X126.603442 Y38.495761 Z0.000000 I-0.047138 J0.059219
G03 X126.586462 Y38.580592 Z0.000000 I-0.220391 J0.000001
G01 X126.560942 Y38.597599 Z0.000000
G02 X126.445392 Y38.690970 Z0.000000 I0.000000 J0.118184
G02 X126.452583 Y39.102176 Z0.000000 I0.885612 J0.190179
G03 X126.517301 Y39.572217 Z0.000000 I-2.096218 J0.528095
G03 X126.469685 Y39.739091 Z0.000000 I-0.289009 J0.007764
G03 X126.310470 Y39.873663 Z0.000000 I-0.308117 J-0.203070
G03 X125.713216 Y40.072662 Z0.000000 I-1.357141 J-3.077394
G03 X125.270493 Y40.062282 Z0.000000 I-0.201148 J-0.867294
G03 X125.123726 Y39.906476 Z0.000000 I0.056437 J-0.200193
G02 X124.849739 Y39.197269 Z0.000000 I-2.427181 J0.530159
G02 X124.648603 Y39.080967 Z0.000000 I-0.201135 J0.115772
G02 X123.803589 Y39.194326 Z0.000000 I0.000009 J3.206236
G02 X123.551064 Y39.380846 Z0.000000 I0.114561 J0.419305
G02 X123.522147 Y39.446664 Z0.000000 I0.203148 J0.128514
G02 X123.510565 Y39.531257 Z0.000000 I0.323385 J0.087368
G03 X123.498482 Y39.616160 Z0.000000 I-0.327197 J-0.003253
G03 X123.459865 Y39.712517 Z0.000000 I-0.462088 J-0.129274
G03 X123.385558 Y39.765419 Z0.000000 I-0.090339 J-0.048255
G03 X122.870165 Y39.806009 Z0.000000 I-0.515402 J-3.251932
G03 X122.383618 Y39.785432 Z0.000000 I-0.000017 J-5.762355
G01 X122.376405 Y39.764180 Z0.000000
G03 X122.427647 Y39.730956 Z0.000000 I0.126894 J0.139582
G03 X122.771675 Y39.591194 Z0.000000 I2.782568 J6.356059
G02 X123.287697 Y39.282321 Z0.000000 I-0.589549 J-1.570420
G02 X123.346383 Y39.087549 Z0.000000 I-0.126495 J-0.144341
G03 X123.326465 Y39.007968 Z0.000000 I1.516779 J-0.421913
G03 X123.243812 Y38.629202 Z0.000000 I43.559878 J-9.703895
G02 X123.127535 Y38.267985 Z0.000000 I-1.837110 J0.392050
G02 X122.997980 Y38.067479 Z0.000000 I-0.681885 J0.298484
G03 X122.888053 Y37.832264 Z0.000000 I0.328574 J-0.296853
G03 X122.957180 Y37.777089 Z0.000000 I0.050875 J-0.007151
G02 X123.218101 Y37.813267 Z0.000000 I0.209302 J-0.550538
G02 X123.774249 Y37.705207 Z0.000000 I-0.238795 J-2.714191
G02 X124.253244 Y37.426143 Z0.000000 I-0.352482 J-1.155623
G02 X124.376908 Y37.133549 Z0.000000 I-0.273017 J-0.287820
G02 X124.249483 Y36.388531 Z0.000000 I-2.435811 J0.033205
G02 X124.032255 Y36.114639 Z0.000000 I-0.489243 J0.164938
G02 X123.945728 Y36.090255 Z0.000000 I-0.085626 J0.138131
G02 X123.693895 Y36.116540 Z0.000000 I0.007135 J1.287886
G03 X123.439247 Y36.145947 Z0.000000 I-0.295325 J-1.440082
G03 X123.325665 Y36.126771 Z0.000000 I-0.008228 J-0.297233
G03 X123.259113 Y36.012743 Z0.000000 I0.037282 J-0.098195
G03 X123.560880 Y34.584204 Z0.000000 I12.699492 J1.936520
G01 X123.672859 Y34.171757 Z0.000000
G01 X123.543118 Y33.755414 Z0.000000
G03 X123.429563 Y33.205757 Z0.000000 I2.723465 J-0.849207
G03 X123.473616 Y33.097403 Z0.000000 I0.123267 J-0.013015
G03 X123.540633 Y33.060287 Z0.000000 I0.131368 J0.158136
G03 X123.940696 Y32.943431 Z0.000000 I1.908783 J5.791575
G02 X124.618172 Y32.702527 Z0.000000 I-0.971591 J-3.805398
G02 X124.737724 Y32.574695 Z0.000000 I-0.097710 J-0.211202
G02 X124.747026 Y32.492685 Z0.000000 I-0.154363 J-0.059040
G02 X124.698324 Y32.294703 Z0.000000 I-0.993733 J0.139471
G03 X124.639092 Y32.093686 Z0.000000 I1.757948 J-0.627234
G03 X124.596292 Y31.859023 Z0.000000 I2.324178 J-0.545133
G02 X124.532595 Y31.637555 Z0.000000 I-0.768284 J0.101075
G02 X124.422291 Y31.478811 Z0.000000 I-0.496436 J0.227257
G01 X124.279541 Y31.336055 Z0.000000
G01 X123.834311 Y31.368836 Z0.000000
G03 X123.397747 Y31.372250 Z0.000000 I-0.244241 J-3.317454
G03 X123.305041 Y31.338187 Z0.000000 I0.009844 J-0.169979
G03 X123.195763 Y31.164875 Z0.000000 I0.174184 J-0.230935
G03 X123.123248 Y30.444145 Z0.000000 I3.545536 J-0.720741
G03 X123.163781 Y30.151960 Z0.000000 I1.073364 J-0.000003
G03 X123.242097 Y30.024115 Z0.000000 I0.266646 J0.075433
G03 X123.370847 Y29.930721 Z0.000000 I0.453227 J0.489366
G03 X123.555027 Y29.849923 Z0.000000 I0.517722 J0.929827
G02 X123.840266 Y29.568584 Z0.000000 I-0.141498 J-0.428727
G02 X123.829544 Y29.055093 Z0.000000 I-0.701291 J-0.242214
G03 X123.729110 Y28.757343 Z0.000000 I2.979606 J-1.170869
G03 X123.682163 Y28.535639 Z0.000000 I1.614910 J-0.457789
G02 X123.529008 Y28.319616 Z0.000000 I-0.286033 J0.040487
G02 X123.241602 Y28.307394 Z0.000000 I-0.156838 J0.302762
G03 X122.973840 Y28.374730 Z0.000000 I-0.361936 J-0.873185
G03 X122.842682 Y28.347345 Z0.000000 I-0.022182 J-0.221534
G03 X122.745258 Y28.250929 Z0.000000 I0.126403 J-0.225153
G03 X122.635201 Y27.986552 Z0.000000 I0.976203 J-0.561479
G02 X122.555679 Y27.698042 Z0.000000 I-94.933335 J26.011395
G02 X122.492670 Y27.473138 Z0.000000 I-41.945309 J11.630082
G03 X122.468843 Y27.254465 Z0.000000 I0.636574 J-0.179996
G03 X122.513369 Y27.119648 Z0.000000 I0.275159 J0.016115
G03 X122.615630 Y27.012272 Z0.000000 I0.344723 J0.225919
G03 X122.823238 Y26.894248 Z0.000000 I0.628516 J0.863976
G02 X123.038999 Y26.785713 Z0.000000 I-0.776554 J-1.812481
G02 X123.087888 Y26.740207 Z0.000000 I-0.076248 J-0.130929
G02 X123.124229 Y26.586130 Z0.000000 I-0.181920 J-0.124233
G02 X122.972125 Y25.901323 Z0.000000 I-4.208443 J0.575451
G03 X123.059228 Y25.475639 Z0.000000 I0.431847 J-0.133390
G03 X123.679013 Y25.067643 Z0.000000 I1.005245 J0.852310
G02 X124.017355 Y24.964101 Z0.000000 I-336.588546 J-1100.466851
G02 X124.097712 Y24.939450 Z0.000000 I-23.646299 J-77.225861
G03 X124.155696 Y24.960737 Z0.000000 I0.014995 J0.048770
G03 X124.322693 Y25.291256 Z0.000000 I-1.547454 J0.989311
G03 X124.460636 Y25.669943 Z0.000000 I-10.920768 J4.192543
G03 X124.519095 Y25.861116 Z0.000000 I-2.674339 J0.922309
G02 X124.795551 Y26.196696 Z0.000000 I0.506391 J-0.135508
G02 X125.312476 Y26.248371 Z0.000000 I0.328279 J-0.672575
G02 X125.971427 Y26.002654 Z0.000000 I-0.869584 J-3.338441
G02 X126.104035 Y25.857145 Z0.000000 I-0.119768 J-0.242329
G02 X126.107713 Y25.784234 Z0.000000 I-0.109751 J-0.042085
G02 X125.917423 Y25.170321 Z0.000000 I-8.809688 J2.394223
G02 X125.532075 Y24.719201 Z0.000000 I-0.772391 J0.269635
G02 X125.037172 Y24.697628 Z0.000000 I-0.269824 J0.502468
G03 X124.629454 Y24.841636 Z0.000000 I-1.291182 J-3.006449
G03 X124.421632 Y24.870224 Z0.000000 I-0.207824 J-0.741105
G01 X124.207932 Y24.870225 Z0.000000
G01 X124.069160 Y24.181434 Z0.000000
G02 X123.919381 Y23.498087 Z0.000000 I-20.146929 J4.057803
G02 X123.896778 Y23.454219 Z0.000000 I-0.099791 J0.023660
G01 X123.856539 Y23.440705 Z0.000000
G02 X123.503228 Y23.536640 Z0.000000 I0.638039 J3.048330
G03 X123.140404 Y23.645616 Z0.000000 I-1.877164 J-5.591336
G03 X122.927769 Y23.689532 Z0.000000 I-0.498045 J-1.874753
G02 X122.632852 Y23.948882 Z0.000000 I0.053241 J0.357897
G02 X122.642982 Y24.695653 Z0.000000 I1.259040 J0.356376
G03 X122.742793 Y25.159126 Z0.000000 I-2.494329 J0.779651
G03 X122.711483 Y25.257819 Z0.000000 I-0.123685 J0.015075
G03 X122.619415 Y25.325135 Z0.000000 I-0.209473 J-0.189879
G03 X122.392914 Y25.403182 Z0.000000 I-0.516818 J-1.132176
G03 X122.160079 Y25.426390 Z0.000000 I-0.201162 J-0.838609
G03 X122.048704 Y25.390533 Z0.000000 I0.007920 J-0.215501
G03 X121.500997 Y24.726327 Z0.000000 I0.818455 J-1.232823
G03 X121.529340 Y24.142782 Z0.000000 I0.629239 J-0.261899
G03 X121.587361 Y24.087155 Z0.000000 I0.114397 J0.061250
G03 X121.851330 Y23.987482 Z0.000000 I0.694362 J1.439523
G02 X122.125904 Y23.895956 Z0.000000 I-0.792536 J-2.835227
G02 X122.220039 Y23.844107 Z0.000000 I-0.147397 J-0.378980
G02 X122.326143 Y23.657668 Z0.000000 I-0.157174 J-0.212860
G02 X122.299837 Y23.049057 Z0.000000 I-2.123394 J-0.213094
G02 X121.974115 Y22.600217 Z0.000000 I-0.638120 J0.120475
G02 X121.341885 Y22.523431 Z0.000000 I-0.411959 J0.750754
G03 X121.084530 Y22.566097 Z0.000000 I-0.350504 J-1.316690
G03 X120.969255 Y22.548982 Z0.000000 I-0.018602 J-0.271471
G03 X120.802645 Y22.415506 Z0.000000 I0.123545 J-0.324938
G03 X120.462693 Y21.781290 Z0.000000 I3.296305 J-2.175098
G03 X120.443740 Y21.353485 Z0.000000 I0.564828 J-0.239346
G03 X120.666481 Y21.150036 Z0.000000 I0.289709 J0.093525
G02 X120.922504 Y21.086881 Z0.000000 I-1.449300 J-6.425762
G02 X121.155171 Y21.019055 Z0.000000 I-1.440003 J-5.372692
G03 X121.380994 Y20.985745 Z0.000000 I0.216742 J0.687257
G03 X121.504581 Y21.023454 Z0.000000 I-0.002910 J0.230914
G03 X121.656434 Y21.192436 Z0.000000 I-0.243287 J0.371345
G03 X121.841923 Y21.682128 Z0.000000 I-2.099709 J1.075321
G02 X122.151552 Y22.041087 Z0.000000 I0.516253 J-0.132288
G02 X122.814874 Y22.091363 Z0.000000 I0.406887 J-0.967371
G02 X123.367599 Y21.855215 Z0.000000 I-0.469856 J-1.864668
G02 X123.461533 Y21.685315 Z0.000000 I-0.106684 J-0.169900
G02 X123.448486 Y21.607342 Z0.000000 I-0.239529 J0.000001
G02 X123.317832 Y21.267727 Z0.000000 I-4.821148 J1.659823
G03 X123.343647 Y20.703855 Z0.000000 I0.598237 J-0.255138
G03 X123.826959 Y20.323764 Z0.000000 I0.679206 J0.366329
G02 X124.417333 Y20.057604 Z0.000000 I-0.494745 J-1.885243
G02 X124.524918 Y19.855987 Z0.000000 I-0.135125 J-0.201617
G02 X124.444685 Y19.374421 Z0.000000 I-1.485347 J0.000004
G02 X124.161685 Y18.796111 Z0.000000 I-2.444232 J0.837703
G02 X124.001802 Y18.706373 Z0.000000 I-0.166208 J0.108830
G02 X123.458674 Y18.773713 Z0.000000 I-0.056365 J1.769352
G02 X122.915282 Y18.985363 Z0.000000 I0.864212 J3.022162
G02 X122.814835 Y19.096162 Z0.000000 I0.092589 J0.184869
G02 X122.788163 Y19.325938 Z0.000000 I0.434968 J0.166927
G02 X122.933558 Y19.967851 Z0.000000 I3.734240 J-0.508390
G03 X123.062694 Y20.427279 Z0.000000 I-6.299443 J2.018519
G01 X123.053219 Y20.461054 Z0.000000
G03 X122.182157 Y20.964910 Z0.000000 I-1.379525 J-1.380043
G03 X121.678730 Y20.831919 Z0.000000 I-0.136084 J-0.504203
G03 X121.658193 Y20.797230 Z0.000000 I0.055481 J-0.056270
G03 X121.496359 Y20.189940 Z0.000000 I18.687493 J-5.305176
G03 X121.532991 Y19.559397 Z0.000000 I1.029518 J-0.256524
G03 X121.846706 Y19.259890 Z0.000000 I0.468218 J0.176377
G02 X122.258733 Y18.928655 Z0.000000 I-0.229753 J-0.707673
G02 X122.446543 Y18.237249 Z0.000000 I-1.178754 J-0.691402
G02 X122.392520 Y17.683021 Z0.000000 I-2.870051 J0.000008
G02 X122.305251 Y17.519354 Z0.000000 I-0.312426 J0.061490
G02 X122.022280 Y17.408910 Z0.000000 I-0.267406 J0.267402
G02 X121.549481 Y17.550487 Z0.000000 I0.041088 J0.997469
G02 X121.084436 Y17.901227 Z0.000000 I1.424110 J2.371889
G02 X120.974332 Y18.088066 Z0.000000 I0.261900 J0.280199
G02 X120.968340 Y18.207177 Z0.000000 I0.297872 J0.074692
G02 X121.046034 Y18.578096 Z0.000000 I3.059262 J-0.447207
G03 X120.960325 Y19.169918 Z0.000000 I-0.720761 J0.197735
G03 X120.420977 Y19.585344 Z0.000000 I-0.823071 J-0.510762
G02 X119.905801 Y19.815776 Z0.000000 I0.671835 J2.193120
G02 X119.836368 Y19.938912 Z0.000000 I0.074471 J0.123136
G02 X119.847039 Y20.017855 Z0.000000 I0.297338 J-0.000001
G02 X119.953069 Y20.362583 Z0.000000 I5.861049 J-1.614047
G03 X120.023651 Y20.714968 Z0.000000 I-1.311927 J0.446039
G01 X119.980070 Y20.761601 Z0.000000
G01 X119.956262 Y20.747069 Z0.000000
G03 X119.795989 Y20.403058 Z0.000000 I4.354590 J-2.238117
G03 X119.690933 Y20.037166 Z0.000000 I1.492717 J-0.626620
G03 X119.674987 Y19.661636 Z0.000000 I1.558194 J-0.254271
G02 X119.664859 Y19.283655 Z0.000000 I-1.824867 J-0.140231
G02 X119.572545 Y18.882379 Z0.000000 I-2.132997 J0.279446
G02 X119.291534 Y18.458735 Z0.000000 I-0.923512 J0.307560
G02 X119.044253 Y18.418179 Z0.000000 I-0.156103 J0.177655
G03 X118.867109 Y18.471696 Z0.000000 I-0.349751 J-0.837760
G03 X118.816054 Y18.462339 Z0.000000 I-0.013557 J-0.070002
G02 X118.618933 Y18.416342 Z0.000000 I-0.166941 J0.270045
G02 X118.292954 Y18.512281 Z0.000000 I0.085062 J0.890793
G03 X118.139416 Y18.551665 Z0.000000 I-0.162371 J-0.314030
G03 X118.024634 Y18.518982 Z0.000000 I-0.005007 J-0.200315
G03 X117.901229 Y18.368392 Z0.000000 I0.178192 J-0.271883
G03 X117.706761 Y17.728469 Z0.000000 I3.556328 J-1.430250
G02 X117.547895 Y17.421993 Z0.000000 I-0.632499 J0.133454
G02 X117.336370 Y17.329773 Z0.000000 I-0.211523 J0.196472
G03 X117.283098 Y17.273810 Z0.000000 I-0.000000 J-0.053337
G03 X117.344370 Y17.166727 Z0.000000 I0.135917 J0.006699
G03 X117.469353 Y17.119065 Z0.000000 I0.171204 J0.261247
G03 X117.671200 Y17.117826 Z0.000000 I0.105246 J0.703381
G02 X117.877155 Y17.114324 Z0.000000 I0.091638 J-0.668679
G02 X118.362559 Y16.998905 Z0.000000 I-0.668528 J-3.889962
G03 X118.955303 Y16.896340 Z0.000000 I0.703957 J2.304243
G03 X119.023759 Y16.968353 Z0.000000 I0.003034 J0.065660
G02 X119.097607 Y17.632397 Z0.000000 I1.615568 J0.156462
G02 X119.431703 Y18.206789 Z0.000000 I1.522696 J-0.501319
G02 X119.592564 Y18.273711 Z0.000000 I0.151289 J-0.136860
G02 X120.041183 Y18.178167 Z0.000000 I-0.066355 J-1.412557
G03 X120.346145 Y18.067174 Z0.000000 I2.493134 J6.375673
G03 X120.544252 Y18.008465 Z0.000000 I0.886898 J2.629141
G02 X120.718027 Y17.863482 Z0.000000 I-0.065338 J-0.254947
G02 X120.778051 Y17.500101 Z0.000000 I-0.633347 J-0.291265
G03 X120.776417 Y17.216929 Z0.000000 I1.440149 J-0.149899
G03 X120.813350 Y17.121181 Z0.000000 I0.187518 J0.017334
G03 X121.063186 Y16.933821 Z0.000000 I0.443385 J0.330982
G03 X121.749179 Y16.771733 Z0.000000 I0.986200 J2.641141
G01 X122.056589 Y16.738812 Z0.000000
G01 X122.156599 Y16.908224 Z0.000000
G02 X122.589042 Y17.235359 Z0.000000 I0.614028 J-0.362295
G02 X123.378650 Y17.230091 Z0.000000 I0.385068 J-1.462003
G03 X123.627651 Y17.295636 Z0.000000 I0.068340 J0.246121
G03 X123.924612 Y17.776301 Z0.000000 I-0.869930 J0.869519
G02 X124.248160 Y18.441504 Z0.000000 I2.685216 J-0.894775
G02 X124.427854 Y18.538165 Z0.000000 I0.179693 J-0.118695
G02 X125.066111 Y18.450262 Z0.000000 I-0.000007 J-2.361164
G02 X125.452493 Y18.250478 Z0.000000 I-0.290928 J-1.036180
G02 X125.502596 Y18.150643 Z0.000000 I-0.085218 J-0.105257
G02 X125.473991 Y17.713349 Z0.000000 I-2.081792 J-0.083407
G02 X125.282646 Y16.972156 Z0.000000 I-4.592419 J0.790280
G02 X125.175039 Y16.854088 Z0.000000 I-0.191812 J0.066746
G02 X124.970503 Y16.821758 Z0.000000 I-0.160495 J0.352217
G02 X124.420299 Y16.940520 Z0.000000 I0.325430 J2.841553
G03 X123.914044 Y16.987014 Z0.000000 I-0.357303 J-1.111080
G03 X123.772009 Y16.857102 Z0.000000 I0.021353 J-0.165946
G02 X123.738816 Y16.726696 Z0.000000 I-2.081558 J0.460401
G02 X123.647098 Y16.424719 Z0.000000 I-10.780019 J3.109266
G03 X123.617940 Y15.999297 Z0.000000 I0.853314 J-0.272194
G03 X123.751546 Y15.822561 Z0.000000 I0.238473 J0.041407
G03 X124.602483 Y15.470731 Z0.000000 I3.569083 J7.427249
G03 X124.765205 Y15.468381 Z0.000000 I0.084887 J0.242937
G03 X124.859202 Y15.553000 Z0.000000 I-0.046323 J0.145973
G03 X125.006156 Y16.019366 Z0.000000 I-2.098785 J0.917676
G02 X125.184345 Y16.520153 Z0.000000 I1.820187 J-0.365558
G02 X125.331108 Y16.635382 Z0.000000 I0.202503 J-0.106844
G02 X125.634698 Y16.642774 Z0.000000 I0.168208 J-0.670310
G02 X126.243208 Y16.453088 Z0.000000 I-0.595641 J-2.981687
G01 X126.627547 Y16.287382 Z0.000000
G01 X126.622546 Y16.011912 Z0.000000
G01 X126.617546 Y15.736443 Z0.000000
G01 X126.852086 Y15.868283 Z0.000000
G03 X127.073435 Y16.011490 Z0.000000 I-1.042679 J1.854287
G03 X127.108827 Y16.057992 Z0.000000 I-0.061964 J0.083878
G03 X127.102064 Y16.108695 Z0.000000 I-0.050244 J0.019100
G03 X126.952337 Y16.272808 Z0.000000 I-0.810372 J-0.588975
G02 X126.820873 Y16.450156 Z0.000000 I0.345889 J0.393800
G02 X126.781228 Y16.650163 Z0.000000 I0.407217 J0.184649
G02 X126.809510 Y16.866819 Z0.000000 I1.129545 J-0.037276
G02 X126.926230 Y17.280960 Z0.000000 I4.360946 J-1.005554
G02 X127.237971 Y17.612729 Z0.000000 I0.516519 J-0.172992
G02 X127.783851 Y17.628891 Z0.000000 I0.294685 J-0.726375
G03 X128.241520 Y17.487348 Z0.000000 I2.921828 J8.636838
G03 X128.332851 Y17.474773 Z0.000000 I0.091331 J0.325360
G03 X128.476011 Y17.553980 Z0.000000 I0.000000 J0.168977
G03 X128.774063 Y18.178388 Z0.000000 I-2.560311 J1.605468
G02 X128.996297 Y18.647120 Z0.000000 I2.192830 J-0.752611
G02 X129.131414 Y18.754948 Z0.000000 I0.218807 J-0.135613
G03 X129.306605 Y18.827203 Z0.000000 I-0.511749 J1.489310
G03 X129.385995 Y18.878321 Z0.000000 I-0.171062 J0.352876
G03 X129.918031 Y19.473648 Z0.000000 I-1.719890 J2.072443
G03 X130.036368 Y19.869813 Z0.000000 I-0.603973 J0.396167
G03 X129.971427 Y20.021424 Z0.000000 I-0.209445 J0.000001
G03 X129.611489 Y20.274778 Z0.000000 I-1.029160 J-1.079760
G02 X129.413895 Y20.524203 Z0.000000 I0.169177 J0.337001
G02 X129.451641 Y20.944270 Z0.000000 I0.644274 J0.153837
G03 X129.580928 Y21.289653 Z0.000000 I-3.033300 J1.332341
G03 X129.601342 Y21.423594 Z0.000000 I-0.429202 J0.133942
G02 X129.621679 Y21.555459 Z0.000000 I0.437692 J-0.000001
G02 X129.680743 Y21.675300 Z0.000000 I0.421007 J-0.133020
G02 X129.780225 Y21.744917 Z0.000000 I0.145447 J-0.101953
G02 X130.007023 Y21.762709 Z0.000000 I0.161340 J-0.602226
G02 X130.248338 Y21.718682 Z0.000000 I-0.171559 J-1.623668
G02 X130.398803 Y21.660290 Z0.000000 I-0.178565 J-0.683181
G03 X130.547032 Y21.596966 Z0.000000 I0.462872 J0.878349
G03 X130.628093 Y21.583629 Z0.000000 I0.082010 J0.245443
G03 X130.790401 Y21.668594 Z0.000000 I0.000729 J0.196119
G03 X131.100615 Y22.270294 Z0.000000 I-2.209463 J1.519932
G02 X131.219695 Y22.569212 Z0.000000 I5.177100 J-1.889232
G02 X131.252206 Y22.620141 Z0.000000 I0.174211 J-0.075366
G03 X131.298809 Y22.775690 Z0.000000 I-0.143697 J0.127808
G03 X131.203307 Y22.954555 Z0.000000 I-0.296080 J-0.043160
G03 X131.102698 Y23.014003 Z0.000000 I-0.195509 J-0.216014
G03 X130.756187 Y23.108584 Z0.000000 I-0.896221 J-2.601411
G02 X130.354477 Y23.334808 Z0.000000 I0.150164 J0.736422
G02 X130.244749 Y23.661788 Z0.000000 I0.308883 J0.285557
G02 X130.350565 Y24.195367 Z0.000000 I2.791452 J-0.276305
G02 X130.518091 Y24.568091 Z0.000000 I1.514593 J-0.456743
G02 X130.717141 Y24.685837 Z0.000000 I0.211281 J-0.130053
G02 X131.268791 Y24.605149 Z0.000000 I0.071086 J-1.440120
G03 X131.707171 Y24.515664 Z0.000000 I0.540319 J1.528444
G03 X131.838921 Y24.569228 Z0.000000 I0.010300 J0.163480
G03 X132.064201 Y24.927282 Z0.000000 I-0.905222 J0.819442
G03 X132.241774 Y25.556007 Z0.000000 I-2.700544 J1.102163
G03 X132.153156 Y25.798318 Z0.000000 I-0.259164 J0.042579
G03 X131.639176 Y26.070578 Z0.000000 I-0.866870 J-1.015221
G03 X131.088864 Y26.165139 Z0.000000 I-0.759475 J-2.771293
G03 X130.966656 Y26.119660 Z0.000000 I-0.011406 J-0.156284
G03 X130.925038 Y26.055579 Z0.000000 I0.131056 J-0.130671
G03 X130.733164 Y25.513782 Z0.000000 I9.678994 J-3.732619
G02 X130.528629 Y24.985801 Z0.000000 I-4.739645 J1.532484
G02 X130.459932 Y24.912492 Z0.000000 I-0.142603 J0.064790
G02 X130.360391 Y24.895020 Z0.000000 I-0.076336 J0.142618
G02 X129.739253 Y25.016945 Z0.000000 I0.910587 J6.282073
G03 X129.118941 Y25.154333 Z0.000000 I-2.977116 J-11.972717
G01 X129.085643 Y25.144157 Z0.000000
G03 X128.882872 Y24.795231 Z0.000000 I0.557868 J-0.557575
G03 X128.779470 Y24.027405 Z0.000000 I2.799167 J-0.767835
G03 X128.798208 Y23.879787 Z0.000000 I0.590819 J-0.000002
G03 X128.840969 Y23.789562 Z0.000000 I0.255873 J0.066024
G03 X128.918260 Y23.727039 Z0.000000 I0.156433 J0.114347
G03 X129.428718 Y23.526556 Z0.000000 I2.409645 J5.385193
G02 X129.937524 Y23.325654 Z0.000000 I-1.823484 J-5.362940
G02 X130.005657 Y23.265886 Z0.000000 I-0.064023 J-0.141702
G02 X130.068483 Y22.950414 Z0.000000 I-0.390039 J-0.241667
G02 X129.837684 Y22.235797 Z0.000000 I-2.466211 J0.401929
G02 X129.558222 Y22.010414 Z0.000000 I-0.386166 J0.192874
G02 X128.989294 Y22.019360 Z0.000000 I-0.268016 J1.050562
G02 X128.478034 Y22.192621 Z0.000000 I1.647372 J5.702031
G02 X128.374195 Y22.259525 Z0.000000 I0.112998 J0.289415
G02 X128.334689 Y22.362223 Z0.000000 I0.091918 J0.094306
G02 X128.408796 Y22.799632 Z0.000000 I2.131159 J-0.136087
G03 X128.532431 Y23.251489 Z0.000000 I-47.023784 J13.109301
G03 X128.563328 Y23.374848 Z0.000000 I-3.640115 J0.977244
G03 X128.492949 Y23.569123 Z0.000000 I-0.184873 J0.042913
G03 X127.861689 Y23.905562 Z0.000000 I-1.371915 J-1.813684
G03 X127.306057 Y24.095094 Z0.000000 I-31.925573 J-92.683828
G01 X127.295440 Y24.096839 Z0.000000
G01 X127.288451 Y24.100587 Z0.000000
G02 X127.231340 Y24.196159 Z0.000000 I0.972741 J0.646130
G02 X127.211077 Y24.299007 Z0.000000 I0.158333 J0.084614
G02 X127.277141 Y24.643268 Z0.000000 I1.987295 J-0.202894
G03 X127.373923 Y24.991632 Z0.000000 I-28.506543 J8.107218
G03 X127.427173 Y25.196611 Z0.000000 I-9.535404 J2.586546
G02 X127.666367 Y25.436196 Z0.000000 I0.318966 J-0.079252
G02 X128.344524 Y25.426146 Z0.000000 I0.320187 J-1.279731
G03 X128.839935 Y25.346156 Z0.000000 I0.594790 J2.109635
G03 X128.990924 Y25.396814 Z0.000000 I0.010008 J0.220512
G03 X129.091949 Y25.537995 Z0.000000 I-0.218311 J0.262954
G03 X129.356656 Y26.356080 Z0.000000 I-7.823302 J2.983251
G02 X129.539690 Y26.518138 Z0.000000 I0.213972 J-0.057276
G02 X130.194817 Y26.474310 Z0.000000 I0.223182 J-1.582192
G03 X130.724221 Y26.355844 Z0.000000 I1.369268 J4.876863
G03 X130.812956 Y26.370384 Z0.000000 I0.023073 J0.137231
G03 X130.886645 Y26.453193 Z0.000000 I-0.075816 J0.141655
G03 X131.122189 Y27.155996 Z0.000000 I-6.686491 J2.631848
G02 X131.220557 Y27.423902 Z0.000000 I1.718812 J-0.479094
G02 X131.294950 Y27.530600 Z0.000000 I0.335610 J-0.154711
G02 X131.508974 Y27.622905 Z0.000000 I0.223261 J-0.223392
G02 X132.037850 Y27.552338 Z0.000000 I0.048407 J-1.654364
G03 X132.506217 Y27.499706 Z0.000000 I0.376653 J1.241509
G03 X132.672510 Y27.597306 Z0.000000 I-0.015352 J0.216623
G03 X132.724798 Y27.722971 Z0.000000 I-0.307115 J0.201499
G03 X132.800782 Y28.205696 Z0.000000 I-4.615146 J0.973792
G03 X132.677919 Y28.764873 Z0.000000 I-0.902175 J0.094861
G03 X132.303474 Y29.040380 Z0.000000 I-0.513828 J-0.306141
G02 X131.964350 Y29.158103 Z0.000000 I0.423747 J1.768009
G02 X131.817945 Y29.264833 Z0.000000 I0.194284 J0.420286
G02 X131.737730 Y29.417306 Z0.000000 I0.246503 J0.227020
G02 X131.732746 Y29.638256 Z0.000000 I0.537571 J0.122657
G02 X131.920485 Y30.393341 Z0.000000 I5.892947 J-1.064299
G02 X132.025379 Y30.556288 Z0.000000 I0.354754 J-0.113131
G02 X132.236334 Y30.639311 Z0.000000 I0.215581 J-0.238254
G02 X132.675179 Y30.565686 Z0.000000 I0.017828 J-1.238430
G03 X132.827406 Y30.545471 Z0.000000 I0.122418 J0.338584
G03 X132.953269 Y30.588785 Z0.000000 I-0.022399 J0.269613
G03 X133.049738 Y30.684649 Z0.000000 I-0.185233 J0.282874
G03 X133.095109 Y30.802448 Z0.000000 I-0.242689 J0.161112
G03 X133.134658 Y31.405761 Z0.000000 I-3.550411 J0.535690
G03 X133.077712 Y31.724153 Z0.000000 I-1.026689 J-0.019339
G01 X133.075872 Y31.724027 Z0.000000
G00 Z5.000000

(End cutting path id: path861)


(Start cutting path id: path861)
(Change tool to Cylindrical cutter)

G00 Z5.000000
G00 X132.283921 Y31.324553

G01 Z0.000000 F1000.0(Penetrate)
G02 X131.927874 Y30.931552 Z0.000000 I-0.586284 J0.173370 F1100.000000
G02 X131.268350 Y30.911713 Z0.000000 I-0.356435 J0.876813
G02 X130.763925 Y31.188875 Z0.000000 I0.524959 J1.553006
G02 X130.662881 Y31.400231 Z0.000000 I0.170527 J0.211355
G02 X130.767058 Y32.102658 Z0.000000 I2.420243 J-0.000007
G02 X131.024385 Y32.592281 Z0.000000 I1.405621 J-0.426307
G02 X131.508862 Y32.731513 Z0.000000 I0.340526 J-0.272386
G02 X132.342573 Y32.131635 Z0.000000 I-0.598310 J-1.710817
G02 X132.397672 Y31.949414 Z0.000000 I-0.210072 J-0.162961
G02 X132.283871 Y31.324553 Z0.000000 I-2.948130 J0.214127
G01 X132.283921 Y31.324553 Z0.000000
G00 Z5.000000

(End cutting path id: path861)


(Start cutting path id: path861)
(Change tool to Cylindrical cutter)

G00 Z5.000000
G00 X130.545499 Y30.670459

G01 Z0.000000 F1000.0(Penetrate)
G03 X130.491354 Y30.545323 Z0.000000 I0.701394 J-0.377766 F1100.000000
G03 X130.400638 Y30.236651 Z0.000000 I4.142289 J-1.385054
G02 X130.164963 Y29.811308 Z0.000000 I-0.927986 J0.236217
G02 X129.908356 Y29.721471 Z0.000000 I-0.216436 J0.206823
G02 X129.334256 Y29.876455 Z0.000000 I0.309896 J2.288740
G02 X129.007967 Y30.094484 Z0.000000 I0.385038 J0.929391
G02 X128.897583 Y30.344869 Z0.000000 I0.267409 J0.267414
G02 X128.968070 Y30.979069 Z0.000000 I2.054940 J0.092625
G02 X129.146978 Y31.307803 Z0.000000 I0.785073 J-0.214212
G02 X129.340351 Y31.394766 Z0.000000 I0.194647 J-0.174347
G02 X129.980041 Y31.332491 Z0.000000 I0.015327 J-3.159176
G02 X130.424780 Y31.176117 Z0.000000 I-0.335826 J-1.665730
G02 X130.584894 Y30.971490 Z0.000000 I-0.143262 J-0.277052
G02 X130.545519 Y30.670459 Z0.000000 I-0.414282 J-0.098902
G01 X130.545499 Y30.670459 Z0.000000
G00 Z5.000000

(End cutting path id: path861)


(Start cutting path id: path861)
(Change tool to Cylindrical cutter)

G00 Z5.000000
G00 X128.580075 Y29.280342

G01 Z0.000000 F1000.0(Penetrate)
G02 X128.278344 Y28.802438 Z0.000000 I-1.090952 J0.354584 F1100.000000
G02 X127.933863 Y28.667724 Z0.000000 I-0.338013 J0.356543
G02 X127.359648 Y28.778788 Z0.000000 I0.021454 J1.650832
G02 X127.054914 Y29.007650 Z0.000000 I0.253157 J0.654395
G01 X126.928525 Y29.173387 Z0.000000
G01 X127.043076 Y29.617948 Z0.000000
G02 X127.306487 Y30.253644 Z0.000000 I2.378818 J-0.613279
G02 X127.488128 Y30.371755 Z0.000000 I0.209746 J-0.123838
G02 X128.371850 Y30.278883 Z0.000000 I0.234529 J-2.019309
G02 X128.701057 Y29.963032 Z0.000000 I-0.171150 J-0.507875
G02 X128.714771 Y29.819652 Z0.000000 I-0.251462 J-0.096398
G02 X128.580055 Y29.280342 Z0.000000 I-3.944923 J0.698936
G01 X128.580075 Y29.280342 Z0.000000
G00 Z5.000000

(End cutting path id: path861)


(Start cutting path id: path861)
(Change tool to Cylindrical cutter)

G00 Z5.000000
G00 X129.739000 Y27.638319

G01 Z0.000000 F1000.0(Penetrate)
G02 X129.593818 Y27.170629 Z0.000000 I-2.019730 J0.370596 F1100.000000
G02 X129.410998 Y26.905116 Z0.000000 I-0.810820 J0.362593
G02 X129.199789 Y26.816797 Z0.000000 I-0.213249 J0.213265
G02 X128.536828 Y26.899218 Z0.000000 I-0.017365 J2.567806
G02 X128.163837 Y27.122225 Z0.000000 I0.194363 J0.748511
G02 X128.065739 Y27.407825 Z0.000000 I0.273951 J0.253744
G02 X128.257644 Y28.235458 Z0.000000 I2.983898 J-0.255815
G02 X128.487903 Y28.495469 Z0.000000 I0.466239 J-0.180927
G02 X128.580191 Y28.509321 Z0.000000 I0.065574 J-0.122528
G02 X129.003922 Y28.394384 Z0.000000 I-0.591187 J-3.018031
G02 X129.425261 Y28.234940 Z0.000000 I-2.924040 J-8.363340
G02 X129.538052 Y28.176557 Z0.000000 I-0.265467 J-0.651006
G02 X129.710296 Y27.963578 Z0.000000 I-0.232343 J-0.364044
G02 X129.739000 Y27.638372 Z0.000000 I-0.574753 J-0.214600
G01 X129.739000 Y27.638319 Z0.000000
G00 Z5.000000

(End cutting path id: path861)


(Start cutting path id: path861)
(Change tool to Cylindrical cutter)

G00 Z5.000000
G00 X131.481452 Y28.402290

G01 Z0.000000 F1000.0(Penetrate)
G02 X131.320741 Y28.007041 Z0.000000 I-3.801398 J1.315387 F1100.000000
G02 X131.239611 Y27.887617 Z0.000000 I-0.416607 J0.195749
G02 X131.102632 Y27.838565 Z0.000000 I-0.116434 J0.109358
G02 X130.405761 Y27.995758 Z0.000000 I0.495271 J3.818926
G02 X130.063772 Y28.268479 Z0.000000 I0.193005 J0.592813
G02 X129.983973 Y28.700728 Z0.000000 I0.540227 J0.323223
G02 X130.149625 Y29.254219 Z0.000000 I2.443567 J-0.429790
G02 X130.300255 Y29.433368 Z0.000000 I0.373699 J-0.161310
G02 X130.532295 Y29.492912 Z0.000000 I0.203275 J-0.310261
G02 X131.218485 Y29.361945 Z0.000000 I-0.244611 J-3.144740
G02 X131.503293 Y29.067839 Z0.000000 I-0.125575 J-0.406559
G02 X131.481452 Y28.402286 Z0.000000 I-1.085710 J-0.297507
G01 X131.481452 Y28.402290 Z0.000000
G00 Z5.000000

(End cutting path id: path861)


(Start cutting path id: path861)
(Change tool to Cylindrical cutter)

G00 Z5.000000
G00 X127.793056 Y26.264312

G01 Z0.000000 F1000.0(Penetrate)
G02 X127.577905 Y25.733926 Z0.000000 I-1.765537 J0.407358 F1100.000000
G02 X127.417544 Y25.643507 Z0.000000 I-0.160360 J0.096993
G02 X126.494669 Y25.800861 Z0.000000 I0.000008 J2.785039
G02 X126.164986 Y26.083443 Z0.000000 I0.198509 J0.565207
G02 X126.117886 Y26.615250 Z0.000000 I0.599906 J0.321120
G02 X126.570029 Y27.327338 Z0.000000 I1.615114 J-0.525935
G01 X126.678920 Y27.429674 Z0.000000
G01 X127.232889 Y27.284973 Z0.000000
G02 X127.770773 Y27.116393 Z0.000000 I-1.478128 J-5.658615
G02 X127.847278 Y27.059357 Z0.000000 I-0.057769 J-0.157317
G02 X127.889740 Y26.915345 Z0.000000 I-0.173038 J-0.129286
G02 X127.792976 Y26.264313 Z0.000000 I-4.143542 J0.283154
G01 X127.793056 Y26.264312 Z0.000000
G00 Z5.000000

(End cutting path id: path861)


(Start cutting path id: path861)
(Change tool to Cylindrical cutter)

G00 Z5.000000
G00 X126.723852 Y28.174805

G01 Z0.000000 F1000.0(Penetrate)
G02 X126.472990 Y27.604146 Z0.000000 I-1.532250 J0.333109 F1100.000000
G02 X126.234060 Y27.480285 Z0.000000 I-0.238929 J0.168518
G02 X125.660467 Y27.581434 Z0.000000 I0.000005 J1.676962
G02 X125.224151 Y27.847887 Z0.000000 I0.441956 J1.214161
G02 X125.136316 Y28.060845 Z0.000000 I0.186915 J0.201686
G02 X125.261253 Y28.752608 Z0.000000 I2.558846 J-0.104982
G02 X125.552262 Y29.168326 Z0.000000 I0.831321 J-0.272223
G02 X125.855785 Y29.219554 Z0.000000 I0.198807 J-0.253127
G03 X126.103515 Y29.148019 Z0.000000 I0.836204 J2.431109
G03 X126.363624 Y29.100163 Z0.000000 I0.618055 J2.628447
G02 X126.616979 Y29.043595 Z0.000000 I-0.198797 J-1.486012
G02 X126.711334 Y28.990180 Z0.000000 I-0.078885 J-0.249389
G02 X126.788380 Y28.822592 Z0.000000 I-0.151199 J-0.171016
G02 X126.723432 Y28.174812 Z0.000000 I-2.837727 J-0.042627
G01 X126.723852 Y28.174805 Z0.000000
G00 Z5.000000

(End cutting path id: path861)


(Start cutting path id: path861)
(Change tool to Cylindrical cutter)

G00 Z5.000000
G00 X124.906999 Y27.335281

G01 Z0.000000 F1000.0(Penetrate)
G02 X124.733833 Y26.617626 Z0.000000 I-4.348780 J0.669618 F1100.000000
G02 X124.626937 Y26.492546 Z0.000000 I-0.207161 J0.068826
G02 X124.491396 Y26.472037 Z0.000000 I-0.097983 J0.189423
G02 X123.873737 Y26.627309 Z0.000000 I0.810477 J4.530158
G02 X123.269447 Y26.852234 Z0.000000 I2.455333 J7.520791
G02 X123.202738 Y26.908722 Z0.000000 I0.056191 J0.133992
G02 X123.181779 Y27.077192 Z0.000000 I0.168670 J0.106523
G02 X123.566971 Y28.024075 Z0.000000 I6.886518 J-2.249651
G02 X123.751468 Y28.152755 Z0.000000 I0.208698 J-0.102619
G02 X124.299161 Y28.100683 Z0.000000 I0.144769 J-1.383654
G02 X124.875818 Y27.820371 Z0.000000 I-0.587678 J-1.942277
G02 X124.953560 Y27.642218 Z0.000000 I-0.107000 J-0.152731
G02 X124.947706 Y27.601180 Z0.000000 I-2.112063 J0.280369
G02 X124.906959 Y27.335283 Z0.000000 I-211.885221 J32.333545
G01 X124.906999 Y27.335281 Z0.000000
G00 Z5.000000

(End cutting path id: path861)


(Start cutting path id: path861)
(Change tool to Cylindrical cutter)

G00 Z5.000000
G00 X125.667187 Y30.055479

G01 Z0.000000 F1000.0(Penetrate)
G02 X125.373101 Y29.518768 Z0.000000 I-1.687449 J0.575698 F1100.000000
G02 X125.154845 Y29.413735 Z0.000000 I-0.218255 J0.174246
G02 X124.696071 Y29.500938 Z0.000000 I0.000004 J1.250426
G02 X124.264276 Y29.764986 Z0.000000 I0.538861 J1.366274
G01 X124.086807 Y29.921268 Z0.000000
G01 X124.134208 Y30.211284 Z0.000000
G03 X124.179353 Y30.501623 Z0.000000 I-18.269762 J2.989464
G03 X124.211109 Y30.731805 Z0.000000 I-12.462231 J1.836598
G02 X124.267155 Y30.950486 Z0.000000 I0.902628 J-0.114811
G02 X124.353390 Y31.093526 Z0.000000 I0.466696 J-0.183844
G02 X124.481658 Y31.173617 Z0.000000 I0.192674 J-0.165816
G02 X124.652400 Y31.171836 Z0.000000 I0.082109 J-0.313499
G03 X124.838763 Y31.119488 Z0.000000 I8.898023 J31.320084
G03 X125.225230 Y31.012807 Z0.000000 I35.154363 J126.597889
G02 X125.635652 Y30.665007 Z0.000000 I-0.168865 J-0.615328
G02 X125.667337 Y30.055479 Z0.000000 I-0.745628 J-0.344348
G01 X125.667187 Y30.055479 Z0.000000
G00 Z5.000000

(End cutting path id: path861)


(Start cutting path id: path861)
(Change tool to Cylindrical cutter)

G00 Z5.000000
G00 X131.203646 Y33.237774

G01 Z0.000000 F1000.0(Penetrate)
G02 X130.800048 Y32.804452 Z0.000000 I-0.665982 J0.215682 F1100.000000
G02 X130.070255 Y32.779559 Z0.000000 I-0.398984 J0.986884
G02 X129.716643 Y32.927850 Z0.000000 I0.735585 J2.249813
G02 X129.641996 Y33.001517 Z0.000000 I0.081490 J0.157228
G02 X129.579217 Y33.523044 Z0.000000 I0.638054 J0.341348
G02 X129.950789 Y34.201746 Z0.000000 I1.518910 J-0.390501
G02 X130.064390 Y34.266422 Z0.000000 I0.160121 J-0.149141
G02 X130.295739 Y34.276785 Z0.000000 I0.145957 J-0.670850
G02 X131.268356 Y34.028199 Z0.000000 I-0.498673 J-3.978121
G02 X131.384918 Y33.847119 Z0.000000 I-0.067713 J-0.171643
G02 X131.375558 Y33.789430 Z0.000000 I-0.225263 J0.006945
G02 X131.203646 Y33.237779 Z0.000000 I-24.667106 J7.384429
G01 X131.203646 Y33.237774 Z0.000000
G00 Z5.000000

(End cutting path id: path861)


(Start cutting path id: path861)
(Change tool to Cylindrical cutter)

G00 Z5.000000
G00 X129.258285 Y36.377606

G01 Z0.000000 F1000.0(Penetrate)
G03 X129.036729 Y36.773909 Z0.000000 I-0.863667 J-0.222758 F1100.000000
G03 X128.342758 Y37.327286 Z0.000000 I-2.454911 J-2.366786
G03 X127.395370 Y37.657379 Z0.000000 I-1.258050 J-2.086100
G03 X126.706199 Y37.537708 Z0.000000 I-0.151018 J-1.174558
G03 X126.326989 Y37.256620 Z0.000000 I0.648610 J-1.271360
G03 X126.118377 Y36.927576 Z0.000000 I0.700061 J-0.674487
G03 X126.136673 Y36.367244 Z0.000000 I0.679260 J-0.258285
G03 X126.723503 Y35.603335 Z0.000000 I1.951565 J0.891824
G03 X127.331952 Y35.195344 Z0.000000 I2.365144 J2.869519
G03 X128.306511 Y34.754863 Z0.000000 I3.744184 J6.985614
G02 X128.520255 Y34.658244 Z0.000000 I-0.608154 J-1.630122
G01 X128.536110 Y34.631757 Z0.000000
G02 X128.451541 Y34.473032 Z0.000000 I-0.191238 J0.000001
G02 X128.063400 Y34.314060 Z0.000000 I-0.580287 J0.863486
G02 X127.593342 Y34.312873 Z0.000000 I-0.238229 J1.267561
G02 X126.967090 Y34.514384 Z0.000000 I0.454074 J2.485050
G02 X126.722643 Y34.652205 Z0.000000 I0.839441 J1.774568
G02 X126.489731 Y34.830511 Z0.000000 I1.183763 J1.787565
G02 X126.049788 Y35.322805 Z0.000000 I1.826457 J2.074955
G02 X125.704524 Y35.954951 Z0.000000 I2.697302 J1.883567
G03 X125.551354 Y36.120944 Z0.000000 I-0.300427 J-0.123555
G03 X125.444305 Y36.087303 Z0.000000 I-0.036349 J-0.071473
G03 X125.410963 Y35.789025 Z0.000000 I0.356650 J-0.190869
G03 X125.697762 Y35.166827 Z0.000000 I2.033077 J0.559939
G03 X126.293563 Y34.480807 Z0.000000 I3.143169 J2.128073
G03 X126.941019 Y34.041412 Z0.000000 I1.889095 J2.086896
G03 X127.265272 Y33.930077 Z0.000000 I0.601291 J1.223362
G03 X127.690228 Y33.885905 Z0.000000 I0.430223 J2.072711
G03 X128.113912 Y33.926633 Z0.000000 I0.005399 J2.167921
G03 X128.346639 Y34.014985 Z0.000000 I-0.143055 J0.727509
G03 X128.964000 Y34.582388 Z0.000000 I-1.010784 J1.719340
G03 X129.309743 Y35.376238 Z0.000000 I-1.736156 J1.228357
G03 X129.343936 Y35.818336 Z0.000000 I-1.694456 J0.353425
G03 X129.258345 Y36.377610 Z0.000000 I-2.812878 J-0.144290
G01 X129.258285 Y36.377606 Z0.000000
G00 Z5.000000

(End cutting path id: path861)


(Start cutting path id: path861)
(Change tool to Cylindrical cutter)

G00 Z5.000000
G00 X128.450576 Y36.712487

G01 Z0.000000 F1000.0(Penetrate)
G02 X128.415398 Y36.648212 Z0.000000 I-0.171235 J0.051955 F1100.000000
G02 X128.218376 Y36.441276 Z0.000000 I-2.016811 J1.722928
G03 X128.038925 Y36.223894 Z0.000000 I0.777267 J-0.824402
G03 X127.945954 Y36.011959 Z0.000000 I0.645319 J-0.409443
G02 X127.850645 Y35.809316 Z0.000000 I-0.610247 J0.163284
G02 X127.729624 Y35.707595 Z0.000000 I-0.256417 J0.182216
G02 X127.573442 Y35.673817 Z0.000000 I-0.149588 J0.313698
G02 X127.366734 Y35.714496 Z0.000000 I0.011457 J0.603744
G02 X127.161050 Y35.800073 Z0.000000 I1.603046 J4.142855
G02 X127.095304 Y35.835460 Z0.000000 I0.204450 J0.458616
G02 X127.054540 Y35.958921 Z0.000000 I0.055360 J0.086738
G02 X127.293735 Y36.354869 Z0.000000 I1.216826 J-0.464869
G03 X127.443609 Y36.599866 Z0.000000 I-0.627018 J0.551908
G03 X127.518397 Y36.923548 Z0.000000 I-1.039553 J0.410675
G02 X127.590571 Y37.236320 Z0.000000 I1.076023 J-0.083586
G02 X127.679498 Y37.331655 Z0.000000 I0.165708 J-0.065428
G02 X127.808804 Y37.338663 Z0.000000 I0.073140 J-0.153092
G02 X128.120458 Y37.176966 Z0.000000 I-0.412952 J-1.177116
G02 X128.423845 Y36.873018 Z0.000000 I-0.752512 J-1.054511
G02 X128.450576 Y36.712545 Z0.000000 I-0.151516 J-0.107701
G01 X128.450576 Y36.712487 Z0.000000
G00 Z5.000000

(End cutting path id: path861)


(Start cutting path id: path861)
(Change tool to Cylindrical cutter)

G00 Z5.000000
G00 X121.913194 Y35.794118

G01 Z0.000000 F1000.0(Penetrate)
G03 X121.513005 Y37.436553 Z0.000000 I-12.192451 J-2.100793 F1100.000000
G03 X121.304589 Y37.711407 Z0.000000 I-0.490978 J-0.155851
G03 X121.157924 Y37.762472 Z0.000000 I-0.175182 J-0.266996
G03 X120.142740 Y37.815565 Z0.000000 I-1.221516 J-13.624301
G03 X119.076839 Y37.761758 Z0.000000 I-0.123022 J-8.147485
G03 X117.370449 Y37.492611 Z0.000000 I2.470493 J-21.206729
G03 X117.158829 Y37.430338 Z0.000000 I0.241643 J-1.211879
G03 X116.158007 Y37.014613 Z0.000000 I10.960147 J-27.798160
G03 X113.450590 Y35.478199 Z0.000000 I5.982537 J-13.695893
G03 X110.429185 Y32.920411 Z0.000000 I14.052361 J-19.662866
G03 X106.801451 Y29.139236 Z0.000000 I85.591814 J-85.749355
G03 X106.688134 Y28.848403 Z0.000000 I0.316564 J-0.290835
G03 X106.767291 Y28.719574 Z0.000000 I0.144413 J-0.000000
G03 X107.098793 Y28.640403 Z0.000000 I0.331504 J0.654459
G02 X107.213126 Y28.613628 Z0.000000 I-0.000001 J-0.257493
G02 X107.347493 Y28.517149 Z0.000000 I-0.226809 J-0.457684
G01 X107.470782 Y28.393895 Z0.000000
G01 X107.362162 Y28.299636 Z0.000000
G02 X107.207801 Y28.234906 Z0.000000 I-0.175634 J0.202419
G02 X106.827762 Y28.257077 Z0.000000 I-0.110044 J1.381968
G03 X106.565540 Y28.289714 Z0.000000 I-0.356680 J-1.796042
G03 X105.860532 Y28.307040 Z0.000000 I-0.672840 J-13.025873
G02 X105.155799 Y28.321271 Z0.000000 I-0.038262 J15.561701
G02 X105.014642 Y28.343292 Z0.000000 I0.027392 J0.639007
G03 X104.873688 Y28.360014 Z0.000000 I-0.126366 J-0.462752
G03 X104.174772 Y28.317655 Z0.000000 I0.353574 J-11.621020
G02 X103.473020 Y28.268594 Z0.000000 I-1.533127 J16.885964
G02 X101.975472 Y28.209699 Z0.000000 I-3.770284 J76.800346
G03 X98.884172 Y28.013012 Z0.000000 I1.348043 J-45.578005
G03 X95.764270 Y27.602107 Z0.000000 I4.582074 J-46.840389
G02 X94.772750 Y27.441711 Z0.000000 I-20.481443 J123.465156
G02 X94.217514 Y27.358253 Z0.000000 I-6.096430 J38.669959
G03 X92.935561 Y27.123926 Z0.000000 I2.379762 J-16.642995
G03 X90.084767 Y26.435993 Z0.000000 I18.540478 J-83.082529
G03 X88.981611 Y26.090330 Z0.000000 I2.927345 J-11.275532
G03 X87.402104 Y25.446733 Z0.000000 I8.773162 J-23.790973
G03 X86.240754 Y24.723442 Z0.000000 I2.053224 J-4.590761
G03 X85.685587 Y24.019987 Z0.000000 I1.379051 J-1.659143
G03 X85.552187 Y23.644337 Z0.000000 I1.521557 J-0.751843
G03 X85.527982 Y23.326670 Z0.000000 I1.057170 J-0.240308
G03 X85.673857 Y22.745919 Z0.000000 I1.716841 J0.122545
G03 X85.941362 Y22.403090 Z0.000000 I0.829155 J0.371200
G03 X86.268578 Y22.242690 Z0.000000 I0.538469 J0.684519
G03 X88.422725 Y21.782680 Z0.000000 I7.718519 J30.870689
G01 X90.212244 Y21.464799 Z0.000000
G02 X92.977258 Y20.863626 Z0.000000 I-6.469156 J-36.413229
G02 X94.928006 Y20.248841 Z0.000000 I-4.824901 J-18.711985
G02 X97.957209 Y19.076862 Z0.000000 I-52.210598 J-139.449079
G02 X98.671807 Y18.753242 Z0.000000 I-3.222123 J-8.065666
G02 X99.209506 Y18.406517 Z0.000000 I-1.419353 J-2.791414
G02 X99.749453 Y17.890555 Z0.000000 I-2.666740 J-3.331209
G02 X99.973404 Y17.247054 Z0.000000 I-0.680719 J-0.597625
G02 X99.711221 Y17.136275 Z0.000000 I-0.157878 J0.008006
G03 X99.140141 Y17.525564 Z0.000000 I-1.870401 J-2.130316
G03 X97.243374 Y18.408892 Z0.000000 I-11.906842 J-23.089391
G03 X96.807691 Y18.573011 Z0.000000 I-2.541542 J-6.086610
G03 X96.059138 Y18.807862 Z0.000000 I-5.980816 J-17.752595
G02 X95.307119 Y19.033743 Z0.000000 I12.565809 J43.199750
G02 X94.410881 Y19.318663 Z0.000000 I19.110757 J61.666448
G03 X93.087920 Y19.716433 Z0.000000 I-9.301662 J-28.537894
G03 X90.309864 Y20.449475 Z0.000000 I-34.511972 J-125.161585
G03 X89.660803 Y20.588421 Z0.000000 I-2.252259 J-8.935562
G03 X89.077293 Y20.667231 Z0.000000 I-1.261369 J-7.139668
G02 X88.491645 Y20.736569 Z0.000000 I1.139071 J12.128759
G02 X87.716325 Y20.861884 Z0.000000 I3.056844 J21.373777
G03 X86.942201 Y20.996816 Z0.000000 I-11.909380 J-66.037352
G03 X86.435418 Y21.077425 Z0.000000 I-4.743448 J-28.188379
G02 X85.358758 Y21.563027 Z0.000000 I0.322401 J2.151185
G02 X84.640262 Y22.585328 Z0.000000 I1.565863 J1.864162
G03 X84.528389 Y22.859189 Z0.000000 I-3.988887 J-1.469697
G03 X84.485365 Y22.929843 Z0.000000 I-0.304156 J-0.136784
G03 X84.412864 Y22.960754 Z0.000000 I-0.064764 J-0.051423
G03 X83.059750 Y22.795853 Z0.000000 I2.313562 J-24.618284
G03 X81.888403 Y22.503260 Z0.000000 I0.934136 J-6.230585
G03 X80.276205 Y21.808867 Z0.000000 I4.450737 J-12.552199
G03 X79.141524 Y21.094485 Z0.000000 I3.424592 J-6.697735
G03 X78.798105 Y20.682567 Z0.000000 I0.729388 J-0.957210
G03 X78.780033 Y19.550422 Z0.000000 I1.150116 J-0.584575
G03 X79.857225 Y18.423064 Z0.000000 I2.215246 J1.038363
G03 X80.382038 Y18.220950 Z0.000000 I1.128034 J2.146645
G03 X83.172717 Y17.571562 Z0.000000 I15.657779 J60.966634
G02 X84.809307 Y17.192769 Z0.000000 I-7.957561 J-38.105887
G02 X87.661127 Y16.430140 Z0.000000 I-29.626996 J-116.502281
G02 X91.532915 Y15.131824 Z0.000000 I-11.046374 J-39.364382
G02 X95.425923 Y13.387100 Z0.000000 I-16.280674 J-41.542732
G02 X96.963654 Y12.427112 Z0.000000 I-4.614010 J-9.102403
G02 X97.896501 Y11.520528 Z0.000000 I-3.167514 J-4.192507
G02 X98.188244 Y11.091055 Z0.000000 I-2.570457 J-2.059944
G02 X98.203118 Y10.982278 Z0.000000 I-0.127982 J-0.072906
G02 X98.095699 Y10.931469 Z0.000000 I-0.074572 J0.018703
G02 X97.384293 Y11.369212 Z0.000000 I1.622738 J3.434176
G03 X96.791990 Y11.800149 Z0.000000 I-6.866957 J-8.815777
G03 X96.441732 Y12.008811 Z0.000000 I-1.943576 J-2.864172
G03 X94.302683 Y13.025430 Z0.000000 I-15.717366 J-30.311939
G03 X92.380747 Y13.768906 Z0.000000 I-10.279714 J-23.717859
G03 X88.549320 Y15.038633 Z0.000000 I-70.708445 J-206.948640
G03 X85.259552 Y16.056151 Z0.000000 I-48.687596 J-151.586477
G03 X84.604826 Y16.209403 Z0.000000 I-1.619864 J-5.445213
G03 X82.786022 Y16.482572 Z0.000000 I-7.220608 J-41.884467
G02 X80.327795 Y16.838989 Z0.000000 I9.539932 J74.452973
G02 X79.924669 Y16.945899 Z0.000000 I0.338249 J2.088911
G02 X79.790140 Y16.999176 Z0.000000 I1.314025 J3.514561
G02 X79.096395 Y17.292505 Z0.000000 I39.628825 J94.692128
G03 X78.482359 Y17.357795 Z0.000000 I-0.413394 J-0.967783
G03 X78.243826 Y17.126919 Z0.000000 I0.057988 J-0.298572
G03 X78.574647 Y15.492920 Z0.000000 I1.974370 J-0.450755
G03 X80.187092 Y14.427671 Z0.000000 I2.208496 J1.589968
G02 X80.658468 Y14.318467 Z0.000000 I-7.796092 J-34.723564
G02 X81.432598 Y14.130168 Z0.000000 I-22.278246 J-93.274893
G03 X82.206659 Y13.941439 Z0.000000 I26.515650 J107.070915
G03 X83.100197 Y13.729944 Z0.000000 I34.322764 J143.015552
G02 X83.989540 Y13.503005 Z0.000000 I-5.073583 J-21.738735
G02 X85.517006 Y13.060028 Z0.000000 I-17.910170 J-64.612568
G03 X87.041465 Y12.605276 Z0.000000 I54.591993 J180.225383
G03 X87.920799 Y12.354015 Z0.000000 I17.525846 J59.670612
G02 X88.797214 Y12.095020 Z0.000000 I-7.475521 J-26.908797
G02 X89.175983 Y11.960644 Z0.000000 I-1.615114 J-5.153592
G03 X89.555653 Y11.829705 Z0.000000 I1.610098 J4.052715
G03 X90.406145 Y11.598830 Z0.000000 I5.930579 J20.164937
G02 X91.566999 Y11.266670 Z0.000000 I-4.220243 J-16.943769
G02 X97.043629 Y9.448704 Z0.000000 I-122.885025 J-379.349801
G03 X98.938703 Y8.863422 Z0.000000 I11.325781 J33.310925
G03 X99.526512 Y8.757908 Z0.000000 I0.855007 J3.073099
G03 X100.625588 Y8.753273 Z0.000000 I0.578572 J6.882599
G03 X101.637116 Y8.917339 Z0.000000 I-0.452878 J5.992424
G03 X102.256953 Y9.147337 Z0.000000 I-0.740224 J2.945104
G03 X105.141491 Y10.672765 Z0.000000 I-33.130053 J66.137909
G03 X106.323730 Y11.394156 Z0.000000 I-8.564267 J15.364834
G03 X110.265141 Y14.083002 Z0.000000 I-115.683668 J173.806607
G03 X112.497497 Y15.699052 Z0.000000 I-47.920049 J68.545002
G03 X114.687900 Y17.397203 Z0.000000 I-50.670873 J67.620853
G03 X116.227054 Y18.684651 Z0.000000 I-30.305369 J37.794045
G03 X117.466907 Y19.821318 Z0.000000 I-22.375310 J25.651081
G02 X118.077132 Y20.397462 Z0.000000 I29.022046 J-30.127591
G02 X118.506470 Y20.783295 Z0.000000 I13.456900 J-14.542435
G03 X119.330458 Y21.798806 Z0.000000 I-2.517245 J2.884546
G03 X120.197729 Y23.806731 Z0.000000 I-9.346084 J5.228059
G03 X121.375463 Y28.036312 Z0.000000 I-61.869260 J19.506358
G03 X121.749598 Y30.211270 Z0.000000 I-15.929488 J3.859839
G02 X121.875080 Y31.419613 Z0.000000 I1281.893775 J-132.509084
G02 X121.961404 Y32.241388 Z0.000000 I574.746959 J-59.959273
G03 X122.026336 Y33.064317 Z0.000000 I-15.512548 J1.638029
G03 X122.053709 Y34.005658 Z0.000000 I-20.263473 J1.060297
G03 X122.019893 Y34.944907 Z0.000000 I-11.214683 J0.066469
G03 X121.913354 Y35.794096 Z0.000000 I-9.098826 J-0.710256
G01 X121.913194 Y35.794118 Z0.000000
G00 Z5.000000

(End cutting path id: path861)


(Start cutting path id: path861)
(Change tool to Cylindrical cutter)

G00 Z5.000000
G00 X120.245284 Y39.322665

G01 Z0.000000 F1000.0(Penetrate)
G03 X120.180238 Y39.272348 Z0.000000 I-0.000000 J-0.067202 F1100.000000
G03 X120.205484 Y39.169495 Z0.000000 I0.107962 J-0.028025
G03 X120.351216 Y39.093632 Z0.000000 I0.175003 J0.158272
G03 X120.430184 Y39.141405 Z0.000000 I0.009237 J0.073884
G03 X120.404419 Y39.257684 Z0.000000 I-0.102114 J0.038368
G03 X120.245264 Y39.322666 Z0.000000 I-0.159155 J-0.162411
G01 X120.245284 Y39.322665 Z0.000000
G00 Z5.000000

(End cutting path id: path861)


(Start cutting path id: path861)
(Change tool to Cylindrical cutter)

G00 Z5.000000
G00 X120.583068 Y40.534539

G01 Z0.000000 F1000.0(Penetrate)
G03 X120.214434 Y40.783147 Z0.000000 I-0.407357 J-0.206418 F1100.000000
G03 X119.741458 Y40.606162 Z0.000000 I-0.049954 J-0.586987
G01 X119.581747 Y40.441398 Z0.000000
G01 X119.769097 Y40.392488 Z0.000000
G03 X120.564807 Y40.206438 Z0.000000 I4.019135 J15.394699
G03 X120.639147 Y40.212488 Z0.000000 I0.026852 J0.129793
G03 X120.671269 Y40.269096 Z0.000000 I-0.018333 J0.047821
G03 X120.583048 Y40.534536 Z0.000000 I-0.931529 J-0.162223
G01 X120.583068 Y40.534539 Z0.000000
G00 Z5.000000

(End cutting path id: path861)


(Start cutting path id: path861)
(Change tool to Cylindrical cutter)

G00 Z5.000000
G00 X121.515856 Y39.914619

G01 Z0.000000 F1000.0(Penetrate)
G03 X121.071089 Y40.033961 Z0.000000 I-4.740268 J-16.777590 F1100.000000
G01 X121.059236 Y40.030700 Z0.000000
G03 X121.064345 Y39.954768 Z0.000000 I0.035800 J-0.035729
G03 X121.665205 Y39.568184 Z0.000000 I2.702157 J3.539661
G03 X121.760679 Y39.554847 Z0.000000 I0.065834 J0.122875
G03 X121.864615 Y39.611584 Z0.000000 I-0.044714 J0.205480
G03 X121.951170 Y39.713990 Z0.000000 I-0.565057 J0.565376
G03 X121.962315 Y39.748918 Z0.000000 I-0.049160 J0.034928
G01 X121.944294 Y39.774829 Z0.000000
G03 X121.515766 Y39.914634 Z0.000000 I-1.959532 J-5.279680
G01 X121.515856 Y39.914619 Z0.000000
G00 Z5.000000

(End cutting path id: path861)


(Start cutting path id: path861)
(Change tool to Cylindrical cutter)

G00 Z5.000000
G00 X118.799616 Y39.995348

G01 Z0.000000 F1000.0(Penetrate)
G03 X117.874638 Y39.076637 Z0.000000 I28.323607 J-29.441794 F1100.000000
G03 X117.853823 Y39.025479 Z0.000000 I0.052459 J-0.051158
G01 X117.873418 Y39.003911 Z0.000000
G03 X118.282143 Y38.984318 Z0.000000 I0.408738 J4.253561
G01 X118.710483 Y38.984317 Z0.000000
G01 X118.758584 Y39.334753 Z0.000000
G03 X118.823162 Y39.984503 Z0.000000 I-8.739570 J1.196705
G01 X118.799686 Y39.995348 Z0.000000
G01 X118.799616 Y39.995348 Z0.000000
G00 Z5.000000

(End cutting path id: path861)


(Start cutting path id: path861)
(Change tool to Cylindrical cutter)

G00 Z5.000000
G00 X116.754197 Y43.622905

G01 Z0.000000 F1000.0(Penetrate)
G03 X115.275501 Y43.431714 Z0.000000 I0.427468 J-9.119887 F1100.000000
G03 X114.936385 Y43.234474 Z0.000000 I0.131590 J-0.616383
G03 X114.860120 Y42.942818 Z0.000000 I0.246995 J-0.220386
G03 X115.239061 Y41.860329 Z0.000000 I4.688249 J1.033619
G01 X115.381491 Y41.570311 Z0.000000
G01 X115.439186 Y40.096057 Z0.000000
G03 X115.610169 Y38.463109 Z0.000000 I12.593995 J0.493269
G03 X115.728581 Y38.405178 Z0.000000 I0.080082 J0.013706
G03 X115.821365 Y38.541998 Z0.000000 I-0.083935 J0.156790
G03 X115.772783 Y38.795782 Z0.000000 I-0.432084 J0.048828
G02 X115.632815 Y39.266984 Z0.000000 I1.075208 J0.575772
G02 X115.531811 Y41.594478 Z0.000000 I27.332707 J2.352077
G02 X115.765745 Y42.875202 Z0.000000 I3.607135 J0.002857
G02 X116.154915 Y43.239053 Z0.000000 I0.564671 J-0.213914
G03 X116.730708 Y43.476356 Z0.000000 I-0.943978 J3.107679
G03 X116.790426 Y43.575547 Z0.000000 I-0.052519 J0.099192
G03 X116.778169 Y43.611754 Z0.000000 I-0.059602 J0.000000
G01 X116.754227 Y43.622897 Z0.000000
G01 X116.754197 Y43.622905 Z0.000000
G00 Z5.000000

(End cutting path id: path861)


(Start cutting path id: path861)
(Change tool to Cylindrical cutter)

G00 Z5.000000
G00 X114.133729 Y41.086953

G01 Z0.000000 F1000.0(Penetrate)
G03 X113.772131 Y42.914524 Z0.000000 I-104.069693 J-19.641377 F1100.000000
G03 X113.691125 Y43.224894 Z0.000000 I-3.070483 J-0.635631
G03 X113.551228 Y43.351882 Z0.000000 I-0.179004 J-0.056648
G03 X112.181686 Y43.546336 Z0.000000 I-2.096141 J-9.843076
G02 X111.082648 Y43.644779 Z0.000000 I2.334146 J32.243042
G02 X110.988527 Y43.673779 Z0.000000 I0.027338 J0.255962
G03 X110.895836 Y43.705946 Z0.000000 I-0.148126 J-0.277203
G03 X110.723327 Y43.721280 Z0.000000 I-0.172512 J-0.962747
G03 X110.568565 Y43.667861 Z0.000000 I-0.000001 J-0.250893
G03 X109.813835 Y43.008507 Z0.000000 I5.798777 J-7.399191
G02 X106.558185 Y39.859841 Z0.000000 I-585.142255 J601.766569
G02 X106.108144 Y39.443887 Z0.000000 I-10.654007 J11.075648
G02 X104.771878 Y38.405086 Z0.000000 I-8.611760 J9.698920
G02 X102.845438 Y37.233213 Z0.000000 I-12.911201 J19.055322
G02 X101.345022 Y36.469097 Z0.000000 I-15.182167 J27.956515
G02 X100.068164 Y35.910208 Z0.000000 I-9.372355 J19.674379
G03 X99.773926 Y35.690677 Z0.000000 I0.264906 J-0.662002
G03 X99.679417 Y35.418946 Z0.000000 I0.343383 J-0.271732
G03 X99.777919 Y34.805957 Z0.000000 I1.956550 J-0.000006
G03 X100.884212 Y31.767136 Z0.000000 I50.394609 J16.625538
G02 X101.117944 Y30.998613 Z0.000000 I-4.427802 J-1.766436
G02 X101.086449 Y30.822461 Z0.000000 I-0.231356 J-0.049527
G02 X100.966888 Y30.804741 Z0.000000 I-0.067426 J0.042723
G02 X100.499671 Y31.328527 Z0.000000 I1.759016 J2.039313
G02 X99.535062 Y33.034889 Z0.000000 I9.757103 J6.641531
G02 X98.955874 Y34.682449 Z0.000000 I8.510838 J3.917511
G03 X98.730324 Y35.355999 Z0.000000 I-4.400010 J-1.098875
G03 X98.635420 Y35.437175 Z0.000000 I-0.129027 J-0.054783
G03 X98.516773 Y35.442356 Z0.000000 I-0.071954 J-0.286648
G03 X97.351469 Y35.231740 Z0.000000 I4.642349 J-29.014333
G03 X96.210344 Y34.960123 Z0.000000 I3.340113 J-16.565448
G03 X96.117227 Y34.892291 Z0.000000 I0.043226 J-0.157169
G03 X96.096299 Y34.781610 Z0.000000 I0.122985 J-0.080574
G03 X96.299284 Y34.022227 Z0.000000 I7.001907 J1.464807
G03 X96.578186 Y33.268499 Z0.000000 I9.981149 J3.264860
G03 X96.876701 Y32.628168 Z0.000000 I7.495525 J3.104582
G03 X98.277024 Y30.084881 Z0.000000 I54.760719 J28.493881
G03 X98.630395 Y29.613144 Z0.000000 I2.199222 J1.279181
G03 X98.797986 Y29.467895 Z0.000000 I0.822015 J0.779147
G03 X99.002684 Y29.349511 Z0.000000 I0.746008 J1.053762
G03 X99.229854 Y29.290913 Z0.000000 I0.274435 J0.594279
G03 X100.863635 Y29.214791 Z0.000000 I2.296907 J31.727266
G02 X104.937188 Y29.081065 Z0.000000 I-3.549312 J-170.229037
G02 X105.149554 Y29.022723 Z0.000000 I-0.022260 J-0.496711
G03 X105.334969 Y28.972802 Z0.000000 I0.200124 J0.373997
G03 X105.550194 Y29.008832 Z0.000000 I0.018992 J0.547384
G03 X105.659683 Y29.087352 Z0.000000 I-0.095714 J0.249059
G03 X107.654111 Y31.540574 Z0.000000 I-112.619412 J93.595056
G02 X108.831660 Y32.932150 Z0.000000 I23.408919 J-18.614571
G02 X110.264000 Y34.440758 Z0.000000 I28.952818 J-26.054820
G02 X111.085639 Y35.178583 Z0.000000 I7.376198 J-7.387715
G02 X112.493595 Y36.239288 Z0.000000 I16.702419 J-20.705616
G03 X113.793764 Y37.242151 Z0.000000 I-10.610807 J15.100689
G03 X113.987529 Y37.501477 Z0.000000 I-0.462984 J0.547988
G03 X114.076672 Y37.808684 Z0.000000 I-1.112533 J0.489365
G03 X114.194113 Y38.863484 Z0.000000 I-13.266086 J2.010972
G03 X114.225140 Y40.240187 Z0.000000 I-14.072626 J1.005860
G03 X114.133719 Y41.086949 Z0.000000 I-5.244411 J-0.137897
G01 X114.133729 Y41.086953 Z0.000000
G00 Z5.000000

(End cutting path id: path861)


(Start cutting path id: path861)
(Change tool to Cylindrical cutter)

G00 Z5.000000
G00 X120.478908 Y47.563982

G01 Z0.000000 F1000.0(Penetrate)
G03 X119.676667 Y49.128525 Z0.000000 I-25.505980 J-12.090590 F1100.000000
G03 X118.341449 Y51.430882 Z0.000000 I-56.599697 J-31.285806
G03 X116.881505 Y53.637786 Z0.000000 I-29.503163 J-17.931019
G03 X114.709214 Y56.488979 Z0.000000 I-51.458405 J-36.952443
G02 X114.064467 Y57.297384 Z0.000000 I65.735290 J53.088813
G02 X113.648638 Y57.835599 Z0.000000 I28.677725 J22.586357
G03 X112.217178 Y59.651450 Z0.000000 I-48.364918 J-36.654592
G03 X111.964124 Y59.890693 Z0.000000 I-1.064716 J-0.872727
G03 X111.255571 Y60.201919 Z0.000000 I-1.061295 J-1.454017
G03 X108.234996 Y60.635869 Z0.000000 I-5.484613 J-27.446921
G02 X107.099312 Y60.738655 Z0.000000 I23.795810 J269.247094
G02 X105.479827 Y60.891093 Z0.000000 I50.623176 J546.495190
G03 X102.893199 Y61.035043 Z0.000000 I-3.103582 J-32.456460
G03 X101.032897 Y60.961610 Z0.000000 I-0.266985 J-16.836739
G02 X100.186213 Y60.897936 Z0.000000 I-2.040085 J21.466401
G02 X99.577129 Y60.880934 Z0.000000 I-0.613980 J11.076773
G03 X97.437832 Y60.763720 Z0.000000 I0.009574 J-19.755736
G03 X94.906425 Y60.369784 Z0.000000 I3.070432 J-28.060672
G03 X93.183627 Y59.940824 Z0.000000 I3.981097 J-19.663029
G03 X91.405113 Y59.331490 Z0.000000 I6.397864 J-21.574196
G03 X91.150986 Y59.224687 Z0.000000 I1.926085 J-4.938639
G03 X90.447271 Y58.899299 Z0.000000 I17.256185 J-38.243564
G02 X86.983729 Y57.348461 Z0.000000 I-38.034755 J80.301308
G02 X85.009450 Y56.602572 Z0.000000 I-10.692342 J25.315604
G02 X83.285728 Y56.050320 Z0.000000 I-22.491371 J67.235150
G02 X80.610853 Y55.254996 Z0.000000 I-49.369878 J161.147558
G02 X79.118698 Y54.886550 Z0.000000 I-5.511106 J19.113452
G02 X75.777228 Y54.257865 Z0.000000 I-19.666550 J95.333765
G03 X73.666461 Y53.760067 Z0.000000 I2.884052 J-16.952931
G03 X73.205801 Y53.477330 Z0.000000 I0.310266 J-1.022152
G03 X72.840354 Y52.756153 Z0.000000 I1.001784 J-0.960822
G03 X72.949963 Y52.017649 Z0.000000 I1.165861 J-0.204349
G03 X73.368625 Y51.526754 Z0.000000 I1.221300 J0.617615
G03 X74.447978 Y50.932991 Z0.000000 I2.926085 J4.041171
G02 X74.807270 Y50.781169 Z0.000000 I-3.496458 J-8.775535
G02 X75.432171 Y50.492955 Z0.000000 I-12.011749 J-26.865290
G03 X76.059171 Y50.210282 Z0.000000 I7.275442 J15.300990
G03 X76.471389 Y50.049589 Z0.000000 I2.752209 J6.451060
G03 X79.053732 Y49.411624 Z0.000000 I4.537706 J12.822271
G03 X82.012587 Y49.244621 Z0.000000 I2.427170 J16.708038
G03 X82.731761 Y49.308619 Z0.000000 I-0.198638 J6.305078
G03 X83.499958 Y49.463358 Z0.000000 I-1.081025 J7.350924
G03 X84.252753 Y49.686044 Z0.000000 I-2.706381 J10.532749
G03 X84.732533 Y49.876890 Z0.000000 I-1.497173 J4.462319
G02 X85.204522 Y50.090536 Z0.000000 I12.952939 J-27.987667
G02 X85.516955 Y50.224037 Z0.000000 I5.354118 J-12.097890
G03 X87.032382 Y50.928147 Z0.000000 I-7.243718 J17.573222
G03 X89.214678 Y52.144051 Z0.000000 I-19.576402 J37.701909
G03 X91.942915 Y53.921495 Z0.000000 I-21.014353 J35.237913
G03 X93.407854 Y55.119416 Z0.000000 I-8.018760 J11.300852
G03 X94.520641 Y56.240409 Z0.000000 I-15.323701 J16.324342
G03 X94.835938 Y56.663341 Z0.000000 I-1.833131 J1.695601
G02 X95.057275 Y56.989651 Z0.000000 I2.766738 J-1.638464
G02 X95.106378 Y57.013778 Z0.000000 I0.049103 J-0.037902
G02 X95.162009 Y56.997472 Z0.000000 I-0.000000 J-0.103048
G02 X95.256039 Y56.917848 Z0.000000 I-0.251994 J-0.392920
G02 X95.326734 Y56.670511 Z0.000000 I-0.216048 J-0.195523
G02 X95.069144 Y55.883125 Z0.000000 I-2.976015 J0.537762
G02 X94.629069 Y55.191866 Z0.000000 I-3.258566 J1.588781
G02 X93.559344 Y54.016770 Z0.000000 I-10.599033 J8.574172
G02 X92.045522 Y52.725426 Z0.000000 I-10.273846 J10.510884
G02 X89.601368 Y51.079028 Z0.000000 I-19.214342 J25.887146
G02 X86.801523 Y49.547113 Z0.000000 I-17.887346 J29.367718
G02 X83.132065 Y47.920241 Z0.000000 I-23.863629 J48.873393
G03 X79.967158 Y46.539214 Z0.000000 I20.651794 J-51.644851
G03 X78.900921 Y45.915388 Z0.000000 I3.048230 J-6.433120
G03 X78.462626 Y45.360146 Z0.000000 I0.723842 J-1.021994
G03 X78.482918 Y44.874622 Z0.000000 I0.548425 J-0.220265
G03 X79.188794 Y43.937248 Z0.000000 I2.928821 J1.471042
G03 X80.168604 Y43.318739 Z0.000000 I2.167585 J2.348438
G03 X81.751149 Y42.930791 Z0.000000 I2.163897 J5.405337
G03 X83.424591 Y42.992004 Z0.000000 I0.614018 J6.118822
G02 X84.033200 Y43.070772 Z0.000000 I1.189920 J-6.803452
G02 X85.492773 Y43.166697 Z0.000000 I3.302818 J-39.102547
G03 X86.854575 Y43.280231 Z0.000000 I-0.887039 J18.863686
G03 X87.710418 Y43.432676 Z0.000000 I-0.910063 J7.587834
G02 X88.124874 Y43.516151 Z0.000000 I1.418815 J-5.973818
G02 X88.881411 Y43.626841 Z0.000000 I3.285641 J-19.815699
G03 X91.006534 Y44.006988 Z0.000000 I-2.678603 J21.104193
G03 X94.434971 Y44.914131 Z0.000000 I-12.962787 J55.923537
G03 X97.275467 Y45.955211 Z0.000000 I-6.998997 J23.491718
G03 X98.338752 Y46.625053 Z0.000000 I-1.697826 J3.873906
G03 X98.666454 Y47.023197 Z0.000000 I-0.989728 J1.148552
G03 X99.344153 Y48.390142 Z0.000000 I-11.533947 J6.569727
G03 X100.070147 Y50.233317 Z0.000000 I-33.110285 J14.106120
G03 X100.283718 Y50.982615 Z0.000000 I-5.234162 J1.896965
G02 X100.436455 Y51.667480 Z0.000000 I28.768065 J-6.056320
G02 X100.603512 Y52.340454 Z0.000000 I28.222380 J-6.648614
G01 X100.651712 Y52.524930 Z0.000000
G01 X100.795092 Y52.344515 Z0.000000
G02 X100.914628 Y52.116591 Z0.000000 I-0.537715 J-0.427315
G02 X101.057589 Y51.479271 Z0.000000 I-4.233677 J-1.284378
G02 X101.070634 Y50.742381 Z0.000000 I-2.832742 J-0.418707
G02 X100.790952 Y49.094643 Z0.000000 I-14.631993 J1.635981
G02 X100.298685 Y47.737593 Z0.000000 I-5.732350 J1.311588
G02 X98.780647 Y45.147241 Z0.000000 I-22.667456 J11.543947
G02 X97.334825 Y43.090149 Z0.000000 I-44.489468 J29.732673
G02 X95.215940 Y40.320590 Z0.000000 I-82.795230 J61.148186
G03 X94.056737 Y38.722086 Z0.000000 I18.176640 J-14.400900
G03 X93.754098 Y38.112738 Z0.000000 I2.295795 J-1.520062
G03 X93.666010 Y37.552465 Z0.000000 I1.485169 J-0.520564
G03 X93.779535 Y37.105070 Z0.000000 I1.041988 J0.026300
G03 X93.912125 Y36.944861 Z0.000000 I0.424644 J0.216469
G03 X94.298039 Y36.702989 Z0.000000 I1.402388 J1.808741
G01 X94.717493 Y36.495077 Z0.000000
G01 X95.591316 Y36.478035 Z0.000000
G03 X97.458496 Y36.583047 Z0.000000 I0.241082 J12.365682
G03 X99.184532 Y36.954585 Z0.000000 I-1.449428 J10.928584
G03 X101.417792 Y37.763755 Z0.000000 I-6.175519 J20.530492
G03 X102.759722 Y38.478984 Z0.000000 I-3.445922 J8.081808
G03 X104.650851 Y39.772838 Z0.000000 I-26.345678 J40.536495
G03 X105.910888 Y40.746344 Z0.000000 I-13.644233 J18.962333
G02 X106.327799 Y41.087554 Z0.000000 I28.378683 J-34.249457
G02 X106.908981 Y41.553161 Z0.000000 I53.394155 J-66.052303
G03 X107.546293 Y42.088068 Z0.000000 I-9.503237 J11.969719
G03 X108.839225 Y43.264915 Z0.000000 I-44.793011 J50.510051
G02 X110.266037 Y44.522309 Z0.000000 I22.373312 J-23.949597
G02 X110.888730 Y44.968017 Z0.000000 I3.396326 J-4.087134
G02 X111.451809 Y45.174134 Z0.000000 I0.794691 J-1.298793
G02 X111.550851 Y45.069921 Z0.000000 I0.013315 J-0.086516
G03 X111.521972 Y44.929683 Z0.000000 I328.196771 J-67.657637
G03 X111.492150 Y44.784682 Z0.000000 I2230.676270 J-458.840578
G01 X111.462549 Y44.639672 Z0.000000
G01 X112.011829 Y44.641270 Z0.000000
G03 X115.927628 Y44.727477 Z0.000000 I-0.291929 J102.237330
G03 X116.688430 Y44.833740 Z0.000000 I-0.162214 J3.938070
G03 X116.896702 Y44.896005 Z0.000000 I-0.469522 J1.949960
G03 X117.147620 Y44.998573 Z0.000000 I-1.057582 J2.945429
G02 X117.402306 Y45.081945 Z0.000000 I0.488020 J-1.060125
G02 X117.830751 Y45.137978 Z0.000000 I0.606805 J-2.973754
G03 X118.352773 Y45.212002 Z0.000000 I-0.188951 J3.210199
G03 X120.029032 Y45.636338 Z0.000000 I-7.645610 J33.725571
G03 X120.994561 Y46.056862 Z0.000000 I-1.033085 J3.690671
G03 X121.070554 Y46.272882 Z0.000000 I-0.094499 J0.154621
G03 X120.998591 Y46.449182 Z0.000000 I-2.126073 J-0.765000
G03 X120.478968 Y47.563991 Z0.000000 I-86.354082 J-39.571936
G01 X120.478908 Y47.563982 Z0.000000
G00 Z5.000000

(End cutting path id: path861)


(Start cutting path id: path861)
(Change tool to Cylindrical cutter)

G00 Z5.000000
G00 X124.080084 Y49.761445

G01 Z0.000000 F1000.0(Penetrate)
G02 X123.904356 Y49.521743 Z0.000000 I-0.466061 J0.157410 F1100.000000
G02 X123.141842 Y49.075567 Z0.000000 I-2.563336 J3.506077
G02 X123.025155 Y49.076301 Z0.000000 I-0.057552 J0.126277
G02 X122.829703 Y49.222612 Z0.000000 I0.258803 J0.549432
G02 X122.655063 Y49.434963 Z0.000000 I2.737290 J2.429170
G02 X122.419394 Y49.761584 Z0.000000 I6.246635 J4.755492
G02 X122.330053 Y50.187154 Z0.000000 I0.469326 J0.320691
G02 X122.568687 Y50.556899 Z0.000000 I0.572201 J-0.107420
G02 X123.125093 Y50.874139 Z0.000000 I1.999510 J-2.860372
G02 X123.354998 Y50.913999 Z0.000000 I0.191525 J-0.421725
G02 X123.503903 Y50.848647 Z0.000000 I-0.020774 J-0.249649
G02 X123.805956 Y50.498794 Z0.000000 I-1.370548 J-1.488615
G02 X124.076822 Y49.974495 Z0.000000 I-2.022111 J-1.376790
G02 X124.080084 Y49.761445 Z0.000000 I-0.298901 J-0.111126
G01 X124.080084 Y49.761445 Z0.000000
G00 Z5.000000

(End cutting path id: path861)


(Start cutting path id: path861)
(Change tool to Cylindrical cutter)

G00 Z5.000000
G00 X127.537413 Y49.153157

G01 Z0.000000 F1000.0(Penetrate)
G03 X127.375936 Y49.267890 Z0.000000 I-0.795886 J-0.949143 F1100.000000
G03 X127.102383 Y49.412559 Z0.000000 I-1.547112 J-2.594439
G03 X125.777812 Y49.592796 Z0.000000 I-0.953650 J-2.051136
G03 X124.922102 Y49.050119 Z0.000000 I0.213113 J-1.282037
G03 X124.648753 Y48.560343 Z0.000000 I2.410764 J-1.666640
G01 X124.683921 Y48.506524 Z0.000000
G01 X124.697563 Y48.509960 Z0.000000
G03 X125.178981 Y48.772416 Z0.000000 I-22.743296 J42.290414
G02 X126.737851 Y49.166863 Z0.000000 I1.529848 J-2.768442
G02 X127.752821 Y48.748799 Z0.000000 I-0.013524 J-1.473931
G03 X128.067785 Y48.521584 Z0.000000 I0.923007 J0.947559
G03 X128.163211 Y48.536387 Z0.000000 I0.037594 J0.072633
G01 X128.163037 Y48.584147 Z0.000000
G03 X127.537413 Y49.153156 Z0.000000 I-7.407388 J-7.515969
G01 X127.537413 Y49.153157 Z0.000000
G00 Z5.000000

(End cutting path id: path861)


(Start cutting path id: path861)
(Change tool to Cylindrical cutter)

G00 Z5.000000
G00 X128.161809 Y47.964921

G01 Z0.000000 F1000.0(Penetrate)
G03 X127.966693 Y48.115150 Z0.000000 I-0.848434 J-0.900123 F1100.000000
G03 X127.569700 Y48.333152 Z0.000000 I-2.205399 J-3.545661
G03 X127.145995 Y48.475491 Z0.000000 I-0.783790 J-1.631342
G03 X126.596681 Y48.530688 Z0.000000 I-0.549322 J-2.705816
G03 X126.048202 Y48.474917 Z0.000000 I-0.000008 J-2.724806
G03 X125.655820 Y48.337346 Z0.000000 I0.311980 J-1.518196
G03 X125.109860 Y47.723338 Z0.000000 I0.513290 J-1.006135
G03 X125.153006 Y46.979099 Z0.000000 I0.872021 J-0.322816
G03 X125.511137 Y46.544642 Z0.000000 I1.154968 J0.587226
G03 X126.100554 Y46.240085 Z0.000000 I1.106377 J1.418565
G03 X127.509347 Y46.369895 Z0.000000 I0.543463 J1.811469
G03 X128.297587 Y47.370616 Z0.000000 I-0.701564 J1.363401
G03 X128.300099 Y47.723183 Z0.000000 I-0.746168 J0.181609
G03 X128.161809 Y47.964921 Z0.000000 I-0.466732 J-0.106577
G01 X128.161809 Y47.964921 Z0.000000
G00 Z5.000000

(End cutting path id: path861)


(Start cutting path id: path861)
(Change tool to Cylindrical cutter)

G00 Z5.000000
G00 X127.001466 Y46.755950

G01 Z0.000000 F1000.0(Penetrate)
G02 X126.622191 Y46.577704 Z0.000000 I-0.501972 J0.575470 F1100.000000
G02 X126.397715 Y46.657661 Z0.000000 I-0.039672 J0.243702
G02 X125.987805 Y47.407688 Z0.000000 I1.434001 J1.270747
G02 X125.998449 Y48.071346 Z0.000000 I1.112169 J0.314077
G02 X126.262006 Y48.296726 Z0.000000 I0.313257 J-0.099527
G02 X126.844370 Y48.200721 Z0.000000 I0.143954 J-0.941080
G02 X126.933828 Y48.053387 Z0.000000 I-0.076320 J-0.147165
G02 X126.843889 Y47.794298 Z0.000000 I-0.419380 J0.000427
G03 X126.782159 Y47.573126 Z0.000000 I0.234870 J-0.184753
G03 X126.916687 Y47.201435 Z0.000000 I0.878924 J0.107922
G02 X127.044546 Y46.881222 Z0.000000 I-0.757793 J-0.488216
G02 X127.001186 Y46.755944 Z0.000000 I-0.130911 J-0.024833
G01 X127.001466 Y46.755950 Z0.000000
G00 Z5.000000

(End cutting path id: path861)


(Start cutting path id: path861)
(Change tool to Cylindrical cutter)

G00 Z5.000000
G00 X130.409171 Y48.497389

G01 Z0.000000 F1000.0(Penetrate)
G02 X130.338233 Y48.433819 Z0.000000 I-0.222279 J0.176675 F1100.000000
G02 X129.768729 Y48.093883 Z0.000000 I-7.361326 J11.685606
G03 X129.189544 Y47.765032 Z0.000000 I70.390805 J-124.649681
G03 X129.172178 Y47.753350 Z0.000000 I0.070700 J-0.123848
G01 X129.170296 Y47.738800 Z0.000000
G03 X129.570937 Y47.224155 Z0.000000 I16.331729 J12.300668
G02 X129.801414 Y46.544389 Z0.000000 I-0.814270 J-0.655037
G02 X129.542934 Y46.040954 Z0.000000 I-0.649443 J0.015372
G02 X128.987374 Y45.786109 Z0.000000 I-0.859451 J1.140610
G02 X128.657003 Y45.848025 Z0.000000 I-0.091899 J0.421997
G03 X128.507464 Y45.929147 Z0.000000 I-0.536361 J-0.810325
G03 X128.434803 Y45.944376 Z0.000000 I-0.073355 J-0.169050
G03 X128.362066 Y45.927857 Z0.000000 I-0.000752 J-0.165092
G03 X127.861872 Y45.666763 Z0.000000 I4.114749 J-8.492555
G01 X127.366122 Y45.388832 Z0.000000
G01 X127.394021 Y45.171319 Z0.000000
G03 X127.426617 Y44.954773 Z0.000000 I4.890894 J0.625488
G03 X127.448520 Y44.857133 Z0.000000 I1.005283 J0.174234
G02 X127.402682 Y44.628074 Z0.000000 I-0.250646 J-0.068958
G02 X127.029709 Y44.321393 Z0.000000 I-0.875007 J0.684009
G03 X126.781061 Y44.185829 Z0.000000 I2.127389 J-4.197825
G03 X126.648298 Y44.098295 Z0.000000 I0.748496 J-1.279687
