%
(Header)
(Generated by gcodetools from Inkscape.)
(Using default header. To add your own header create file "header" in the output dir.)
M3
(Header end.)
G21 (All units in mm)

(Start cutting path id: path3130)
(Change tool to Default tool)

G00 Z5.000000
G00 X57.062768 Y77.436690

G01 Z-0.125000 F100.0(Penetrate)
G02 X57.264465 Y77.579087 Z-0.125000 I0.148813 J0.003259 F400.000000
G02 X57.454765 Y77.418881 Z-0.125000 I-0.133826 J-0.352092
G02 X57.418350 Y77.338595 Z-0.125000 I-0.046291 J-0.027405
G02 X57.062768 Y77.436690 Z-0.125000 I-0.077237 J0.413546
G01 X57.062768 Y77.436690 Z-0.125000
G00 Z5.000000

(End cutting path id: path3130)


(Start cutting path id: path3404)
(Change tool to Default tool)

G00 Z5.000000
G00 X56.155138 Y79.336200

G01 Z-0.125000 F100.0(Penetrate)
G03 X55.751134 Y79.252296 Z-0.125000 I-0.155017 J-0.268188 F400.000000
G03 X55.762756 Y79.057943 Z-0.125000 I0.121915 J-0.090233
G03 X56.000405 Y78.993141 Z-0.125000 I0.171913 J0.162293
G03 X56.155138 Y79.336200 Z-0.125000 I-0.068725 J0.237423
G01 X56.155138 Y79.336200 Z-0.125000
G00 Z5.000000

(End cutting path id: path3404)


(Start cutting path id: path3398)
(Change tool to Default tool)

G00 Z5.000000
G00 X55.359117 Y80.746960

G01 Z-0.125000 F100.0(Penetrate)
G03 X55.173229 Y80.659827 Z-0.125000 I-0.068037 J-0.096702 F400.000000
G03 X55.232345 Y80.443713 Z-0.125000 I0.327406 J-0.026585
G03 X55.317477 Y80.442431 Z-0.125000 I0.043033 J0.030400
G03 X55.359117 Y80.746960 Z-0.125000 I-0.251877 J0.189552
G01 X55.359117 Y80.746960 Z-0.125000
G00 Z5.000000

(End cutting path id: path3398)


(Start cutting path id: path3402)
(Change tool to Default tool)

G00 Z5.000000
G00 X57.644880 Y80.870950

G01 Z-0.125000 F100.0(Penetrate)
G03 X56.873933 Y80.139195 Z-0.125000 I0.248311 J-1.033607 F400.000000
G03 X56.942647 Y79.716336 Z-0.125000 I0.473157 J-0.140125
G03 X57.157318 Y79.702930 Z-0.125000 I0.112673 J0.078766
G03 X57.644880 Y80.870950 Z-0.125000 I-1.410334 J1.274481
G01 X57.644880 Y80.870950 Z-0.125000
G00 Z5.000000

(End cutting path id: path3402)


(Start cutting path id: path3406)
(Change tool to Default tool)

G00 Z5.000000
G00 X54.850739 Y78.323560

G01 Z-0.125000 F100.0(Penetrate)
G03 X54.283359 Y79.131502 Z-0.125000 I-1.920419 J-0.745427 F400.000000
G03 X54.185336 Y79.078878 Z-0.125000 I-0.039062 J-0.044845
G03 X54.406137 Y78.353954 Z-0.125000 I2.294274 J0.302715
G03 X54.850739 Y78.323560 Z-0.125000 I0.231172 J0.114572
G01 X54.850739 Y78.323560 Z-0.125000
G00 Z5.000000

(End cutting path id: path3406)


(Start cutting path id: path3150)
(Change tool to Default tool)

G00 Z5.000000
G00 X59.427291 Y76.844540

G01 Z-0.125000 F100.0(Penetrate)
G02 X58.925814 Y77.105225 Z-0.125000 I-0.135411 J0.352197 F400.000000
G02 X58.982368 Y77.547144 Z-0.125000 I0.594183 J0.148538
G02 X59.159536 Y77.573208 Z-0.125000 I0.098401 J-0.053697
G02 X59.427291 Y76.844540 Z-0.125000 I-0.640972 J-0.649059
G01 X59.427291 Y76.844540 Z-0.125000
G00 Z5.000000

(End cutting path id: path3150)


(Start cutting path id: path3408)
(Change tool to Default tool)

G00 Z5.000000
G00 X59.361344 Y74.361360

G01 Z-0.125000 F100.0(Penetrate)
G03 X58.833430 Y74.564956 Z-0.125000 I-0.535044 J-0.601114 F400.000000
G03 X58.767036 Y74.485699 Z-0.125000 I-0.000593 J-0.066941
G03 X58.886461 Y74.325795 Z-0.125000 I0.222535 J0.041653
G03 X59.361344 Y74.361360 Z-0.125000 I0.208282 J0.407144
G01 X59.361344 Y74.361360 Z-0.125000
G00 Z5.000000

(End cutting path id: path3408)


(Start cutting path id: path3154)
(Change tool to Default tool)

G00 Z5.000000
G00 X61.486824 Y74.176890

G01 Z-0.125000 F100.0(Penetrate)
G02 X61.719806 Y74.242501 Z-0.125000 I0.169795 J-0.156475 F400.000000
G01 X61.751074 Y74.174164 Z-0.125000
G02 X61.633340 Y74.069457 Z-0.125000 I-0.179814 J0.083641
G02 X61.486824 Y74.176890 Z-0.125000 I-0.034933 J0.105984
G01 X61.486824 Y74.176890 Z-0.125000
G00 Z5.000000

(End cutting path id: path3154)


(Start cutting path id: path3162)
(Change tool to Default tool)

G00 Z5.000000
G00 X61.144688 Y72.663400

G01 Z-0.125000 F100.0(Penetrate)
G02 X61.428201 Y73.277072 Z-0.125000 I1.177678 J-0.171754 F400.000000
G02 X61.521805 Y73.269850 Z-0.125000 I0.044093 J-0.038730
G02 X61.544481 Y73.079925 Z-0.125000 I-0.186300 J-0.118559
G02 X61.144688 Y72.663400 Z-0.125000 I-0.647117 J0.220992
G01 X61.144688 Y72.663400 Z-0.125000
G00 Z5.000000

(End cutting path id: path3162)


(Start cutting path id: path3168)
(Change tool to Default tool)

G00 Z5.000000
G00 X59.037575 Y72.083990

G01 Z-0.125000 F100.0(Penetrate)
G02 X59.119464 Y72.338087 Z-0.125000 I0.122255 J0.100844 F400.000000
G02 X59.373781 Y72.305274 Z-0.125000 I0.086770 J-0.329435
G02 X59.392420 Y72.193791 Z-0.125000 I-0.035741 J-0.063275
G02 X59.037575 Y72.083990 Z-0.125000 I-0.267897 J0.237490
G01 X59.037575 Y72.083990 Z-0.125000
G00 Z5.000000

(End cutting path id: path3168)


(Start cutting path id: path3170)
(Change tool to Default tool)

G00 Z5.000000
G00 X57.987863 Y71.838270

G01 Z-0.125000 F100.0(Penetrate)
G02 X58.797146 Y71.787449 Z-0.125000 I0.299668 J-1.697044 F400.000000
G01 X58.806294 Y71.699888 Z-0.125000
G02 X58.349736 Y71.554885 Z-0.125000 I-0.584325 J1.048549
G02 X57.987863 Y71.838270 Z-0.125000 I-0.035103 J0.327917
G01 X57.987863 Y71.838270 Z-0.125000
G00 Z5.000000

(End cutting path id: path3170)


(Start cutting path id: path3166)
(Change tool to Default tool)

G00 Z5.000000
G00 X57.412035 Y72.314130

G01 Z-0.125000 F100.0(Penetrate)
G02 X57.680888 Y72.418456 Z-0.125000 I0.216449 J-0.159215 F400.000000
G02 X57.730965 Y72.338918 Z-0.125000 I-0.012623 J-0.063481
G02 X57.622272 Y72.211726 Z-0.125000 I-0.183866 J0.047087
G02 X57.412035 Y72.314130 Z-0.125000 I-0.061082 J0.141610
G01 X57.412035 Y72.314130 Z-0.125000
G00 Z5.000000

(End cutting path id: path3166)


(Start cutting path id: path3410)
(Change tool to Default tool)

G00 Z5.000000
G00 X56.137548 Y70.173520

G01 Z-0.125000 F100.0(Penetrate)
G03 X55.585822 Y69.884857 Z-0.125000 I0.383720 J-1.405005 F400.000000
G01 X55.588953 Y69.822681 Z-0.125000
G03 X55.699008 Y69.812193 Z-0.125000 I0.064586 J0.095053
G03 X56.137548 Y70.173520 Z-0.125000 I-0.403437 J0.936438
G01 X56.137548 Y70.173520 Z-0.125000
G00 Z5.000000

(End cutting path id: path3410)


(Start cutting path id: path3416)
(Change tool to Default tool)

G00 Z5.000000
G00 X58.110412 Y66.376640

G01 Z-0.125000 F100.0(Penetrate)
G03 X58.014562 Y68.645188 Z-0.125000 I-1.789957 J1.060670 F400.000000
G03 X57.309359 Y68.821370 Z-0.125000 I-0.455800 J-0.324980
G02 X56.854359 Y68.406972 Z-0.125000 I-1.539384 J1.233220
G03 X56.675420 Y67.619060 Z-0.125000 I0.320571 J-0.487078
G03 X56.762435 Y65.657137 Z-0.125000 I0.243640 J-0.972085
G03 X58.110412 Y66.376640 Z-0.125000 I0.198023 J1.251465
G01 X58.110412 Y66.376640 Z-0.125000
G00 Z5.000000

(End cutting path id: path3416)


(Start cutting path id: path3420)
(Change tool to Default tool)

G00 Z5.000000
G00 X59.150643 Y64.152010

G01 Z-0.125000 F100.0(Penetrate)
G03 X58.111983 Y64.276818 Z-0.125000 I-0.748173 J-1.842038 F400.000000
G03 X58.006783 Y64.162607 Z-0.125000 I0.018044 J-0.122176
G03 X58.096403 Y64.050180 Z-0.125000 I0.106681 J-0.006894
G03 X59.150643 Y64.152010 Z-0.125000 I0.333052 J2.060087
G01 X59.150643 Y64.152010 Z-0.125000
G00 Z5.000000

(End cutting path id: path3420)


(Start cutting path id: path3238)
(Change tool to Default tool)

G00 Z5.000000
G00 X58.544184 Y61.447940

G01 Z-0.125000 F100.0(Penetrate)
G02 X59.702257 Y61.573251 Z-0.125000 I0.809212 J-2.064536 F400.000000
G02 X59.744875 Y61.435959 Z-0.125000 I-0.012613 J-0.079176
G02 X59.197748 Y61.125857 Z-0.125000 I-0.895514 J0.942284
G02 X58.544184 Y61.447940 Z-0.125000 I-0.146540 J0.526785
G01 X58.544184 Y61.447940 Z-0.125000
G00 Z5.000000

(End cutting path id: path3238)


(Start cutting path id: path3256)
(Change tool to Default tool)

G00 Z5.000000
G00 X59.973331 Y59.500300

G01 Z-0.125000 F100.0(Penetrate)
G02 X60.419146 Y59.544760 Z-0.125000 I0.259770 J-0.347405 F400.000000
G02 X60.529117 Y59.400764 Z-0.125000 I-0.084904 J-0.178833
G02 X60.465887 Y59.323237 Z-0.125000 I-0.064915 J-0.011604
G02 X59.973331 Y59.500300 Z-0.125000 I-0.018461 J0.722278
G01 X59.973331 Y59.500300 Z-0.125000
G00 Z5.000000

(End cutting path id: path3256)


(Start cutting path id: path3252)
(Change tool to Default tool)

G00 Z5.000000
G00 X60.904711 Y59.740230

G01 Z-0.125000 F100.0(Penetrate)
G02 X61.260637 Y59.861804 Z-0.125000 I0.262614 J-0.187041 F400.000000
G02 X61.350891 Y59.740223 Z-0.125000 I-0.036760 J-0.121577
G02 X61.260629 Y59.618642 Z-0.125000 I-0.127019 J0.000004
G02 X60.904711 Y59.740230 Z-0.125000 I-0.093301 J0.308611
G01 X60.904711 Y59.740230 Z-0.125000
G00 Z5.000000

(End cutting path id: path3252)


(Start cutting path id: path3262)
(Change tool to Default tool)

G00 Z5.000000
G00 X60.675431 Y58.285230

G01 Z-0.125000 F100.0(Penetrate)
G02 X60.990889 Y58.772695 Z-0.125000 I0.753537 J-0.141838 F400.000000
G02 X61.096858 Y58.730681 Z-0.125000 I0.039064 J-0.056116
G02 X61.056369 Y58.390146 Z-0.125000 I-0.523768 J-0.110401
G02 X60.675431 Y58.285230 Z-0.125000 I-0.235849 J0.112309
G01 X60.675431 Y58.285230 Z-0.125000
G00 Z5.000000

(End cutting path id: path3262)


(Start cutting path id: path3276)
(Change tool to Default tool)

G00 Z5.000000
G00 X64.086928 Y56.170170

G01 Z-0.125000 F100.0(Penetrate)
G02 X64.833844 Y57.540971 Z-0.125000 I1.948563 J-0.172836 F400.000000
G02 X65.179629 Y57.498034 Z-0.125000 I0.151407 J-0.194497
G02 X65.238535 Y56.998662 Z-0.125000 I-0.382558 J-0.298287
G02 X64.086928 Y56.170170 Z-0.125000 I-1.299735 J0.592022
G01 X64.086928 Y56.170170 Z-0.125000
G00 Z5.000000

(End cutting path id: path3276)


(Start cutting path id: path3274)
(Change tool to Default tool)

G00 Z5.000000
G00 X67.099966 Y56.580890

G01 Z-0.125000 F100.0(Penetrate)
G02 X68.822112 Y58.516306 Z-0.125000 I2.771251 J-0.731981 F400.000000
G02 X69.413711 Y58.219261 Z-0.125000 I0.162685 J-0.413635
G02 X69.182220 Y57.010468 Z-0.125000 I-1.352297 J-0.367589
G02 X67.099966 Y56.580890 Z-0.125000 I-1.284298 J0.963911
G01 X67.099966 Y56.580890 Z-0.125000
G00 Z5.000000

(End cutting path id: path3274)


(Start cutting path id: path3250)
(Change tool to Default tool)

G00 Z5.000000
G00 X66.551204 Y60.127280

G01 Z-0.125000 F100.0(Penetrate)
G02 X65.450382 Y65.004958 Z-0.125000 I1.104678 J2.812369 F400.000000
G02 X67.216512 Y65.328510 Z-0.125000 I1.101703 J-1.031674
G03 X67.451907 Y65.057097 Z-0.125000 I0.163189 J-0.096253
G03 X68.340522 Y65.453454 Z-0.125000 I-6.495456 J15.756812
G02 X68.537191 Y65.329520 Z-0.125000 I0.059451 J-0.123670
G02 X68.150266 Y64.229920 Z-0.125000 I-1.765559 J0.003386
G03 X66.476902 Y63.755905 Z-0.125000 I-0.505997 J-1.404391
G03 X65.981212 Y62.470481 Z-0.125000 I1.794736 J-1.430380
G03 X66.377752 Y62.035386 Z-0.125000 I0.408596 J-0.025859
G03 X68.272350 Y62.861840 Z-0.125000 I0.071330 J2.421336
G02 X68.861401 Y60.632958 Z-0.125000 I-0.377340 J-1.292002
G02 X66.551204 Y60.127280 Z-0.125000 I-1.536495 J1.489576
G01 X66.551204 Y60.127280 Z-0.125000
G00 Z5.000000

(End cutting path id: path3250)


(Start cutting path id: path3248)
(Change tool to Default tool)

G00 Z5.000000
G00 X69.880849 Y60.187180

G01 Z-0.125000 F100.0(Penetrate)
G02 X71.429292 Y61.825130 Z-0.125000 I3.926389 J-2.160939 F400.000000
G02 X71.663903 Y61.704254 Z-0.125000 I0.081425 J-0.130080
G02 X71.447714 Y60.965565 Z-0.125000 I-1.136733 J-0.068297
G02 X69.880849 Y60.187180 Z-0.125000 I-1.530471 J1.114573
G01 X69.880849 Y60.187180 Z-0.125000
G00 Z5.000000

(End cutting path id: path3248)


(Start cutting path id: path3226)
(Change tool to Default tool)

G00 Z5.000000
G00 X70.073044 Y63.341290

G01 Z-0.125000 F100.0(Penetrate)
G02 X71.341696 Y64.793842 Z-0.125000 I2.278963 J-0.710143 F400.000000
G02 X71.718571 Y64.610594 Z-0.125000 I0.114163 J-0.244380
G02 X71.549240 Y63.734097 Z-0.125000 I-1.067437 J-0.248387
G02 X70.073044 Y63.341290 Z-0.125000 I-0.971075 J0.679142
G01 X70.073044 Y63.341290 Z-0.125000
G00 Z5.000000

(End cutting path id: path3226)


(Start cutting path id: path3232)
(Change tool to Default tool)

G00 Z5.000000
G00 X72.588981 Y62.592610

G01 Z-0.125000 F100.0(Penetrate)
G02 X73.388465 Y62.948017 Z-0.125000 I0.713678 J-0.528492 F400.000000
G02 X73.537680 Y62.746000 Z-0.125000 I-0.016326 J-0.168175
G02 X73.251009 Y62.364170 Z-0.125000 I-0.546408 J0.111705
G02 X72.588981 Y62.592610 Z-0.125000 I-0.223733 J0.425124
G01 X72.588981 Y62.592610 Z-0.125000
G00 Z5.000000

(End cutting path id: path3232)


(Start cutting path id: path3214)
(Change tool to Default tool)

G00 Z5.000000
G00 X74.409725 Y64.993150

G01 Z-0.125000 F100.0(Penetrate)
G02 X74.460220 Y66.674481 Z-0.125000 I1.183863 J0.805869 F400.000000
G02 X75.106064 Y66.825775 Z-0.125000 I0.415901 J-0.321259
G02 X75.500929 Y66.157109 Z-0.125000 I-0.307889 J-0.632739
G02 X74.409725 Y64.993150 Z-0.125000 I-1.233659 J0.063069
G01 X74.409725 Y64.993150 Z-0.125000
G00 Z5.000000

(End cutting path id: path3214)


(Start cutting path id: path3220)
(Change tool to Default tool)

G00 Z5.000000
G00 X76.738175 Y64.553480

G01 Z-0.125000 F100.0(Penetrate)
G01 X76.738175 Y64.553520 Z-0.125000 F400.000000
G01 X76.738175 Y64.553480 Z-0.125000
G00 Z5.000000

(End cutting path id: path3220)


(Start cutting path id: path3206)
(Change tool to Default tool)

G00 Z5.000000
G00 X79.066626 Y65.328780

G01 Z-0.125000 F100.0(Penetrate)
G02 X80.083269 Y65.489901 Z-0.125000 I0.725372 J-1.288990 F400.000000
G02 X80.215245 Y65.328776 Z-0.125000 I-0.032363 J-0.161121
G02 X80.083261 Y65.167650 Z-0.125000 I-0.164348 J0.000004
G02 X79.066626 Y65.328780 Z-0.125000 I-0.291258 J1.450078
G01 X79.066626 Y65.328780 Z-0.125000
G00 Z5.000000

(End cutting path id: path3206)


(Start cutting path id: path3212)
(Change tool to Default tool)

G00 Z5.000000
G00 X80.822909 Y64.846890

G01 Z-0.125000 F100.0(Penetrate)
G02 X81.024130 Y65.073010 Z-0.125000 I0.259422 J-0.028265 F400.000000
G02 X81.120010 Y65.014988 Z-0.125000 I0.017969 J-0.078537
G02 X81.079470 Y64.844440 Z-0.125000 I-0.179818 J-0.047349
G02 X80.822909 Y64.846890 Z-0.125000 I-0.127218 J0.112530
G01 X80.822909 Y64.846890 Z-0.125000
G00 Z5.000000

(End cutting path id: path3212)


(Start cutting path id: path3204)
(Change tool to Default tool)

G00 Z5.000000
G00 X81.686133 Y65.569710

G01 Z-0.125000 F100.0(Penetrate)
G02 X81.647091 Y66.422538 Z-0.125000 I0.577838 J0.453761 F400.000000
G02 X81.956010 Y66.495019 Z-0.125000 I0.192123 J-0.124287
G02 X82.209386 Y66.073672 Z-0.125000 I-0.264780 J-0.446082
G02 X81.686133 Y65.569710 Z-0.125000 I-0.482150 J-0.023016
G01 X81.686133 Y65.569710 Z-0.125000
G00 Z5.000000

(End cutting path id: path3204)


(Start cutting path id: path3190)
(Change tool to Default tool)

G00 Z5.000000
G00 X82.908570 Y67.191540

G01 Z-0.125000 F100.0(Penetrate)
G02 X83.141550 Y67.257146 Z-0.125000 I0.169788 J-0.156469 F400.000000
G01 X83.172817 Y67.188806 Z-0.125000
G02 X83.055085 Y67.084103 Z-0.125000 I-0.179805 J0.083637
G02 X82.908570 Y67.191540 Z-0.125000 I-0.034931 J0.105986
G01 X82.908570 Y67.191540 Z-0.125000
G00 Z5.000000

(End cutting path id: path3190)


(Start cutting path id: path3194)
(Change tool to Default tool)

G00 Z5.000000
G00 X84.008183 Y66.855470

G01 Z-0.125000 F100.0(Penetrate)
G01 X84.008183 Y66.855460 Z-0.125000 F400.000000
G01 X84.008183 Y66.855470 Z-0.125000
G00 Z5.000000

(End cutting path id: path3194)


(Start cutting path id: path3188)
(Change tool to Default tool)

G00 Z5.000000
G00 X84.781275 Y67.641140

G01 Z-0.125000 F100.0(Penetrate)
G02 X85.084765 Y67.932213 Z-0.125000 I0.283156 J0.008520 F400.000000
G02 X85.311648 Y67.781776 Z-0.125000 I-0.019884 J-0.276296
G02 X85.261092 Y67.600382 Z-0.125000 I-0.123923 J-0.063204
G02 X84.781275 Y67.641140 Z-0.125000 I-0.212553 J0.342413
G01 X84.781275 Y67.641140 Z-0.125000
G00 Z5.000000

(End cutting path id: path3188)


(Start cutting path id: path3182)
(Change tool to Default tool)

G00 Z5.000000
G00 X83.463109 Y68.297550

G01 Z-0.125000 F100.0(Penetrate)
G02 X82.641330 Y69.471431 Z-0.125000 I1.108990 J1.650937 F400.000000
G02 X82.821481 Y69.663788 Z-0.125000 I0.152530 J0.037687
G02 X83.530068 Y69.276963 Z-0.125000 I-0.223582 J-1.251969
G02 X83.463109 Y68.297550 Z-0.125000 I-0.493741 J-0.458240
G01 X83.463109 Y68.297550 Z-0.125000
G00 Z5.000000

(End cutting path id: path3182)



(Start cutting path id: path3176)
(Change tool to Default tool)

G00 Z5.000000
G00 X79.622227 Y69.621540

G01 Z-0.125000 F100.0(Penetrate)
G02 X78.315415 Y70.649293 Z-0.125000 I5.387483 J8.195010 F400.000000
G02 X78.337799 Y70.749028 Z-0.125000 I0.040444 J0.043302
G02 X78.621871 Y70.747003 Z-0.125000 I0.138949 J-0.434172
G02 X79.694981 Y70.328621 Z-0.125000 I-3.839813 J-11.434173
G02 X80.719323 Y69.815261 Z-0.125000 I-5.180008 J-11.614651
G02 X81.015787 Y69.554674 Z-0.125000 I-0.458772 J-0.820870
G02 X80.965267 Y69.455277 Z-0.125000 I-0.050025 J-0.037112
G02 X79.622227 Y69.621540 Z-0.125000 I0.046780 J5.885412
G01 X79.622227 Y69.621540 Z-0.125000
G00 Z5.000000

(End cutting path id: path3176)


(Start cutting path id: path3192)
(Change tool to Default tool)

G00 Z5.000000
G00 X77.373246 Y67.686720

G01 Z-0.125000 F100.0(Penetrate)
G02 X78.277342 Y68.556402 Z-0.125000 I0.845576 J0.025741 F400.000000
G02 X79.021047 Y68.122118 Z-0.125000 I-0.067192 J-0.968997
G02 X78.910372 Y67.649187 Z-0.125000 I-0.279166 J-0.184085
G02 X77.373246 Y67.686720 Z-0.125000 I-0.738124 J1.265367
G01 X77.373246 Y67.686720 Z-0.125000
G00 Z5.000000

(End cutting path id: path3192)


(Start cutting path id: path3184)
(Change tool to Default tool)

G00 Z5.000000
G00 X75.573950 Y68.095440

G01 Z-0.125000 F100.0(Penetrate)
G02 X75.944482 Y68.425060 Z-0.125000 I0.604327 J-0.306265 F400.000000
G02 X76.018253 Y68.368369 Z-0.125000 I0.018986 J-0.051638
G02 X75.900756 Y68.090751 Z-0.125000 I-0.494477 J0.045605
G02 X75.573950 Y68.095440 Z-0.125000 I-0.161451 J0.138428
G01 X75.573950 Y68.095440 Z-0.125000
G00 Z5.000000

(End cutting path id: path3184)


(Start cutting path id: path3180)
(Change tool to Default tool)

G00 Z5.000000
G00 X73.858636 Y70.043890

G01 Z-0.125000 F100.0(Penetrate)
G02 X73.171867 Y72.164983 Z-0.125000 I11.874956 J5.016608 F400.000000
G02 X73.262635 Y72.298974 Z-0.125000 I0.107651 J0.024814
G02 X73.532324 Y72.201599 Z-0.125000 I0.045706 J-0.295566
G02 X74.337734 Y71.161199 Z-0.125000 I-7.514460 J-6.649152
G02 X75.011909 Y70.028877 Z-0.125000 I-9.738155 J-6.564873
G02 X75.173284 Y69.464770 Z-0.125000 I-1.294754 J-0.675528
G02 X75.021144 Y69.350037 Z-0.125000 I-0.112821 J-0.008633
G02 X73.858636 Y70.043890 Z-0.125000 I1.291084 J3.483915
G01 X73.858636 Y70.043890 Z-0.125000
G00 Z5.000000

(End cutting path id: path3180)


(Start cutting path id: path3174)
(Change tool to Default tool)

G00 Z5.000000
G00 X76.738175 Y70.684220

G01 Z-0.125000 F100.0(Penetrate)
G02 X75.344623 Y72.026542 Z-0.125000 I1.290690 J2.734480 F400.000000
G02 X75.527454 Y72.332198 Z-0.125000 I0.185806 J0.096367
G02 X77.175769 Y72.075620 Z-0.125000 I0.070637 J-4.969083
G02 X77.696496 Y71.135440 Z-0.125000 I-0.252471 J-0.754128
G03 X77.042375 Y70.810138 Z-0.125000 I-0.302271 J-0.212498
G02 X76.738175 Y70.684220 Z-0.125000 I-0.157288 J-0.050427
G01 X76.738175 Y70.684220 Z-0.125000
G00 Z5.000000

(End cutting path id: path3174)


(Start cutting path id: path3164)
(Change tool to Default tool)

G00 Z5.000000
G00 X77.145654 Y72.474640

G01 Z-0.125000 F100.0(Penetrate)
G02 X77.084597 Y72.865907 Z-0.125000 I0.237460 J0.237453 F400.000000
G02 X77.226514 Y72.905943 Z-0.125000 I0.089635 J-0.046185
G02 X77.375646 Y72.681228 Z-0.125000 I-0.164225 J-0.270831
G02 X77.145654 Y72.474640 Z-0.125000 I-0.183519 J-0.027008
G01 X77.145654 Y72.474640 Z-0.125000
G00 Z5.000000

(End cutting path id: path3164)


(Start cutting path id: path3160)
(Change tool to Default tool)

G00 Z5.000000
G00 X74.284203 Y73.363860

G01 Z-0.125000 F100.0(Penetrate)
G02 X74.359948 Y73.530794 Z-0.125000 I0.069767 J0.068995 F400.000000
G02 X74.615668 Y73.435856 Z-0.125000 I-0.028626 J-0.468974
G02 X74.607134 Y73.350159 Z-0.125000 I-0.030582 J-0.040228
G02 X74.284203 Y73.363860 Z-0.125000 I-0.148741 J0.306759
G01 X74.284203 Y73.363860 Z-0.125000
G00 Z5.000000

(End cutting path id: path3160)


(Start cutting path id: path3156)
(Change tool to Default tool)

G00 Z5.000000
G00 X71.560332 Y73.377140

G01 Z-0.125000 F100.0(Penetrate)
G02 X69.374065 Y75.466769 Z-0.125000 I9.954981 J12.603868 F400.000000
G02 X69.382647 Y75.834904 Z-0.125000 I0.207091 J0.179340
G02 X69.866769 Y76.001670 Z-0.125000 I0.402722 J-0.383015
G02 X72.497932 Y75.461530 Z-0.125000 I-3.547121 J-23.957553
G02 X72.617996 Y74.498711 Z-0.125000 I-0.119972 J-0.503856
G03 X72.558072 Y73.034020 Z-0.125000 I0.392043 J-0.749610
G01 X71.560328 Y73.377150 Z-0.125000
G01 X71.560332 Y73.377140 Z-0.125000
G00 Z5.000000

(End cutting path id: path3156)


(Start cutting path id: path3178)
(Change tool to Default tool)

G00 Z5.000000
G00 X69.519906 Y69.752970

G01 Z-0.125000 F100.0(Penetrate)
G02 X69.008285 Y71.980673 Z-0.125000 I3.770931 J2.038645 F400.000000
G02 X69.459668 Y73.250572 Z-0.125000 I2.297355 J-0.101419
G02 X70.170254 Y73.421605 Z-0.125000 I0.457717 J-0.340025
G02 X71.791143 Y71.720100 Z-0.125000 I-1.518874 J-3.069710
G03 X70.792226 Y72.000972 Z-0.125000 I-0.651012 J-0.398563
G03 X70.432737 Y71.443721 Z-0.125000 I0.301708 J-0.589216
G02 X70.236385 Y69.944466 Z-0.125000 I-9.228528 J0.446144
G02 X69.519906 Y69.752970 Z-0.125000 I-0.407276 J0.087721
G01 X69.519906 Y69.752970 Z-0.125000
G00 Z5.000000

(End cutting path id: path3178)


(Start cutting path id: path3186)
(Change tool to Default tool)

G00 Z5.000000
G00 X67.829069 Y68.413980

G01 Z-0.125000 F100.0(Penetrate)
G02 X68.458706 Y69.026377 Z-0.125000 I0.957322 J-0.354392 F400.000000
G02 X68.619111 Y68.899789 Z-0.125000 I0.039104 J-0.115371
G02 X68.368386 Y68.309907 Z-0.125000 I-1.047088 J0.096831
G02 X67.829069 Y68.413980 Z-0.125000 I-0.239797 J0.206780
G01 X67.829069 Y68.413980 Z-0.125000
G00 Z5.000000

(End cutting path id: path3186)


(Start cutting path id: path3198)
(Change tool to Default tool)

G00 Z5.000000
G00 X68.250728 Y66.787940

G01 Z-0.125000 F100.0(Penetrate)
G02 X69.154404 Y67.671095 Z-0.125000 I2.102566 J-1.247508 F400.000000
G02 X69.279384 Y67.582591 Z-0.125000 I0.041544 J-0.073831
G02 X68.996121 Y66.917003 Z-0.125000 I-1.573975 J0.276788
G02 X68.250728 Y66.787940 Z-0.125000 I-0.439421 J0.320831
G01 X68.250728 Y66.787940 Z-0.125000
G00 Z5.000000

(End cutting path id: path3198)


(Start cutting path id: path3196)
(Change tool to Default tool)

G00 Z5.000000
G00 X71.115465 Y66.578270

G01 Z-0.125000 F100.0(Penetrate)
G02 X71.316542 Y68.659199 Z-0.125000 I1.919483 J0.864703 F400.000000
G02 X71.926529 Y68.763245 Z-0.125000 I0.356960 J-0.252644
G02 X72.358273 Y67.881802 Z-0.125000 I-0.594056 J-0.837436
G02 X71.115465 Y66.578270 Z-0.125000 I-1.366502 J0.058622
G01 X71.115465 Y66.578270 Z-0.125000
G00 Z5.000000

(End cutting path id: path3196)


(Start cutting path id: path3172)
(Change tool to Default tool)

G00 Z5.000000
G00 X66.820026 Y70.953040

G01 Z-0.125000 F100.0(Penetrate)
G02 X67.228076 Y71.530911 Z-0.125000 I0.778145 J-0.116466 F400.000000
G02 X67.406458 Y71.480249 Z-0.125000 I0.062881 J-0.117971
G02 X67.402813 Y71.216684 Z-0.125000 I-0.220937 J-0.128752
G02 X66.820026 Y70.953040 Z-0.125000 I-0.487993 J0.302763
G01 X66.820026 Y70.953040 Z-0.125000
G00 Z5.000000

(End cutting path id: path3172)


(Start cutting path id: path3158)
(Change tool to Default tool)

G00 Z5.000000
G00 X65.251153 Y73.167900

G01 Z-0.125000 F100.0(Penetrate)
G02 X65.971867 Y73.887192 Z-0.125000 I0.750101 J-0.030869 F400.000000
G02 X66.657520 Y73.669361 Z-0.125000 I0.041431 J-1.057599
G02 X66.642674 Y73.412952 Z-0.125000 I-0.094484 J-0.123164
G02 X65.251153 Y73.167900 Z-0.125000 I-1.016985 J1.701537
G01 X65.251153 Y73.167900 Z-0.125000
G00 Z5.000000

(End cutting path id: path3158)


(Start cutting path id: path3152)
(Change tool to Default tool)

G00 Z5.000000
G00 X64.106331 Y74.192390

G01 Z-0.125000 F100.0(Penetrate)
G02 X64.312491 Y74.722561 Z-0.125000 I0.295510 J0.190258 F400.000000
G02 X64.824651 Y74.663919 Z-0.125000 I0.180719 J-0.687502
G02 X64.860217 Y74.456717 Z-0.125000 I-0.061803 J-0.117262
G02 X64.106331 Y74.192390 Z-0.125000 I-0.626034 J0.578267
G01 X64.106331 Y74.192390 Z-0.125000
G00 Z5.000000

(End cutting path id: path3152)


(Start cutting path id: path3684)
(Change tool to Default tool)

G00 Z5.000000
G00 X65.328768 Y77.672140

G01 Z-0.125000 F100.0(Penetrate)
G03 X64.253743 Y77.884933 Z-0.125000 I-0.828621 J-1.364278 F400.000000
G03 X64.066953 Y77.722638 Z-0.125000 I0.035935 J-0.229996
G03 X64.153245 Y77.577201 Z-0.125000 I0.109571 J-0.033306
G03 X65.328768 Y77.672140 Z-0.125000 I0.425912 J2.051468
G01 X65.328768 Y77.672140 Z-0.125000
G00 Z5.000000

(End cutting path id: path3684)


(Start cutting path id: path3412)
(Change tool to Default tool)

G00 Z5.000000
G00 X61.296615 Y70.029300

G01 Z-0.125000 F100.0(Penetrate)
G03 X61.170690 Y69.975774 Z-0.125000 I-0.052208 J-0.052064 F400.000000
G03 X61.222295 Y69.691271 Z-0.125000 I0.909482 J0.018036
G01 X61.262988 Y69.691020 Z-0.125000
G03 X61.296615 Y70.029300 Z-0.125000 I-0.639288 J0.234359
G01 X61.296615 Y70.029300 Z-0.125000
G00 Z5.000000

(End cutting path id: path3412)


(Start cutting path id: path3210)
(Change tool to Default tool)

G00 Z5.000000
G00 X62.106320 Y65.554430

G01 Z-0.125000 F100.0(Penetrate)
G02 X62.401335 Y65.743561 Z-0.125000 I0.200535 J0.011851 F400.000000
G02 X62.663374 Y65.455156 Z-0.125000 I-0.272005 J-0.510383
G02 X62.586954 Y65.331274 Z-0.125000 I-0.082818 J-0.034424
G02 X62.106320 Y65.554430 Z-0.125000 I-0.038992 J0.545192
G01 X62.106320 Y65.554430 Z-0.125000
G00 Z5.000000

(End cutting path id: path3210)


(Start cutting path id: path3426)
(Change tool to Default tool)

G00 Z5.000000
G00 X54.649727 Y61.088110

G01 Z-0.125000 F100.0(Penetrate)
G03 X54.130074 Y60.905058 Z-0.125000 I0.079150 J-1.053821 F400.000000
G01 X54.140708 Y60.838416 Z-0.125000
G03 X54.457339 Y60.820463 Z-0.125000 I0.196777 J0.669347
G03 X54.649727 Y61.088110 Z-0.125000 I-0.040467 J0.232057
G01 X54.649727 Y61.088110 Z-0.125000
G00 Z5.000000

(End cutting path id: path3426)


(Start cutting path id: path3432)
(Change tool to Default tool)

G00 Z5.000000
G00 X50.063473 Y60.148110

G01 Z-0.125000 F100.0(Penetrate)
G02 X49.503699 Y63.750090 Z-0.125000 I96.267140 J16.805094 F400.000000
G03 X48.045085 Y63.757330 Z-0.125000 I-0.729819 J-0.099517
G03 X48.027590 Y62.910709 Z-0.125000 I0.916057 J-0.442421
G03 X48.921357 Y61.213674 Z-0.125000 I11.568139 J5.008647
G03 X49.845799 Y60.046265 Z-0.125000 I5.802646 J3.645245
G03 X50.063473 Y60.148110 Z-0.125000 I0.090766 J0.089546
G01 X50.063473 Y60.148110 Z-0.125000
G00 Z5.000000

(End cutting path id: path3432)


(Start cutting path id: path3438)
(Change tool to Default tool)

G00 Z5.000000
G00 X50.193838 Y58.809220

G01 Z-0.125000 F100.0(Penetrate)
G03 X49.983601 Y58.911624 Z-0.125000 I-0.149155 J-0.039206 F400.000000
G03 X49.874908 Y58.784433 Z-0.125000 I0.075173 J-0.174278
G03 X49.924986 Y58.704894 Z-0.125000 I0.062700 J-0.016057
G03 X50.193838 Y58.809220 Z-0.125000 I0.052403 J0.263539
G01 X50.193838 Y58.809220 Z-0.125000
G00 Z5.000000

(End cutting path id: path3438)


(Start cutting path id: path3446)
(Change tool to Default tool)

G00 Z5.000000
G00 X50.992341 Y55.522710

G01 Z-0.125000 F100.0(Penetrate)
G03 X50.149570 Y55.869518 Z-0.125000 I-0.839131 J-0.841751 F400.000000
G03 X49.993376 Y55.737311 Z-0.125000 I0.000487 J-0.158945
G03 X50.095318 Y55.543557 Z-0.125000 I0.177520 J-0.030294
G03 X50.992341 Y55.522710 Z-0.125000 I0.472504 J1.021932
G01 X50.992341 Y55.522710 Z-0.125000
G00 Z5.000000

(End cutting path id: path3446)


(Start cutting path id: path3284)
(Change tool to Default tool)

G00 Z5.000000
G00 X52.987979 Y54.811730

G01 Z-0.125000 F100.0(Penetrate)
G02 X52.346355 Y55.409312 Z-0.125000 I0.569387 J1.254598 F400.000000
G02 X52.423493 Y55.523439 Z-0.125000 I0.068229 J0.037017
G02 X52.984232 Y55.312924 Z-0.125000 I-0.142195 J-1.230824
G02 X52.987979 Y54.811730 Z-0.125000 I-0.173550 J-0.251908
G01 X52.987979 Y54.811730 Z-0.125000
G00 Z5.000000

(End cutting path id: path3284)


(Start cutting path id: path3450)
(Change tool to Default tool)

G00 Z5.000000
G00 X50.516529 Y52.856920

G01 Z-0.125000 F100.0(Penetrate)
G03 X49.954342 Y52.923842 Z-0.125000 I-0.347791 J-0.526838 F400.000000
G03 X49.911363 Y52.790204 Z-0.125000 I0.030121 J-0.083418
G03 X50.192907 Y52.601308 Z-0.125000 I0.378695 J0.260170
G03 X50.516529 Y52.856920 Z-0.125000 I0.056495 J0.261142
G01 X50.516529 Y52.856920 Z-0.125000
G00 Z5.000000

(End cutting path id: path3450)


(Start cutting path id: path3454)
(Change tool to Default tool)

G00 Z5.000000
G00 X51.823754 Y49.728210

G01 Z-0.125000 F100.0(Penetrate)
G03 X51.267011 Y49.834186 Z-0.125000 I-0.360054 J-0.376132 F400.000000
G03 X51.096008 Y49.645695 Z-0.125000 I0.111286 J-0.272775
G03 X51.168022 Y49.539577 Z-0.125000 I0.079303 J-0.023678
G03 X51.823754 Y49.728210 Z-0.125000 I0.083457 J0.943935
G01 X51.823754 Y49.728210 Z-0.125000
G00 Z5.000000

(End cutting path id: path3454)


(Start cutting path id: path3298)
(Change tool to Default tool)

G00 Z5.000000
G00 X55.560034 Y51.812090

G01 Z-0.125000 F100.0(Penetrate)
G01 X55.560039 Y51.812090 Z-0.125000 F400.000000
G01 X55.560034 Y51.812090 Z-0.125000
G00 Z5.000000

(End cutting path id: path3298)


(Start cutting path id: path3320)
(Change tool to Default tool)

G00 Z5.000000
G00 X57.179190 Y47.929990

G01 Z-0.125000 F100.0(Penetrate)
G02 X57.801302 Y50.349464 Z-0.125000 I6.432071 J-0.364141 F400.000000
G02 X58.472032 Y51.270148 Z-0.125000 I2.825391 J-1.353676
G02 X58.707227 Y51.171860 Z-0.125000 I0.095853 J-0.101178
G02 X58.314452 Y48.854970 Z-0.125000 I-6.263525 J-0.129902
G02 X58.218048 Y47.612878 Z-0.125000 I-1.449146 J-0.512313
G02 X57.179190 Y47.929990 Z-0.125000 I-0.487541 J0.263020
G01 X57.179190 Y47.929990 Z-0.125000
G00 Z5.000000

(End cutting path id: path3320)


(Start cutting path id: path3360)
(Change tool to Default tool)

G00 Z5.000000
G00 X55.010627 Y44.988940

G01 Z-0.125000 F100.0(Penetrate)
G02 X53.901759 Y46.866071 Z-0.125000 I0.661254 J1.656702 F400.000000
G02 X54.544035 Y47.576448 Z-0.125000 I0.828033 J-0.103113
G02 X55.344136 Y47.202298 Z-0.125000 I0.159957 J-0.700503
G02 X55.010627 Y44.988940 Z-0.125000 I-1.713579 J-0.873604
G01 X55.010627 Y44.988940 Z-0.125000
G00 Z5.000000

(End cutting path id: path3360)


(Start cutting path id: path3374)
(Change tool to Default tool)

G00 Z5.000000
G00 X51.823754 Y43.868190

G01 Z-0.125000 F100.0(Penetrate)
G02 X52.365643 Y44.243757 Z-0.125000 I0.575284 J-0.251335 F400.000000
G02 X52.561712 Y44.118053 Z-0.125000 I0.010612 J-0.199211
G02 X52.498236 Y43.914287 Z-0.125000 I-0.157895 J-0.062583
G02 X51.823754 Y43.868190 Z-0.125000 I-0.377383 J0.564298
G01 X51.823754 Y43.868190 Z-0.125000
G00 Z5.000000

(End cutting path id: path3374)


(Start cutting path id: path3362)
(Change tool to Default tool)

G00 Z5.000000
G00 X50.680643 Y45.053240

G01 Z-0.125000 F100.0(Penetrate)
G02 X50.270673 Y45.283778 Z-0.125000 I0.025875 J0.525811 F400.000000
G02 X50.318057 Y45.388921 Z-0.125000 I0.056065 J0.037982
G02 X50.691456 Y45.326729 Z-0.125000 I0.083838 J-0.648672
G02 X50.680643 Y45.053240 Z-0.125000 I-0.066325 J-0.134336
G01 X50.680643 Y45.053240 Z-0.125000
G00 Z5.000000

(End cutting path id: path3362)


(Start cutting path id: path3394)
(Change tool to Default tool)

G00 Z5.000000
G00 X50.360162 Y42.385800

G01 Z-0.125000 F100.0(Penetrate)
G02 X50.728164 Y42.738130 Z-0.125000 I0.354330 J-0.001740 F400.000000
G02 X51.145018 Y42.596618 Z-0.125000 I-0.029834 J-0.772603
G02 X51.134163 Y42.473339 Z-0.125000 I-0.041387 J-0.058473
G02 X50.360162 Y42.385800 Z-0.125000 I-0.515762 J1.094714
G01 X50.360162 Y42.385800 Z-0.125000
G00 Z5.000000

(End cutting path id: path3394)


(Start cutting path id: path3492)
(Change tool to Default tool)

G00 Z5.000000
G00 X48.836296 Y37.363850

G01 Z-0.125000 F100.0(Penetrate)
G02 X49.694708 Y37.458161 Z-0.125000 I0.559118 J-1.135297 F400.000000
G02 X49.734200 Y37.315471 Z-0.125000 I-0.020046 J-0.082358
G02 X49.227754 Y37.029599 Z-0.125000 I-0.780139 J0.790537
G02 X48.836296 Y37.363850 Z-0.125000 I-0.077654 J0.305408
G01 X48.836296 Y37.363850 Z-0.125000
G00 Z5.000000

(End cutting path id: path3492)


(Start cutting path id: path3496)
(Change tool to Default tool)

G00 Z5.000000
G00 X47.572487 Y36.708230

G01 Z-0.125000 F100.0(Penetrate)
G02 X47.157207 Y37.209186 Z-0.125000 I0.593562 J0.914655 F400.000000
G02 X47.226104 Y37.276719 Z-0.125000 I0.048180 J0.019757
G02 X47.691675 Y36.960045 Z-0.125000 I-0.598899 J-1.381070
G02 X47.572487 Y36.708230 Z-0.125000 I-0.104609 J-0.104601
G01 X47.572487 Y36.708230 Z-0.125000
G00 Z5.000000

(End cutting path id: path3496)


(Start cutting path id: path3548)
(Change tool to Default tool)

G00 Z5.000000
G00 X48.071684 Y32.736830

G01 Z-0.125000 F100.0(Penetrate)
G02 X48.565778 Y34.086337 Z-0.125000 I2.563197 J-0.173256 F400.000000
G02 X48.754735 Y34.049698 Z-0.125000 I0.085789 J-0.063136
G02 X48.783668 Y33.106556 Z-0.125000 I-2.087165 J-0.536042
G02 X48.071684 Y32.736830 Z-0.125000 I-0.502156 J0.096606
G01 X48.071684 Y32.736830 Z-0.125000
G00 Z5.000000

(End cutting path id: path3548)


(Start cutting path id: path3562)
(Change tool to Default tool)

G00 Z5.000000
G00 X46.293777 Y32.704120

G01 Z-0.125000 F100.0(Penetrate)
G02 X45.054359 Y37.592535 Z-0.125000 I41.557125 J13.137803 F400.000000
G02 X45.283261 Y42.123370 Z-0.125000 I9.335774 J1.799548
G02 X46.531642 Y38.853486 Z-0.125000 I-3.070549 J-3.045524
G03 X46.519809 Y35.728070 Z-0.125000 I32.447406 J-1.685575
G02 X47.449594 Y33.760756 Z-0.125000 I-5.414180 J-3.762203
G02 X46.293777 Y32.704120 Z-0.125000 I-0.842880 J-0.238475
G01 X46.293777 Y32.704120 Z-0.125000
G00 Z5.000000

(End cutting path id: path3562)


(Start cutting path id: path3564)
(Change tool to Default tool)

G00 Z5.000000
G00 X43.093503 Y32.267070

G01 Z-0.125000 F100.0(Penetrate)
G02 X42.324096 Y35.141455 Z-0.125000 I3.653713 J2.518184 F400.000000
G03 X41.651803 Y37.676300 Z-0.125000 I-3.923550 J0.315970
G02 X43.736309 Y38.817250 Z-0.125000 I1.199377 J0.283411
G02 X43.172744 Y35.153670 Z-0.125000 I-1.670263 J-1.618201
G02 X44.366822 Y33.799664 Z-0.125000 I-0.888414 J-1.987003
G02 X43.093504 Y32.267070 Z-0.125000 I-1.141404 J-0.346942
G01 X43.093503 Y32.267070 Z-0.125000
G00 Z5.000000

(End cutting path id: path3564)


(Start cutting path id: path3572)
(Change tool to Default tool)

G00 Z5.000000
G00 X37.074181 Y31.293480

G01 Z-0.125000 F100.0(Penetrate)
G02 X36.314266 Y33.992740 Z-0.125000 I3.016784 J2.305904 F400.000000
G02 X37.336924 Y34.900540 Z-0.125000 I1.007388 J-0.104923
G03 X38.288325 Y32.812914 Z-0.125000 I4.561797 J0.818358
G02 X37.074181 Y31.293480 Z-0.125000 I-0.776083 J-0.624664
G01 X37.074181 Y31.293480 Z-0.125000
G00 Z5.000000

(End cutting path id: path3572)


(Start cutting path id: path3512)
(Change tool to Default tool)

G00 Z5.000000
G00 X37.050677 Y35.691920

G01 Z-0.125000 F100.0(Penetrate)
G02 X36.264722 Y39.070398 Z-0.125000 I1.616930 J2.156815 F400.000000
G03 X35.465866 Y41.567450 Z-0.125000 I-1.661540 J0.844752
G02 X32.615426 Y42.895803 Z-0.125000 I-0.820743 J1.961291
G02 X32.725261 Y44.321800 Z-0.125000 I1.844430 J0.575164
G02 X32.604009 Y45.790203 Z-0.125000 I0.639562 J0.792019
G02 X35.318874 Y45.057820 Z-0.125000 I1.174531 J-1.044190
G03 X37.879477 Y43.083698 Z-0.125000 I1.707404 J-0.433073
G02 X38.649330 Y42.967890 Z-0.125000 I0.309535 J-0.559083
G03 X36.000038 Y46.356471 Z-0.125000 I-8.000427 J-3.525032
G02 X35.349888 Y50.330580 Z-0.125000 I1.808089 J2.336033
G02 X37.209202 Y48.876335 Z-0.125000 I0.777785 J-0.921297
G03 X39.260812 Y44.227850 Z-0.125000 I2.972820 J-1.464927
G02 X38.503672 Y39.054077 Z-0.125000 I-105.154422 J12.746211
G03 X38.551506 Y37.154410 Z-0.125000 I4.828667 J-0.828850
G03 X38.151044 Y36.098015 Z-0.125000 I1.126725 J-1.031225
G02 X37.050677 Y35.691920 Z-0.125000 I-0.621340 J-0.010240
G01 X37.050677 Y35.691920 Z-0.125000
G00 Z5.000000

(End cutting path id: path3512)


(Start cutting path id: path3516)
(Change tool to Default tool)

G00 Z5.000000
G00 X32.148346 Y34.826040

G01 Z-0.125000 F100.0(Penetrate)
G02 X30.579828 Y36.723374 Z-0.125000 I3.266621 J4.297513 F400.000000
G02 X30.390109 Y38.017078 Z-0.125000 I1.889214 J0.937812
G02 X30.971701 Y38.556058 Z-0.125000 I0.642467 J-0.109984
G02 X33.365993 Y37.986730 Z-0.125000 I0.357811 J-3.814459
G02 X34.368063 Y35.700470 Z-0.125000 I-0.990090 J-1.796691
G02 X32.148346 Y34.826040 Z-0.125000 I-1.419516 J0.348843
G01 X32.148346 Y34.826040 Z-0.125000
G00 Z5.000000

(End cutting path id: path3516)


(Start cutting path id: path3536)
(Change tool to Default tool)

G00 Z5.000000
G00 X28.013309 Y33.254330

G01 Z-0.125000 F100.0(Penetrate)
G03 X28.065035 Y35.445867 Z-0.125000 I-109.154570 J3.672725 F400.000000
G02 X28.211704 Y35.716901 Z-0.125000 I0.332084 J-0.004504
G02 X28.423776 Y35.677561 Z-0.125000 I0.085982 J-0.127775
G02 X29.783710 Y33.563890 Z-0.125000 I-25.780045 J-18.081185
G02 X28.503526 Y33.328833 Z-0.125000 I-0.651810 J-0.053706
G03 X28.013309 Y33.254330 Z-0.125000 I-0.240233 J-0.069332
G01 X28.013309 Y33.254330 Z-0.125000
G00 Z5.000000

(End cutting path id: path3536)


(Start cutting path id: path3504)
(Change tool to Default tool)

G00 Z5.000000
G00 X24.548404 Y36.366410

G01 Z-0.125000 F100.0(Penetrate)
G02 X24.015178 Y40.245601 Z-0.125000 I1.354791 J2.162470 F400.000000
G02 X26.084807 Y39.876090 Z-0.125000 I0.918664 J-0.835315
G02 X26.986658 Y37.349737 Z-0.125000 I-2.826979 J-2.433314
G02 X24.548404 Y36.366410 Z-0.125000 I-1.431818 J0.035726
G01 X24.548404 Y36.366410 Z-0.125000
G00 Z5.000000

(End cutting path id: path3504)


(Start cutting path id: path3518)
(Change tool to Default tool)

G00 Z5.000000
G00 X20.729646 Y34.345320

G01 Z-0.125000 F100.0(Penetrate)
G02 X18.462158 Y36.287602 Z-0.125000 I0.149562 J2.469316 F400.000000
G03 X17.551065 Y37.352340 Z-0.125000 I-1.446218 J-0.315346
G02 X17.302549 Y38.133232 Z-0.125000 I0.128436 J0.470865
G02 X18.827992 Y39.284503 Z-0.125000 I3.156402 J-2.596010
G02 X20.419735 Y39.399788 Z-0.125000 I0.959758 J-2.205134
G02 X21.504218 Y37.910020 Z-0.125000 I-0.387138 J-1.421430
G03 X22.258894 Y35.987379 Z-0.125000 I65.430709 J24.573470
G02 X20.729646 Y34.345320 Z-0.125000 I-1.143291 J-0.468377
G01 X20.729646 Y34.345320 Z-0.125000
G00 Z5.000000

(End cutting path id: path3518)


(Start cutting path id: path3598)
(Change tool to Default tool)

G00 Z5.000000
G00 X18.631052 Y29.170240

G01 Z-0.125000 F100.0(Penetrate)
G02 X16.841613 Y30.342608 Z-0.125000 I0.364850 J2.508722 F400.000000
G03 X15.930283 Y31.686361 Z-0.125000 I-16.948759 J-10.513703
G03 X15.148185 Y31.943912 Z-0.125000 I-0.572958 J-0.423623
G03 X13.072518 Y30.427830 Z-0.125000 I1.154141 J-3.759071
G02 X9.350186 Y32.221634 Z-0.125000 I-0.839043 J3.017917
G02 X11.545585 Y35.854340 Z-0.125000 I2.410096 J1.023216
G03 X15.459683 Y34.418071 Z-0.125000 I3.397949 J3.208582
G02 X18.839156 Y32.462490 Z-0.125000 I0.363363 J-3.269920
G02 X20.423492 Y30.712985 Z-0.125000 I-0.697624 J-2.223895
G02 X18.631052 Y29.170240 Z-0.125000 I-1.323353 J-0.275108
G01 X18.631052 Y29.170240 Z-0.125000
G00 Z5.000000

(End cutting path id: path3598)


(Start cutting path id: path3608)
(Change tool to Default tool)

G00 Z5.000000
G00 X24.207186 Y28.469450

G01 Z-0.125000 F100.0(Penetrate)
G02 X22.080982 Y29.913190 Z-0.125000 I0.501265 J3.025722 F400.000000
G02 X21.944755 Y31.266368 Z-0.125000 I1.363015 J0.820663
G02 X22.785424 Y31.889120 Z-0.125000 I0.883447 J-0.313791
G02 X25.906553 Y30.858520 Z-0.125000 I0.210318 J-4.604463
G02 X27.446294 Y32.074690 Z-0.125000 I1.617935 J-0.465614
G02 X28.090780 Y31.570657 Z-0.125000 I0.029142 J-0.626791
G02 X27.834646 Y30.025180 Z-0.125000 I-2.173888 J-0.433682
G02 X26.097760 Y29.679770 Z-0.125000 I-1.020435 J0.591585
G02 X25.582728 Y28.536861 Z-0.125000 I-1.132419 J-0.177195
G02 X24.207186 Y28.469450 Z-0.125000 I-0.746659 J1.167921
G01 X24.207186 Y28.469450 Z-0.125000
G00 Z5.000000

(End cutting path id: path3608)


(Start cutting path id: path3638)
(Change tool to Default tool)

G00 Z5.000000
G00 X28.015764 Y23.146820

G01 Z-0.125000 F100.0(Penetrate)
G02 X27.570213 Y25.402551 Z-0.125000 I1.374182 J1.443296 F400.000000
G02 X28.575007 Y26.104411 Z-0.125000 I1.086292 J-0.484984
G02 X29.828104 Y25.550389 Z-0.125000 I0.100694 J-1.466396
G02 X30.150215 Y22.784750 Z-0.125000 I-2.075656 J-1.643327
G02 X29.054606 Y22.794758 Z-0.125000 I-0.515557 J3.535200
G02 X28.015764 Y23.146820 Z-0.125000 I0.546500 J3.321283
G01 X28.015764 Y23.146820 Z-0.125000
G00 Z5.000000

(End cutting path id: path3638)


(Start cutting path id: path3654)
(Change tool to Default tool)

G00 Z5.000000
G00 X31.956615 Y18.010180

G01 Z-0.125000 F100.0(Penetrate)
G02 X30.784783 Y19.395702 Z-0.125000 I0.807070 J1.870906 F400.000000
G02 X30.904650 Y20.691628 Z-0.125000 I1.934738 J0.474552
G02 X31.533534 Y20.986714 Z-0.125000 I0.487117 J-0.220459
G02 X33.483927 Y19.522830 Z-0.125000 I-0.881526 J-3.205730
G02 X33.256398 Y18.284791 Z-0.125000 I-1.111593 J-0.435637
G02 X31.956615 Y18.010180 Z-0.125000 I-0.839973 J0.762384
G01 X31.956615 Y18.010180 Z-0.125000
G00 Z5.000000

(End cutting path id: path3654)


(Start cutting path id: path3660)
(Change tool to Default tool)

G00 Z5.000000
G00 X35.173198 Y13.873390

G01 Z-0.125000 F100.0(Penetrate)
G02 X33.670887 Y15.637403 Z-0.125000 I1.105971 J2.463618 F400.000000
G02 X33.867011 Y16.745786 Z-0.125000 I1.283875 J0.344367
G02 X34.688905 Y17.059050 Z-0.125000 I0.642707 J-0.451426
G02 X36.479976 Y15.634970 Z-0.125000 I-0.610781 J-2.606541
G02 X36.368333 Y14.308570 Z-0.125000 I-1.182743 J-0.568347
G02 X35.173198 Y13.873390 Z-0.125000 I-0.911763 J0.645284
G01 X35.173198 Y13.873390 Z-0.125000
G00 Z5.000000

(End cutting path id: path3660)


(Start cutting path id: path3672)
(Change tool to Default tool)

G00 Z5.000000
G00 X40.310463 Y8.301940

G01 Z-0.125000 F100.0(Penetrate)
G03 X39.969427 Y8.721351 Z-0.125000 I-0.433538 J-0.004164 F400.000000
G03 X39.749307 Y8.624031 Z-0.125000 I-0.043502 J-0.199202
G03 X39.775731 Y8.385727 Z-0.125000 I0.175384 J-0.101170
G03 X40.310463 Y8.301940 Z-0.125000 I0.320106 J0.294694
G01 X40.310463 Y8.301940 Z-0.125000
G00 Z5.000000

(End cutting path id: path3672)


(Start cutting path id: path3674)
(Change tool to Default tool)

G00 Z5.000000
G00 X41.440949 Y8.083110

G01 Z-0.125000 F100.0(Penetrate)
G03 X40.848656 Y8.104271 Z-0.125000 I-0.309067 J-0.351052 F400.000000
G03 X40.780195 Y7.848188 Z-0.125000 I0.131053 J-0.172229
G03 X41.025561 Y7.689133 Z-0.125000 I0.239481 J0.100653
G03 X41.440949 Y8.083110 Z-0.125000 I-0.009658 J0.426152
G01 X41.440949 Y8.083110 Z-0.125000
G00 Z5.000000

(End cutting path id: path3674)


(Start cutting path id: path3664)
(Change tool to Default tool)

G00 Z5.000000
G00 X45.719833 Y13.113190

G01 Z-0.125000 F100.0(Penetrate)
G02 X45.039393 Y15.917541 Z-0.125000 I3.002061 J2.213137 F400.000000
G02 X45.550106 Y16.229249 Z-0.125000 I0.388553 J-0.062381
G02 X46.358545 Y15.438962 Z-0.125000 I-0.396523 J-1.214279
G02 X45.719833 Y13.113190 Z-0.125000 I-1.996166 J-0.702394
G01 X45.719833 Y13.113190 Z-0.125000
G00 Z5.000000

(End cutting path id: path3664)


(Start cutting path id: path3652)
(Change tool to Default tool)

G00 Z5.000000
G00 X46.002628 Y18.177570

G01 Z-0.125000 F100.0(Penetrate)
G02 X46.086654 Y18.957001 Z-0.125000 I0.587194 J0.330943 F400.000000
G02 X46.379604 Y18.985148 Z-0.125000 I0.161673 J-0.144103
G02 X46.548517 Y18.591832 Z-0.125000 I-0.263897 J-0.346261
G02 X46.002628 Y18.177570 Z-0.125000 I-0.468810 J0.050968
G01 X46.002628 Y18.177570 Z-0.125000
G00 Z5.000000

(End cutting path id: path3652)


(Start cutting path id: path3650)
(Change tool to Default tool)

G00 Z5.000000
G00 X42.063102 Y18.665960

G01 Z-0.125000 F100.0(Penetrate)
G02 X43.349825 Y23.274090 Z-0.125000 I2.005914 J1.923601 F400.000000
G02 X44.754537 Y21.453150 Z-0.125000 I0.322434 J-1.203550
G03 X43.870798 Y20.534713 Z-0.125000 I-0.301984 J-0.593820
G02 X42.063102 Y18.665960 Z-0.125000 I-1.185776 J-0.661660
G01 X42.063102 Y18.665960 Z-0.125000
G00 Z5.000000

(End cutting path id: path3650)


(Start cutting path id: path3628)
(Change tool to Default tool)

G00 Z5.000000
G00 X43.907022 Y24.320850

G01 Z-0.125000 F100.0(Penetrate)
G02 X44.510081 Y24.633019 Z-0.125000 I0.698082 J-0.609989 F400.000000
G02 X44.601018 Y24.540233 Z-0.125000 I0.008513 J-0.082612
G02 X44.458302 Y24.308482 Z-0.125000 I-0.324589 J0.040068
G02 X43.907022 Y24.320850 Z-0.125000 I-0.266832 J0.398795
G01 X43.907022 Y24.320850 Z-0.125000
G00 Z5.000000

(End cutting path id: path3628)


(Start cutting path id: path3626)
(Change tool to Default tool)

G00 Z5.000000
G00 X43.105771 Y24.937520

G01 Z-0.125000 F100.0(Penetrate)
G03 X41.704728 Y27.886108 Z-0.125000 I-8.678015 J-2.316270 F400.000000
G02 X42.437575 Y30.782000 Z-0.125000 I1.577655 J1.141427
G02 X43.390734 Y30.011339 Z-0.125000 I-0.407444 J-1.478697
G02 X44.377812 Y27.317180 Z-0.125000 I-9.921005 J-5.162731
G02 X44.273570 Y25.488279 Z-0.125000 I-3.238296 J-0.732848
G02 X43.105771 Y24.937520 Z-0.125000 I-0.854755 J0.298928
G01 X43.105771 Y24.937520 Z-0.125000
G00 Z5.000000

(End cutting path id: path3626)


(Start cutting path id: path3622)
(Change tool to Default tool)

G00 Z5.000000
G00 X47.483901 Y26.560030

G01 Z-0.125000 F100.0(Penetrate)
G02 X46.849728 Y27.709008 Z-0.125000 I0.333317 J0.933476 F400.000000
G03 X46.064268 Y28.399960 Z-0.125000 I-0.582501 J0.129748
G02 X49.026250 Y30.407255 Z-0.125000 I1.925196 J0.348175
G02 X49.402639 Y29.546830 Z-0.125000 I-0.440776 J-0.705353
G02 X51.397124 Y30.680678 Z-0.125000 I4.384266 J-5.390986
G02 X52.975929 Y30.978188 Z-0.125000 I1.683686 J-4.596978
G02 X53.238805 Y30.617236 Z-0.125000 I0.005828 J-0.271956
G02 X52.015975 Y28.957100 Z-0.125000 I-3.280101 J1.135645
G03 X50.093927 Y26.979518 Z-0.125000 I3.348871 J-5.177658
G02 X47.483901 Y26.560030 Z-0.125000 I-1.483477 J0.900648
G01 X47.483901 Y26.560030 Z-0.125000
G00 Z5.000000

(End cutting path id: path3622)


(Start cutting path id: path3616)
(Change tool to Default tool)

G00 Z5.000000
G00 X50.909992 Y27.549630

G01 Z-0.125000 F100.0(Penetrate)
G02 X55.075982 Y31.885386 Z-0.125000 I72.920121 J-65.895628 F400.000000
G02 X57.497418 Y31.164150 Z-0.125000 I1.010639 J-1.032353
G03 X55.993160 Y30.092246 Z-0.125000 I2.201074 J-4.680332
G03 X56.016208 Y29.785886 Z-0.125000 I0.146840 J-0.143000
G03 X56.633710 Y29.540950 Z-0.125000 I0.749804 J0.989459
G03 X58.305459 Y29.424455 Z-0.125000 I2.400929 J22.400971
G02 X60.178586 Y29.273437 Z-0.125000 I-0.632784 J-19.540702
G02 X60.213716 Y28.818850 Z-0.125000 I-0.029849 J-0.230958
G03 X68.463017 Y29.353157 Z-0.125000 I2.666917 J22.773464
G02 X69.151065 Y28.811850 Z-0.125000 I0.134720 J-0.536697
G03 X61.219842 Y27.991800 Z-0.125000 I3.561164 J-73.206265
G02 X55.781852 Y27.756090 Z-0.125000 I-3.747122 J23.601707
G03 X58.724123 Y28.378886 Z-0.125000 I-3.273287 J22.725447
G03 X59.201702 Y28.603308 Z-0.125000 I-0.434437 J1.544867
G01 X59.168790 Y28.690331 Z-0.125000
G03 X56.183464 Y28.149350 Z-0.125000 I2.968236 J-24.887318
G03 X51.753789 Y26.812550 Z-0.125000 I-0.930794 J-4.923256
G02 X50.909992 Y27.549410 Z-0.125000 I-0.392395 J0.402216
G01 X50.909992 Y27.549630 Z-0.125000
G00 Z5.000000

(End cutting path id: path3616)


(Start cutting path id: path3578)
(Change tool to Default tool)

G00 Z5.000000
G00 X50.519628 Y30.705280

G01 Z-0.125000 F100.0(Penetrate)
G02 X50.882515 Y31.459467 Z-0.125000 I0.299257 J0.320406 F400.000000
G03 X53.096732 Y31.786670 Z-0.125000 I0.563555 J3.841875
G02 X51.263584 Y29.706518 Z-0.125000 I-4.761086 J2.347925
G02 X50.519628 Y30.705280 Z-0.125000 I-0.343987 J0.520231
G01 X50.519628 Y30.705280 Z-0.125000
G00 Z5.000000

(End cutting path id: path3578)


(Start cutting path id: path3560)
(Change tool to Default tool)

G00 Z5.000000
G00 X50.193838 Y32.514220

G01 Z-0.125000 F100.0(Penetrate)
G02 X49.931077 Y36.638840 Z-0.125000 I17.768209 J3.202615 F400.000000
G03 X49.514752 Y40.725590 Z-0.125000 I-13.493435 J0.689981
G02 X50.350344 Y41.024382 Z-0.125000 I0.503728 J-0.090919
G02 X51.231317 Y40.075924 Z-0.125000 I-3.598847 J-4.226156
G03 X51.559664 Y40.091005 Z-0.125000 I0.159171 J0.116459
G03 X51.842891 Y41.578540 Z-0.125000 I-1.885149 J1.129664
G02 X52.872555 Y41.649279 Z-0.125000 I0.542529 J-0.367781
G02 X53.809617 Y40.547101 Z-0.125000 I-18.985401 J-17.090655
G03 X54.363363 Y40.469153 Z-0.125000 I0.318320 J0.255463
G03 X55.353139 Y42.098850 Z-0.125000 I-1.378993 J1.952926
G02 X56.809924 Y41.228950 Z-0.125000 I0.325530 J-1.109606
G02 X56.738739 Y39.449305 Z-0.125000 I-3.538194 J-0.749721
G03 X56.427781 Y37.516916 Z-0.125000 I7.280574 J-2.162797
G03 X57.408473 Y36.817760 Z-0.125000 I0.723904 J-0.021971
G02 X58.938123 Y38.994593 Z-0.125000 I8.640595 J-4.445849
G02 X59.330067 Y39.085321 Z-0.125000 I0.263220 J-0.245147
G02 X59.624488 Y38.691968 Z-0.125000 I-0.164910 J-0.430296
G02 X59.521616 Y37.114595 Z-0.125000 I-5.438210 J-0.437377
G02 X58.246729 Y34.370206 Z-0.125000 I-6.650000 J1.420898
G02 X55.114563 Y33.585320 Z-0.125000 I-2.065521 J1.600616
G03 X52.680375 Y35.171160 Z-0.125000 I-2.121872 J-0.595870
G03 X52.274596 Y33.259440 Z-0.125000 I0.147479 J-1.030229
G03 X51.627687 Y33.018541 Z-0.125000 I-0.230724 J-0.369468
G02 X50.193838 Y32.514220 Z-0.125000 I-0.903821 J0.279210
G01 X50.193838 Y32.514220 Z-0.125000
G00 Z5.000000

(End cutting path id: path3560)


(Start cutting path id: path3556)
(Change tool to Default tool)

G00 Z5.000000
G00 X52.710225 Y35.746470

G01 Z-0.125000 F100.0(Penetrate)
G02 X53.244930 Y36.683797 Z-0.125000 I0.661912 J0.243584 F400.000000
G02 X54.192928 Y36.547655 Z-0.125000 I0.271296 J-1.479555
G03 X54.735667 Y36.471971 Z-0.125000 I0.382551 J0.759454
G03 X54.912444 Y36.943420 Z-0.125000 I-0.055568 J0.289703
G03 X54.976781 Y38.985568 Z-0.125000 I-10.688629 J1.358826
G03 X54.815838 Y39.150466 Z-0.125000 I-0.176434 J-0.011212
G03 X54.512436 Y39.018676 Z-0.125000 I-0.030368 J-0.345223
G03 X53.683168 Y37.860030 Z-0.125000 I13.276598 J-10.378437
G03 X53.349697 Y38.545923 Z-0.125000 I-0.513127 J0.174536
G03 X51.888714 Y38.582320 Z-0.125000 I-0.786732 J-2.239287
G03 X51.410190 Y37.978562 Z-0.125000 I0.190320 J-0.642356
G03 X52.216859 Y35.447420 Z-0.125000 I3.703748 J-0.213738
G01 X52.237504 Y35.394792 Z-0.125000
G03 X52.710225 Y35.746470 Z-0.125000 I-0.146650 J0.690677
G01 X52.710225 Y35.746470 Z-0.125000
G00 Z5.000000

(End cutting path id: path3556)


(Start cutting path id: path3554)
(Change tool to Default tool)

G00 Z5.000000
G00 X54.174041 Y36.061560

G01 Z-0.125000 F100.0(Penetrate)
G03 X53.911624 Y35.758655 Z-0.125000 I-0.013900 J-0.253082 F400.000000
G03 X54.102103 Y35.375445 Z-0.125000 I0.805670 J0.161524
G03 X54.207389 Y35.399061 Z-0.125000 I0.046130 J0.040847
G03 X54.174041 Y36.061560 Z-0.125000 I-0.972158 J0.283153
G01 X54.174041 Y36.061560 Z-0.125000
G00 Z5.000000

(End cutting path id: path3554)


(Start cutting path id: path3552)
(Change tool to Default tool)

G00 Z5.000000
G00 X55.633478 Y37.736600

G01 Z-0.125000 F100.0(Penetrate)
G03 X55.338095 Y37.925676 Z-0.125000 I-0.237569 J-0.045873 F400.000000
G03 X55.182212 Y37.776080 Z-0.125000 I0.051629 J-0.209814
G03 X55.249505 Y37.637840 Z-0.125000 I0.110041 J-0.031933
G03 X55.633478 Y37.736600 Z-0.125000 I0.124837 J0.310453
G01 X55.633478 Y37.736600 Z-0.125000
G00 Z5.000000

(End cutting path id: path3552)


(Start cutting path id: path3484)
(Change tool to Default tool)

G00 Z5.000000
G00 X56.829923 Y38.783640

G01 Z-0.125000 F100.0(Penetrate)
G02 X57.062905 Y38.849251 Z-0.125000 I0.169795 J-0.156475 F400.000000
G01 X57.094173 Y38.780914 Z-0.125000
G02 X56.976439 Y38.676207 Z-0.125000 I-0.179814 J0.083641
G02 X56.829923 Y38.783640 Z-0.125000 I-0.034933 J0.105984
G01 X56.829923 Y38.783640 Z-0.125000
G00 Z5.000000

(End cutting path id: path3484)


(Start cutting path id: path3480)
(Change tool to Default tool)

G00 Z5.000000
G00 X60.114693 Y40.207240

G01 Z-0.125000 F100.0(Penetrate)
G02 X61.227225 Y42.475749 Z-0.125000 I2.726214 J0.070060 F400.000000
G02 X62.633744 Y42.904920 Z-0.125000 I1.315658 J-1.792427
G02 X63.164571 Y42.374476 Z-0.125000 I-0.022637 J-0.553480
G02 X62.243571 Y40.345640 Z-0.125000 I-2.468777 J-0.102751
G03 X61.202835 Y39.614176 Z-0.125000 I0.772809 J-2.205680
G02 X60.114693 Y40.207240 Z-0.125000 I-0.489027 J0.397526
G01 X60.114693 Y40.207240 Z-0.125000
G00 Z5.000000

(End cutting path id: path3480)


(Start cutting path id: path3396)
(Change tool to Default tool)

G00 Z5.000000
G00 X58.950198 Y41.936400

G01 Z-0.125000 F100.0(Penetrate)
G02 X58.558036 Y44.700153 Z-0.125000 I2.749201 J1.799797 F400.000000
G02 X59.341986 Y45.623288 Z-0.125000 I1.464770 J-0.449478
G02 X60.031528 Y45.422659 Z-0.125000 I0.235697 J-0.475193
G02 X60.245407 Y43.135110 Z-0.125000 I-2.255774 J-1.364681
G02 X60.071887 Y42.183128 Z-0.125000 I-5.750202 J0.556296
G02 X58.950198 Y41.936400 Z-0.125000 I-0.625172 J0.169085
G01 X58.950198 Y41.936400 Z-0.125000
G00 Z5.000000

(End cutting path id: path3396)


(Start cutting path id: path3366)
(Change tool to Default tool)

G00 Z5.000000
G00 X62.180718 Y45.129440

G01 Z-0.125000 F100.0(Penetrate)
G02 X63.991240 Y48.408017 Z-0.125000 I5.761196 J-1.042295 F400.000000
G02 X64.570488 Y48.273721 Z-0.125000 I0.243458 J-0.266271
G02 X64.571044 Y46.745951 Z-0.125000 I-1.945385 J-0.764593
G02 X62.180718 Y45.129440 Z-0.125000 I-2.370477 J0.929676
G01 X62.180718 Y45.129440 Z-0.125000
G00 Z5.000000

(End cutting path id: path3366)


(Start cutting path id: path3330)
(Change tool to Default tool)

G00 Z5.000000
G00 X65.566791 Y46.410100

G01 Z-0.125000 F100.0(Penetrate)
G02 X66.360880 Y47.408653 Z-0.125000 I2.252056 J-0.975901 F400.000000
G02 X66.497986 Y47.334663 Z-0.125000 I0.051142 J-0.069259
G02 X66.291386 Y46.616610 Z-0.125000 I-1.670738 J0.091962
G02 X65.566791 Y46.410100 Z-0.125000 I-0.465051 J0.257283
G01 X65.566791 Y46.410100 Z-0.125000
G00 Z5.000000

(End cutting path id: path3330)


(Start cutting path id: path3300)
(Change tool to Default tool)

G00 Z5.000000
G00 X65.331100 Y51.332920

G01 Z-0.125000 F100.0(Penetrate)
G02 X66.292303 Y53.552981 Z-0.125000 I0.968476 J0.898799 F400.000000
G02 X66.927859 Y51.687990 Z-0.125000 I0.005718 J-1.038840
G01 X65.955781 Y51.148340 Z-0.125000
G01 X65.331100 Y51.332920 Z-0.125000
G00 Z5.000000

(End cutting path id: path3300)


(Start cutting path id: path3294)
(Change tool to Default tool)

G00 Z5.000000
G00 X69.908054 Y52.677430

G01 Z-0.125000 F100.0(Penetrate)
G02 X70.664401 Y54.404183 Z-0.125000 I1.771681 J0.252997 F400.000000
G02 X71.297823 Y54.348153 Z-0.125000 I0.282870 J-0.410585
G02 X71.440383 Y53.623492 Z-0.125000 I-0.461957 J-0.467232
G02 X69.908054 Y52.677430 Z-0.125000 I-1.435675 J0.611370
G01 X69.908054 Y52.677430 Z-0.125000
G00 Z5.000000

(End cutting path id: path3294)


(Start cutting path id: path3270)
(Change tool to Default tool)

G00 Z5.000000
G00 X72.360688 Y57.225740

G01 Z-0.125000 F100.0(Penetrate)
G02 X72.379591 Y59.119468 Z-0.125000 I1.371621 J0.933267 F400.000000
G02 X73.069079 Y59.305231 Z-0.125000 I0.457235 J-0.324647
G02 X73.521686 Y58.586606 Z-0.125000 I-0.320089 J-0.703444
G02 X72.360688 Y57.225740 Z-0.125000 I-1.410553 J0.027712
G01 X72.360688 Y57.225740 Z-0.125000
G00 Z5.000000

(End cutting path id: path3270)


(Start cutting path id: path3258)
(Change tool to Default tool)

G00 Z5.000000
G00 X73.968556 Y59.430400

G01 Z-0.125000 F100.0(Penetrate)
G02 X74.936077 Y61.392919 Z-0.125000 I2.566898 J-0.045726 F400.000000
G02 X75.429940 Y61.275411 Z-0.125000 I0.200892 J-0.252249
G02 X75.476070 Y60.098525 Z-0.125000 I-1.400824 J-0.644254
G02 X73.968556 Y59.430400 Z-0.125000 I-1.077618 J0.396678
G01 X73.968556 Y59.430400 Z-0.125000
G00 Z5.000000

(End cutting path id: path3258)


(Start cutting path id: path3240)
(Change tool to Default tool)

G00 Z5.000000
G00 X77.494922 Y61.062640

G01 Z-0.125000 F100.0(Penetrate)
G02 X77.998689 Y63.044827 Z-0.125000 I1.763971 J0.606801 F400.000000
G02 X78.929682 Y63.275555 Z-0.125000 I0.677278 J-0.739181
G02 X79.369401 Y62.697618 Z-0.125000 I-0.149003 J-0.569615
G02 X78.326569 Y60.983640 Z-0.125000 I-1.975850 J0.027929
G01 X77.494922 Y61.062640 Z-0.125000
G00 Z5.000000

(End cutting path id: path3240)


(Start cutting path id: path3260)
(Change tool to Default tool)

G00 Z5.000000
G00 X79.183049 Y58.343430

G01 Z-0.125000 F100.0(Penetrate)
G02 X79.384752 Y58.485820 Z-0.125000 I0.148814 J0.003255 F400.000000
G02 X79.575053 Y58.325606 Z-0.125000 I-0.133845 J-0.352105
G02 X79.538636 Y58.245323 Z-0.125000 I-0.046291 J-0.027404
G02 X79.183049 Y58.343430 Z-0.125000 I-0.077223 J0.413569
G01 X79.183049 Y58.343430 Z-0.125000
G00 Z5.000000

(End cutting path id: path3260)


(Start cutting path id: path3338)
(Change tool to Default tool)

G00 Z5.000000
G00 X79.998006 Y54.953450

G01 Z-0.125000 F100.0(Penetrate)
G03 X79.678959 Y55.171833 Z-0.125000 I-0.370336 J-0.198795 F400.000000
G03 X79.596297 Y55.108760 Z-0.125000 I-0.009075 J-0.073811
G03 X79.653554 Y54.966511 Z-0.125000 I0.150698 J-0.021990
G03 X79.998006 Y54.953450 Z-0.125000 I0.181323 J0.233359
G01 X79.998006 Y54.953450 Z-0.125000
G00 Z5.000000

(End cutting path id: path3338)


(Start cutting path id: path3336)
(Change tool to Default tool)

G00 Z5.000000
G00 X82.525013 Y56.114760

G01 Z-0.125000 F100.0(Penetrate)
G03 X81.318983 Y56.497911 Z-0.125000 I-1.253637 J-1.856362 F400.000000
G03 X81.161208 Y56.373045 Z-0.125000 I-0.003356 J-0.157871
G03 X81.255318 Y56.202706 Z-0.125000 I0.145085 J-0.031010
G03 X82.525013 Y56.114760 Z-0.125000 I0.786862 J2.150706
G01 X82.525013 Y56.114760 Z-0.125000
G00 Z5.000000

(End cutting path id: path3336)


(Start cutting path id: path3264)
(Change tool to Default tool)

G00 Z5.000000
G00 X84.787187 Y58.084930

G01 Z-0.125000 F100.0(Penetrate)
G02 X81.513386 Y59.098738 Z-0.125000 I2.550967 J14.030416 F400.000000
G02 X81.862117 Y60.383920 Z-0.125000 I0.275296 J0.615204
G02 X83.884564 Y60.373932 Z-0.125000 I0.985362 J-5.241829
G02 X84.787187 Y58.084930 Z-0.125000 I-0.284376 J-1.434605
G01 X84.787187 Y58.084930 Z-0.125000
G00 Z5.000000

(End cutting path id: path3264)


(Start cutting path id: path3234)
(Change tool to Default tool)

G00 Z5.000000
G00 X82.559302 Y61.587330

G01 Z-0.125000 F100.0(Penetrate)
G02 X81.839099 Y63.829981 Z-0.125000 I2.338782 J1.988042 F400.000000
G02 X82.223140 Y64.145085 Z-0.125000 I0.344841 J-0.028702
G02 X82.816628 Y63.695656 Z-0.125000 I-0.082759 J-0.725863
G02 X82.559302 Y61.587330 Z-0.125000 I-2.015464 J-0.823874
G01 X82.559302 Y61.587330 Z-0.125000
G00 Z5.000000

(End cutting path id: path3234)


(Start cutting path id: path3218)
(Change tool to Default tool)

G00 Z5.000000
G00 X84.887753 Y64.630180

G01 Z-0.125000 F100.0(Penetrate)
G02 X85.243671 Y64.751768 Z-0.125000 I0.262618 J-0.187023 F400.000000
G02 X85.333933 Y64.630188 Z-0.125000 I-0.036758 J-0.121584
G02 X85.243679 Y64.508606 Z-0.125000 I-0.127013 J-0.000004
G02 X84.887753 Y64.630180 Z-0.125000 I-0.093313 J0.308615
G01 X84.887753 Y64.630180 Z-0.125000
G00 Z5.000000

(End cutting path id: path3218)


(Start cutting path id: path3222)
(Change tool to Default tool)

G00 Z5.000000
G00 X85.727622 Y63.834250

G01 Z-0.125000 F100.0(Penetrate)
G02 X85.886971 Y64.134204 Z-0.125000 I0.253496 J0.057635 F400.000000
G02 X86.028679 Y64.079031 Z-0.125000 I0.040755 J-0.104896
G02 X86.018336 Y63.858688 Z-0.125000 I-0.204670 J-0.100806
G02 X85.727622 Y63.834250 Z-0.125000 I-0.154366 J0.094956
G01 X85.727622 Y63.834250 Z-0.125000
G00 Z5.000000

(End cutting path id: path3222)


(Start cutting path id: path3208)
(Change tool to Default tool)

G00 Z5.000000
G00 X86.557922 Y65.249380

G01 Z-0.125000 F100.0(Penetrate)
G02 X87.063499 Y65.444582 Z-0.125000 I0.401311 J-0.287076 F400.000000
G02 X87.171091 Y65.290926 Z-0.125000 I-0.029169 J-0.134921
G02 X87.006471 Y65.078739 Z-0.125000 I-0.266034 J0.036444
G02 X86.557922 Y65.249380 Z-0.125000 I-0.132839 J0.325671
G01 X86.557922 Y65.249380 Z-0.125000
G00 Z5.000000

(End cutting path id: path3208)


(Start cutting path id: path3202)
(Change tool to Default tool)

G00 Z5.000000
G00 X85.877344 Y65.715830

G01 Z-0.125000 F100.0(Penetrate)
G02 X85.904796 Y66.106926 Z-0.125000 I0.278273 J0.176978 F400.000000
G02 X86.055518 Y66.124168 Z-0.125000 I0.084610 J-0.072229
G02 X86.148374 Y65.920234 Z-0.125000 I-0.137092 J-0.185527
G02 X85.877344 Y65.715830 Z-0.125000 I-0.226252 J0.018111
G01 X85.877344 Y65.715830 Z-0.125000
G00 Z5.000000

(End cutting path id: path3202)


(Start cutting path id: path3216)
(Change tool to Default tool)

G00 Z5.000000
G00 X87.449048 Y64.643880

G01 Z-0.125000 F100.0(Penetrate)
G02 X87.717335 Y64.689909 Z-0.125000 I0.158209 J-0.117252 F400.000000
G02 X87.811948 Y64.539964 Z-0.125000 I-0.122982 J-0.182421
G02 X87.756390 Y64.478496 Z-0.125000 I-0.053026 J-0.007914
G02 X87.449048 Y64.643880 Z-0.125000 I0.019082 J0.403729
G01 X87.449048 Y64.643880 Z-0.125000
G00 Z5.000000

(End cutting path id: path3216)


(Start cutting path id: path3230)
(Change tool to Default tool)

G00 Z5.000000
G00 X86.983358 Y62.753500

G01 Z-0.125000 F100.0(Penetrate)
G02 X87.232857 Y62.973021 Z-0.125000 I0.341364 J-0.136436 F400.000000
G02 X87.296284 Y62.919715 Z-0.125000 I0.012713 J-0.049261
G02 X87.203221 Y62.712374 Z-0.125000 I-0.337472 J0.026916
G02 X86.983358 Y62.753500 Z-0.125000 I-0.096481 J0.092473
G01 X86.983358 Y62.753500 Z-0.125000
G00 Z5.000000

(End cutting path id: path3230)


(Start cutting path id: path3224)
(Change tool to Default tool)

G00 Z5.000000
G00 X89.096169 Y63.328790

G01 Z-0.125000 F100.0(Penetrate)
G02 X89.285971 Y63.598930 Z-0.125000 I0.204670 J0.057946 F400.000000
G02 X89.494231 Y63.499595 Z-0.125000 I0.016371 J-0.233657
G02 X89.474159 Y63.337872 Z-0.125000 I-0.099631 J-0.069742
G02 X89.096169 Y63.328790 Z-0.125000 I-0.194508 J0.224877
G01 X89.096169 Y63.328790 Z-0.125000
G00 Z5.000000

(End cutting path id: path3224)


(Start cutting path id: path3246)
(Change tool to Default tool)

G00 Z5.000000
G00 X89.078964 Y60.555220

G01 Z-0.125000 F100.0(Penetrate)
G02 X89.408870 Y60.697468 Z-0.125000 I0.245415 J-0.115486 F400.000000
G02 X89.511938 Y60.555213 Z-0.125000 I-0.046633 J-0.142253
G02 X89.408865 Y60.412960 Z-0.125000 I-0.149702 J0.000003
G02 X89.078964 Y60.555220 Z-0.125000 I-0.084481 J0.257738
G01 X89.078964 Y60.555220 Z-0.125000
G00 Z5.000000

(End cutting path id: path3246)


(Start cutting path id: path3236)
(Change tool to Default tool)

G00 Z5.000000
G00 X91.229395 Y61.392940

G01 Z-0.125000 F100.0(Penetrate)
G02 X90.409481 Y62.983673 Z-0.125000 I1.273073 J1.662854 F400.000000
G02 X90.622192 Y63.729640 Z-0.125000 I1.261894 J0.043482
G02 X90.854522 Y63.705538 Z-0.125000 I0.109789 J-0.073510
G02 X91.229395 Y61.392940 Z-0.125000 I-4.922027 J-1.984545
G01 X91.229395 Y61.392940 Z-0.125000
G00 Z5.000000

(End cutting path id: path3236)


(Start cutting path id: path3242)
(Change tool to Default tool)

G00 Z5.000000
G00 X92.723392 Y61.044140

G01 Z-0.125000 F100.0(Penetrate)
G02 X92.933453 Y61.350254 Z-0.125000 I0.206989 J0.083091 F400.000000
G02 X93.208799 Y61.205221 Z-0.125000 I-0.004723 J-0.342855
G02 X93.177269 Y61.015727 Z-0.125000 I-0.111571 J-0.078806
G02 X92.723392 Y61.044140 Z-0.125000 I-0.209676 J0.289960
G01 X92.723392 Y61.044140 Z-0.125000
G00 Z5.000000

(End cutting path id: path3242)


(Start cutting path id: path3254)
(Change tool to Default tool)

G00 Z5.000000
G00 X91.999472 Y59.491300

G01 Z-0.125000 F100.0(Penetrate)
G02 X92.200696 Y59.717408 Z-0.125000 I0.259410 J-0.028267 F400.000000
G02 X92.296575 Y59.659383 Z-0.125000 I0.017966 J-0.078541
G02 X92.256032 Y59.488842 Z-0.125000 I-0.179808 J-0.047344
G02 X91.999472 Y59.491300 Z-0.125000 I-0.127214 J0.112536
G01 X91.999472 Y59.491300 Z-0.125000
G00 Z5.000000

(End cutting path id: path3254)


(Start cutting path id: path3266)
(Change tool to Default tool)

G00 Z5.000000
G00 X91.873104 Y57.877750

G01 Z-0.125000 F100.0(Penetrate)
G02 X92.185176 Y58.030424 Z-0.125000 I0.232960 J-0.080899 F400.000000
G02 X92.294658 Y57.877750 Z-0.125000 I-0.051712 J-0.152674
G02 X92.185176 Y57.725076 Z-0.125000 I-0.161193 J0.000000
G02 X91.873104 Y57.877750 Z-0.125000 I-0.079113 J0.233572
G01 X91.873104 Y57.877750 Z-0.125000
G00 Z5.000000

(End cutting path id: path3266)


(Start cutting path id: path3268)
(Change tool to Default tool)

G00 Z5.000000
G00 X89.984382 Y57.805750

G01 Z-0.125000 F100.0(Penetrate)
G01 X89.984380 Y57.805750 Z-0.125000 F400.000000
G01 X89.984382 Y57.805750 Z-0.125000
G00 Z5.000000

(End cutting path id: path3268)


(Start cutting path id: path3288)
(Change tool to Default tool)

G00 Z5.000000
G00 X91.640259 Y54.489660

G01 Z-0.125000 F100.0(Penetrate)
G02 X92.405260 Y55.591447 Z-0.125000 I1.666939 J-0.340928 F400.000000
G02 X92.657571 Y55.475745 Z-0.125000 I0.088078 J-0.140887
G02 X92.515743 Y54.634123 Z-0.125000 I-1.344528 J-0.206185
G02 X91.640259 Y54.489660 Z-0.125000 I-0.492607 J0.260265
G01 X91.640259 Y54.489660 Z-0.125000
G00 Z5.000000

(End cutting path id: path3288)


(Start cutting path id: path3296)
(Change tool to Default tool)

G00 Z5.000000
G00 X91.640259 Y52.494720

G01 Z-0.125000 F100.0(Penetrate)
G02 X92.010793 Y52.824353 Z-0.125000 I0.604319 J-0.306232 F400.000000
G02 X92.084574 Y52.767660 Z-0.125000 I0.018988 J-0.051645
G02 X91.967102 Y52.490060 Z-0.125000 I-0.494373 J0.045548
G02 X91.640259 Y52.494720 Z-0.125000 I-0.161481 J0.138450
G01 X91.640259 Y52.494720 Z-0.125000
G00 Z5.000000

(End cutting path id: path3296)


(Start cutting path id: path3292)
(Change tool to Default tool)

G00 Z5.000000
G00 X93.858358 Y52.745230

G01 Z-0.125000 F100.0(Penetrate)
G02 X93.259176 Y53.561375 Z-0.125000 I0.149806 J0.738002 F400.000000
G02 X93.600561 Y53.924658 Z-0.125000 I0.409442 J-0.042718
G02 X94.093192 Y53.697904 Z-0.125000 I0.079688 J-0.475383
G02 X93.858358 Y52.745230 Z-0.125000 I-0.595435 J-0.358506
G01 X93.858358 Y52.745230 Z-0.125000
G00 Z5.000000

(End cutting path id: path3292)


(Start cutting path id: path3286)
(Change tool to Default tool)

G00 Z5.000000
G00 X95.252182 Y54.147560

G01 Z-0.125000 F100.0(Penetrate)
G02 X95.524304 Y54.656689 Z-0.125000 I0.722705 J-0.058988 F400.000000
G02 X95.639754 Y54.620086 Z-0.125000 I0.045385 J-0.057224
G02 X95.624600 Y54.261972 Z-0.125000 I-0.532857 J-0.156829
G02 X95.252182 Y54.147560 Z-0.125000 I-0.231427 J0.089980
G01 X95.252182 Y54.147560 Z-0.125000
G00 Z5.000000

(End cutting path id: path3286)


(Start cutting path id: path3278)
(Change tool to Default tool)

G00 Z5.000000
G00 X93.208604 Y55.921280

G01 Z-0.125000 F100.0(Penetrate)
G02 X93.241517 Y56.725967 Z-0.125000 I0.711126 J0.373930 F400.000000
G02 X93.485988 Y56.813094 Z-0.125000 I0.178068 J-0.113097
G02 X93.639176 Y56.593233 Z-0.125000 I-0.070431 J-0.212369
G02 X93.208604 Y55.921280 Z-0.125000 I-0.780416 J0.026146
G01 X93.208604 Y55.921280 Z-0.125000
G00 Z5.000000

(End cutting path id: path3278)




(Start cutting path id: path3370)
(Change tool to Default tool)

G00 Z5.000000
G00 X92.105949 Y44.256270

G01 Z-0.125000 F100.0(Penetrate)
G02 X92.529159 Y44.446353 Z-0.125000 I0.333993 J-0.177449 F400.000000
G02 X92.649846 Y44.291509 Z-0.125000 I-0.037261 J-0.153496
G02 X92.524003 Y44.107198 Z-0.125000 I-0.200399 J0.001711
G02 X92.105949 Y44.256270 Z-0.125000 I-0.124677 J0.311083
G01 X92.105949 Y44.256270 Z-0.125000
G00 Z5.000000

(End cutting path id: path3370)


(Start cutting path id: path3378)
(Change tool to Default tool)

G00 Z5.000000
G00 X90.818074 Y43.453000

G01 Z-0.125000 F100.0(Penetrate)
G02 X90.992657 Y43.762113 Z-0.125000 I0.219828 J0.079702 F400.000000
G02 X91.233779 Y43.694069 Z-0.125000 I0.053545 J-0.271500
G02 X91.238342 Y43.545973 Z-0.125000 I-0.070331 J-0.076285
G02 X90.818074 Y43.453000 Z-0.125000 I-0.279759 J0.268243
G01 X90.818074 Y43.453000 Z-0.125000
G00 Z5.000000

(End cutting path id: path3378)


(Start cutting path id: path3392)
(Change tool to Default tool)

G00 Z5.000000
G00 X90.941724 Y42.393800

G01 Z-0.125000 F100.0(Penetrate)
G02 X91.238681 Y42.526819 Z-0.125000 I0.230146 J-0.115809 F400.000000
G02 X91.324184 Y42.411331 Z-0.125000 I-0.029958 J-0.111576
G02 X91.228491 Y42.276830 Z-0.125000 I-0.149489 J0.005065
G02 X90.941724 Y42.393800 Z-0.125000 I-0.081255 J0.210802
G01 X90.941724 Y42.393800 Z-0.125000
G00 Z5.000000

(End cutting path id: path3392)


(Start cutting path id: path3464)
(Change tool to Default tool)

G00 Z5.000000
G00 X92.338795 Y41.861310

G01 Z-0.125000 F100.0(Penetrate)
G02 X92.812882 Y42.036439 Z-0.125000 I0.312839 J-0.117621 F400.000000
G02 X93.056461 Y41.730608 Z-0.125000 I-0.245237 J-0.445234
G02 X92.956837 Y41.589884 Z-0.125000 I-0.106356 J-0.030331
G02 X92.338795 Y41.861310 Z-0.125000 I-0.044943 J0.737023
G01 X92.338795 Y41.861310 Z-0.125000
G00 Z5.000000

(End cutting path id: path3464)


(Start cutting path id: path3386)
(Change tool to Default tool)

G00 Z5.000000
G00 X93.619442 Y42.743070

G01 Z-0.125000 F100.0(Penetrate)
G02 X93.852423 Y42.808673 Z-0.125000 I0.169786 J-0.156473 F400.000000
G01 X93.883689 Y42.740333 Z-0.125000
G02 X93.765955 Y42.635631 Z-0.125000 I-0.179804 J0.083640
G02 X93.619442 Y42.743070 Z-0.125000 I-0.034929 J0.105986
G01 X93.619442 Y42.743070 Z-0.125000
G00 Z5.000000

(End cutting path id: path3386)


(Start cutting path id: path3472)
(Change tool to Default tool)

G00 Z5.000000
G00 X93.326186 Y40.410400

G01 Z-0.125000 F100.0(Penetrate)
G02 X93.445603 Y40.812356 Z-0.125000 I0.375856 J0.107054 F400.000000
G02 X93.577328 Y40.788828 Z-0.125000 I0.056382 J-0.064839
G02 X93.613132 Y40.487950 Z-0.125000 I-0.355394 J-0.194860
G02 X93.326186 Y40.410400 Z-0.125000 I-0.166119 J0.045019
G01 X93.326186 Y40.410400 Z-0.125000
G00 Z5.000000

(End cutting path id: path3472)


(Start cutting path id: path3474)
(Change tool to Default tool)

G00 Z5.000000
G00 X91.293339 Y40.176910

G01 Z-0.125000 F100.0(Penetrate)
G02 X91.603123 Y40.804481 Z-0.125000 I0.705852 J0.041819 F400.000000
G02 X91.800537 Y40.757680 Z-0.125000 I0.077191 J-0.114159
G02 X91.822050 Y40.386035 Z-0.125000 I-0.371118 J-0.207927
G02 X91.293339 Y40.176910 Z-0.125000 I-0.366094 J0.152652
G01 X91.293339 Y40.176910 Z-0.125000
G00 Z5.000000

(End cutting path id: path3474)


(Start cutting path id: path3486)
(Change tool to Default tool)

G00 Z5.000000
G00 X91.103945 Y38.330030

G01 Z-0.125000 F100.0(Penetrate)
G02 X91.416349 Y38.515379 Z-0.125000 I0.231252 J-0.033822 F400.000000
G02 X91.637007 Y38.313875 Z-0.125000 I-0.137988 J-0.372672
G02 X91.580641 Y38.199156 Z-0.125000 I-0.073515 J-0.035086
G02 X91.103945 Y38.330030 Z-0.125000 I-0.112672 J0.523200
G01 X91.103945 Y38.330030 Z-0.125000
G00 Z5.000000

(End cutting path id: path3486)


(Start cutting path id: path3488)
(Change tool to Default tool)

G00 Z5.000000
G00 X88.887258 Y38.234830

G01 Z-0.125000 F100.0(Penetrate)
G02 X89.869501 Y38.775709 Z-0.125000 I0.999335 J-0.652483 F400.000000
G02 X90.088046 Y38.559813 Z-0.125000 I0.003086 J-0.215438
G02 X89.851975 Y38.130231 Z-0.125000 I-0.510870 J0.001087
G02 X88.887258 Y38.234830 Z-0.125000 I-0.417146 J0.653756
G01 X88.887258 Y38.234830 Z-0.125000
G00 Z5.000000

(End cutting path id: path3488)


(Start cutting path id: path3494)
(Change tool to Default tool)

G00 Z5.000000
G00 X88.147583 Y36.896480

G01 Z-0.125000 F100.0(Penetrate)
G02 X89.207618 Y37.358985 Z-0.125000 I0.951255 J-0.734200 F400.000000
G02 X89.495952 Y37.121649 Z-0.125000 I-0.030023 J-0.330288
G02 X89.364403 Y36.844830 Z-0.125000 I-0.221152 J-0.064571
G02 X88.147583 Y36.896480 Z-0.125000 I-0.553821 J1.311879
G01 X88.147583 Y36.896480 Z-0.125000
G00 Z5.000000

(End cutting path id: path3494)


(Start cutting path id: path3490)
(Change tool to Default tool)

G00 Z5.000000
G00 X86.180003 Y37.367850

G01 Z-0.125000 F100.0(Penetrate)
G02 X87.191088 Y38.289991 Z-0.125000 I1.412059 J-0.532884 F400.000000
G02 X87.547394 Y38.140046 Z-0.125000 I0.082983 J-0.301121
G02 X87.487863 Y37.752284 Z-0.125000 I-0.280842 J-0.155335
G02 X86.180003 Y37.367850 Z-0.125000 I-1.027681 J1.079299
G01 X86.180003 Y37.367850 Z-0.125000
G00 Z5.000000

(End cutting path id: path3490)


(Start cutting path id: path3482)
(Change tool to Default tool)

G00 Z5.000000
G00 X86.983358 Y38.980400

G01 Z-0.125000 F100.0(Penetrate)
G02 X87.989571 Y39.758050 Z-0.125000 I1.442878 J-0.827159 F400.000000
G02 X88.207243 Y39.613921 Z-0.125000 I0.045596 J-0.167573
G02 X88.051050 Y39.173707 Z-0.125000 I-0.504665 J-0.068756
G02 X86.983358 Y38.980400 Z-0.125000 I-0.683198 J0.728265
G01 X86.983358 Y38.980400 Z-0.125000
G00 Z5.000000

(End cutting path id: path3482)


(Start cutting path id: path3478)
(Change tool to Default tool)

G00 Z5.000000
G00 X86.110080 Y39.773230

G01 Z-0.125000 F100.0(Penetrate)
G02 X86.847768 Y40.112377 Z-0.125000 I1.035461 J-1.280402 F400.000000
G02 X86.895862 Y40.029719 Z-0.125000 I0.009188 J-0.049975
G02 X86.378810 Y39.582170 Z-0.125000 I-1.657282 J1.392207
G02 X86.110080 Y39.773230 Z-0.125000 I-0.094210 J0.152008
G01 X86.110080 Y39.773230 Z-0.125000
G00 Z5.000000

(End cutting path id: path3478)


(Start cutting path id: path3476)
(Change tool to Default tool)

G00 Z5.000000
G00 X89.230543 Y39.890980

G01 Z-0.125000 F100.0(Penetrate)
G02 X90.118187 Y41.828436 Z-0.125000 I4.071880 J-0.693463 F400.000000
G02 X90.368926 Y41.772419 Z-0.125000 I0.111116 J-0.091808
G02 X90.358411 Y40.728771 Z-0.125000 I-1.958913 J-0.502140
G02 X89.230543 Y39.890980 Z-0.125000 I-1.102751 J0.306481
G01 X89.230543 Y39.890980 Z-0.125000
G00 Z5.000000

(End cutting path id: path3476)


(Start cutting path id: path3382)
(Change tool to Default tool)

G00 Z5.000000
G00 X89.483739 Y43.033820

G01 Z-0.125000 F100.0(Penetrate)
G02 X90.009117 Y44.182196 Z-0.125000 I1.800855 J-0.129518 F400.000000
G02 X90.224304 Y44.121699 Z-0.125000 I0.090583 J-0.090755
G02 X90.199619 Y43.252796 Z-0.125000 I-1.603007 J-0.389262
G02 X89.483739 Y43.033820 Z-0.125000 I-0.431545 J0.131144
G01 X89.483739 Y43.033820 Z-0.125000
G00 Z5.000000

(End cutting path id: path3382)


(Start cutting path id: path3356)
(Change tool to Default tool)

G00 Z5.000000
G00 X89.777499 Y45.187680

G01 Z-0.125000 F100.0(Penetrate)
G02 X90.107401 Y45.329934 Z-0.125000 I0.245417 J-0.115481 F400.000000
G02 X90.210473 Y45.187680 Z-0.125000 I-0.046631 J-0.142254
G02 X90.107401 Y45.045426 Z-0.125000 I-0.149702 J-0.000000
G02 X89.777499 Y45.187680 Z-0.125000 I-0.084486 J0.257735
G01 X89.777499 Y45.187680 Z-0.125000
G00 Z5.000000

(End cutting path id: path3356)


(Start cutting path id: path3344)
(Change tool to Default tool)

G00 Z5.000000
G00 X89.105974 Y45.736510

G01 Z-0.125000 F100.0(Penetrate)
G02 X88.080073 Y47.022714 Z-0.125000 I1.008532 J1.856666 F400.000000
G03 X86.127346 Y47.721690 Z-0.125000 I-1.224351 J-0.343312
G02 X80.244909 Y50.354417 Z-0.125000 I-0.710864 J6.299757
G03 X76.602249 Y53.072640 Z-0.125000 I-6.021821 J-4.269919
G03 X75.328915 Y51.070899 Z-0.125000 I7.356898 J-6.085684
G02 X74.229823 Y49.340368 Z-0.125000 I-7.500051 J3.549126
G02 X73.402203 Y49.174944 Z-0.125000 I-0.515297 J0.425028
G02 X71.964841 Y50.892400 Z-0.125000 I1.385917 J2.620095
G02 X72.620596 Y53.888761 Z-0.125000 I53.597175 J-10.159835
G02 X76.997294 Y55.407010 Z-0.125000 I2.682969 J-0.666731
G03 X79.805144 Y56.287428 Z-0.125000 I0.814008 J2.321588
G02 X83.121876 Y56.171140 Z-0.125000 I1.619366 J-1.170495
G03 X85.624229 Y57.817934 Z-0.125000 I0.169022 J2.467763
G03 X85.002149 Y61.999770 Z-0.125000 I-4.269236 J1.502106
G02 X86.426989 Y62.773685 Z-0.125000 I0.819806 J0.189250
G02 X87.750445 Y56.947050 Z-0.125000 I-4.144532 J-4.005007
G03 X88.725989 Y55.936873 Z-0.125000 I1.230601 J0.212273
G03 X89.179417 Y56.060275 Z-0.125000 I0.105671 J0.506464
G01 X89.252650 Y56.011248 Z-0.125000
G02 X88.640365 Y54.538520 Z-0.125000 I-15.698055 J5.662806
G03 X90.381032 Y56.109870 Z-0.125000 I-13.275847 J16.456139
G02 X90.964453 Y56.520087 Z-0.125000 I1.438496 J-1.425877
G02 X91.156001 Y56.384143 Z-0.125000 I0.057059 J-0.122522
G02 X90.705768 Y54.158060 Z-0.125000 I-11.308668 J1.128643
G02 X89.940502 Y53.551754 Z-0.125000 I-0.430629 J-0.242573
G03 X86.743806 Y53.104430 Z-0.125000 I-1.414500 J-1.537487
G03 X90.688012 Y48.283845 Z-0.125000 I5.281036 J0.297078
G02 X90.727241 Y45.944470 Z-0.125000 I-0.306975 J-1.175164
G03 X90.220026 Y46.423567 Z-0.125000 I-0.451721 J0.029807
G03 X89.105974 Y45.736510 Z-0.125000 I0.192554 J-1.558960
G01 X89.105974 Y45.736510 Z-0.125000
G00 Z5.000000

(End cutting path id: path3344)


(Start cutting path id: path3350)
(Change tool to Default tool)

G00 Z5.000000
G00 X88.380428 Y45.304150

G01 Z-0.125000 F100.0(Penetrate)
G02 X88.736347 Y45.425738 Z-0.125000 I0.262618 J-0.187024 F400.000000
G02 X88.826608 Y45.304158 Z-0.125000 I-0.036758 J-0.121584
G02 X88.736355 Y45.182576 Z-0.125000 I-0.127013 J-0.000004
G02 X88.380428 Y45.304150 Z-0.125000 I-0.093313 J0.308616
G01 X88.380428 Y45.304150 Z-0.125000
G00 Z5.000000

(End cutting path id: path3350)


(Start cutting path id: path3364)
(Change tool to Default tool)

G00 Z5.000000
G00 X85.586288 Y45.071240

G01 Z-0.125000 F100.0(Penetrate)
G02 X85.805028 Y45.361386 Z-0.125000 I0.284450 J0.013081 F400.000000
G02 X85.940534 Y45.283831 Z-0.125000 I0.026353 J-0.111115
G02 X85.894531 Y45.054483 Z-0.125000 I-0.234802 J-0.072191
G02 X85.586288 Y45.071240 Z-0.125000 I-0.147885 J0.123101
G01 X85.586288 Y45.071240 Z-0.125000
G00 Z5.000000

(End cutting path id: path3364)


(Start cutting path id: path3358)
(Change tool to Default tool)

G00 Z5.000000
G00 X84.489287 Y45.231880

G01 Z-0.125000 F100.0(Penetrate)
G02 X84.850541 Y45.887655 Z-0.125000 I0.913691 J-0.075943 F400.000000
G02 X85.001681 Y45.828299 Z-0.125000 I0.057379 J-0.076000
G02 X84.937701 Y45.277942 Z-0.125000 I-0.949422 J-0.168524
G02 X84.489287 Y45.231880 Z-0.125000 I-0.237074 J0.102234
G01 X84.489287 Y45.231880 Z-0.125000
G00 Z5.000000

(End cutting path id: path3358)


(Start cutting path id: path3346)
(Change tool to Default tool)

G00 Z5.000000
G00 X83.537251 Y45.816410

G01 Z-0.125000 F100.0(Penetrate)
G03 X82.128794 Y47.161814 Z-0.125000 I-3.582403 J-2.340359 F400.000000
G02 X80.270197 Y48.261349 Z-0.125000 I417.745387 J708.255939
G02 X80.307184 Y48.353830 Z-0.125000 I0.025722 J0.043350
G02 X81.959814 Y47.850340 Z-0.125000 I-2.746570 J-11.979201
G02 X84.096749 Y47.164768 Z-0.125000 I-0.348055 J-4.758100
G02 X83.537251 Y45.816410 Z-0.125000 I-0.384780 J-0.630597
G01 X83.537251 Y45.816410 Z-0.125000
G00 Z5.000000

(End cutting path id: path3346)


(Start cutting path id: path3380)
(Change tool to Default tool)

G00 Z5.000000
G00 X83.956372 Y43.208460

G01 Z-0.125000 F100.0(Penetrate)
G02 X84.225224 Y43.312774 Z-0.125000 I0.216437 J-0.159214 F400.000000
G02 X84.275299 Y43.233233 Z-0.125000 I-0.012626 J-0.063482
G02 X84.166604 Y43.106048 Z-0.125000 I-0.183856 J0.047089
G02 X83.956372 Y43.208460 Z-0.125000 I-0.061075 J0.141613
G01 X83.956372 Y43.208460 Z-0.125000
G00 Z5.000000

(End cutting path id: path3380)


(Start cutting path id: path3388)
(Change tool to Default tool)

G00 Z5.000000
G00 X82.559302 Y42.743070

G01 Z-0.125000 F100.0(Penetrate)
G02 X81.898973 Y44.186696 Z-0.125000 I0.554388 J1.126417 F400.000000
G02 X82.526342 Y45.002908 Z-0.125000 I1.279248 J-0.334061
G02 X83.066351 Y44.863949 Z-0.125000 I0.197985 J-0.349355
G02 X83.184615 Y43.016500 Z-0.125000 I-1.682900 J-1.035240
G01 X82.427869 Y42.513790 Z-0.125000
G01 X82.559298 Y42.743070 Z-0.125000
G01 X82.559302 Y42.743070 Z-0.125000
G00 Z5.000000

(End cutting path id: path3388)


(Start cutting path id: path3526)
(Change tool to Default tool)

G00 Z5.000000
G00 X77.145654 Y43.168670

G01 Z-0.125000 F100.0(Penetrate)
G03 X76.751348 Y44.014069 Z-0.125000 I-0.513207 J0.275287 F400.000000
G03 X75.633296 Y43.990224 Z-0.125000 I-0.507393 J-2.432873
G03 X75.585342 Y43.759591 Z-0.125000 I0.032192 J-0.126995
G03 X77.145654 Y43.168670 Z-0.125000 I1.748188 J2.260602
G01 X77.145654 Y43.168670 Z-0.125000
G00 Z5.000000

(End cutting path id: path3526)


(Start cutting path id: path3528)
(Change tool to Default tool)

G00 Z5.000000
G00 X76.505330 Y41.204370

G01 Z-0.125000 F100.0(Penetrate)
G03 X75.908144 Y41.447920 Z-0.125000 I-0.624061 J-0.676272 F400.000000
G03 X75.825811 Y41.361390 Z-0.125000 I-0.002343 J-0.080205
G03 X75.934856 Y41.197365 Z-0.125000 I0.201902 J0.015966
G03 X76.505330 Y41.204370 Z-0.125000 I0.278647 J0.540122
G01 X76.505330 Y41.204370 Z-0.125000
G00 Z5.000000

(End cutting path id: path3528)


(Start cutting path id: path3530)
(Change tool to Default tool)

G00 Z5.000000
G00 X76.272485 Y39.482950

G01 Z-0.125000 F100.0(Penetrate)
G03 X76.038613 Y39.388664 Z-0.125000 I-0.064037 J-0.178357 F400.000000
G03 X76.068136 Y39.274645 Z-0.125000 I0.080685 J-0.039940
G03 X76.224418 Y39.263214 Z-0.125000 I0.087865 J0.127222
G03 X76.272485 Y39.482950 Z-0.125000 I-0.063682 J0.129056
G01 X76.272485 Y39.482950 Z-0.125000
G00 Z5.000000

(End cutting path id: path3530)


(Start cutting path id: path3524)
(Change tool to Default tool)

G00 Z5.000000
G00 X74.875415 Y44.577030

G01 Z-0.125000 F100.0(Penetrate)
G03 X74.282801 Y45.003098 Z-0.125000 I-0.649324 J-0.277975 F400.000000
G03 X74.085914 Y44.865559 Z-0.125000 I-0.015144 J-0.188012
G03 X74.175680 Y44.604874 Z-0.125000 I0.234378 J-0.065091
G03 X74.875415 Y44.577030 Z-0.125000 I0.370354 J0.500920
G01 X74.875415 Y44.577030 Z-0.125000
G00 Z5.000000

(End cutting path id: path3524)


(Start cutting path id: path3328)
(Change tool to Default tool)

G00 Z5.000000
G00 X72.177763 Y46.616740

G01 Z-0.125000 F100.0(Penetrate)
G02 X72.660875 Y46.932886 Z-0.125000 I0.496385 J-0.231339 F400.000000
G02 X72.793209 Y46.804083 Z-0.125000 I0.003131 J-0.129165
G02 X72.651997 Y46.528578 Z-0.125000 I-0.337518 J-0.000945
G02 X72.177763 Y46.616740 Z-0.125000 I-0.194690 J0.272300
G01 X72.177763 Y46.616740 Z-0.125000
G00 Z5.000000

(End cutting path id: path3328)


(Start cutting path id: path3316)
(Change tool to Default tool)

G00 Z5.000000
G00 X77.902401 Y47.860010

G01 Z-0.125000 F100.0(Penetrate)
G02 X77.308342 Y49.578986 Z-0.125000 I0.976997 J1.299777 F400.000000
G02 X77.851431 Y49.957554 Z-0.125000 I0.495682 J-0.132261
G02 X78.490922 Y49.455748 Z-0.125000 I-0.069297 J-0.746691
G02 X77.902401 Y47.860010 Z-0.125000 I-1.268915 J-0.438409
G01 X77.902401 Y47.860010 Z-0.125000
G00 Z5.000000

(End cutting path id: path3316)


(Start cutting path id: path3340)
(Change tool to Default tool)

G00 Z5.000000
G00 X82.326457 Y49.793800

G01 Z-0.125000 F100.0(Penetrate)
G01 X82.326457 Y49.793820 Z-0.125000 F400.000000
G01 X82.326457 Y49.793800 Z-0.125000
G00 Z5.000000

(End cutting path id: path3340)


(Start cutting path id: path3506)
(Change tool to Default tool)

G00 Z5.000000
G00 X84.577293 Y35.446700

G01 Z-0.125000 F100.0(Penetrate)
G01 X84.577293 Y35.446710 Z-0.125000 F400.000000
G01 X84.577293 Y35.446700 Z-0.125000
G00 Z5.000000

(End cutting path id: path3506)


(Start cutting path id: path3522)
(Change tool to Default tool)

G00 Z5.000000
G00 X88.050226 Y33.502320

G01 Z-0.125000 F100.0(Penetrate)
G02 X89.208099 Y35.144176 Z-0.125000 I1.516259 J0.159907 F400.000000
G02 X90.404509 Y34.927016 Z-0.125000 I0.352981 J-1.459602
G02 X90.452926 Y34.361623 Z-0.125000 I-0.205247 J-0.302346
G02 X88.050226 Y33.502320 Z-0.125000 I-2.153781 J2.233445
G01 X88.050226 Y33.502320 Z-0.125000
G00 Z5.000000

(End cutting path id: path3522)


(Start cutting path id: path3542)
(Change tool to Default tool)

G00 Z5.000000
G00 X90.690421 Y32.698550

G01 Z-0.125000 F100.0(Penetrate)
G02 X91.050896 Y33.475692 Z-0.125000 I0.408110 J0.282873 F400.000000
G02 X92.132389 Y33.296469 Z-0.125000 I0.204298 J-2.119850
G02 X92.154410 Y33.022468 Z-0.125000 I-0.064676 J-0.143083
G02 X90.690421 Y32.698550 Z-0.125000 I-1.153091 J1.741244
G01 X90.690421 Y32.698550 Z-0.125000
G00 Z5.000000

(End cutting path id: path3542)


(Start cutting path id: path3550)
(Change tool to Default tool)

G00 Z5.000000
G00 X94.072594 Y32.285030

G01 Z-0.125000 F100.0(Penetrate)
G02 X94.501610 Y32.744484 Z-0.125000 I0.475130 J-0.013630 F400.000000
G02 X94.785616 Y32.597600 Z-0.125000 I0.028543 J-0.292821
G02 X94.740323 Y32.335963 Z-0.125000 I-0.181008 J-0.103404
G02 X94.072594 Y32.285030 Z-0.125000 I-0.368587 J0.429744
G01 X94.072594 Y32.285030 Z-0.125000
G00 Z5.000000

(End cutting path id: path3550)


(Start cutting path id: path3590)
(Change tool to Default tool)

G00 Z5.000000
G00 X96.180733 Y29.266800

G01 Z-0.125000 F100.0(Penetrate)
G03 X90.655506 Y29.797154 Z-0.125000 I-3.717705 J-9.684971 F400.000000
G02 X85.050292 Y31.281060 Z-0.125000 I-1.201449 J6.790066
G02 X85.794178 Y32.551179 Z-0.125000 I0.436294 J0.597370
G03 X93.336839 Y31.377160 Z-0.125000 I5.856386 J12.808748
G02 X95.090264 Y31.290745 Z-0.125000 I0.710954 J-3.406589
G02 X97.419692 Y30.292466 Z-0.125000 I-3.778122 J-12.032966
G02 X97.506162 Y29.802358 Z-0.125000 I-0.154991 J-0.280027
G02 X96.180733 Y29.266790 Z-0.125000 I-1.188882 J1.034381
G01 X96.180733 Y29.266800 Z-0.125000
G00 Z5.000000

(End cutting path id: path3590)


(Start cutting path id: path3734)
(Change tool to Default tool)

G00 Z5.000000
G00 X94.903655 Y24.871910

G01 Z-0.125000 F100.0(Penetrate)
G03 X94.681113 Y26.412683 Z-0.125000 I-0.170496 J0.761832 F400.000000
G03 X94.671201 Y24.662300 Z-0.125000 I0.058501 J-0.875551
G01 X94.903650 Y24.871900 Z-0.125000
G01 X94.903655 Y24.871910 Z-0.125000
G00 Z5.000000

(End cutting path id: path3734)


(Start cutting path id: path3646)
(Change tool to Default tool)

G00 Z5.000000
G00 X95.373528 Y20.993840

G01 Z-0.125000 F100.0(Penetrate)
G02 X96.628251 Y22.023153 Z-0.125000 I2.197786 J-1.399677 F400.000000
G02 X96.850585 Y21.897253 Z-0.125000 I0.059717 J-0.153809
G02 X96.708357 Y21.450049 Z-0.125000 I-0.502835 J-0.086298
G02 X95.373528 Y20.993840 Z-0.125000 I-1.132886 J1.133826
G01 X95.373528 Y20.993840 Z-0.125000
G00 Z5.000000

(End cutting path id: path3646)


(Start cutting path id: path3644)
(Change tool to Default tool)

G00 Z5.000000
G00 X97.461387 Y21.786670

G01 Z-0.125000 F100.0(Penetrate)
G02 X97.817305 Y21.908258 Z-0.125000 I0.262618 J-0.187023 F400.000000
G02 X97.907567 Y21.786678 Z-0.125000 I-0.036758 J-0.121584
G02 X97.817313 Y21.665096 Z-0.125000 I-0.127013 J-0.000004
G02 X97.461387 Y21.786670 Z-0.125000 I-0.093313 J0.308615
G01 X97.461387 Y21.786670 Z-0.125000
G00 Z5.000000

(End cutting path id: path3644)


(Start cutting path id: path3634)
(Change tool to Default tool)

G00 Z5.000000
G00 X98.625612 Y23.397180

G01 Z-0.125000 F100.0(Penetrate)
G02 X99.035905 Y23.631445 Z-0.125000 I0.369374 J-0.170497 F400.000000
G02 X99.153772 Y23.498959 Z-0.125000 I-0.013183 J-0.130401
G02 X99.024210 Y23.280076 Z-0.125000 I-0.256567 J0.004082
G02 X98.625612 Y23.397180 Z-0.125000 I-0.142833 J0.250751
G01 X98.625612 Y23.397180 Z-0.125000
G00 Z5.000000

(End cutting path id: path3634)


(Start cutting path id: path3624)
(Change tool to Default tool)

G00 Z5.000000
G00 X99.149513 Y24.745180

G01 Z-0.125000 F100.0(Penetrate)
G02 X99.172557 Y25.356353 Z-0.125000 I0.304599 J0.294536 F400.000000
G02 X99.527009 Y25.412909 Z-0.125000 I0.221481 J-0.249077
G02 X99.665469 Y25.146643 Z-0.125000 I-0.095100 J-0.218585
G02 X99.149513 Y24.745180 Z-0.125000 I-0.492378 J0.100517
G01 X99.149513 Y24.745180 Z-0.125000
G00 Z5.000000

(End cutting path id: path3624)


(Start cutting path id: path3632)
(Change tool to Default tool)

G00 Z5.000000
G00 X100.255530 Y23.370480

G01 Z-0.125000 F100.0(Penetrate)
G02 X99.712878 Y23.825028 Z-0.125000 I1.107384 J1.873217 F400.000000
G01 X99.738659 Y23.867959 Z-0.125000
G02 X100.052584 Y23.740591 Z-0.125000 I-0.226767 J-1.009467
G02 X100.255530 Y23.370480 Z-0.125000 I-0.222232 J-0.362556
G01 X100.255530 Y23.370480 Z-0.125000
G00 Z5.000000

(End cutting path id: path3632)


(Start cutting path id: path3642)
(Change tool to Default tool)

G00 Z5.000000
G00 X100.837640 Y22.485210

G01 Z-0.125000 F100.0(Penetrate)
G02 X100.984171 Y22.592639 Z-0.125000 I0.111591 J0.001440 F400.000000
G02 X101.101899 Y22.487925 Z-0.125000 I-0.062088 J-0.188341
G01 X101.070626 Y22.419586 Z-0.125000
G02 X100.837640 Y22.485210 Z-0.125000 I-0.063179 J0.222095
G01 X100.837640 Y22.485210 Z-0.125000
G00 Z5.000000

(End cutting path id: path3642)


(Start cutting path id: path3810)
(Change tool to Default tool)

G00 Z5.000000
G00 X97.108041 Y17.573680

G01 Z-0.125000 F100.0(Penetrate)
G03 X96.435997 Y16.878359 Z-0.125000 I0.162642 J-0.829631 F400.000000
G03 X96.547981 Y16.377565 Z-0.125000 I0.683746 J-0.110022
G03 X96.752003 Y16.375322 Z-0.125000 I0.102795 J0.070256
G03 X97.108041 Y17.573680 Z-0.125000 I-1.555894 J1.114334
G01 X97.108041 Y17.573680 Z-0.125000
G00 Z5.000000

(End cutting path id: path3810)


(Start cutting path id: path3820)
(Change tool to Default tool)

G00 Z5.000000
G00 X95.732120 Y15.267060

G01 Z-0.125000 F100.0(Penetrate)
G03 X95.455371 Y15.838767 Z-0.125000 I-0.291161 J0.211893 F400.000000
G03 X94.749409 Y15.624844 Z-0.125000 I-0.044996 J-1.123338
G03 X94.753963 Y15.359013 Z-0.125000 I0.095443 J-0.131319
G03 X95.732120 Y15.267060 Z-0.125000 I0.573138 J0.848212
G01 X95.732120 Y15.267060 Z-0.125000
G00 Z5.000000

(End cutting path id: path3820)


(Start cutting path id: path3830)
(Change tool to Default tool)

G00 Z5.000000
G00 X93.711356 Y14.467310

G01 Z-0.125000 F100.0(Penetrate)
G03 X93.201412 Y15.233355 Z-0.125000 I-0.922133 J-0.061096 F400.000000
G03 X92.960409 Y15.124228 Z-0.125000 I-0.076079 J-0.152669
G03 X93.039679 Y14.534655 Z-0.125000 I0.753183 J-0.198848
G03 X93.711356 Y14.467310 Z-0.125000 I0.360151 J0.208810
G01 X93.711356 Y14.467310 Z-0.125000
G00 Z5.000000

(End cutting path id: path3830)


(Start cutting path id: path3834)
(Change tool to Default tool)

G00 Z5.000000
G00 X91.394980 Y14.418610

G01 Z-0.125000 F100.0(Penetrate)
G03 X91.212902 Y14.291942 Z-0.125000 I-0.064290 J-0.101785 F400.000000
G03 X91.382432 Y13.822004 Z-0.125000 I1.776317 J0.375259
G01 X91.441773 Y13.832315 Z-0.125000
G03 X91.394980 Y14.418610 Z-0.125000 I-1.335618 J0.188417
G01 X91.394980 Y14.418610 Z-0.125000
G00 Z5.000000

(End cutting path id: path3834)


(Start cutting path id: path3832)
(Change tool to Default tool)

G00 Z5.000000
G00 X90.630243 Y14.393910

G01 Z-0.125000 F100.0(Penetrate)
G03 X90.465643 Y14.237049 Z-0.125000 I-0.025694 J-0.137829 F400.000000
G03 X90.570441 Y13.838715 Z-0.125000 I1.689048 J0.231422
G01 X90.615533 Y13.842538 Z-0.125000
G03 X90.630243 Y14.393910 Z-0.125000 I-1.486254 J0.315533
G01 X90.630243 Y14.393910 Z-0.125000
G00 Z5.000000

(End cutting path id: path3832)


(Start cutting path id: path3818)
(Change tool to Default tool)

G00 Z5.000000
G00 X90.314647 Y15.674540

G01 Z-0.125000 F100.0(Penetrate)
G03 X89.821017 Y16.226351 Z-0.125000 I-0.911005 J-0.318255 F400.000000
G03 X89.700632 Y16.139518 Z-0.125000 I-0.036550 J-0.076194
G03 X89.921727 Y15.591453 Z-0.125000 I1.152367 J0.146248
G03 X90.314647 Y15.674540 Z-0.125000 I0.177293 J0.132182
G01 X90.314647 Y15.674540 Z-0.125000
G00 Z5.000000

(End cutting path id: path3818)


(Start cutting path id: path3822)
(Change tool to Default tool)

G00 Z5.000000
G00 X87.862746 Y15.441690

G01 Z-0.125000 F100.0(Penetrate)
G03 X87.030992 Y16.819586 Z-0.125000 I-0.485911 J0.646672 F400.000000
G03 X87.403266 Y15.154610 Z-0.125000 I0.373882 J-0.790510
G01 X87.717721 Y15.623210 Z-0.125000
G01 X87.862746 Y15.441690 Z-0.125000
G00 Z5.000000

(End cutting path id: path3822)


(Start cutting path id: path3816)
(Change tool to Default tool)

G00 Z5.000000
G00 X86.861641 Y17.039110

G01 Z-0.125000 F100.0(Penetrate)
G03 X86.351372 Y16.416864 Z-0.125000 I0.393327 J-0.842890 F400.000000
G03 X86.250177 Y15.658491 Z-0.125000 I3.484806 J-0.850938
G01 X86.321861 Y15.639788 Z-0.125000
G03 X86.861641 Y17.039110 Z-0.125000 I-5.710039 J3.006383
G01 X86.861641 Y17.039110 Z-0.125000
G00 Z5.000000

(End cutting path id: path3816)


(Start cutting path id: path3814)
(Change tool to Default tool)

G00 Z5.000000
G00 X86.044846 Y16.198450

G01 Z-0.125000 F100.0(Penetrate)
G03 X85.764372 Y16.159412 Z-0.125000 I-0.130434 J-0.089948 F400.000000
G03 X85.664234 Y15.608444 Z-0.125000 I1.806169 J-0.612851
G01 X85.732271 Y15.582485 Z-0.125000
G03 X86.044846 Y16.198450 Z-0.125000 I-1.177486 J0.984813
G01 X86.044846 Y16.198450 Z-0.125000
G00 Z5.000000

(End cutting path id: path3814)


(Start cutting path id: path3786)
(Change tool to Default tool)

G00 Z5.000000
G00 X83.753229 Y18.468690

G01 Z-0.125000 F100.0(Penetrate)
G01 X83.698392 Y18.527192 Z-0.125000 F400.000000
G03 X83.518385 Y18.376151 Z-0.125000 I0.408623 J-0.669773
G01 X83.535342 Y18.348112 Z-0.125000
G03 X83.753229 Y18.468690 Z-0.125000 I-0.112302 J0.460085
G01 X83.753229 Y18.468690 Z-0.125000
G00 Z5.000000

(End cutting path id: path3786)


(Start cutting path id: path3778)
(Change tool to Default tool)

G00 Z5.000000
G00 X84.451764 Y19.400070

G01 Z-0.125000 F100.0(Penetrate)
G01 X84.396926 Y19.458573 Z-0.125000 F400.000000
G03 X84.216921 Y19.307535 Z-0.125000 I0.408599 J-0.669745
G01 X84.233879 Y19.279495 Z-0.125000
G03 X84.451764 Y19.400070 Z-0.125000 I-0.112290 J0.460067
G01 X84.451764 Y19.400070 Z-0.125000
G00 Z5.000000

(End cutting path id: path3778)


(Start cutting path id: path3764)
(Change tool to Default tool)

G00 Z5.000000
G00 X83.753229 Y20.331430

G01 Z-0.125000 F100.0(Penetrate)
G01 X83.698391 Y20.389933 Z-0.125000 F400.000000
G03 X83.518386 Y20.238895 Z-0.125000 I0.408599 J-0.669745
G01 X83.535344 Y20.210855 Z-0.125000
G03 X83.753229 Y20.331430 Z-0.125000 I-0.112290 J0.460067
G01 X83.753229 Y20.331430 Z-0.125000
G00 Z5.000000

(End cutting path id: path3764)


(Start cutting path id: path3788)
(Change tool to Default tool)

G00 Z5.000000
G00 X83.024992 Y19.856030

G01 Z-0.125000 F100.0(Penetrate)
G03 X80.903372 Y17.857096 Z-0.125000 I42.356794 J-47.081866 F400.000000
G01 X80.917877 Y17.837623 Z-0.125000
G03 X81.089705 Y17.961173 Z-0.125000 I-0.419559 J0.764765
G03 X83.024992 Y19.856030 Z-0.125000 I-30.765802 J33.357953
G01 X83.024992 Y19.856030 Z-0.125000
G00 Z5.000000

(End cutting path id: path3788)

(Start cutting path id: path3794)
(Change tool to Default tool)

G00 Z5.000000
G00 X80.726243 Y17.304460

G01 Z-0.125000 F100.0(Penetrate)
G01 X80.671405 Y17.362962 Z-0.125000 F400.000000
G03 X80.491400 Y17.211921 Z-0.125000 I0.408615 J-0.669754
G01 X80.508358 Y17.183882 Z-0.125000
G03 X80.726243 Y17.304460 Z-0.125000 I-0.112299 J0.460074
G01 X80.726243 Y17.304460 Z-0.125000
G00 Z5.000000

(End cutting path id: path3794)


(Start cutting path id: path3802)
(Change tool to Default tool)

G00 Z5.000000
G00 X82.648146 Y16.792660

G01 Z-0.125000 F100.0(Penetrate)
G03 X82.508991 Y16.870279 Z-0.125000 I-0.090234 J0.001777 F400.000000
G03 X82.396303 Y16.724811 Z-0.125000 I0.150043 J-0.232613
G01 X82.436375 Y16.670160 Z-0.125000
G03 X82.648146 Y16.792660 Z-0.125000 I-0.003721 J0.250731
G01 X82.648146 Y16.792660 Z-0.125000
G00 Z5.000000

(End cutting path id: path3802)


(Start cutting path id: path3762)
(Change tool to Default tool)

G00 Z5.000000
G00 X85.353443 Y20.506060

G01 Z-0.125000 F100.0(Penetrate)
G03 X85.296915 Y20.588452 Z-0.125000 I-0.040928 J0.032507 F400.000000
G03 X85.148278 Y20.494176 Z-0.125000 I0.101359 J-0.324116
G01 X85.164274 Y20.447628 Z-0.125000
G03 X85.353443 Y20.506060 Z-0.125000 I0.036342 J0.217770
G01 X85.353443 Y20.506060 Z-0.125000
G00 Z5.000000

(End cutting path id: path3762)


(Start cutting path id: path3752)
(Change tool to Default tool)

G00 Z5.000000
G00 X86.869662 Y22.210430

G01 Z-0.125000 F100.0(Penetrate)
G03 X85.094967 Y21.403945 Z-0.125000 I2.433785 J-7.711494 F400.000000
G03 X84.597792 Y21.024204 Z-0.125000 I1.554593 J-2.550679
G01 X84.630066 Y20.977236 Z-0.125000
G03 X86.869662 Y22.210430 Z-0.125000 I-9.793588 J20.436327
G01 X86.869662 Y22.210430 Z-0.125000
G00 Z5.000000

(End cutting path id: path3752)


(Start cutting path id: path3746)
(Change tool to Default tool)

G00 Z5.000000
G00 X88.410130 Y21.961350

G01 Z-0.125000 F100.0(Penetrate)
G01 X88.355293 Y22.019852 Z-0.125000 F400.000000
G03 X88.175289 Y21.868815 Z-0.125000 I0.408599 J-0.669742
G01 X88.192247 Y21.840776 Z-0.125000
G03 X88.410130 Y21.961350 Z-0.125000 I-0.112291 J0.460065
G01 X88.410130 Y21.961350 Z-0.125000
G00 Z5.000000

(End cutting path id: path3746)


(Start cutting path id: path3768)
(Change tool to Default tool)

G00 Z5.000000
G00 X88.952063 Y21.279370

G01 Z-0.125000 F100.0(Penetrate)
G03 X89.525651 Y22.082470 Z-0.125000 I-14.941277 J11.277704 F400.000000
G01 X89.511916 Y22.093184 Z-0.125000
G03 X89.184034 Y21.710975 Z-0.125000 I8.490902 J-7.615766
G03 X88.437790 Y20.790280 Z-0.125000 I78.457789 J-64.354555
G03 X87.668874 Y19.816564 Z-0.125000 I70.453600 J-56.425709
G03 X87.620800 Y19.731921 Z-0.125000 I0.265754 J-0.206909
G01 X87.630846 Y19.725861 Z-0.125000
G03 X88.952063 Y21.279370 Z-0.125000 I-82.942840 J71.879209
G01 X88.952063 Y21.279370 Z-0.125000
G00 Z5.000000

(End cutting path id: path3768)


(Start cutting path id: path3742)
(Change tool to Default tool)

G00 Z5.000000
G00 X89.912256 Y22.956110

G01 Z-0.125000 F100.0(Penetrate)
G01 X89.912256 Y22.956140 Z-0.125000 F400.000000
G01 X89.912256 Y22.956110 Z-0.125000
G00 Z5.000000

(End cutting path id: path3742)


(Start cutting path id: path3740)
(Change tool to Default tool)

G00 Z5.000000
G00 X91.640259 Y22.718090

G01 Z-0.125000 F100.0(Penetrate)
G03 X91.430027 Y22.820502 Z-0.125000 I-0.149157 J-0.039201 F400.000000
G03 X91.321333 Y22.693318 Z-0.125000 I0.075161 J-0.174273
G03 X91.371408 Y22.613776 Z-0.125000 I0.062702 J-0.016059
G03 X91.640259 Y22.718090 Z-0.125000 I0.052414 J0.263526
G01 X91.640259 Y22.718090 Z-0.125000
G00 Z5.000000

(End cutting path id: path3740)


(Start cutting path id: path3760)
(Change tool to Default tool)

G00 Z5.000000
G00 X92.571640 Y20.903250

G01 Z-0.125000 F100.0(Penetrate)
G03 X92.130043 Y20.938379 Z-0.125000 I-0.231659 J-0.118959 F400.000000
G03 X91.969213 Y20.465936 Z-0.125000 I0.669796 J-0.491609
G03 X92.097586 Y20.379720 Z-0.125000 I0.091717 J-0.002116
G03 X92.571640 Y20.903250 Z-0.125000 I-0.343031 J0.787004
G01 X92.571640 Y20.903250 Z-0.125000
G00 Z5.000000

(End cutting path id: path3760)


(Start cutting path id: path3726)
(Change tool to Default tool)

G00 Z5.000000
G00 X90.878663 Y26.584240

G01 Z-0.125000 F100.0(Penetrate)
G03 X90.419258 Y26.590218 Z-0.125000 I-0.239873 J-0.778611 F400.000000
G01 X90.396801 Y26.531234 Z-0.125000
G03 X90.508275 Y26.461438 Z-0.125000 I0.129672 J0.083187
G03 X90.878663 Y26.584240 Z-0.125000 I0.054273 J0.456277
G01 X90.878663 Y26.584240 Z-0.125000
G00 Z5.000000

(End cutting path id: path3726)


(Start cutting path id: path3738)
(Change tool to Default tool)

G00 Z5.000000
G00 X83.839950 Y23.198380

G01 Z-0.125000 F100.0(Penetrate)
G03 X83.420852 Y23.405513 Z-0.125000 I-0.356738 J-0.194244 F400.000000
G03 X81.172226 Y23.012263 Z-0.125000 I9.223351 J-59.365021
G01 X81.177010 Y22.952649 Z-0.125000
G03 X82.703375 Y23.024370 Z-0.125000 I0.309697 J9.686991
G01 X83.839950 Y23.198380 Z-0.125000
G00 Z5.000000

(End cutting path id: path3738)


(Start cutting path id: path3744)
(Change tool to Default tool)

G00 Z5.000000
G00 X77.902401 Y22.264630

G01 Z-0.125000 F100.0(Penetrate)
G03 X77.873587 Y22.377423 Z-0.125000 I-0.020148 J0.054930 F400.000000
G03 X77.157697 Y22.218963 Z-0.125000 I0.785608 J-5.245543
G03 X76.188928 Y21.917110 Z-0.125000 I9.549605 J-32.354102
G03 X76.152997 Y21.878882 Z-0.125000 I0.017083 J-0.052057
G01 X76.168575 Y21.862584 Z-0.125000
G03 X77.902401 Y22.264630 Z-0.125000 I-10.413554 J48.848143
G01 X77.902401 Y22.264630 Z-0.125000
G00 Z5.000000

(End cutting path id: path3744)


(Start cutting path id: path3748)
(Change tool to Default tool)

G00 Z5.000000
G00 X75.341105 Y21.553880

G01 Z-0.125000 F100.0(Penetrate)
G03 X75.261801 Y21.703822 Z-0.125000 I-0.060839 J0.063765 F400.000000
G03 X74.799238 Y21.542083 Z-0.125000 I0.410806 J-1.917193
G01 X74.809020 Y21.490056 Z-0.125000
G03 X75.341105 Y21.553880 Z-0.125000 I0.115854 J1.284006
G01 X75.341105 Y21.553880 Z-0.125000
G00 Z5.000000

(End cutting path id: path3748)


(Start cutting path id: path3758)
(Change tool to Default tool)

G00 Z5.000000
G00 X73.361922 Y20.878150

G01 Z-0.125000 F100.0(Penetrate)
G03 X73.299347 Y21.005822 Z-0.125000 I-0.039704 J0.059711 F400.000000
G03 X72.526772 Y20.687646 Z-0.125000 I2.019250 J-6.000072
G01 X72.540908 Y20.643438 Z-0.125000
G03 X73.361922 Y20.878150 Z-0.125000 I-0.594958 J3.634438
