%
(Header)
(Generated by gcodetools from Inkscape.)
(Using default header. To add your own header create file "header" in the output dir.)
M3
(Header end.)
G21 (All units in mm)

(Start cutting path id: path858)
(Change tool to Cylindrical cutter)

G00 Z5.000000
G00 X0.632067 Y9.568400

G01 Z-0.125000 F1000.0(Penetrate)
G02 X0.675444 Y18.899012 Z-0.125000 I1003.545856 J-0.000000 F1100.000000
G01 X0.719227 Y18.942390 Z-0.125000
G02 X0.797196 Y18.885494 Z-0.125000 I0.000000 J-0.081871
G02 X0.918465 Y18.320410 Z-0.125000 I-2.795483 J-0.895475
G03 X0.996812 Y18.164353 Z-0.125000 I0.251301 J0.028468
G03 X1.134532 Y18.117900 Z-0.125000 I0.119809 J0.127824
G02 X1.414549 Y17.992137 Z-0.125000 I0.031353 J-0.304808
G02 X1.433800 Y17.702290 Z-0.125000 I-0.222706 J-0.160355
G03 X1.430735 Y17.456374 Z-0.125000 I0.235264 J-0.125910
G03 X1.614693 Y17.343040 Z-0.125000 I0.183958 J0.092629
G02 X1.747069 Y17.264061 Z-0.125000 I-0.000000 J-0.150426
G02 X1.794018 Y17.010840 Z-0.125000 I-0.369623 J-0.199494
G03 X1.865935 Y16.659594 Z-0.125000 I0.548380 J-0.070707
G03 X2.069258 Y16.543360 Z-0.125000 I0.203323 J0.119716
G03 X2.153459 Y16.570763 Z-0.125000 I0.000000 J0.143063
G03 X2.279332 Y16.696430 Z-0.125000 I-0.338405 J0.464835
G02 X2.409864 Y16.767877 Z-0.125000 I0.141419 J-0.103407
G02 X2.635845 Y16.718630 Z-0.125000 I0.026302 J-0.422415
G03 X2.890938 Y16.634095 Z-0.125000 I0.372199 J0.695995
G03 X3.364851 Y16.609320 Z-0.125000 I0.364667 J2.430567
G02 X3.770295 Y16.574465 Z-0.125000 I0.069626 J-1.565658
G01 X3.803817 Y16.512420 Z-0.125000
G03 X3.835042 Y16.337531 Z-0.125000 I0.160482 J-0.061579
G03 X4.158607 Y16.107700 Z-0.125000 I0.645093 J0.565508
G03 X4.515719 Y16.087039 Z-0.125000 I0.209070 J0.517090
G03 X4.630448 Y16.237620 Z-0.125000 I-0.041455 J0.150581
G02 X4.724688 Y16.315810 Z-0.125000 I0.079557 J0.000000
G02 X5.006827 Y16.166920 Z-0.125000 I-0.099637 J-0.530573
G03 X5.220067 Y16.013907 Z-0.125000 I0.571893 J0.571898
G03 X5.356632 Y15.993850 Z-0.125000 I0.099204 J0.200511
G02 X5.481963 Y15.966856 Z-0.125000 I0.028965 J-0.169963
G02 X5.614386 Y15.820230 Z-0.125000 I-0.229312 J-0.340212
G01 X5.721010 Y15.621010 Z-0.125000
G01 X5.896650 Y15.837810 Z-0.125000
G02 X6.108491 Y15.978702 Z-0.125000 I0.331254 J-0.268357
G02 X6.639707 Y16.054620 Z-0.125000 I0.531217 J-1.820570
G02 X7.165415 Y16.013645 Z-0.125000 I-0.000000 J-3.392876
G01 X7.205792 Y15.965720 Z-0.125000
G02 X7.102954 Y15.715299 Z-0.125000 I-0.369869 J0.005564
G02 X6.946665 Y15.695430 Z-0.125000 I-0.090428 J0.086687
G03 X6.847103 Y15.714090 Z-0.125000 I-0.073960 J-0.119680
G03 X6.716231 Y15.652830 Z-0.125000 I0.052162 J-0.281858
G03 X6.662133 Y15.536896 Z-0.125000 I0.095663 J-0.115228
G03 X6.717601 Y15.362470 Z-0.125000 I0.306532 J0.001445
G02 X6.785684 Y15.180615 Z-0.125000 I-0.318012 J-0.222728
G02 X6.749515 Y15.061000 Z-0.125000 I-0.159898 J-0.016927
G03 X6.715966 Y14.973768 Z-0.125000 I0.112447 J-0.093314
G01 X6.744635 Y14.943880 Z-0.125000
G03 X6.817559 Y14.970813 Z-0.125000 I0.000000 J0.112190
G03 X6.874345 Y15.054940 Z-0.125000 I-0.123913 J0.144871
G02 X6.932269 Y15.094033 Z-0.125000 I0.054542 J-0.018355
G02 X7.059455 Y15.044040 Z-0.125000 I-0.012934 J-0.219684
G03 X7.155821 Y15.031128 Z-0.125000 I0.058552 J0.070926
G03 X7.207184 Y15.110640 Z-0.125000 I-0.035863 J0.079512
G02 X7.250564 Y15.255826 Z-0.125000 I0.264647 J-0.000000
G02 X7.330957 Y15.299230 Z-0.125000 I0.080393 J-0.052750
G03 X7.498893 Y15.439064 Z-0.125000 I0.000000 J0.170760
G03 X7.424581 Y15.807620 Z-0.125000 I-0.497088 J0.091542
G02 X7.328577 Y16.029356 Z-0.125000 I0.592400 J0.388140
G02 X7.337533 Y16.167730 Z-0.125000 I0.226716 J0.054803
G01 X7.403403 Y16.190617 Z-0.125000
G02 X7.559955 Y16.035750 Z-0.125000 I-0.232242 J-0.391328
G03 X7.762943 Y15.810235 Z-0.125000 I0.699085 J0.425141
G03 X7.999379 Y15.700710 Z-0.125000 I0.365874 J0.479863
G02 X8.254704 Y15.617542 Z-0.125000 I-0.290740 J-1.326068
G02 X8.322071 Y15.558950 Z-0.125000 I-0.060394 J-0.137464
G03 X8.709993 Y15.486376 Z-0.125000 I0.226995 J0.140288
G03 X8.843465 Y15.953130 Z-0.125000 I-0.243507 J0.322094
G02 X8.908319 Y16.117373 Z-0.125000 I0.121917 J0.046785
G02 X9.127127 Y16.090930 Z-0.125000 I0.088890 J-0.182967
G02 X9.210660 Y15.961943 Z-0.125000 I-0.164338 J-0.197970
G02 X9.212952 Y15.782490 Z-0.125000 I-0.337970 J-0.094057
G03 X9.240998 Y15.635541 Z-0.125000 I0.172352 J-0.043256
G03 X9.384382 Y15.543980 Z-0.125000 I0.186506 J0.134016
G03 X9.655395 Y15.631235 Z-0.125000 I0.055726 J0.291427
G03 X9.725410 Y15.903620 Z-0.125000 I-0.210018 J0.199174
G02 X9.798582 Y16.006220 Z-0.125000 I0.079402 J0.020765
G02 X10.002810 Y15.924720 Z-0.125000 I0.018964 J-0.249112
G02 X10.104701 Y15.736686 Z-0.125000 I-0.334862 J-0.303077
G02 X10.105888 Y15.533420 Z-0.125000 I-0.394601 J-0.103940
G03 X10.139117 Y15.363249 Z-0.125000 I0.197925 J-0.049682
G03 X10.339703 Y15.213830 Z-0.125000 I0.342709 J0.250721
G01 X10.628026 Y15.111400 Z-0.125000
G01 X10.430339 Y14.948510 Z-0.125000
G01 X10.232654 Y14.785620 Z-0.125000
G01 X10.430339 Y14.732620 Z-0.125000
G03 X10.629764 Y14.692459 Z-0.125000 I0.414793 J1.544508
G03 X10.827944 Y14.678420 Z-0.125000 I0.208014 J1.530552
G02 X10.951585 Y14.601414 Z-0.125000 I-0.000783 J-0.139020
G02 X11.027864 Y14.277370 Z-0.125000 I-0.650157 J-0.324044
G03 X11.110151 Y13.959824 Z-0.125000 I0.653849 J0.000000
G03 X11.249996 Y13.877540 Z-0.125000 I0.139845 J0.077694
G02 X11.379770 Y13.788257 Z-0.125000 I0.000000 J-0.138955
G02 X11.349356 Y13.617970 Z-0.125000 I-0.156511 J-0.059906
G03 X11.176137 Y13.219535 Z-0.125000 I0.537800 J-0.470678
G03 X11.291926 Y13.052760 Z-0.125000 I0.155277 J-0.015777
G02 X11.422585 Y12.967363 Z-0.125000 I-0.062328 J-0.238018
G02 X11.472124 Y12.824860 Z-0.125000 I-0.180193 J-0.142503
G03 X11.563268 Y12.625809 Z-0.125000 I0.262927 J0.000000
G03 X11.665318 Y12.658130 Z-0.125000 I0.041071 J0.047590
G02 X11.735769 Y12.713172 Z-0.125000 I0.070536 J-0.017675
G02 X12.627211 Y12.659130 Z-0.125000 I0.008525 J-7.238745
G03 X15.645016 Y12.413217 Z-0.125000 I4.540969 J37.086092
G03 X15.859740 Y12.527260 Z-0.125000 I0.009820 J0.240677
G01 X15.840254 Y12.588946 Z-0.125000
G03 X15.393742 Y12.726820 Z-0.125000 I-0.875845 J-2.044497
G02 X14.913295 Y12.887134 Z-0.125000 I0.383007 J1.947922
G02 X14.780455 Y13.022990 Z-0.125000 I0.121624 J0.251798
G03 X14.480327 Y13.283974 Z-0.125000 I-0.436462 J-0.198861
G03 X14.315416 Y13.160860 Z-0.125000 I-0.036500 J-0.123114
G03 X14.345114 Y13.107272 Z-0.125000 I0.063197 J-0.000000
G03 X14.448696 Y13.077560 Z-0.125000 I0.103582 J0.165698
G02 X14.550985 Y13.046578 Z-0.125000 I0.000000 J-0.184351
G02 X14.581975 Y12.988660 Z-0.125000 I-0.038629 J-0.057918
G02 X14.434025 Y12.838746 Z-0.125000 I-0.149927 J0.000000
G02 X12.205161 Y12.957360 Z-0.125000 I-0.221913 J16.830575
G02 X11.884022 Y13.137489 Z-0.125000 I0.057443 J0.478743
G02 X11.916389 Y13.323430 Z-0.125000 I0.099484 J0.078470
G03 X12.059194 Y13.453744 Z-0.125000 I-0.283160 J0.453706
G03 X12.094094 Y13.557430 Z-0.125000 I-0.136573 J0.103686
G02 X12.188861 Y13.671358 Z-0.125000 I0.115865 J0.000000
G02 X12.964945 Y13.718700 Z-0.125000 I0.580805 J-3.136317
G02 X13.533309 Y13.617619 Z-0.125000 I-0.154995 J-2.519970
G02 X13.583274 Y13.533690 Z-0.125000 I-0.020678 J-0.069148
G02 X13.514138 Y13.441855 Z-0.125000 I-0.132350 J0.027696
G02 X13.350747 Y13.410680 Z-0.125000 I-0.132457 J0.250463
G03 X12.899993 Y13.330183 Z-0.125000 I-0.088518 J-0.806607
G03 X12.852099 Y13.161880 Z-0.125000 I0.052889 J-0.106017
G03 X12.923748 Y13.112285 Z-0.125000 I0.092490 J0.057065
G03 X13.283364 Y13.077480 Z-0.125000 I0.359616 J1.840453
G03 X13.635508 Y13.139755 Z-0.125000 I-0.000000 J1.026769
G03 X13.860483 Y13.288250 Z-0.125000 I-0.199912 J0.547542
G03 X13.957669 Y13.475936 Z-0.125000 I-0.282221 J0.265142
G03 X13.914773 Y13.554180 Z-0.125000 I-0.067626 J0.013806
G02 X13.918465 Y13.674539 Z-0.125000 I0.022847 J0.059535
G02 X14.653864 Y13.786930 Z-0.125000 I0.731090 J-2.321547
G02 X15.538906 Y13.659881 Z-0.125000 I-0.003899 J-3.173338
G02 X15.559362 Y13.523090 Z-0.125000 I-0.021336 J-0.073116
G01 X15.564876 Y13.476816 Z-0.125000
G03 X15.807603 Y13.434290 Z-0.125000 I0.245051 J0.684703
G02 X16.114836 Y13.370618 Z-0.125000 I-0.002536 J-0.785304
G02 X16.163014 Y13.281820 Z-0.125000 I-0.032159 J-0.074916
G03 X16.290430 Y13.113678 Z-0.125000 I0.142224 J-0.024573
G03 X18.624788 Y13.027920 Z-0.125000 I1.815367 J17.601007
G02 X22.702358 Y13.079925 Z-0.125000 I3.607029 J-122.934641
G02 X23.896660 Y13.007620 Z-0.125000 I-0.040430 J-10.567369
G02 X24.197712 Y12.774771 Z-0.125000 I-0.043095 J-0.366759
G02 X24.068451 Y12.566120 Z-0.125000 I-0.143131 J-0.055694
G02 X23.623528 Y12.590315 Z-0.125000 I-0.139446 J1.538643
G02 X23.583004 Y12.664020 Z-0.125000 I0.010888 J0.053979
G03 X23.560067 Y12.756460 Z-0.125000 I-0.077660 J0.029796
G03 X23.414810 Y12.810970 Z-0.125000 I-0.145257 J-0.166284
G03 X23.265044 Y12.769301 Z-0.125000 I0.000000 J-0.289979
G01 X23.251247 Y12.712270 Z-0.125000
G01 X23.225499 Y12.664257 Z-0.125000
G02 X21.945912 Y12.669470 Z-0.125000 I-0.569052 J17.367243
G03 X20.842356 Y12.613648 Z-0.125000 I-0.247615 J-6.040944
G03 X20.846110 Y12.512190 Z-0.125000 I0.007227 J-0.050531
G02 X21.734181 Y12.445867 Z-0.125000 I-4.816571 J-70.473349
G02 X22.667594 Y12.364480 Z-0.125000 I-6.175976 J-76.224263
G03 X24.255081 Y12.318238 Z-0.125000 I1.154515 J12.362209
G03 X25.260912 Y12.454980 Z-0.125000 I-0.176860 J5.068592
G02 X26.006983 Y12.569897 Z-0.125000 I1.068271 J-4.456179
G02 X27.821062 Y12.635430 Z-0.125000 I1.863030 J-26.431025
G03 X30.787744 Y12.770080 Z-0.125000 I-0.052174 J33.898719
G03 X31.033212 Y12.921750 Z-0.125000 I-0.028692 J0.320908
G02 X31.162155 Y12.997589 Z-0.125000 I0.136242 J-0.084105
G02 X33.552693 Y13.069639 Z-0.125000 I3.522909 J-77.193216
G02 X35.942779 Y13.068033 Z-0.125000 I1.142666 J-77.967721
G02 X36.112401 Y12.996150 Z-0.125000 I-0.003925 J-0.245332
G01 X36.101946 Y12.941684 Z-0.125000
G02 X35.857806 Y12.886620 Z-0.125000 I-0.269621 J0.626671
G03 X35.507242 Y12.868803 Z-0.125000 I0.437681 J-12.069551
G03 X35.373558 Y12.855420 Z-0.125000 I0.127232 J-1.945299
G02 X35.239752 Y12.844327 Z-0.125000 I-0.171716 J1.258682
G02 X34.324291 Y12.824120 Z-0.125000 I-1.756599 J58.835368
G03 X33.485618 Y12.768584 Z-0.125000 I0.109639 J-8.016119
G01 X33.463221 Y12.722120 Z-0.125000
G02 X33.465686 Y12.662428 Z-0.125000 I-0.051878 J-0.032039
G02 X33.418051 Y12.633220 Z-0.125000 I-0.047635 J0.024239
G03 X33.368573 Y12.596188 Z-0.125000 I0.000000 J-0.051570
G03 X33.369931 Y12.469470 Z-0.125000 I0.208068 J-0.061136
G02 X33.315190 Y12.379966 Z-0.125000 I-0.066190 J-0.021010
G02 X31.976485 Y12.236560 Z-0.125000 I-1.885149 J11.277813
G03 X30.531176 Y12.165374 Z-0.125000 I23.831116 J-498.558916
G03 X29.509259 Y12.111490 Z-0.125000 I12.847059 J-253.362571
G01 X28.487452 Y12.055590 Z-0.125000
G01 X29.064995 Y11.969590 Z-0.125000
G03 X33.825918 Y11.698232 Z-0.125000 I3.870011 J25.998153
G03 X34.600502 Y12.157660 Z-0.125000 I-0.031751 J0.936210
G02 X35.006420 Y12.384309 Z-0.125000 I0.397536 J-0.235155
G02 X35.164968 Y12.148660 Z-0.125000 I-0.003145 J-0.173277
G03 X35.190128 Y12.062261 Z-0.125000 I0.069397 J-0.026654
G03 X35.399804 Y11.974850 Z-0.125000 I0.281622 J0.380353
G02 X35.684530 Y11.930971 Z-0.125000 I-103.264394 J-670.993928
G02 X36.217651 Y11.848670 Z-0.125000 I-832.093467 J-5392.745733
G01 X36.215853 Y11.808831 Z-0.125000
G02 X35.062565 Y11.775570 Z-0.125000 I-1.060255 J16.751877
G03 X33.391595 Y11.704986 Z-0.125000 I-0.089807 J-17.688173
G03 X32.936692 Y11.583960 Z-0.125000 I0.123985 J-1.381464
G02 X32.488860 Y11.429910 Z-0.125000 I-0.999401 J2.177357
G02 X32.092590 Y11.384260 Z-0.125000 I-0.391302 J1.653981
G03 X28.659644 Y11.295231 Z-0.125000 I-0.181250 J-59.242512
G03 X28.276549 Y11.174950 Z-0.125000 I0.044662 J-0.812466
G03 X28.297653 Y11.009200 Z-0.125000 I0.048256 J-0.078074
G03 X29.997949 Y10.641840 Z-0.125000 I2.943076 J9.503269
G03 X31.156249 Y10.556379 Z-0.125000 I1.406523 J11.171077
G03 X34.129610 Y10.550740 Z-0.125000 I1.626571 J73.762734
G02 X37.934280 Y10.515222 Z-0.125000 I1.258230 J-69.013555
G02 X38.039139 Y10.406420 Z-0.125000 I-0.004017 J-0.108802
G01 X37.999975 Y10.363043 Z-0.125000
G02 X37.233473 Y10.323920 Z-0.125000 I-0.766502 J7.489184
G03 X36.539210 Y10.243052 Z-0.125000 I-0.000000 J-3.020603
G03 X36.484210 Y10.146220 Z-0.125000 I0.017466 J-0.073956
G02 X36.477342 Y10.014814 Z-0.125000 I-0.178208 J-0.056569
G02 X36.406590 Y9.968510 Z-0.125000 I-0.070752 J0.030903
G02 X36.244711 Y10.060799 Z-0.125000 I0.000000 J0.188115
G02 X36.283740 Y10.176040 Z-0.125000 I0.069017 J0.040855
G01 X36.288721 Y10.202703 Z-0.125000
G03 X36.228150 Y10.228140 Z-0.125000 I-0.064558 J-0.068891
G03 X36.069464 Y10.202554 Z-0.125000 I-0.017294 J-0.397626
G03 X35.765877 Y10.052800 Z-0.125000 I0.633410 J-1.666674
G02 X35.447348 Y9.955016 Z-0.125000 I-0.346281 J0.560306
G02 X32.334554 Y9.908100 Z-0.125000 I-2.422597 J57.448005
G02 X29.212704 Y10.012703 Z-0.125000 I0.869341 J72.583143
G02 X28.844442 Y10.100270 Z-0.125000 I0.058631 J1.064713
G03 X27.672733 Y10.375427 Z-0.125000 I-1.337251 J-3.062119
G03 X26.859209 Y10.198770 Z-0.125000 I-0.079205 J-1.596762
G02 X26.556467 Y10.115887 Z-0.125000 I-0.345781 J0.668663
G02 X23.931495 Y10.031100 Z-0.125000 I-3.013577 J52.622993
G02 X21.291353 Y10.033251 Z-0.125000 I-1.188612 J161.364229
G02 X20.778345 Y10.060100 Z-0.125000 I0.053383 J5.934456
G03 X20.327388 Y10.060888 Z-0.125000 I-0.229709 J-2.420330
G01 X20.298871 Y10.016400 Z-0.125000
G03 X20.353857 Y9.962774 Z-0.125000 I0.081751 J0.028822
G03 X20.492069 Y9.953600 Z-0.125000 I0.087251 J0.268769
G02 X21.078611 Y9.907920 Z-0.125000 I0.207050 J-1.129943
G02 X21.334291 Y9.658980 Z-0.125000 I-0.139761 J-0.399315
G03 X21.586396 Y9.465568 Z-0.125000 I0.282704 J0.107484
G03 X24.106581 Y9.377050 Z-0.125000 I1.927319 J18.952221
G02 X25.921807 Y9.390473 Z-0.125000 I1.191201 J-38.343350
G02 X25.999949 Y9.346050 Z-0.125000 I-0.001523 J-0.093618
G02 X25.999287 Y9.288516 Z-0.125000 I-0.045756 J-0.028245
G02 X25.942619 Y9.257750 Z-0.125000 I-0.056668 J0.036807
G01 X25.908697 Y9.225439 Z-0.125000
G03 X25.937419 Y9.151020 Z-0.125000 I0.098371 J-0.004786
G03 X26.311329 Y8.982190 Z-0.125000 I0.410341 J0.410322
G03 X31.219610 Y8.818740 Z-0.125000 I5.220612 J82.993270
G02 X32.577881 Y8.772539 Z-0.125000 I-0.081305 J-22.379625
G01 X32.619042 Y8.728640 Z-0.125000
G02 X32.544732 Y8.645782 Z-0.125000 I-0.083349 J0.000000
G02 X30.531001 Y8.500840 Z-0.125000 I-2.974316 J27.261969
G02 X29.021598 Y8.487336 Z-0.125000 I-1.013768 J28.950721
G02 X27.954267 Y8.544940 Z-0.125000 I0.248485 J14.521142
G03 X26.886811 Y8.620960 Z-0.125000 I-2.461616 J-27.033015
G03 X25.288680 Y8.682010 Z-0.125000 I-3.111399 J-60.500259
G02 X23.691263 Y8.746858 Z-0.125000 I1.283819 J51.331913
G02 X23.022931 Y8.809360 Z-0.125000 I0.507638 J9.032616
G03 X22.355012 Y8.873969 Z-0.125000 I-1.289637 J-9.847424
G03 X21.584584 Y8.899560 Z-0.125000 I-0.819777 J-13.069700
G02 X20.817059 Y8.940072 Z-0.125000 I0.017974 J7.631357
G02 X20.218447 Y9.040110 Z-0.125000 I0.500298 J4.834738
G03 X18.394761 Y9.220683 Z-0.125000 I-1.606863 J-6.929009
G03 X17.806792 Y8.966610 Z-0.125000 I0.026492 J-0.868675
G03 X17.752907 Y8.825911 Z-0.125000 I0.130750 J-0.130743
G03 X17.826472 Y8.601620 Z-0.125000 I0.453206 J0.024437
G03 X17.994744 Y8.398832 Z-0.125000 I0.981435 J0.643182
G03 X18.068258 Y8.369230 Z-0.125000 I0.073514 J0.076480
G01 X18.094662 Y8.398871 Z-0.125000
G03 X18.053728 Y8.494590 Z-0.125000 I-0.181610 J-0.021052
G02 X18.015998 Y8.609082 Z-0.125000 I0.126717 J0.105221
G02 X18.064818 Y8.691120 Z-0.125000 I0.103107 J-0.005813
G02 X19.836167 Y9.209024 Z-0.125000 I1.824666 J-2.952612
G02 X21.003871 Y8.735520 Z-0.125000 I0.024817 J-1.615383
G01 X20.986250 Y8.683674 Z-0.125000
G02 X20.175197 Y8.626890 Z-0.125000 I-0.875056 J6.677930
G03 X18.404555 Y8.518418 Z-0.125000 I0.162935 J-17.165476
G03 X18.292837 Y8.413550 Z-0.125000 I0.014433 J-0.127318
G03 X18.398894 Y8.271374 Z-0.125000 I0.119769 J-0.021303
G03 X21.423580 Y8.058390 Z-0.125000 I4.007506 J35.328449
G03 X23.421563 Y8.037980 Z-0.125000 I1.584553 J57.312588
G03 X24.194565 Y8.078290 Z-0.125000 I-0.062192 J8.624543
G02 X24.962517 Y8.122703 Z-0.125000 I0.949895 J-9.763150
G02 X25.127521 Y8.095490 Z-0.125000 I0.008569 J-0.461892
G03 X25.288454 Y8.070487 Z-0.125000 I0.145344 J0.405088
G03 X25.477821 Y8.108290 Z-0.125000 I-0.021843 J0.602624
G02 X25.660006 Y8.124386 Z-0.125000 I0.120272 J-0.322238
G02 X25.870216 Y8.036490 Z-0.125000 I-0.096097 J-0.525141
G03 X27.249115 Y7.538703 Z-0.125000 I1.608164 J2.295999
G03 X30.064527 Y7.692290 Z-0.125000 I0.848106 J10.334848
G02 X30.648194 Y7.788626 Z-0.125000 I2.044621 J-10.571332
G01 X30.664284 Y7.774590 Z-0.125000
G01 X30.678347 Y7.764202 Z-0.125000
G03 X30.819776 Y7.822490 Z-0.125000 I-0.243198 J0.790809
G02 X30.983672 Y7.873722 Z-0.125000 I0.222319 J-0.423446
G02 X31.908224 Y7.956590 Z-0.125000 I1.714679 J-13.931502
G03 X32.841173 Y8.009327 Z-0.125000 I-127.746047 J2267.593766
G03 X34.688757 Y8.114220 Z-0.125000 I-1356.098172 J23934.565940
G02 X36.518548 Y8.172473 Z-0.125000 I2.080502 J-36.583631
G02 X36.628003 Y8.127620 Z-0.125000 I0.001050 J-0.153415
G01 X36.603490 Y8.055923 Z-0.125000
G02 X34.239370 Y7.823740 Z-0.125000 I-5.233731 J41.138623
G03 X32.803747 Y7.650480 Z-0.125000 I0.986394 J-14.207617
G03 X32.753081 Y7.567150 Z-0.125000 I0.011003 J-0.063758
G02 X32.703096 Y7.484822 Z-0.125000 I-0.060937 J-0.019340
G02 X31.532596 Y7.354940 Z-0.125000 I-1.637549 J9.418372
G03 X27.825319 Y7.006151 Z-0.125000 I2.025386 J-41.404494
G03 X27.678108 Y6.816740 Z-0.125000 I0.023794 J-0.170404
G02 X27.310987 Y6.409368 Z-0.125000 I-0.364608 J-0.040527
G02 X21.956697 Y6.855940 Z-0.125000 I0.241208 J35.213650
G03 X20.337069 Y7.001206 Z-0.125000 I-1.844001 J-11.457908
G03 X20.115749 Y6.891540 Z-0.125000 I-0.005177 J-0.267712
G03 X19.973227 Y6.433261 Z-0.125000 I0.598055 J-0.437294
G03 X20.135209 Y6.204600 Z-0.125000 I0.252484 J0.007155
G02 X20.219010 Y6.059013 Z-0.125000 I-0.047784 J-0.124416
G02 X20.085699 Y5.896830 Z-0.125000 I-0.205541 J0.033070
G01 X19.902911 Y5.829230 Z-0.125000
G01 X20.085699 Y5.663810 Z-0.125000
G02 X20.239249 Y5.485402 Z-0.125000 I-0.636137 J-0.702784
G02 X20.268489 Y5.388510 Z-0.125000 I-0.145915 J-0.096892
G03 X20.406744 Y5.206741 Z-0.125000 I0.188616 J0.000000
G03 X20.847940 Y5.227970 Z-0.125000 I0.188391 J0.679961
G02 X20.985374 Y5.245595 Z-0.125000 I0.104927 J-0.273543
G02 X21.054918 Y5.204870 Z-0.125000 I-0.011000 J-0.098525
G03 X21.124540 Y5.138233 Z-0.125000 I0.213017 J0.152871
G03 X21.445790 Y4.949590 Z-0.125000 I2.136636 J3.270727
G02 X21.591884 Y4.763570 Z-0.125000 I-0.134234 J-0.255801
G02 X21.512430 Y4.681880 Z-0.125000 I-0.065068 J-0.016197
G03 X21.285915 Y4.690562 Z-0.125000 I-0.137350 J-0.624254
G01 X21.245870 Y4.644480 Z-0.125000
G03 X21.318166 Y4.565897 Z-0.125000 I0.078857 J0.000000
G03 X22.400958 Y4.547980 Z-0.125000 I0.675418 J8.090661
G02 X22.800869 Y4.564158 Z-0.125000 I1.008879 J-19.987702
G02 X22.978502 Y4.565680 Z-0.125000 I0.123607 J-4.060334
G03 X25.809373 Y4.653758 Z-0.125000 I0.415040 J32.197103
G03 X26.351174 Y4.819280 Z-0.125000 I-0.096778 J1.286282
G02 X26.636107 Y4.919898 Z-0.125000 I0.421047 J-0.738586
G02 X27.376720 Y4.985630 Z-0.125000 I0.824273 J-5.082010
G03 X28.131807 Y5.003099 Z-0.125000 I-0.627797 J43.463247
G03 X29.300566 Y5.045430 Z-0.125000 I-4.244218 J133.339687
G02 X30.328184 Y4.931734 Z-0.125000 I0.139538 J-3.439623
G02 X30.355203 Y4.763800 Z-0.125000 I-0.024034 J-0.090007
G02 X30.112511 Y4.677749 Z-0.125000 I-0.297695 J0.454337
G02 X29.308347 Y4.657250 Z-0.125000 I-0.536774 J5.273612
G03 X28.099166 Y4.580154 Z-0.125000 I-0.268258 J-5.313613
G03 X27.332293 Y4.302200 Z-0.125000 I0.426496 J-2.373577
G02 X27.048418 Y4.213615 Z-0.125000 I-0.344541 J0.604958
G02 X25.244251 Y4.119550 Z-0.125000 I-2.239191 J25.598764
G03 X23.837039 Y3.994848 Z-0.125000 I0.167827 J-9.896095
G03 X23.839829 Y3.893150 Z-0.125000 I0.008166 J-0.050663
G02 X25.152993 Y3.650608 Z-0.125000 I-0.903504 J-8.567861
G02 X25.312070 Y3.501030 Z-0.125000 I-0.059198 J-0.222336
G01 X25.276780 Y3.447061 Z-0.125000
G02 X24.385091 Y3.416430 Z-0.125000 I-0.715899 J7.846253
G03 X23.508294 Y3.363734 Z-0.125000 I-0.119129 J-5.338559
G03 X23.448875 Y3.282400 Z-0.125000 I0.009986 J-0.069666
G02 X23.419650 Y3.173747 Z-0.125000 I-0.133333 J-0.022393
G02 X23.320039 Y3.126920 Z-0.125000 I-0.099611 J0.082533
G03 X23.276386 Y3.040665 Z-0.125000 I0.000000 J-0.054174
G03 X23.477794 Y2.912270 Z-0.125000 I0.266470 J0.195834
G02 X23.883167 Y2.779390 Z-0.125000 I-0.354345 J-1.765751
G02 X24.360379 Y2.501620 Z-0.125000 I-1.272469 J-2.734935
G03 X24.612531 Y2.420510 Z-0.125000 I0.253752 J0.356360
G03 X24.905006 Y2.499620 Z-0.125000 I0.002094 J0.572464
G02 X25.201020 Y2.616410 Z-0.125000 I0.516269 J-0.874997
G02 X25.331515 Y2.594320 Z-0.125000 I0.038086 J-0.171499
G02 X25.363804 Y2.523216 Z-0.125000 I-0.036832 J-0.059610
G02 X25.308405 Y2.455340 Z-0.125000 I-0.087009 J0.014469
G03 X25.083644 Y2.117441 Z-0.125000 I0.125582 J-0.327235
G03 X25.325835 Y1.882510 Z-0.125000 I0.242191 J0.007372
G02 X25.493506 Y1.867310 Z-0.125000 I0.000000 J-0.932418
G02 X25.659033 Y1.821510 Z-0.125000 I-0.173475 J-0.948968
G01 X25.712607 Y1.839051 Z-0.125000
G03 X25.709553 Y1.898710 Z-0.125000 I-0.042372 J0.027739
G02 X25.690172 Y2.031605 Z-0.125000 I0.101862 J0.082716
G02 X25.881913 Y2.315180 Z-0.125000 I0.787722 J-0.326012
G02 X26.174341 Y2.574237 Z-0.125000 I2.778618 J-2.841983
G02 X26.228994 Y2.593440 Z-0.125000 I0.054653 J-0.068169
G02 X26.380567 Y2.470516 Z-0.125000 I0.000000 J-0.154911
G02 X26.312794 Y2.196370 Z-0.125000 I-0.317403 J-0.066983
G03 X26.262958 Y2.090276 Z-0.125000 I0.179141 J-0.148901
G03 X26.281644 Y2.029930 Z-0.125000 I0.066584 J-0.012448
G03 X26.410178 Y2.011745 Z-0.125000 I0.076356 J0.076353
G03 X26.488197 Y2.143920 Z-0.125000 I-0.072951 J0.132175
G02 X26.647499 Y2.335637 Z-0.125000 I0.195014 J-0.000000
G02 X28.620666 Y2.541150 Z-0.125000 I2.262131 J-12.143979
G02 X30.462623 Y2.511666 Z-0.125000 I0.546503 J-23.409695
G02 X31.686092 Y2.371190 Z-0.125000 I-0.578050 J-10.432582
G03 X31.864485 Y2.346699 Z-0.125000 I0.422133 J2.412825
G03 X32.063716 Y2.333490 Z-0.125000 I0.296851 J2.968403
G02 X32.229544 Y2.294023 Z-0.125000 I-0.011344 J-0.415773
G02 X32.263636 Y2.240290 Z-0.125000 I-0.025298 J-0.053733
G01 X32.223511 Y2.193303 Z-0.125000
G02 X31.663879 Y2.145290 Z-0.125000 I-0.614341 J3.875201
G03 X27.677144 Y2.072744 Z-0.125000 I6.657146 J-475.421543
G03 X26.985652 Y2.040440 Z-0.125000 I0.318966 J-14.244834
G03 X26.747496 Y1.867655 Z-0.125000 I0.019650 J-0.277607
G03 X26.668604 Y1.260660 Z-0.125000 I1.115701 J-0.453633
G03 X26.750722 Y0.972914 Z-0.125000 I0.990974 J0.127218
G01 X26.798788 Y0.975520 Z-0.125000
G02 X26.891843 Y1.127754 Z-0.125000 I0.373560 J-0.123786
G02 X26.965987 Y1.145430 Z-0.125000 I0.051187 J-0.050368
G03 X27.053396 Y1.151060 Z-0.125000 I0.036846 J0.109285
G03 X27.160457 Y1.240230 Z-0.125000 I-0.128160 J0.262730
G02 X27.285129 Y1.309744 Z-0.125000 I0.138722 J-0.102240
G02 X28.804238 Y1.374720 Z-0.125000 I1.594773 J-19.494541
G02 X30.348434 Y1.350064 Z-0.125000 I0.139542 J-39.629002
G02 X30.562163 Y1.311820 Z-0.125000 I-0.027264 J-0.768705
G02 X30.558454 Y1.190615 Z-0.125000 I-0.019808 J-0.060053
G02 X29.530945 Y1.040340 Z-0.125000 I-1.180641 J4.484725
G03 X27.917728 Y0.890139 Z-0.125000 I0.447561 J-13.545371
G03 X27.861493 Y0.783490 Z-0.125000 I0.011410 J-0.074167
G02 X27.906383 Y0.681699 Z-0.125000 I-1.541729 J-0.740700
G02 X27.964571 Y0.527550 Z-0.125000 I-3.493286 J-1.406696
G03 X28.091526 Y0.422737 Z-0.125000 I0.150595 J0.053115
G03 X28.176398 Y0.495850 Z-0.125000 I0.010944 J0.073113
G02 X28.290531 Y0.688890 Z-0.125000 I0.220316 J-0.000000
G02 X28.478696 Y0.662130 Z-0.125000 I0.076267 J-0.138653
G02 X28.511720 Y0.600598 Z-0.125000 I-0.086104 J-0.085839
G02 X28.531806 Y0.401690 Z-0.125000 I-0.974824 J-0.198908
G01 X28.531803 Y0.194360 Z-0.125000
G01 X14.581972 Y0.194360 Z-0.125000
G01 X0.632067 Y0.194360 Z-0.125000
G01 X0.632067 Y9.568400 Z-0.125000
G00 Z5.000000

(End cutting path id: path858)


(Start cutting path id: path858)
(Change tool to Cylindrical cutter)

G00 Z5.000000
G00 X1.698302 Y17.615480

G01 Z-0.125000 F1000.0(Penetrate)
G01 X1.726558 Y17.658854 Z-0.125000 F1100.000000
G02 X1.787155 Y17.654680 Z-0.125000 I0.026336 J-0.059614
G02 X1.863230 Y17.592706 Z-0.125000 I-0.198848 J-0.321771
G01 X1.876008 Y17.560580 Z-0.125000
G01 X1.860577 Y17.536887 Z-0.125000
G02 X1.787155 Y17.521380 Z-0.125000 I-0.073423 J0.166071
G02 X1.725088 Y17.548126 Z-0.125000 I-0.000000 J0.085388
G02 X1.698302 Y17.615480 Z-0.125000 I0.071287 J0.067354
G01 X1.698302 Y17.615480 Z-0.125000
G00 Z5.000000

(End cutting path id: path858)


(Start cutting path id: path858)
(Change tool to Cylindrical cutter)

G00 Z5.000000
G00 X5.220384 Y17.049900

G01 Z-0.125000 F1000.0(Penetrate)
G02 X5.191710 Y17.181828 Z-0.125000 I0.088304 J0.088273 F1100.000000
G02 X5.296844 Y17.254810 Z-0.125000 I0.105134 J-0.039235
G02 X5.400337 Y17.225046 Z-0.125000 I-0.000000 J-0.194809
G02 X5.430124 Y17.171210 Z-0.125000 I-0.033758 J-0.053836
G02 X5.350313 Y17.032853 Z-0.125000 I-0.159830 J0.000000
G02 X5.220384 Y17.049910 Z-0.125000 I-0.053859 J0.093123
G01 X5.220384 Y17.049900 Z-0.125000
G00 Z5.000000

(End cutting path id: path858)


(Start cutting path id: path858)
(Change tool to Cylindrical cutter)

G00 Z5.000000
G00 X5.881403 Y18.016830

G01 Z-0.125000 F1000.0(Penetrate)
G02 X5.907425 Y18.076118 Z-0.125000 I0.088910 J-0.003669 F1100.000000
G01 X5.935085 Y18.070430 Z-0.125000
G02 X5.954113 Y17.959495 Z-0.125000 I-0.249437 J-0.099884
G02 X5.928075 Y17.900120 Z-0.125000 I-0.089078 J0.003667
G01 X5.900423 Y17.905776 Z-0.125000
G02 X5.881407 Y18.016740 Z-0.125000 I0.249689 J0.099899
G01 X5.881403 Y18.016830 Z-0.125000
G00 Z5.000000

(End cutting path id: path858)


(Start cutting path id: path858)
(Change tool to Cylindrical cutter)

G00 Z5.000000
G00 X6.111329 Y18.468490

G01 Z-0.125000 F1000.0(Penetrate)
G02 X6.068199 Y18.534394 Z-0.125000 I0.136452 J0.136364 F1100.000000
G02 X6.052093 Y18.619540 Z-0.125000 I0.217013 J0.085146
G01 X6.079923 Y18.644095 Z-0.125000
G02 X6.157236 Y18.606240 Z-0.125000 I-0.016528 J-0.131633
G02 X6.226046 Y18.501063 Z-0.125000 I-0.217974 J-0.217703
G01 X6.216471 Y18.455180 Z-0.125000
G02 X6.170560 Y18.439494 Z-0.125000 I-0.038977 J0.039051
G02 X6.111328 Y18.468480 Z-0.125000 I0.012822 J0.101214
G01 X6.111329 Y18.468490 Z-0.125000
G00 Z5.000000

(End cutting path id: path858)


(Start cutting path id: path858)
(Change tool to Cylindrical cutter)

G00 Z5.000000
G00 X8.068508 Y16.600350

G01 Z-0.125000 F1000.0(Penetrate)
G02 X8.051459 Y16.730286 Z-0.125000 I0.076084 J0.076070 F1100.000000
G02 X8.189807 Y16.810090 Z-0.125000 I0.138348 J-0.080018
G02 X8.243646 Y16.780304 Z-0.125000 I-0.000000 J-0.063552
G02 X8.273415 Y16.676810 Z-0.125000 I-0.165021 J-0.103494
G02 X8.200429 Y16.571692 Z-0.125000 I-0.112191 J0.000000
G02 X8.068507 Y16.600410 Z-0.125000 I-0.043624 J0.116967
G01 X8.068508 Y16.600350 Z-0.125000
G00 Z5.000000

(End cutting path id: path858)


(Start cutting path id: path858)
(Change tool to Cylindrical cutter)

G00 Z5.000000
G00 X9.695062 Y14.766320

G01 Z-0.125000 F1000.0(Penetrate)
G03 X9.679594 Y14.839756 Z-0.125000 I-0.182056 J0.000000 F1100.000000
G01 X9.655877 Y14.855220 Z-0.125000
G01 X9.623807 Y14.842467 Z-0.125000
G03 X9.561784 Y14.766320 Z-0.125000 I0.259571 J-0.274760
G03 X9.557614 Y14.705773 Z-0.125000 I0.055436 J-0.034235
G01 X9.600969 Y14.677520 Z-0.125000
G03 X9.668323 Y14.704295 Z-0.125000 I-0.000000 J0.098104
G03 X9.695062 Y14.766320 Z-0.125000 I-0.058569 J0.062025
G01 X9.695062 Y14.766320 Z-0.125000
G00 Z5.000000

(End cutting path id: path858)


(Start cutting path id: path858)
(Change tool to Cylindrical cutter)

G00 Z5.000000
G00 X10.317032 Y14.978950

G01 Z-0.125000 F1000.0(Penetrate)
G01 X10.303124 Y15.004294 Z-0.125000 F1100.000000
G03 X10.179138 Y15.066850 Z-0.125000 I-0.374608 J-0.588322
G03 X10.106383 Y15.065772 Z-0.125000 I-0.035031 J-0.091428
G01 X10.095528 Y15.031950 Z-0.125000
G03 X10.246149 Y14.923085 Z-0.125000 I0.207077 J0.127873
G03 X10.317030 Y14.979050 Z-0.125000 I0.013346 J0.055965
G01 X10.317032 Y14.978950 Z-0.125000
G00 Z5.000000

(End cutting path id: path858)


(Start cutting path id: path858)
(Change tool to Cylindrical cutter)

G00 Z5.000000
G00 X10.508380 Y13.440820

G01 Z-0.125000 F1000.0(Penetrate)
G03 X10.622832 Y13.565845 Z-0.125000 I-0.120531 J0.225237 F1100.000000
G03 X10.636677 Y13.741640 Z-0.125000 I-0.254359 J0.108475
G02 X10.637280 Y13.929321 Z-0.125000 I0.369193 J0.092656
G02 X10.717727 Y14.056210 Z-0.125000 I0.236439 J-0.060955
G03 X10.877952 Y14.364693 Z-0.125000 I-0.285652 J0.344218
G03 X10.753277 Y14.499760 Z-0.125000 I-0.124675 J0.009992
G03 X10.669752 Y14.470293 Z-0.125000 I-0.000000 J-0.133113
G03 X10.422506 Y14.233200 Z-0.125000 I1.249364 J-1.550325
G02 X10.076647 Y14.013449 Z-0.125000 I-0.548590 J0.481366
G02 X9.961618 Y14.099930 Z-0.125000 I-0.025006 J0.086481
G03 X9.875891 Y14.144901 Z-0.125000 I-0.054659 J0.000000
G03 X9.750270 Y13.953920 Z-0.125000 I0.173230 J-0.250751
G03 X9.812890 Y13.593024 Z-0.125000 I0.497659 J-0.099530
G03 X10.079137 Y13.406540 Z-0.125000 I0.342597 J0.205828
G02 X10.271780 Y13.366172 Z-0.125000 I-1.303172 J-6.698873
G02 X10.300657 Y13.356840 Z-0.125000 I-0.036357 J-0.161842
G01 X10.328031 Y13.356956 Z-0.125000
G03 X10.508377 Y13.440940 Z-0.125000 I-0.652454 J1.636701
G01 X10.508380 Y13.440820 Z-0.125000
G00 Z5.000000

(End cutting path id: path858)


(Start cutting path id: path858)
(Change tool to Cylindrical cutter)

G00 Z5.000000
G00 X10.939003 Y12.900400

G01 Z-0.125000 F1000.0(Penetrate)
G03 X10.912966 Y12.963275 Z-0.125000 I-0.088935 J-0.000000 F1100.000000
G03 X10.850153 Y12.989300 Z-0.125000 I-0.062813 J-0.062789
G03 X10.787329 Y12.963271 Z-0.125000 I0.000000 J-0.088832
G03 X10.761293 Y12.900400 Z-0.125000 I0.062892 J-0.062871
G03 X10.787339 Y12.837589 Z-0.125000 I0.088758 J-0.000000
G03 X10.850153 Y12.811600 Z-0.125000 I0.062814 J0.062913
G03 X10.913006 Y12.837636 Z-0.125000 I-0.000000 J0.088885
G03 X10.939003 Y12.900400 Z-0.125000 I-0.062768 J0.062764
G01 X10.939003 Y12.900400 Z-0.125000
G00 Z5.000000

(End cutting path id: path858)


(Start cutting path id: path858)
(Change tool to Cylindrical cutter)

G00 Z5.000000
G00 X10.955293 Y12.208870

G01 Z-0.125000 F1000.0(Penetrate)
G03 X10.878056 Y12.246753 Z-0.125000 I-0.093969 J-0.093910 F1100.000000
G01 X10.850155 Y12.222170 Z-0.125000
G03 X10.918239 Y12.057785 Z-0.125000 I0.232490 J0.000000
G03 X11.014534 Y12.057780 Z-0.125000 I0.048150 J0.048144
G01 X11.024134 Y12.103633 Z-0.125000
G03 X10.955294 Y12.208830 Z-0.125000 I-0.286315 J-0.112240
G01 X10.955293 Y12.208870 Z-0.125000
G00 Z5.000000

(End cutting path id: path858)


(Start cutting path id: path858)
(Change tool to Cylindrical cutter)

G00 Z5.000000
G00 X12.665356 Y13.156800

G01 Z-0.125000 F1000.0(Penetrate)
G01 X12.654501 Y13.209365 Z-0.125000 F1100.000000
G03 X12.492116 Y13.277920 Z-0.125000 I-0.241500 J-0.345440
G03 X12.379396 Y13.255864 Z-0.125000 I-0.028910 J-0.151315
G01 X12.370752 Y13.199220 Z-0.125000
G03 X12.546061 Y13.101017 Z-0.125000 I0.215217 J0.178620
G03 X12.665356 Y13.156720 Z-0.125000 I0.017140 J0.118888
G01 X12.665356 Y13.156800 Z-0.125000
G00 Z5.000000

(End cutting path id: path858)


(Start cutting path id: path858)
(Change tool to Cylindrical cutter)

G00 Z5.000000
G00 X13.189156 Y11.809090

G01 Z-0.125000 F1000.0(Penetrate)
G02 X12.926197 Y11.879437 Z-0.125000 I0.123593 J0.988650 F1100.000000
G02 X12.800652 Y11.972570 Z-0.125000 I0.127659 J0.303269
G03 X12.676341 Y12.062374 Z-0.125000 I-0.236660 J-0.196656
G03 X12.473544 Y12.100720 Z-0.125000 I-0.202797 J-0.517079
G02 X12.322865 Y12.148895 Z-0.125000 I0.000000 J0.259728
G02 X12.300170 Y12.224200 Z-0.125000 I0.037250 J0.052299
G03 X12.277048 Y12.308856 Z-0.125000 I-0.069256 J0.026570
G03 X12.076436 Y12.401910 Z-0.125000 I-0.293010 J-0.368919
G03 X11.449748 Y12.344282 Z-0.125000 I-0.216466 J-1.082343
G03 X11.337173 Y12.105980 Z-0.125000 I0.071952 J-0.179732
G03 X11.554098 Y11.901333 Z-0.125000 I0.292599 J0.092861
G03 X12.671635 Y11.766540 Z-0.125000 I1.078158 J4.238735
G03 X13.188753 Y11.790083 Z-0.125000 I-0.064678 J7.111696
G01 X13.189156 Y11.809040 Z-0.125000
G01 X13.189156 Y11.809090 Z-0.125000
G00 Z5.000000

(End cutting path id: path858)


(Start cutting path id: path858)
(Change tool to Cylindrical cutter)

G00 Z5.000000
G00 X13.226965 Y10.003110

G01 Z-0.125000 F1000.0(Penetrate)
G02 X13.191499 Y10.144029 Z-0.125000 I0.070303 J0.092616 F1100.000000
G02 X13.332788 Y10.234830 Z-0.125000 I0.141289 J-0.064524
G03 X13.574879 Y10.269262 Z-0.125000 I-0.000000 J0.868278
G03 X13.651250 Y10.327330 Z-0.125000 I-0.037224 J0.128213
G02 X13.724461 Y10.376552 Z-0.125000 I0.090903 J-0.056149
G02 X13.879064 Y10.365630 Z-0.125000 I0.054681 J-0.325665
G03 X14.021714 Y10.369600 Z-0.125000 I0.065622 J0.206915
G03 X14.103224 Y10.450830 Z-0.125000 I-0.049968 J0.131651
G02 X14.341335 Y10.647775 Z-0.125000 I0.293747 J-0.112734
G02 X14.493119 Y10.520830 Z-0.125000 I0.022807 J-0.126945
G03 X14.708504 Y10.188264 Z-0.125000 I0.364443 J0.000000
G03 X15.079171 Y10.258560 Z-0.125000 I0.134914 J0.301008
G03 X15.165243 Y10.630682 Z-0.125000 I-0.262324 J0.256691
G03 X14.927223 Y10.717210 Z-0.125000 I-0.153189 J-0.050755
G02 X14.766727 Y10.743040 Z-0.125000 I-0.065313 J0.105711
G02 X14.766244 Y10.909110 Z-0.125000 I0.099286 J0.083324
G02 X15.042674 Y11.031858 Z-0.125000 I0.262038 J-0.217475
G02 X15.277381 Y10.887510 Z-0.125000 I-0.011946 J-0.282414
G03 X15.381156 Y10.804220 Z-0.125000 I0.154887 J0.086687
G03 X15.526142 Y10.812710 Z-0.125000 I0.060885 J0.202481
G02 X15.694266 Y10.866779 Z-0.125000 I0.359225 J-0.828570
G02 X15.773343 Y10.866110 Z-0.125000 I0.038054 J-0.175762
G03 X15.914604 Y10.919797 Z-0.125000 I0.030732 J0.131826
G03 X16.002258 Y11.189890 Z-0.125000 I-0.390336 J0.275946
G03 X15.848652 Y11.339770 Z-0.125000 I-0.148127 J0.001843
G03 X15.619158 Y11.175690 Z-0.125000 I0.009466 J-0.255773
G02 X15.538288 Y11.114207 Z-0.125000 I-0.090100 J0.034584
G02 X15.232027 Y11.138490 Z-0.125000 I-0.084422 J0.878698
G03 X14.891934 Y11.222127 Z-0.125000 I-3.315452 J-12.748357
G03 X14.648611 Y11.273810 Z-0.125000 I-1.514644 J-6.532286
G02 X14.503075 Y11.395941 Z-0.125000 I0.037086 J0.191972
G02 X14.559751 Y11.506160 Z-0.125000 I0.077713 J0.029720
G01 X14.561216 Y11.529820 Z-0.125000
G03 X14.431716 Y11.557060 Z-0.125000 I-0.143419 J-0.360372
G02 X14.167146 Y11.599775 Z-0.125000 I0.033636 J1.049041
G02 X14.093273 Y11.656260 Z-0.125000 I0.037038 J0.124988
G03 X14.026201 Y11.723366 Z-0.125000 I-0.175621 J-0.108461
G03 X13.949507 Y11.745160 Z-0.125000 I-0.076694 J-0.124045
G01 X13.907379 Y11.719103 Z-0.125000
G03 X13.909817 Y11.665660 Z-0.125000 I0.049157 J-0.024534
G02 X13.863471 Y11.560574 Z-0.125000 I-0.059265 J-0.036625
G02 X12.875356 Y11.470440 Z-0.125000 I-0.964273 J5.109775
G03 X12.119152 Y11.442501 Z-0.125000 I-0.042731 J-9.091204
G03 X12.059875 Y11.406340 Z-0.125000 I0.006026 J-0.076543
G01 X12.068274 Y11.354235 Z-0.125000
G03 X12.278199 Y11.223510 Z-0.125000 I0.567963 J0.678148
G02 X12.552217 Y10.907433 Z-0.125000 I-0.198825 J-0.449185
G02 X12.444807 Y10.631670 Z-0.125000 I-0.236659 J-0.066621
G03 X12.404573 Y10.478159 Z-0.125000 I0.060552 J-0.097898
G03 X12.590056 Y10.368380 Z-0.125000 I0.185959 J0.102610
G02 X12.709748 Y10.311181 Z-0.125000 I-0.000348 J-0.154558
G02 X12.788598 Y10.123650 Z-0.125000 I-0.282503 J-0.229125
G03 X12.883501 Y9.954984 Z-0.125000 I0.248062 J0.028544
G03 X13.099583 Y9.882130 Z-0.125000 I0.212635 J0.273793
G03 X13.230725 Y9.935115 Z-0.125000 I-0.001515 J0.192535
G01 X13.226960 Y10.002990 Z-0.125000
G01 X13.226965 Y10.003110 Z-0.125000
G00 Z5.000000

(End cutting path id: path858)


(Start cutting path id: path858)
(Change tool to Cylindrical cutter)

G00 Z5.000000
G00 X15.483829 Y9.835010

G01 Z-0.125000 F1000.0(Penetrate)
G03 X15.459761 Y9.902132 Z-0.125000 I-0.105630 J0.000000 F1100.000000
G03 X15.388309 Y9.951250 Z-0.125000 I-0.121141 J-0.099693
G03 X15.328223 Y9.933930 Z-0.125000 I-0.017445 J-0.052365
G03 X15.292789 Y9.835010 Z-0.125000 I0.120360 J-0.098920
G03 X15.328205 Y9.736081 Z-0.125000 I0.155877 J0.000000
G03 X15.388309 Y9.718750 Z-0.125000 I0.042651 J0.035027
G03 X15.459783 Y9.767882 Z-0.125000 I-0.049487 J0.148545
G03 X15.483829 Y9.835010 Z-0.125000 I-0.081678 J0.067128
G01 X15.483829 Y9.835010 Z-0.125000
G00 Z5.000000

(End cutting path id: path858)


(Start cutting path id: path858)
(Change tool to Cylindrical cutter)

G00 Z5.000000
G00 X16.003619 Y10.096310

G01 Z-0.125000 F1000.0(Penetrate)
G02 X16.038805 Y10.382432 Z-0.125000 I1.180909 J0.000000 F1100.000000
G02 X16.093919 Y10.457870 Z-0.125000 I0.120311 J-0.030045
G03 X16.104736 Y10.571564 Z-0.125000 I-0.037655 J0.060944
G03 X15.920260 Y10.617430 Z-0.125000 I-0.134269 J-0.146117
G03 X15.829301 Y10.530678 Z-0.125000 I0.032755 J-0.125404
G03 X15.834940 Y10.344380 Z-0.125000 I0.272062 J-0.085000
G02 X15.867184 Y10.134779 Z-0.125000 I-0.474015 J-0.180202
G02 X15.817970 Y10.052230 Z-0.125000 I-0.103966 J0.006037
G03 X15.762236 Y9.976794 Z-0.125000 I0.066503 J-0.107440
G03 X15.775340 Y9.889360 Z-0.125000 I0.108573 J-0.028427
G03 X15.903851 Y9.871201 Z-0.125000 I0.071809 J0.044380
G03 X16.003611 Y10.096310 Z-0.125000 I-0.204098 J0.225108
G01 X16.003619 Y10.096310 Z-0.125000
G00 Z5.000000

(End cutting path id: path858)


(Start cutting path id: path858)
(Change tool to Cylindrical cutter)

G00 Z5.000000
G00 X16.625589 Y8.674670

G01 Z-0.125000 F1000.0(Penetrate)
G03 X16.515623 Y8.825312 Z-0.125000 I-0.158164 J-0.000000 F1100.000000
G03 X16.270898 Y8.788160 Z-0.125000 I-0.084899 J-0.265352
G03 X16.241201 Y8.646024 Z-0.125000 I0.060855 J-0.086885
G03 X16.418265 Y8.546640 Z-0.125000 I0.177064 J0.108037
G03 X16.579728 Y8.592463 Z-0.125000 I-0.000000 J0.307377
G03 X16.625589 Y8.674670 Z-0.125000 I-0.050748 J0.082207
G01 X16.625589 Y8.674670 Z-0.125000
G00 Z5.000000

(End cutting path id: path858)


(Start cutting path id: path858)
(Change tool to Cylindrical cutter)

G00 Z5.000000
G00 X18.091662 Y7.746950

G01 Z-0.125000 F1000.0(Penetrate)
G01 X18.060284 Y7.803228 Z-0.125000 F1100.000000
G03 X17.869529 Y7.746950 Z-0.125000 I-0.000000 J-0.351422
G03 X17.846450 Y7.692791 Z-0.125000 I0.028522 J-0.044151
G01 X17.886499 Y7.659450 Z-0.125000
G03 X18.021153 Y7.686384 Z-0.125000 I0.002374 J0.338194
G03 X18.091663 Y7.746950 Z-0.125000 I-0.059996 J0.141172
G01 X18.091662 Y7.746950 Z-0.125000
G00 Z5.000000

(End cutting path id: path858)


(Start cutting path id: path858)
(Change tool to Cylindrical cutter)

G00 Z5.000000
G00 X19.024617 Y7.657050

G01 Z-0.125000 F1000.0(Penetrate)
G01 X18.994411 Y7.702154 Z-0.125000 F1100.000000
G03 X18.712120 Y7.785770 Z-0.125000 I-0.546970 J-1.328281
G03 X18.300538 Y7.774159 Z-0.125000 I-0.179030 J-0.954472
G03 X18.260170 Y7.674140 Z-0.125000 I0.015930 J-0.064585
G03 X18.755162 Y7.393688 Z-0.125000 I0.508770 J0.320916
G03 X19.024617 Y7.657040 Z-0.125000 I0.006033 J0.263352
G01 X19.024617 Y7.657050 Z-0.125000
G00 Z5.000000

(End cutting path id: path858)


(Start cutting path id: path858)
(Change tool to Cylindrical cutter)

G00 Z5.000000
G00 X18.758058 Y7.021290

G01 Z-0.125000 F1000.0(Penetrate)
G03 X18.689450 Y7.156146 Z-0.125000 I-0.166840 J-0.000000 F1100.000000
G03 X18.566510 Y7.160820 Z-0.125000 I-0.064949 J-0.089163
G03 X18.531166 Y7.035367 Z-0.125000 I0.050669 J-0.081981
G03 X18.674449 Y6.947240 Z-0.125000 I0.143283 J0.072417
G03 X18.735131 Y6.970268 Z-0.125000 I0.000000 J0.091467
G03 X18.758059 Y7.021240 Z-0.125000 I-0.045195 J0.050972
G01 X18.758058 Y7.021290 Z-0.125000
G00 Z5.000000

(End cutting path id: path858)


(Start cutting path id: path858)
(Change tool to Cylindrical cutter)

G00 Z5.000000
G00 X20.284256 Y6.729800

G01 Z-0.125000 F1000.0(Penetrate)
G02 X20.403879 Y6.834738 Z-0.125000 I0.129495 J-0.026966 F1100.000000
G02 X20.518201 Y6.747300 Z-0.125000 I0.008075 J-0.107897
G02 X20.492907 Y6.637397 Z-0.125000 I-0.136905 J-0.026354
G02 X20.401837 Y6.591810 Z-0.125000 I-0.091070 J0.068173
G02 X20.308541 Y6.634864 Z-0.125000 I0.000000 J0.122611
G02 X20.284256 Y6.729780 Z-0.125000 I0.084715 J0.072239
G01 X20.284256 Y6.729800 Z-0.125000
G00 Z5.000000

(End cutting path id: path858)


(Start cutting path id: path858)
(Change tool to Cylindrical cutter)

G00 Z5.000000
G00 X20.179704 Y5.703300

G01 Z-0.125000 F1000.0(Penetrate)
G02 X20.205750 Y5.766111 Z-0.125000 I0.088758 J0.000000 F1100.000000
G02 X20.268564 Y5.792100 Z-0.125000 I0.062814 J-0.062913
G02 X20.331417 Y5.766064 Z-0.125000 I0.000000 J-0.088885
G02 X20.357414 Y5.703300 Z-0.125000 I-0.062768 J-0.062764
G02 X20.331367 Y5.640486 Z-0.125000 I-0.088765 J-0.000000
G02 X20.268564 Y5.614500 Z-0.125000 I-0.062803 J0.062900
G02 X20.205705 Y5.640535 Z-0.125000 I-0.000000 J0.088902
G02 X20.179704 Y5.703300 Z-0.125000 I0.062757 J0.062765
G01 X20.179704 Y5.703300 Z-0.125000
G00 Z5.000000

(End cutting path id: path858)


(Start cutting path id: path858)
(Change tool to Cylindrical cutter)

G00 Z5.000000
G00 X22.082774 Y3.713620

G01 Z-0.125000 F1000.0(Penetrate)
G03 X22.137057 Y3.833637 Z-0.125000 I-0.033562 J0.087464 F1100.000000
G03 X22.003984 Y3.926240 Z-0.125000 I-0.133073 J-0.049314
G03 X21.858384 Y3.875544 Z-0.125000 I-0.000000 J-0.234432
G03 X21.835784 Y3.792960 Z-0.125000 I0.044911 J-0.056675
G03 X21.924319 Y3.709227 Z-0.125000 I0.131639 J0.050515
G03 X22.082780 Y3.713660 Z-0.125000 I0.072937 J0.227167
G01 X22.082774 Y3.713620 Z-0.125000
G00 Z5.000000

(End cutting path id: path858)


(Start cutting path id: path858)
(Change tool to Cylindrical cutter)

G00 Z5.000000
G00 X22.488519 Y3.904030

G01 Z-0.125000 F1000.0(Penetrate)
G03 X22.462689 Y3.988254 Z-0.125000 I-0.144709 J0.001693 F1100.000000
G03 X22.411389 Y4.015090 Z-0.125000 I-0.051300 J-0.035615
G03 X22.227895 Y3.878240 Z-0.125000 I0.000000 J-0.191444
G03 X22.293555 Y3.619070 Z-0.125000 I0.250335 J-0.074481
G03 X22.401645 Y3.629092 Z-0.125000 I0.049890 J0.049825
G03 X22.488519 Y3.904030 Z-0.125000 I-0.410934 J0.281039
G01 X22.488519 Y3.904030 Z-0.125000
G00 Z5.000000

(End cutting path id: path858)


(Start cutting path id: path858)
(Change tool to Cylindrical cutter)

G00 Z5.000000
G00 X24.533496 Y2.504630

G01 Z-0.125000 F1000.0(Penetrate)
G02 X24.559543 Y2.567444 Z-0.125000 I0.088765 J-0.000000 F1100.000000
G02 X24.622346 Y2.593430 Z-0.125000 I0.062803 J-0.062900
G02 X24.685205 Y2.567395 Z-0.125000 I0.000000 J-0.088902
G02 X24.711206 Y2.504630 Z-0.125000 I-0.062757 J-0.062765
G02 X24.685160 Y2.441819 Z-0.125000 I-0.088758 J0.000000
G02 X24.622346 Y2.415830 Z-0.125000 I-0.062814 J0.062913
G02 X24.559493 Y2.441866 Z-0.125000 I-0.000000 J0.088885
G02 X24.533496 Y2.504630 Z-0.125000 I0.062768 J0.062764
G01 X24.533496 Y2.504630 Z-0.125000
G00 Z5.000000

(End cutting path id: path858)


(Start cutting path id: path858)
(Change tool to Cylindrical cutter)

G00 Z5.000000
G00 X25.955142 Y3.398400

G01 Z-0.125000 F1000.0(Penetrate)
G01 X25.983400 Y3.441775 Z-0.125000 F1100.000000
G02 X26.044002 Y3.437600 Z-0.125000 I0.026337 J-0.059622
G02 X26.120083 Y3.375626 Z-0.125000 I-0.198897 J-0.321857
G01 X26.132862 Y3.343500 Z-0.125000
G01 X26.117430 Y3.319806 Z-0.125000
G02 X26.044002 Y3.304300 Z-0.125000 I-0.073428 J0.166106
G02 X25.981931 Y3.331046 Z-0.125000 I0.000000 J0.085400
G02 X25.955142 Y3.398400 Z-0.125000 I0.071279 J0.067354
G01 X25.955142 Y3.398400 Z-0.125000
G00 Z5.000000

(End cutting path id: path858)


(Start cutting path id: path858)
(Change tool to Cylindrical cutter)

G00 Z5.000000
G00 X26.932525 Y1.793800

G01 Z-0.125000 F1000.0(Penetrate)
G02 X26.958561 Y1.856671 Z-0.125000 I0.088928 J-0.000000 F1100.000000
G02 X27.021385 Y1.882700 Z-0.125000 I0.062824 J-0.062803
G02 X27.084203 Y1.856670 Z-0.125000 I-0.000000 J-0.088815
G02 X27.110235 Y1.793800 Z-0.125000 I-0.062903 J-0.062870
G02 X27.084188 Y1.730986 Z-0.125000 I-0.088765 J-0.000000
G02 X27.021385 Y1.705000 Z-0.125000 I-0.062803 J0.062900
G02 X26.958526 Y1.731035 Z-0.125000 I-0.000000 J0.088902
G02 X26.932525 Y1.793800 Z-0.125000 I0.062757 J0.062765
G01 X26.932525 Y1.793800 Z-0.125000
G00 Z5.000000

(End cutting path id: path858)


(Start cutting path id: path858)
(Change tool to Cylindrical cutter)

G00 Z5.000000
G00 X29.131634 Y6.210270

G01 Z-0.125000 F1000.0(Penetrate)
G02 X29.331553 Y6.229278 Z-0.125000 I0.199919 J-1.041815 F1100.000000
G02 X29.531472 Y6.210270 Z-0.125000 I-0.000000 J-1.060823
G01 X29.531481 Y6.190868 Z-0.125000
G02 X29.331553 Y6.171770 Z-0.125000 I-0.199928 J1.036904
G02 X29.131637 Y6.190837 Z-0.125000 I-0.000000 J1.057584
G01 X29.131634 Y6.210270 Z-0.125000
G01 X29.131634 Y6.210270 Z-0.125000
G00 Z5.000000

(End cutting path id: path858)


(Start cutting path id: path858)
(Change tool to Cylindrical cutter)

G00 Z5.000000
G00 X30.761219 Y6.428620

G01 Z-0.125000 F1000.0(Penetrate)
G02 X30.454833 Y6.557614 Z-0.125000 I0.092710 J0.648564 F1100.000000
G01 X30.486641 Y6.639530 Z-0.125000
G03 X31.064898 Y6.607704 Z-0.125000 I0.801237 J9.288770
G03 X32.241484 Y6.597630 Z-0.125000 I0.916262 J38.299846
G02 X33.377994 Y6.564337 Z-0.125000 I0.093933 J-16.208433
G01 X33.418787 Y6.520830 Z-0.125000
G02 X33.203058 Y6.297489 Z-0.125000 I-0.223476 J0.000000
G02 X30.761219 Y6.428630 Z-0.125000 I-0.480476 J13.852561
G01 X30.761219 Y6.428620 Z-0.125000
G00 Z5.000000

(End cutting path id: path858)


(Start cutting path id: path858)
(Change tool to Cylindrical cutter)

G00 Z5.000000
G00 X31.552874 Y4.777780

G01 Z-0.125000 F1000.0(Penetrate)
G02 X31.589894 Y4.867119 Z-0.125000 I0.126311 J-0.000000 F1100.000000
G02 X31.658392 Y4.883270 Z-0.125000 I0.047315 J-0.047341
G02 X31.780352 Y4.737150 Z-0.125000 I-0.057221 J-0.171718
G02 X31.693562 Y4.637080 Z-0.125000 I-0.086790 J-0.012399
G02 X31.594083 Y4.678284 Z-0.125000 I0.000000 J0.140689
G02 X31.552877 Y4.777760 Z-0.125000 I0.099470 J0.099476
G01 X31.552874 Y4.777780 Z-0.125000
G00 Z5.000000

(End cutting path id: path858)


(Start cutting path id: path858)
(Change tool to Cylindrical cutter)

G00 Z5.000000
G00 X33.152229 Y4.084390

G01 Z-0.125000 F1000.0(Penetrate)
G02 X33.209862 Y4.159474 Z-0.125000 I0.077726 J-0.000000 F1100.000000
G02 X34.085183 Y4.333960 Z-0.125000 I1.783703 J-6.665260
G03 X34.520109 Y4.415126 Z-0.125000 I-0.552362 J4.165661
G03 X34.618301 Y4.462720 Z-0.125000 I-0.060314 J0.249524
G02 X35.307899 Y4.716270 Z-0.125000 I0.736006 J-0.937217
G02 X35.557717 Y4.499420 Z-0.125000 I0.009411 J-0.241482
G03 X35.580519 Y4.420844 Z-0.125000 I0.227837 J0.023519
G03 X35.649927 Y4.314290 Z-0.125000 I0.494498 J0.246229
G02 X35.614478 Y4.214845 Z-0.125000 I-0.047237 J-0.039202
G02 X34.316564 Y4.053370 Z-0.125000 I-1.809348 J9.246314
G02 X33.197478 Y4.037894 Z-0.125000 I-0.750503 J13.800706
G01 X33.152225 Y4.084370 Z-0.125000
G01 X33.152229 Y4.084390 Z-0.125000
G00 Z5.000000

(End cutting path id: path858)


(Start cutting path id: path858)
(Change tool to Cylindrical cutter)

G00 Z5.000000
G00 X34.040757 Y6.389320

G01 Z-0.125000 F1000.0(Penetrate)
G02 X33.998894 Y6.509574 Z-0.125000 I0.012907 J0.071907 F1100.000000
G02 X34.296064 Y6.678560 Z-0.125000 I0.394813 J-0.348511
G02 X34.867002 Y6.647249 Z-0.125000 I0.221849 J-1.175733
G02 X34.879911 Y6.500460 Z-0.125000 I-0.023183 J-0.076001
G02 X34.489564 Y6.379034 Z-0.125000 I-0.549071 J1.076960
G02 X34.040757 Y6.389320 Z-0.125000 I-0.191402 J1.445108
G01 X34.040757 Y6.389320 Z-0.125000
G00 Z5.000000

(End cutting path id: path858)


(Start cutting path id: path858)
(Change tool to Cylindrical cutter)

G00 Z5.000000
G00 X34.307315 Y7.480380

G01 Z-0.125000 F1000.0(Penetrate)
G02 X34.338313 Y7.538251 Z-0.125000 I0.069519 J0.000000 F1100.000000
G02 X34.440595 Y7.569180 Z-0.125000 I0.102282 J-0.153658
G02 X34.542931 Y7.538196 Z-0.125000 I0.000000 J-0.184494
G02 X34.573874 Y7.480380 Z-0.125000 I-0.038543 J-0.057816
G02 X34.542884 Y7.422461 Z-0.125000 I-0.069618 J0.000000
G02 X34.440595 Y7.391480 Z-0.125000 I-0.102289 J0.153370
G02 X34.338305 Y7.422462 Z-0.125000 I0.000000 J0.184353
G02 X34.307315 Y7.480380 Z-0.125000 I0.038628 J0.057918
G01 X34.307315 Y7.480380 Z-0.125000
G00 Z5.000000

(End cutting path id: path858)


(Start cutting path id: path858)
(Change tool to Cylindrical cutter)

G00 Z5.000000
G00 X35.329372 Y6.680300

G01 Z-0.125000 F1000.0(Penetrate)
G02 X35.384052 Y6.806705 Z-0.125000 I0.071415 J0.044137 F1100.000000
G02 X36.839213 Y6.987450 Z-0.125000 I1.897204 J-9.326166
G02 X38.194185 Y6.990565 Z-0.125000 I0.712781 J-15.350981
G02 X39.029476 Y6.895750 Z-0.125000 I-0.246816 J-5.901107
G02 X39.330408 Y6.734324 Z-0.125000 I-0.103078 J-0.553372
G02 X39.283078 Y6.634340 Z-0.125000 I-0.042393 J-0.041127
G03 X37.595542 Y6.702856 Z-0.125000 I-1.638010 J-19.527765
G03 X35.984937 Y6.626340 Z-0.125000 I0.045350 J-17.943840
G02 X35.422732 Y6.623467 Z-0.125000 I-0.297428 J3.193250
G02 X35.329372 Y6.680740 Z-0.125000 I0.010031 J0.121079
G01 X35.329372 Y6.680300 Z-0.125000
G00 Z5.000000

(End cutting path id: path858)


(Start cutting path id: path858)
(Change tool to Cylindrical cutter)

G00 Z5.000000
G00 X36.617490 Y4.725980

G01 Z-0.125000 F1000.0(Penetrate)
G02 X36.643536 Y4.788791 Z-0.125000 I0.088758 J-0.000000 F1100.000000
G02 X36.706350 Y4.814780 Z-0.125000 I0.062814 J-0.062913
G02 X36.769209 Y4.788745 Z-0.125000 I0.000000 J-0.088902
G02 X36.795210 Y4.725980 Z-0.125000 I-0.062757 J-0.062765
G02 X36.769164 Y4.663169 Z-0.125000 I-0.088758 J-0.000000
G02 X36.706350 Y4.637180 Z-0.125000 I-0.062814 J0.062913
G02 X36.643491 Y4.663215 Z-0.125000 I0.000000 J0.088902
G02 X36.617490 Y4.725980 Z-0.125000 I0.062757 J0.062765
G01 X36.617490 Y4.725980 Z-0.125000
G00 Z5.000000

(End cutting path id: path858)


(Start cutting path id: path858)
(Change tool to Cylindrical cutter)

G00 Z5.000000
G00 X39.016519 Y10.412530

G01 Z-0.125000 F1000.0(Penetrate)
G02 X39.054644 Y10.463289 Z-0.125000 I0.052853 J0.000000 F1100.000000
G02 X39.322259 Y10.501330 Z-0.125000 I0.267615 J-0.922314
G02 X39.608664 Y10.466565 Z-0.125000 I0.000000 J-1.197135
G02 X39.682916 Y10.412530 Z-0.125000 I-0.029070 J-0.117981
G01 X39.664508 Y10.364599 Z-0.125000
G02 X39.377174 Y10.323630 Z-0.125000 I-0.287334 J0.987117
G02 X39.055575 Y10.362679 Z-0.125000 I0.000000 J1.343843
G02 X39.016519 Y10.412530 Z-0.125000 I0.012287 J0.049851
G01 X39.016519 Y10.412530 Z-0.125000
G00 Z5.000000

(End cutting path id: path858)


(Start cutting path id: path858)
(Change tool to Cylindrical cutter)

G00 Z5.000000
G00 X40.041019 Y10.319330

G01 Z-0.125000 F1000.0(Penetrate)
G02 X40.096298 Y10.427028 Z-0.125000 I0.060143 J0.037166 F1100.000000
G02 X41.656019 Y10.430750 Z-0.125000 I0.807817 J-11.714521
G02 X42.193173 Y10.355841 Z-0.125000 I-0.234146 J-3.642367
G01 X42.200754 Y10.313010 Z-0.125000
G02 X40.782013 Y9.904910 Z-0.125000 I-1.409747 J2.230777
G02 X40.041019 Y10.319010 Z-0.125000 I0.002983 J0.875358
G01 X40.041019 Y10.319330 Z-0.125000
G00 Z5.000000

(End cutting path id: path858)


(Start cutting path id: path858)
(Change tool to Cylindrical cutter)

G00 Z5.000000
G00 X44.458759 Y10.473730

G01 Z-0.125000 F1000.0(Penetrate)
G02 X44.614251 Y10.493756 Z-0.125000 I0.155492 J-0.593645 F1100.000000
G02 X44.769744 Y10.473730 Z-0.125000 I0.000000 J-0.613684
G01 X44.769757 Y10.453070 Z-0.125000
G02 X44.614252 Y10.433030 Z-0.125000 I-0.155505 J0.593303
G02 X44.458761 Y10.453038 Z-0.125000 I-0.000000 J0.614191
G01 X44.458759 Y10.473730 Z-0.125000
G01 X44.458759 Y10.473730 Z-0.125000
G00 Z5.000000

(End cutting path id: path858)


(Start cutting path id: path858)
(Change tool to Cylindrical cutter)

G00 Z5.000000
G00 X47.102132 Y11.123300

G01 Z-0.125000 F1000.0(Penetrate)
G01 X47.103551 Y11.161349 Z-0.125000 F1100.000000
G02 X47.435330 Y11.203300 Z-0.125000 I0.356182 J-1.483986
G02 X47.949649 Y11.170624 Z-0.125000 I0.051366 J-3.255502
G01 X47.990661 Y11.123300 Z-0.125000
G02 X47.870612 Y11.003251 Z-0.125000 I-0.120049 J0.000000
G02 X47.102132 Y11.123300 Z-0.125000 I-0.000000 J2.519684
G01 X47.102132 Y11.123300 Z-0.125000
G00 Z5.000000

(End cutting path id: path858)


(Start cutting path id: path858)
(Change tool to Cylindrical cutter)

G00 Z5.000000
G00 X48.044051 Y10.388730

G01 Z-0.125000 F1000.0(Penetrate)
G01 X48.053693 Y10.430438 Z-0.125000 F1100.000000
G02 X48.516060 Y10.550940 Z-0.125000 I1.021651 J-2.972775
G02 X50.786558 Y10.732785 Z-0.125000 I2.050372 J-11.335197
G02 X51.011660 Y10.503340 Z-0.125000 I-0.004385 J-0.229445
G02 X50.119189 Y9.575728 Z-0.125000 I-0.928304 J0.000000
G02 X48.044051 Y10.388730 Z-0.125000 I-0.107414 J2.780664
G01 X48.044051 Y10.388730 Z-0.125000
G00 Z5.000000

(End cutting path id: path858)


(Start cutting path id: path858)
(Change tool to Cylindrical cutter)

G00 Z5.000000
G00 X49.234603 Y9.158230

G01 Z-0.125000 F1000.0(Penetrate)
G02 X49.349312 Y9.297368 Z-0.125000 I0.141739 J-0.000000 F1100.000000
G02 X49.865417 Y9.280870 Z-0.125000 I0.221817 J-1.141804
G02 X49.890135 Y9.175456 Z-0.125000 I-0.015493 J-0.059238
G02 X49.634441 Y9.079730 Z-0.125000 I-0.255694 J0.293627
G02 X49.269979 Y9.115221 Z-0.125000 I0.000000 J1.889116
G01 X49.234603 Y9.158230 Z-0.125000
G01 X49.234603 Y9.158230 Z-0.125000
G00 Z5.000000

(End cutting path id: path858)


(Start cutting path id: path858)
(Change tool to Cylindrical cutter)

G00 Z5.000000
G00 X48.479351 Y12.367250

G01 Z-0.125000 F1000.0(Penetrate)
G01 X48.501606 Y12.413006 Z-0.125000 F1100.000000
G02 X49.273783 Y12.456050 Z-0.125000 I0.772177 J-6.904583
G02 X50.081052 Y12.413960 Z-0.125000 I-0.000000 J-7.762498
G01 X50.123132 Y12.367250 Z-0.125000
G01 X50.081190 Y12.320360 Z-0.125000
G02 X49.328698 Y12.278450 Z-0.125000 I-0.752492 J6.734486
G02 X48.556673 Y12.318730 Z-0.125000 I-0.000000 J7.418697
G02 X48.479351 Y12.367250 Z-0.125000 I0.010783 J0.103053
G01 X48.479351 Y12.367250 Z-0.125000
G00 Z5.000000

(End cutting path id: path858)


(Start cutting path id: path858)
(Change tool to Cylindrical cutter)

G00 Z5.000000
G00 X48.968044 Y13.877760

G01 Z-0.125000 F1000.0(Penetrate)
G03 X48.826380 Y13.935761 Z-0.125000 I-0.225441 J-0.348625 F1100.000000
G03 X48.543139 Y13.965260 Z-0.125000 I-0.289502 J-1.405151
G02 X48.257672 Y13.996970 Z-0.125000 I0.004775 J1.343782
G02 X47.932530 Y14.099900 Z-0.125000 I0.414916 J1.875675
G03 X47.609358 Y14.212286 Z-0.125000 I-1.080349 J-2.585763
G03 X47.457572 Y14.233180 Z-0.125000 I-0.151786 J-0.540879
G02 X47.317154 Y14.266332 Z-0.125000 I0.000000 J0.313952
G02 X47.190985 Y14.366450 Z-0.125000 I0.175187 J0.350330
G01 X47.216691 Y14.435718 Z-0.125000
G02 X47.979783 Y14.499730 Z-0.125000 I0.763092 J-4.516434
G02 X48.836942 Y14.457463 Z-0.125000 I-0.000000 J-8.712496
G01 X48.879192 Y14.410830 Z-0.125000
G03 X48.914242 Y14.357201 Z-0.125000 I0.058553 J-0.000000
G03 X49.079110 Y14.323130 Z-0.125000 I0.162657 J0.371156
G02 X50.537847 Y14.126765 Z-0.125000 I0.037272 J-5.239571
G02 X50.744655 Y13.855500 Z-0.125000 I-0.076993 J-0.273164
G02 X50.347805 Y13.461240 Z-0.125000 I-0.392005 J-0.002278
G02 X48.968044 Y13.877800 Z-0.125000 I0.032132 J2.599788
G01 X48.968044 Y13.877760 Z-0.125000
G00 Z5.000000

(End cutting path id: path858)


(Start cutting path id: path858)
(Change tool to Cylindrical cutter)

G00 Z5.000000
G00 X49.207398 Y14.556550

G01 Z-0.125000 F1000.0(Penetrate)
G02 X49.223039 Y14.672976 Z-0.125000 I0.052242 J0.052245 F1100.000000
G02 X49.573044 Y14.765070 Z-0.125000 I0.347403 J-0.609161
G02 X50.220221 Y14.682238 Z-0.125000 I-0.006418 J-2.619789
G02 X50.300837 Y14.578220 Z-0.125000 I-0.026798 J-0.104018
G02 X49.976330 Y14.247045 Z-0.125000 I-0.331244 J0.000000
G02 X49.207398 Y14.556620 Z-0.125000 I-0.021489 J1.056360
G01 X49.207398 Y14.556550 Z-0.125000
G00 Z5.000000

(End cutting path id: path858)


(Start cutting path id: path858)
(Change tool to Cylindrical cutter)

G00 Z5.000000
G00 X48.834765 Y15.032850

G01 Z-0.125000 F1000.0(Penetrate)
G01 X48.839023 Y15.087120 Z-0.125000 F1100.000000
G02 X49.190176 Y15.123250 Z-0.125000 I0.297935 J-1.171168
G02 X49.398040 Y15.031819 Z-0.125000 I-0.013852 J-0.313491
G01 X49.363437 Y14.950250 Z-0.125000
G02 X49.017571 Y14.980059 Z-0.125000 I0.038328 J2.466143
G02 X48.834765 Y15.032850 Z-0.125000 I0.119121 J0.755397
G01 X48.834765 Y15.032850 Z-0.125000
G00 Z5.000000

(End cutting path id: path858)


(Start cutting path id: path858)
(Change tool to Cylindrical cutter)

G00 Z5.000000
G00 X49.066073 Y16.020610

G01 Z-0.125000 F1000.0(Penetrate)
G03 X48.863023 Y16.131139 Z-0.125000 I-0.400949 J-0.494799 F1100.000000
G03 X48.413257 Y16.234130 Z-0.125000 I-0.790028 J-2.416518
G02 X47.954358 Y16.321873 Z-0.125000 I0.567036 J4.209541
G02 X47.768528 Y16.394460 Z-0.125000 I0.188104 J0.755726
G03 X47.587138 Y16.467467 Z-0.125000 I-0.398156 J-0.727397
G03 X47.486458 Y16.470660 Z-0.125000 I-0.057073 J-0.210743
G02 X47.396056 Y16.481889 Z-0.125000 I-0.028333 J0.141417
G02 X47.320014 Y16.550060 Z-0.125000 I0.077897 J0.163388
G01 X47.345279 Y16.596977 Z-0.125000
G02 X48.179629 Y16.574960 Z-0.125000 I0.218719 J-7.531817
G03 X49.102060 Y16.526657 Z-0.125000 I1.277963 J15.573080
G03 X50.180810 Y16.529460 Z-0.125000 I0.484109 J21.270845
G02 X51.229803 Y16.502292 Z-0.125000 I0.271527 J-9.781095
G02 X51.335900 Y16.437760 Z-0.125000 I-0.010960 J-0.137503
G03 X51.429009 Y16.335909 Z-0.125000 I0.319447 J0.198544
G03 X51.633630 Y16.213530 Z-0.125000 I0.673528 J0.893901
G01 X51.855762 Y16.111000 Z-0.125000
G01 X51.618822 Y16.105000 Z-0.125000
G02 X51.408870 Y16.140155 Z-0.125000 I-0.013044 J0.566614
G02 X51.336812 Y16.210070 Z-0.125000 I0.043210 J0.116625
G03 X51.282877 Y16.250209 Z-0.125000 I-0.060003 J-0.024321
G03 X51.218343 Y16.221270 Z-0.125000 I-0.006725 J-0.071430
G02 X51.124064 Y16.155715 Z-0.125000 I-0.143098 J0.105225
G02 X50.522969 Y16.022480 Z-0.125000 I-1.403841 J4.910951
G02 X49.329805 Y15.927321 Z-0.125000 I-1.203580 J7.563327
G02 X49.066073 Y16.020480 Z-0.125000 I-0.000569 J0.418280
G01 X49.066073 Y16.020610 Z-0.125000
G00 Z5.000000

(End cutting path id: path858)


(Start cutting path id: path858)
(Change tool to Cylindrical cutter)

G00 Z5.000000
G00 X50.100918 Y16.249130

G01 Z-0.125000 F1000.0(Penetrate)
G03 X49.945426 Y16.269069 Z-0.125000 I-0.155492 J-0.596307 F1100.000000
G03 X49.789933 Y16.249130 Z-0.125000 I0.000000 J-0.616260
G01 X49.789935 Y16.228439 Z-0.125000
G03 X49.945426 Y16.208430 Z-0.125000 I0.155491 J0.594155
G03 X50.100916 Y16.228438 Z-0.125000 I-0.000000 J0.614185
G01 X50.100918 Y16.249130 Z-0.125000
G01 X50.100918 Y16.249130 Z-0.125000
G00 Z5.000000

(End cutting path id: path858)


(Start cutting path id: path858)
(Change tool to Cylindrical cutter)

G00 Z5.000000
G00 X48.434925 Y17.085500

G01 Z-0.125000 F1000.0(Penetrate)
G03 X47.945475 Y17.150752 Z-0.125000 I-2.899471 J-19.880533 F1100.000000
G03 X46.946640 Y17.265450 Z-0.125000 I-10.196072 J-84.384615
G02 X45.971841 Y17.396518 Z-0.125000 I2.119907 J19.457033
G01 X45.947045 Y17.425600 Z-0.125000
G01 X45.971836 Y17.452097 Z-0.125000
G02 X46.724508 Y17.477300 Z-0.125000 I0.758009 J-11.385751
G03 X47.499746 Y17.507303 Z-0.125000 I-0.004269 J10.140832
G03 X48.313124 Y17.599720 Z-0.125000 I-0.869516 J11.278322
G02 X50.787041 Y17.744787 Z-0.125000 I2.033973 J-13.519461
G02 X51.011660 Y17.512820 Z-0.125000 I-0.007468 J-0.231967
G01 X50.976401 Y17.467219 Z-0.125000
G02 X50.678462 Y17.426220 Z-0.125000 I-0.322401 J1.239814
G03 X50.349360 Y17.399258 Z-0.125000 I0.041366 J-2.526904
G03 X50.171716 Y17.352120 Z-0.125000 I0.120259 J-0.811515
G01 X50.158840 Y17.298357 Z-0.125000
G03 X50.282783 Y17.227310 Z-0.125000 I0.168133 J0.149677
G02 X50.270434 Y17.023108 Z-0.125000 I-0.020250 J-0.101250
G02 X48.434925 Y17.085510 Z-0.125000 I-0.636734 J8.297214
G01 X48.434925 Y17.085500 Z-0.125000
G00 Z5.000000

(End cutting path id: path858)


(Start cutting path id: path858)
(Change tool to Cylindrical cutter)

G00 Z5.000000
G00 X47.618591 Y18.469490

G01 Z-0.125000 F1000.0(Penetrate)
G02 X47.729549 Y18.488512 Z-0.125000 I0.099815 J-0.249111 F1100.000000
G02 X47.788891 Y18.462490 Z-0.125000 I-0.003703 J-0.089121
G01 X47.783184 Y18.434807 Z-0.125000
G02 X47.672272 Y18.415790 Z-0.125000 I-0.099991 J0.250230
G02 X47.612904 Y18.441748 Z-0.125000 I0.003428 J0.088710
G01 X47.618592 Y18.469390 Z-0.125000
G01 X47.618591 Y18.469490 Z-0.125000
G00 Z5.000000

(End cutting path id: path858)


(Start cutting path id: path858)
(Change tool to Cylindrical cutter)

G00 Z5.000000
G00 X46.835573 Y18.868460

G01 Z-0.125000 F1000.0(Penetrate)
G02 X46.860931 Y18.918053 Z-0.125000 I0.061175 J0.000000 F1100.000000
G02 X46.946640 Y18.948660 Z-0.125000 I0.095579 J-0.132342
G03 X47.057190 Y18.959750 Z-0.125000 I-0.104970 J1.602894
G03 X47.213198 Y18.985160 Z-0.125000 I-0.394515 J2.913827
G02 X47.340303 Y18.980807 Z-0.125000 I0.053985 J-0.281514
G01 X47.368690 Y18.943960 Z-0.125000
G01 X47.338626 Y18.899028 Z-0.125000
G02 X47.102132 Y18.833920 Z-0.125000 I-0.382073 J0.925752
G02 X46.867516 Y18.831891 Z-0.125000 I-0.124670 J0.850109
G01 X46.835573 Y18.868220 Z-0.125000
G01 X46.835573 Y18.868460 Z-0.125000
G00 Z5.000000

(End cutting path id: path858)


(Start cutting path id: path858)
(Change tool to Cylindrical cutter)

G00 Z5.000000
G00 X47.146558 Y19.564180

G01 Z-0.125000 F1000.0(Penetrate)
G01 X47.132269 Y19.614438 Z-0.125000 F1100.000000
G03 X46.968853 Y19.652980 Z-0.125000 I-0.163416 J-0.327167
G03 X46.805437 Y19.614439 Z-0.125000 I0.000000 J-0.365716
G01 X46.791146 Y19.564180 Z-0.125000
G03 X46.860354 Y19.500954 Z-0.125000 I0.145674 J0.089966
G03 X46.968853 Y19.475380 Z-0.125000 I0.108499 J0.217367
G03 X47.077393 Y19.501007 Z-0.125000 I0.000000 J0.242672
G03 X47.146558 Y19.564180 Z-0.125000 I-0.076753 J0.153481
G01 X47.146558 Y19.564180 Z-0.125000
G00 Z5.000000

(End cutting path id: path858)


(Start cutting path id: path858)
(Change tool to Cylindrical cutter)

G00 Z5.000000
G00 X47.590822 Y19.880770

G01 Z-0.125000 F1000.0(Penetrate)
G03 X47.500574 Y19.898112 Z-0.125000 I-0.144237 J-0.507111 F1100.000000
G03 X46.994898 Y19.942170 Z-0.125000 I-1.658186 J-16.107873
G03 X46.629350 Y19.926239 Z-0.125000 I-0.113444 J-1.598789
G01 X46.618727 Y19.882270 Z-0.125000
G03 X46.761349 Y19.827406 Z-0.125000 I0.172520 J0.235668
G03 X47.214651 Y19.820970 Z-0.125000 I0.262982 J2.555511
G03 X47.589838 Y19.864666 Z-0.125000 I-0.334898 J4.508129
G01 X47.590822 Y19.880870 Z-0.125000
G01 X47.590822 Y19.880770 Z-0.125000
G00 Z5.000000

(End cutting path id: path858)


(Start cutting path id: path858)
(Change tool to Cylindrical cutter)

G00 Z5.000000
G00 X47.368690 Y20.186260

G01 Z-0.125000 F1000.0(Penetrate)
G03 X47.331902 Y20.237014 Z-0.125000 I-0.053405 J-0.000000 F1100.000000
G03 X47.124345 Y20.266260 Z-0.125000 I-0.185800 J-0.567484
G01 X46.880000 Y20.258260 Z-0.125000
G01 X47.102132 Y20.187060 Z-0.125000
G02 X47.324031 Y20.115145 Z-0.125000 I-9.693482 J-30.288289
G02 X47.346477 Y20.107060 Z-0.125000 I-0.129790 J-0.395526
G01 X47.358623 Y20.113015 Z-0.125000
G03 X47.368707 Y20.187060 Z-0.125000 I-0.266810 J0.074045
G01 X47.368690 Y20.186260 Z-0.125000
G00 Z5.000000

(End cutting path id: path858)


(Start cutting path id: path858)
(Change tool to Cylindrical cutter)

G00 Z5.000000
G00 X46.813360 Y20.514940

G01 Z-0.125000 F1000.0(Penetrate)
G03 X46.657868 Y20.534966 Z-0.125000 I-0.155492 J-0.593647 F1100.000000
G03 X46.502374 Y20.514940 Z-0.125000 I0.000000 J-0.613686
G01 X46.502385 Y20.494284 Z-0.125000
G03 X46.657868 Y20.474340 Z-0.125000 I0.155483 J0.596094
G03 X46.813365 Y20.494315 Z-0.125000 I-0.000000 J0.615232
G01 X46.813360 Y20.514940 Z-0.125000
G01 X46.813360 Y20.514940 Z-0.125000
G00 Z5.000000

(End cutting path id: path858)


(Start cutting path id: path858)
(Change tool to Cylindrical cutter)

G00 Z5.000000
G00 X47.368690 Y21.163380

G01 Z-0.125000 F1000.0(Penetrate)
G01 X47.382257 Y21.214223 Z-0.125000 F1100.000000
G03 X47.324270 Y21.249580 Z-0.125000 I-0.057987 J-0.029872
G03 X47.153447 Y21.226384 Z-0.125000 I0.000000 J-0.640593
G03 X47.013285 Y21.163380 Z-0.125000 I0.134866 J-0.487438
G01 X46.999736 Y21.112519 Z-0.125000
G03 X47.057705 Y21.077180 Z-0.125000 I0.057969 J0.029876
G03 X47.228554 Y21.100425 Z-0.125000 I-0.000000 J0.639487
G03 X47.368690 Y21.163380 Z-0.125000 I-0.135735 J0.489589
G01 X47.368690 Y21.163380 Z-0.125000
G00 Z5.000000

(End cutting path id: path858)


(Start cutting path id: path858)
(Change tool to Cylindrical cutter)

G00 Z5.000000
G00 X47.886119 Y20.707680

G01 Z-0.125000 F1000.0(Penetrate)
G01 X47.879605 Y20.752972 Z-0.125000 F1100.000000
G03 X47.415797 Y20.842470 Z-0.125000 I-0.735834 J-2.566781
G03 X46.747811 Y20.820487 Z-0.125000 I-0.253099 J-2.469020
G03 X46.657868 Y20.714010 Z-0.125000 I0.018053 J-0.106477
G03 X46.935727 Y20.434468 Z-0.125000 I0.279547 J0.000000
G03 X47.886119 Y20.708010 Z-0.125000 I0.010574 J1.751053
G01 X47.886119 Y20.707680 Z-0.125000
G00 Z5.000000

(End cutting path id: path858)


(Start cutting path id: path858)
(Change tool to Cylindrical cutter)

G00 Z5.000000
G00 X48.055450 Y20.950560

G01 Z-0.125000 F1000.0(Penetrate)
G03 X47.996063 Y20.976601 Z-0.125000 I-0.062916 J-0.062746 F1100.000000
G03 X47.885149 Y20.957560 Z-0.125000 I-0.010733 J-0.270039
G01 X47.879498 Y20.929929 Z-0.125000
G03 X47.938829 Y20.903960 Z-0.125000 I0.062943 J0.063046
G03 X48.049752 Y20.922931 Z-0.125000 I0.011406 J0.267078
G01 X48.055448 Y20.950660 Z-0.125000
G01 X48.055450 Y20.950560 Z-0.125000
G00 Z5.000000

(End cutting path id: path858)


(Start cutting path id: path858)
(Change tool to Cylindrical cutter)

G00 Z5.000000
G00 X47.724102 Y21.839900

G01 Z-0.125000 F1000.0(Penetrate)
G01 X47.708640 Y21.858604 Z-0.125000 F1100.000000
G03 X47.546396 Y21.874000 Z-0.125000 I-0.162244 J-0.847183
G03 X47.400321 Y21.842455 Z-0.125000 I-0.000000 J-0.353989
G03 X47.368690 Y21.793400 Z-0.125000 I0.022223 J-0.049055
G01 X47.400841 Y21.754479 Z-0.125000
G03 X47.546396 Y21.759300 Z-0.125000 I0.062151 J0.323244
G03 X47.709394 Y21.817073 Z-0.125000 I-0.255858 J0.980688
G01 X47.724102 Y21.839900 Z-0.125000
G01 X47.724102 Y21.839900 Z-0.125000
G00 Z5.000000

(End cutting path id: path858)


(Start cutting path id: path858)
(Change tool to Cylindrical cutter)

G00 Z5.000000
G00 X47.762744 Y25.071080

G01 Z-0.125000 F1000.0(Penetrate)
G03 X47.944562 Y25.189500 Z-0.125000 I-0.181029 J0.476734 F1100.000000
G03 X47.990661 Y25.301790 Z-0.125000 I-0.113711 J0.112290
G03 X47.913566 Y25.378145 Z-0.125000 I-0.076358 J0.000000
G03 X46.746720 Y25.289790 Z-0.125000 I0.085668 J-8.880467
G03 X46.541847 Y25.174687 Z-0.125000 I0.045868 J-0.321518
G03 X46.580679 Y25.088070 Z-0.125000 I0.040905 J-0.033674
G02 X46.945906 Y25.055199 Z-0.125000 I-0.140590 J-3.607569
G02 X46.998408 Y25.028970 Z-0.125000 I-0.012962 J-0.091605
G03 X47.200392 Y24.951796 Z-0.125000 I0.187392 J0.187543
G03 X47.762744 Y25.071070 Z-0.125000 I-0.103183 J1.871805
G01 X47.762744 Y25.071080 Z-0.125000
G00 Z5.000000

(End cutting path id: path858)


(Start cutting path id: path858)
(Change tool to Cylindrical cutter)

G00 Z5.000000
G00 X48.246559 Y26.030970

G01 Z-0.125000 F1000.0(Penetrate)
G03 X48.284726 Y26.188334 Z-0.125000 I-0.284767 J0.152377 F1100.000000
G03 X48.241659 Y26.348370 Z-0.125000 I-0.338296 J-0.005224
G03 X48.144388 Y26.381368 Z-0.125000 I-0.066940 J-0.037460
G03 X47.938209 Y26.217740 Z-0.125000 I0.199173 J-0.462680
G03 X47.731632 Y25.925037 Z-0.125000 I6.839230 J-5.046085
G01 X47.724080 Y25.900340 Z-0.125000
G03 X47.901249 Y25.761825 Z-0.125000 I0.142732 J0.000000
G03 X48.246537 Y26.030970 Z-0.125000 I-0.129977 J0.522807
G01 X48.246559 Y26.030970 Z-0.125000
G00 Z5.000000

(End cutting path id: path858)


(Start cutting path id: path858)
(Change tool to Cylindrical cutter)

G00 Z5.000000
G00 X47.368690 Y26.912250

G01 Z-0.125000 F1000.0(Penetrate)
G01 X47.356261 Y26.926911 Z-0.125000 F1100.000000
G03 X47.205249 Y26.939350 Z-0.125000 I-0.151012 J-0.910417
G03 X46.882846 Y26.754059 Z-0.125000 I-0.000000 J-0.373133
G03 X46.887530 Y26.394040 Z-0.125000 I0.302262 J-0.176108
G03 X47.154900 Y26.367944 Z-0.125000 I0.143631 J0.088859
G03 X47.368690 Y26.912180 Z-0.125000 I-0.585825 J0.544236
G01 X47.368690 Y26.912250 Z-0.125000
G00 Z5.000000

(End cutting path id: path858)


(Start cutting path id: path858)
(Change tool to Cylindrical cutter)

G00 Z5.000000
G00 X46.841194 Y26.013270

G01 Z-0.125000 F1000.0(Penetrate)
G03 X46.883677 Y26.141259 Z-0.125000 I-0.142682 J0.118406 F1100.000000
G03 X46.829864 Y26.232200 Z-0.125000 I-0.113693 J-0.005884
G03 X46.557970 Y26.212275 Z-0.125000 I-0.122195 J-0.197622
G03 X46.519322 Y25.970600 Z-0.125000 I0.120656 J-0.143223
G03 X46.651022 Y25.908165 Z-0.125000 I0.114067 J0.070490
G03 X46.841196 Y26.013300 Z-0.125000 I-0.039196 J0.295465
G01 X46.841194 Y26.013270 Z-0.125000
G00 Z5.000000

(End cutting path id: path858)


(Start cutting path id: path858)
(Change tool to Cylindrical cutter)

G00 Z5.000000
G00 X46.245736 Y26.717190

G01 Z-0.125000 F1000.0(Penetrate)
G03 X46.251360 Y26.819176 Z-0.125000 I-0.155711 J0.059735 F1100.000000
G01 X46.210816 Y26.850470 Z-0.125000
G03 X46.155084 Y26.820113 Z-0.125000 I0.000000 J-0.066338
G03 X46.124746 Y26.717190 Z-0.125000 I0.159419 J-0.102923
G03 X46.139946 Y26.599131 Z-0.125000 I0.466086 J-0.000000
G01 X46.159666 Y26.583910 Z-0.125000
G01 X46.185073 Y26.597748 Z-0.125000
G03 X46.245736 Y26.717190 Z-0.125000 I-0.545123 J0.351985
G01 X46.245736 Y26.717190 Z-0.125000
G00 Z5.000000

(End cutting path id: path858)


(Start cutting path id: path858)
(Change tool to Cylindrical cutter)

G00 Z5.000000
G00 X46.245736 Y27.428390

G01 Z-0.125000 F1000.0(Penetrate)
G03 X46.185082 Y27.547820 Z-0.125000 I-0.604645 J-0.231959 F1100.000000
G01 X46.159666 Y27.561660 Z-0.125000
G01 X46.139955 Y27.546448 Z-0.125000
G03 X46.124746 Y27.428390 Z-0.125000 I0.450591 J-0.118058
G03 X46.155091 Y27.325459 Z-0.125000 I0.189744 J0.000000
G03 X46.210816 Y27.295110 Z-0.125000 I0.055725 J0.035984
G01 X46.251369 Y27.326409 Z-0.125000
G03 X46.245736 Y27.428390 Z-0.125000 I-0.161265 J0.042238
G01 X46.245736 Y27.428390 Z-0.125000
G00 Z5.000000

(End cutting path id: path858)


(Start cutting path id: path858)
(Change tool to Cylindrical cutter)

G00 Z5.000000
G00 X43.724362 Y27.139270

G01 Z-0.125000 F1000.0(Penetrate)
G03 X43.635240 Y27.437590 Z-0.125000 I-0.566216 J-0.006681 F1100.000000
G01 X43.549377 Y27.413100 Z-0.125000
G02 X43.537426 Y27.311349 Z-0.125000 I-0.480175 J0.004819
G02 X43.494077 Y27.168750 Z-0.125000 I-1.019594 J0.232064
G03 X43.503645 Y27.071897 Z-0.125000 I0.101318 J-0.038890
G03 X43.582937 Y27.028200 Z-0.125000 I0.079292 J0.050093
G03 X43.688713 Y27.064777 Z-0.125000 I-0.000000 J0.171235
G03 X43.724362 Y27.139270 Z-0.125000 I-0.057617 J0.073350
G01 X43.724362 Y27.139270 Z-0.125000
G00 Z5.000000

(End cutting path id: path858)


(Start cutting path id: path858)
(Change tool to Cylindrical cutter)

G00 Z5.000000
G00 X43.725723 Y26.450730

G01 Z-0.125000 F1000.0(Penetrate)
G03 X43.681319 Y26.539561 Z-0.125000 I-0.111056 J0.000000 F1100.000000
G03 X43.548018 Y26.584010 Z-0.125000 I-0.133301 J-0.177657
G03 X43.414755 Y26.539600 Z-0.125000 I-0.000000 J-0.222148
G03 X43.370312 Y26.450730 Z-0.125000 I0.066632 J-0.088870
G03 X43.414715 Y26.361894 Z-0.125000 I0.111067 J0.000000
G03 X43.548018 Y26.317440 Z-0.125000 I0.133303 J0.177637
G03 X43.681276 Y26.361850 Z-0.125000 I-0.000000 J0.222134
G03 X43.725723 Y26.450730 Z-0.125000 I-0.066642 J0.088880
G01 X43.725723 Y26.450730 Z-0.125000
G00 Z5.000000

(End cutting path id: path858)


(Start cutting path id: path858)
(Change tool to Cylindrical cutter)

G00 Z5.000000
G00 X43.592444 Y25.695540

G01 Z-0.125000 F1000.0(Penetrate)
G01 X43.561069 Y25.751815 Z-0.125000 F1100.000000
G03 X43.370312 Y25.695540 Z-0.125000 I0.000000 J-0.351447
G03 X43.347229 Y25.641380 Z-0.125000 I0.028525 J-0.044157
G01 X43.387272 Y25.608040 Z-0.125000
G03 X43.521971 Y25.635033 Z-0.125000 I0.002331 J0.337946
G03 X43.592437 Y25.695540 Z-0.125000 I-0.060179 J0.141370
G01 X43.592444 Y25.695540 Z-0.125000
G00 Z5.000000

(End cutting path id: path858)


(Start cutting path id: path858)
(Change tool to Cylindrical cutter)

G00 Z5.000000
G00 X42.748340 Y26.356630

G01 Z-0.125000 F1000.0(Penetrate)
G01 X42.735617 Y26.388655 Z-0.125000 F1100.000000
G03 X42.659480 Y26.450730 Z-0.125000 I-0.274592 J-0.259067
G03 X42.598919 Y26.454928 Z-0.125000 I-0.034270 J-0.055456
G01 X42.570620 Y26.411530 Z-0.125000
G03 X42.597364 Y26.344220 Z-0.125000 I0.098074 J-0.000000
G03 X42.659480 Y26.317430 Z-0.125000 I0.062116 J0.058615
G03 X42.732845 Y26.332873 Z-0.125000 I-0.000000 J0.181991
G01 X42.748340 Y26.356630 Z-0.125000
G01 X42.748340 Y26.356630 Z-0.125000
G00 Z5.000000

(End cutting path id: path858)


(Start cutting path id: path858)
(Change tool to Cylindrical cutter)

G00 Z5.000000
G00 X39.623576 Y26.589010

G01 Z-0.125000 F1000.0(Penetrate)
G03 X39.971633 Y26.768380 Z-0.125000 I-0.156950 J0.731928 F1100.000000
G03 X40.119059 Y27.041840 Z-0.125000 I-0.317938 J0.347875
G03 X40.126232 Y27.880248 Z-0.125000 I-2.770221 J0.442935
G03 X39.981813 Y28.005560 Z-0.125000 I-0.144419 J-0.020564
G03 X39.920677 Y27.976148 Z-0.125000 I0.000000 J-0.078245
G03 X39.822079 Y27.805640 Z-0.125000 I0.515905 J-0.412089
G02 X39.724748 Y27.616223 Z-0.125000 I-0.991367 J0.389694
G02 X39.380014 Y27.123190 Z-0.125000 I-7.132308 J4.619949
G03 X39.337340 Y26.732924 Z-0.125000 I0.306636 J-0.230996
G03 X39.623576 Y26.589010 Z-0.125000 I0.232625 J0.106067
G01 X39.623576 Y26.589010 Z-0.125000
G00 Z5.000000

(End cutting path id: path858)


(Start cutting path id: path858)
(Change tool to Cylindrical cutter)

G00 Z5.000000
G00 X39.148698 Y28.438910

G01 Z-0.125000 F1000.0(Penetrate)
G01 X39.084414 Y28.465840 Z-0.125000 F1100.000000
G03 X38.968815 Y28.361410 Z-0.125000 I0.095698 J-0.222130
G03 X38.873633 Y28.131684 Z-0.125000 I0.943774 J-0.525615
G03 X38.842292 Y27.917160 Z-0.125000 I0.789842 J-0.224943
G01 X38.893565 Y27.882991 Z-0.125000
G03 X39.022175 Y27.994660 Z-0.125000 I-0.111192 J0.257955
G03 X39.155228 Y28.298732 Z-0.125000 I-1.052420 J0.641652
G03 X39.148698 Y28.438930 Z-0.125000 I-0.212022 J0.060376
G01 X39.148698 Y28.438910 Z-0.125000
G00 Z5.000000

(End cutting path id: path858)


(Start cutting path id: path858)
(Change tool to Cylindrical cutter)

G00 Z5.000000
G00 X36.617490 Y28.183530

G01 Z-0.125000 F1000.0(Penetrate)
G03 X36.591454 Y28.246401 Z-0.125000 I-0.088928 J-0.000000 F1100.000000
G03 X36.528630 Y28.272430 Z-0.125000 I-0.062824 J-0.062803
G03 X36.465812 Y28.246400 Z-0.125000 I0.000000 J-0.088815
G03 X36.439780 Y28.183530 Z-0.125000 I0.062903 J-0.062870
G03 X36.465827 Y28.120716 Z-0.125000 I0.088765 J0.000000
G03 X36.528630 Y28.094730 Z-0.125000 I0.062803 J0.062900
G03 X36.591489 Y28.120765 Z-0.125000 I0.000000 J0.088902
G03 X36.617490 Y28.183530 Z-0.125000 I-0.062757 J0.062765
G01 X36.617490 Y28.183530 Z-0.125000
G00 Z5.000000

(End cutting path id: path858)


(Start cutting path id: path858)
(Change tool to Cylindrical cutter)

G00 Z5.000000
G00 X36.585528 Y27.778030

G01 Z-0.125000 F1000.0(Penetrate)
G03 X36.546926 Y27.886399 Z-0.125000 I-0.147580 J0.008490 F1100.000000
G01 X36.483791 Y27.889030 Z-0.125000
G03 X36.402577 Y27.778880 Z-0.125000 I0.245848 J-0.266279
G03 X36.405241 Y27.724520 Z-0.125000 I0.051760 J-0.024708
G01 X36.403196 Y27.678027 Z-0.125000
G02 X36.329281 Y27.620510 Z-0.125000 I-0.137538 J0.100498
G01 X36.325518 Y27.594247 Z-0.125000
G03 X36.395371 Y27.568510 Z-0.125000 I0.074532 J0.094627
G03 X36.519511 Y27.620619 Z-0.125000 I0.006224 J0.159096
G03 X36.585542 Y27.778030 Z-0.125000 I-0.189728 J0.172143
G01 X36.585528 Y27.778030 Z-0.125000
G00 Z5.000000

(End cutting path id: path858)


(Start cutting path id: path858)
(Change tool to Cylindrical cutter)

G00 Z5.000000
G00 X35.728962 Y27.822730

G01 Z-0.125000 F1000.0(Penetrate)
G03 X35.696256 Y27.870754 Z-0.125000 I-0.051612 J0.000000 F1100.000000
G03 X35.551255 Y27.892630 Z-0.125000 I-0.120223 J-0.305387
G03 X35.401462 Y27.853375 Z-0.125000 I0.030100 J-0.420281
G01 X35.373550 Y27.809330 Z-0.125000
G01 X35.401842 Y27.767785 Z-0.125000
G03 X35.551255 Y27.739430 Z-0.125000 I0.149413 J0.379484
G03 X35.696599 Y27.771812 Z-0.125000 I0.000000 J0.342371
G03 X35.728962 Y27.822730 Z-0.125000 I-0.023874 J0.050918
G01 X35.728962 Y27.822730 Z-0.125000
G00 Z5.000000

(End cutting path id: path858)


(Start cutting path id: path858)
(Change tool to Cylindrical cutter)

G00 Z5.000000
G00 X35.769592 Y28.177530

G01 Z-0.125000 F1000.0(Penetrate)
G03 X35.777424 Y28.250021 Z-0.125000 I-0.071901 J0.044436 F1100.000000
G03 X35.718152 Y28.323630 Z-0.125000 I-0.133818 J-0.047085
G03 X34.882406 Y28.549659 Z-0.125000 I-0.797365 J-1.290164
G03 X33.989621 Y28.280030 Z-0.125000 I0.044564 J-1.760452
G01 X33.981849 Y28.236314 Z-0.125000
G03 X34.040761 Y28.213830 Z-0.125000 I0.047854 J0.036964
G02 X34.263038 Y28.229443 Z-0.125000 I0.179572 J-0.966459
G02 X34.662731 Y28.186130 Z-0.125000 I-0.135515 J-3.116386
G03 X35.628107 Y28.099692 Z-0.125000 I1.010884 J5.855869
G03 X35.769596 Y28.178130 Z-0.125000 I0.001260 J0.164557
G01 X35.769592 Y28.177530 Z-0.125000
G00 Z5.000000

(End cutting path id: path858)


(Start cutting path id: path858)
(Change tool to Cylindrical cutter)

G00 Z5.000000
G00 X34.707154 Y27.650290

G01 Z-0.125000 F1000.0(Penetrate)
G01 X34.710483 Y27.692930 Z-0.125000 F1100.000000
G03 X34.573874 Y27.734090 Z-0.125000 I-0.143031 J-0.227431
G02 X34.264987 Y27.756172 Z-0.125000 I0.075468 J3.227033
G02 X34.062970 Y27.795090 Z-0.125000 I0.172759 J1.440554
G03 X33.899824 Y27.800668 Z-0.125000 I-0.093611 J-0.349312
G01 X33.863051 Y27.755990 Z-0.125000
G03 X34.039736 Y27.555789 Z-0.125000 I0.201766 J0.000000
G03 X34.707154 Y27.650270 Z-0.125000 I0.159813 J1.275647
G01 X34.707154 Y27.650290 Z-0.125000
G00 Z5.000000

(End cutting path id: path858)


(Start cutting path id: path858)
(Change tool to Cylindrical cutter)

G00 Z5.000000
G00 X35.150296 Y26.599710

G01 Z-0.125000 F1000.0(Penetrate)
G03 X35.205622 Y26.629790 Z-0.125000 I0.002554 J0.061223 F1100.000000
G01 X35.194716 Y26.675310 Z-0.125000
G03 X35.055056 Y26.733162 Z-0.125000 I-0.237830 J-0.376642
G03 X34.818212 Y26.760210 Z-0.125000 I-0.242577 J-1.073631
G02 X34.612395 Y26.799793 Z-0.125000 I0.002407 J0.567390
G02 X34.573867 Y26.856410 Z-0.125000 I0.022336 J0.056617
G01 X34.609850 Y26.902068 Z-0.125000
G02 X34.744096 Y26.897210 Z-0.125000 I0.058418 J-0.243002
G03 X34.898973 Y26.884746 Z-0.125000 I0.104437 J0.329240
G03 X34.968162 Y26.930210 Z-0.125000 I-0.014351 J0.097219
G01 X34.945371 Y26.974217 Z-0.125000
G03 X33.665059 Y27.009410 Z-0.125000 I-1.167264 J-19.158251
G03 X32.575427 Y26.985691 Z-0.125000 I0.178044 J-33.219498
G01 X32.574675 Y26.968210 Z-0.125000
G02 X32.839884 Y26.926800 Z-0.125000 I-0.556481 J-4.433940
G02 X33.484810 Y26.797810 Z-0.125000 I-4.847206 J-25.911857
G03 X34.130438 Y26.677874 Z-0.125000 I2.610682 J12.255904
G03 X34.395552 Y26.653160 Z-0.125000 I0.323834 J2.039498
G02 X34.627061 Y26.610881 Z-0.125000 I-0.020953 J-0.769721
G02 X34.662720 Y26.560760 Z-0.125000 I-0.017395 J-0.050121
G01 X34.694893 Y26.524430 Z-0.125000
G03 X34.818212 Y26.541760 Z-0.125000 I0.029197 J0.239666
G02 X34.977119 Y26.588554 Z-0.125000 I0.283722 J-0.670273
G02 X35.150289 Y26.599660 Z-0.125000 I0.137663 J-0.790880
G01 X35.150296 Y26.599710 Z-0.125000
G00 Z5.000000

(End cutting path id: path858)


(Start cutting path id: path858)
(Change tool to Cylindrical cutter)

G00 Z5.000000
G00 X35.728962 Y26.889690

G01 Z-0.125000 F1000.0(Penetrate)
G01 X35.716239 Y26.921715 Z-0.125000 F1100.000000
G03 X35.640102 Y26.983790 Z-0.125000 I-0.274592 J-0.259067
G03 X35.579541 Y26.987988 Z-0.125000 I-0.034270 J-0.055456
G01 X35.551242 Y26.944590 Z-0.125000
G03 X35.577986 Y26.877280 Z-0.125000 I0.098074 J-0.000000
G03 X35.640102 Y26.850490 Z-0.125000 I0.062116 J0.058615
G03 X35.713467 Y26.865933 Z-0.125000 I-0.000000 J0.181991
G01 X35.728962 Y26.889690 Z-0.125000
G01 X35.728962 Y26.889690 Z-0.125000
G00 Z5.000000

(End cutting path id: path858)


(Start cutting path id: path858)
(Change tool to Cylindrical cutter)

G00 Z5.000000
G00 X34.535309 Y28.815200

G01 Z-0.125000 F1000.0(Penetrate)
G02 X34.596757 Y28.843329 Z-0.125000 I0.051816 J-0.032011 F1100.000000
G02 X34.673833 Y28.793000 Z-0.125000 I-0.017865 J-0.111543
G03 X34.752475 Y28.741782 Z-0.125000 I0.096529 J0.062229
G03 X34.818219 Y28.770200 Z-0.125000 I0.010427 J0.066134
G02 X35.330876 Y29.080772 Z-0.125000 I0.596970 J-0.407005
G02 X35.663259 Y28.869600 Z-0.125000 I0.036408 J-0.309864
G03 X35.820398 Y28.816845 Z-0.125000 I0.098443 J0.032818
G03 X36.033665 Y29.123370 Z-0.125000 I-0.298445 J0.435098
G03 X36.041815 Y29.345359 Z-0.125000 I-0.518827 J0.130192
G03 X35.978465 Y29.440170 Z-0.125000 I-0.138812 J-0.024181
G01 X35.965606 Y29.484387 Z-0.125000
G02 X36.013715 Y29.515270 Z-0.125000 I0.048625 J-0.022835
G03 X36.117998 Y29.572927 Z-0.125000 I-0.001031 J0.124999
G03 X36.227690 Y29.849830 Z-0.125000 I-0.658358 J0.420981
G03 X36.269766 Y30.177294 Z-0.125000 I-2.815661 J0.528225
G03 X36.253920 Y30.223360 Z-0.125000 I-0.062182 J0.004368
G03 X36.043028 Y30.310335 Z-0.125000 I-0.196056 J-0.176219
G03 X35.734539 Y30.194060 Z-0.125000 I0.030976 J-0.549547
G02 X35.676493 Y30.189214 Z-0.125000 I-0.032715 J0.041802
G01 X35.659419 Y30.234860 Z-0.125000
G03 X35.660302 Y30.339842 Z-0.125000 I-0.143628 J0.053703
G03 X35.609409 Y30.375920 Z-0.125000 I-0.051085 J-0.018127
G02 X35.507492 Y30.383452 Z-0.125000 I0.002311 J0.724571
G02 X35.173617 Y30.439120 Z-0.125000 I1.166877 J8.027531
G03 X34.878477 Y30.456028 Z-0.125000 I-0.212554 J-1.125904
G01 X34.840419 Y30.415120 Z-0.125000
G02 X34.808588 Y30.351628 Z-0.125000 I-0.079238 J0.000000
G02 X34.640500 Y30.265850 Z-0.125000 I-0.334654 J0.448201
G03 X34.454848 Y30.183375 Z-0.125000 I0.262052 J-0.840073
G03 X34.367176 Y30.104370 Z-0.125000 I0.151331 J-0.256080
G02 X34.302714 Y30.075877 Z-0.125000 I-0.057262 J0.042382
G02 X34.248706 Y30.116370 Z-0.125000 I0.006611 J0.065082
G03 X34.180919 Y30.191938 Z-0.125000 I-0.138836 J-0.056352
G03 X34.055551 Y30.220380 Z-0.125000 I-0.113881 J-0.211450
G03 X34.010909 Y30.195876 Z-0.125000 I0.002463 J-0.057404
G01 X34.019081 Y30.168280 Z-0.125000
G02 X34.086796 Y30.108910 Z-0.125000 I-0.050787 J-0.126228
G02 X34.085631 Y30.050360 Z-0.125000 I-0.050140 J-0.028288
G02 X33.841295 Y29.954067 Z-0.125000 I-0.186568 J0.115263
G02 X33.685330 Y30.158330 Z-0.125000 I0.055777 J0.204263
G01 X33.652388 Y30.198421 Z-0.125000
G03 X33.533819 Y30.188230 Z-0.125000 I-0.041624 J-0.210564
G02 X32.450087 Y29.971938 Z-0.125000 I-1.172905 J3.053676
G02 X32.263681 Y30.153330 Z-0.125000 I-0.004947 J0.181392
G01 X32.230962 Y30.196047 Z-0.125000
G03 X32.108189 Y30.195230 Z-0.125000 I-0.059912 J-0.222051
G02 X31.124258 Y30.038296 Z-0.125000 I-1.154439 J4.075036
G02 X30.547120 Y30.132330 Z-0.125000 I-0.058730 J1.457661
G03 X30.348263 Y30.165842 Z-0.125000 I-0.183748 J-0.483597
G01 X30.308918 Y30.125330 Z-0.125000
G01 X30.277214 Y30.095118 Z-0.125000
G02 X30.183551 Y30.131330 Z-0.125000 I0.007672 J0.159080
G03 X30.067220 Y30.180266 Z-0.125000 I-0.138904 J-0.167466
G03 X30.005291 Y30.149830 Z-0.125000 I-0.006731 J-0.064528
G03 X30.000773 Y30.080033 Z-0.125000 I0.063384 J-0.039147
G03 X30.064021 Y30.019250 Z-0.125000 I0.107438 J0.048496
G01 X30.070768 Y29.992150 Z-0.125000
G02 X30.020151 Y29.967150 Z-0.125000 I-0.053921 J0.045431
G02 X29.914898 Y30.012876 Z-0.125000 I-0.005213 J0.132000
G02 X29.864658 Y30.148060 Z-0.125000 I0.156754 J0.135184
G03 X29.803676 Y30.223089 Z-0.125000 I-0.076647 J0.000000
G03 X29.647183 Y30.193460 Z-0.125000 I-0.042505 J-0.203588
G02 X29.295338 Y30.121602 Z-0.125000 I-0.266251 J0.406351
G02 X29.210744 Y30.271560 Z-0.125000 I0.019678 J0.109940
G02 X29.289529 Y30.339396 Z-0.125000 I0.102472 J-0.039343
G02 X29.649396 Y30.368460 Z-0.125000 I0.285405 J-1.291403
G01 X29.691367 Y30.443255 Z-0.125000
G03 X29.531460 Y30.539190 Z-0.125000 I-0.185678 J-0.128256
G02 X29.022444 Y30.608812 Z-0.125000 I1.365219 J11.876858
G02 X28.709571 Y30.669740 Z-0.125000 I0.715920 J4.510128
G03 X27.226725 Y30.823134 Z-0.125000 I-1.359058 J-5.893932
G03 X26.772536 Y30.629440 Z-0.125000 I0.013532 J-0.661089
G01 X26.781019 Y30.605168 Z-0.125000
G03 X27.184262 Y30.582140 Z-0.125000 I0.403243 J3.519115
G02 X27.601627 Y30.540495 Z-0.125000 I-0.000000 J-2.112243
G02 X27.643336 Y30.489540 Z-0.125000 I-0.010271 J-0.050955
G01 X27.600060 Y30.444181 Z-0.125000
G02 X26.954726 Y30.457140 Z-0.125000 I-0.226205 J4.810126
G03 X26.341694 Y30.480408 Z-0.125000 I-0.542619 J-6.208745
G01 X26.328745 Y30.450140 Z-0.125000
G03 X26.404451 Y30.410570 Z-0.125000 I0.093857 J0.087363
G03 X27.107506 Y30.338680 Z-0.125000 I1.246733 J8.718783
G03 X27.726163 Y30.365877 Z-0.125000 I0.181111 J2.930244
G03 X27.768408 Y30.438380 Z-0.125000 I-0.008023 J0.053234
G02 X27.845901 Y30.579141 Z-0.125000 I0.098159 J0.037672
G02 X28.043174 Y30.493480 Z-0.125000 I0.037028 J-0.184711
G02 X28.041862 Y30.435511 Z-0.125000 I-0.045296 J-0.027974
G02 X27.981784 Y30.403280 Z-0.125000 I-0.061002 J0.041601
G01 X27.962833 Y30.321028 Z-0.125000
G03 X28.354164 Y30.218080 Z-0.125000 I0.443000 J0.888707
G01 X28.357335 Y30.158433 Z-0.125000
G02 X27.024849 Y30.005520 Z-0.125000 I-2.393099 J14.971346
G03 X26.193375 Y29.914756 Z-0.125000 I0.754336 J-10.764252
G03 X26.013954 Y29.855450 Z-0.125000 I0.081250 J-0.546866
G02 X25.859413 Y29.826133 Z-0.125000 I-0.124104 J0.232221
G02 X25.764505 Y29.884650 Z-0.125000 I0.015238 J0.130938
G03 X25.687562 Y29.916079 Z-0.125000 I-0.061397 J-0.040410
G03 X25.592638 Y29.847450 Z-0.125000 I0.030873 J-0.142663
G02 X25.486001 Y29.746432 Z-0.125000 I-0.228706 J0.134635
G02 X25.403753 Y29.749550 Z-0.125000 I-0.038375 J0.074083
G03 X24.972213 Y29.854393 Z-0.125000 I-0.376591 J-0.609530
G03 X24.712771 Y29.696450 Z-0.125000 I0.025713 J-0.334293
G02 X24.495406 Y29.610242 Z-0.125000 I-0.166620 J0.102980
G02 X24.355784 Y29.792250 Z-0.125000 I0.048819 J0.182008
G02 X24.385599 Y29.841753 Z-0.125000 I0.056004 J0.000000
G02 X24.506045 Y29.871650 Z-0.125000 I0.120446 J-0.227674
G01 X24.538529 Y29.910098 Z-0.125000
G03 X24.484815 Y29.997050 Z-0.125000 I-0.133963 J-0.022688
G03 X24.303514 Y30.011189 Z-0.125000 I-0.102090 J-0.139620
G03 X24.241211 Y29.871550 Z-0.125000 I0.056000 J-0.108704
G02 X24.224818 Y29.742413 Z-0.125000 I-0.168893 J-0.044169
G02 X24.142321 Y29.693940 Z-0.125000 I-0.082497 J0.045965
G02 X24.064408 Y29.746529 Z-0.125000 I-0.000000 J0.084010
G02 X24.052741 Y29.916070 Z-0.125000 I0.254647 J0.102696
G03 X24.054079 Y30.095763 Z-0.125000 I-0.368901 J0.092599
G03 X24.000501 Y30.138200 Z-0.125000 I-0.053578 J-0.012604
G03 X23.945418 Y30.101806 Z-0.125000 I0.000000 J-0.059882
G03 X23.943651 Y30.004930 Z-0.125000 I0.118711 J-0.050619
G02 X23.949278 Y29.902943 Z-0.125000 I-0.155658 J-0.059736
G01 X23.908731 Y29.871650 Z-0.125000
G02 X23.848936 Y29.897861 Z-0.125000 I0.000000 J0.081310
G02 X23.822661 Y29.965150 Z-0.125000 I0.073024 J0.067289
G03 X23.488053 Y30.285315 Z-0.125000 I-0.320477 J0.000000
G03 X22.685911 Y29.914950 Z-0.125000 I0.051430 J-1.165214
G01 X22.698178 Y29.886054 Z-0.125000
G03 X23.089625 Y29.907950 Z-0.125000 I0.048738 J2.638742
G02 X23.514468 Y29.920173 Z-0.125000 I0.274567 J-2.153999
G01 X23.556102 Y29.875550 Z-0.125000
G03 X23.591188 Y29.818634 Z-0.125000 I0.063707 J0.000000
G03 X23.739052 Y29.783550 Z-0.125000 I0.147864 J0.294046
G02 X23.857841 Y29.747831 Z-0.125000 I0.000000 J-0.215385
G01 X23.868887 Y29.697650 Z-0.125000
G02 X23.797243 Y29.651157 Z-0.125000 I-0.084972 J0.052492
G02 X23.530444 Y29.652050 Z-0.125000 I-0.130166 J0.966739
G03 X23.464680 Y29.638526 Z-0.125000 I-0.013957 J-0.098790
G01 X23.467244 Y29.613650 Z-0.125000
G03 X24.891952 Y29.361957 Z-0.125000 I1.463388 J4.125387
G03 X25.025964 Y29.599850 Z-0.125000 I0.001378 J0.155917
G02 X25.068357 Y29.712889 Z-0.125000 I0.064920 J0.040122
G02 X25.233143 Y29.663850 Z-0.125000 I0.045684 J-0.147873
G03 X25.354559 Y29.597659 Z-0.125000 I0.143811 J0.119342
G03 X26.073776 Y29.562370 Z-0.125000 I0.607364 J5.031790
G03 X26.809839 Y29.601444 Z-0.125000 I-0.315777 J12.900785
G03 X26.902731 Y29.632070 Z-0.125000 I-0.016987 J0.207714
G02 X26.995307 Y29.661917 Z-0.125000 I0.107182 J-0.173950
G02 X27.538239 Y29.677570 Z-0.125000 I0.454550 J-6.342490
G02 X28.017303 Y29.600589 Z-0.125000 I-0.021042 J-1.660087
G02 X28.087594 Y29.504670 Z-0.125000 I-0.030301 J-0.095919
G02 X28.040782 Y29.385954 Z-0.125000 I-0.173939 J-0.000000
G02 X27.932101 Y29.338180 Z-0.125000 I-0.109992 J0.102715
G03 X27.782935 Y29.315614 Z-0.125000 I0.003581 J-0.527964
G03 X27.643329 Y29.251280 Z-0.125000 I0.161269 J-0.533597
G01 X27.650371 Y29.210070 Z-0.125000
G03 X27.932101 Y29.183180 Z-0.125000 I0.238641 J1.010955
G03 X28.250252 Y29.278365 Z-0.125000 I-0.027762 J0.672087
G03 X28.243086 Y29.369650 Z-0.125000 I-0.026298 J0.043859
G01 X28.236521 Y29.396603 Z-0.125000
G02 X28.287506 Y29.421450 Z-0.125000 I0.054212 J-0.046507
G03 X28.410634 Y29.459430 Z-0.125000 I-0.012051 J0.257643
G03 X28.442999 Y29.517350 Z-0.125000 I-0.035644 J0.057920
G02 X28.478888 Y29.570368 Z-0.125000 I0.057106 J0.000000
G02 X28.665131 Y29.606250 Z-0.125000 I0.186243 J-0.465399
G02 X28.851374 Y29.570368 Z-0.125000 I-0.000000 J-0.501279
G02 X28.887263 Y29.517350 Z-0.125000 I-0.021217 J-0.053018
G03 X28.914047 Y29.455279 Z-0.125000 I0.085315 J-0.000000
G03 X28.981353 Y29.428550 Z-0.125000 I0.067306 J0.071377
G01 X29.024739 Y29.456834 Z-0.125000
G03 X29.020533 Y29.517350 Z-0.125000 I-0.059553 J0.026265
G01 X29.037965 Y29.565898 Z-0.125000
G02 X29.281845 Y29.606250 Z-0.125000 I0.243880 J-0.716804
G03 X29.559820 Y29.644563 Z-0.125000 I-0.000000 J1.027566
G03 X29.598076 Y29.695050 Z-0.125000 I-0.014187 J0.050487
G02 X29.629498 Y29.752491 Z-0.125000 I0.068213 J0.000000
G02 X29.736599 Y29.783850 Z-0.125000 I0.107101 J-0.167212
G02 X29.817453 Y29.751642 Z-0.125000 I-0.000000 J-0.117589
G01 X29.824009 Y29.701150 Z-0.125000
G03 X29.813801 Y29.628073 Z-0.125000 I0.077877 J-0.048130
G03 X29.863189 Y29.562630 Z-0.125000 I0.108934 J0.030852
G01 X29.915729 Y29.575122 Z-0.125000
G03 X29.954849 Y29.711980 Z-0.125000 I-0.225987 J0.138617
G02 X29.985694 Y29.819859 Z-0.125000 I0.209496 J-0.001550
G01 X30.021489 Y29.820670 Z-0.125000
G03 X30.737014 Y29.426503 Z-0.125000 I0.743471 J0.503085
G03 X31.108574 Y29.786670 Z-0.125000 I0.011218 J0.360167
G02 X31.199953 Y29.882160 Z-0.125000 I0.095583 J0.000000
G02 X31.796186 Y29.816970 Z-0.125000 I0.086602 J-1.967127
G01 X31.810259 Y29.726636 Z-0.125000
G02 X31.563181 Y29.667310 Z-0.125000 I-0.208668 J0.324877
G03 X31.232367 Y29.663448 Z-0.125000 I-0.148144 J-1.480561
G03 X31.159236 Y29.616210 Z-0.125000 I0.012275 J-0.099230
G03 X31.203631 Y29.502597 Z-0.125000 I0.064911 J-0.040116
G03 X31.686118 Y29.469150 Z-0.125000 I0.322493 J1.155350
G02 X31.953090 Y29.500254 Z-0.125000 I1.017732 J-7.573992
G02 X32.113415 Y29.511150 Z-0.125000 I0.258462 J-2.618184
G03 X32.220965 Y29.545509 Z-0.125000 I-0.007044 J0.207556
G01 X32.230341 Y29.588150 Z-0.125000
G02 X32.214786 Y29.659042 Z-0.125000 I0.093343 J0.057633
G02 X32.251851 Y29.764720 Z-0.125000 I0.259147 J-0.031553
G02 X32.338165 Y29.814697 Z-0.125000 I0.089743 J-0.055469
G02 X32.623615 Y29.776820 Z-0.125000 I0.028582 J-0.879154
G03 X32.934172 Y29.705316 Z-0.125000 I0.663370 J2.171011
G03 X33.457886 Y29.645520 Z-0.125000 I0.967166 J6.147395
G02 X33.971492 Y29.576672 Z-0.125000 I-0.297078 J-4.166380
G02 X34.068826 Y29.524710 Z-0.125000 I-0.036823 J-0.186120
G03 X34.166396 Y29.481140 Z-0.125000 I0.105742 J0.105765
G03 X34.718296 Y29.489210 Z-0.125000 I0.217814 J3.980083
G02 X35.230962 Y29.477831 Z-0.125000 I0.202994 J-2.408787
G02 X35.286020 Y29.415910 Z-0.125000 I-0.008090 J-0.062632
G01 X35.316771 Y29.389234 Z-0.125000
G03 X35.381630 Y29.428310 Z-0.125000 I-0.012124 J0.093489
G02 X35.466618 Y29.481233 Z-0.125000 I0.105367 J-0.074506
G02 X35.520951 Y29.450610 Z-0.125000 I0.007912 J-0.049474
G03 X35.589955 Y29.375062 Z-0.125000 I0.136530 J0.055417
G03 X35.736320 Y29.339550 Z-0.125000 I0.146365 J0.283870
G02 X35.873070 Y29.306008 Z-0.125000 I0.000000 J-0.295538
G02 X35.906621 Y29.250650 Z-0.125000 I-0.028895 J-0.055358
G02 X35.872944 Y29.195454 Z-0.125000 I-0.062071 J0.000000
G02 X35.734158 Y29.161850 Z-0.125000 I-0.138786 J0.269793
G03 X35.578109 Y29.132431 Z-0.125000 I0.000000 J-0.428584
G03 X35.506783 Y29.072950 Z-0.125000 I0.053359 J-0.136491
G02 X35.430724 Y29.021978 Z-0.125000 I-0.094024 J0.058068
G02 X34.968422 Y28.984150 Z-0.125000 I-0.462302 J2.805986
G03 X34.522674 Y28.946420 Z-0.125000 I0.000000 J-2.651946
G01 X34.484976 Y28.901750 Z-0.125000
G02 X34.455953 Y28.841805 Z-0.125000 I-0.076416 J0.000000
G02 X34.329482 Y28.778780 Z-0.125000 I-0.213532 J0.270082
G01 X34.305135 Y28.750423 Z-0.125000
G01 X34.324182 Y28.727780 Z-0.125000
G03 X34.457797 Y28.750098 Z-0.125000 I0.018260 J0.301807
G03 X34.535208 Y28.815880 Z-0.125000 I-0.062948 J0.152514
G01 X34.535309 Y28.815200 Z-0.125000
G00 Z5.000000

(End cutting path id: path858)


(Start cutting path id: path858)
(Change tool to Cylindrical cutter)

G00 Z5.000000
G00 X33.774198 Y29.072060

G01 Z-0.125000 F1000.0(Penetrate)
G02 X33.805196 Y29.129931 Z-0.125000 I0.069519 J0.000000 F1100.000000
G02 X33.907478 Y29.160860 Z-0.125000 I0.102282 J-0.153658
G02 X34.009814 Y29.129876 Z-0.125000 I0.000000 J-0.184494
G02 X34.040757 Y29.072060 Z-0.125000 I-0.038543 J-0.057816
G02 X34.009767 Y29.014141 Z-0.125000 I-0.069618 J0.000000
G02 X33.907478 Y28.983160 Z-0.125000 I-0.102289 J0.153370
G02 X33.805188 Y29.014142 Z-0.125000 I0.000000 J0.184353
G02 X33.774198 Y29.072060 Z-0.125000 I0.038628 J0.057918
G01 X33.774198 Y29.072060 Z-0.125000
G00 Z5.000000

(End cutting path id: path858)


(Start cutting path id: path858)
(Change tool to Cylindrical cutter)

G00 Z5.000000
G00 X33.618706 Y28.508940

G01 Z-0.125000 F1000.0(Penetrate)
G02 X33.594684 Y28.621374 Z-0.125000 I0.025958 J0.064329 F1100.000000
G02 X33.818625 Y28.716650 Z-0.125000 I0.223941 J-0.215541
G03 X34.055296 Y28.790977 Z-0.125000 I0.000000 J0.413963
G03 X34.129610 Y28.933340 Z-0.125000 I-0.099204 J0.142363
G02 X34.209448 Y29.080226 Z-0.125000 I0.175040 J0.000000
G02 X34.551661 Y29.206880 Z-0.125000 I0.453510 J-0.699715
G01 X34.552635 Y29.257756 Z-0.125000
G03 X34.053989 Y29.293480 Z-0.125000 I-0.426022 J-2.448564
G03 X32.966433 Y29.238590 Z-0.125000 I0.745911 J-25.580751
G03 X32.906304 Y29.211080 Z-0.125000 I0.006771 J-0.094265
G01 X32.910659 Y29.183391 Z-0.125000
G03 X33.004134 Y29.160780 Z-0.125000 I0.093475 J0.181912
G02 X33.058724 Y29.069799 Z-0.125000 I0.000000 J-0.061868
G02 X32.885665 Y28.938640 Z-0.125000 I-0.228645 J0.121938
G03 X32.652378 Y28.853409 Z-0.125000 I0.199277 J-0.907324
G03 X32.619103 Y28.798300 Z-0.125000 I0.028997 J-0.055109
G03 X32.696035 Y28.716734 Z-0.125000 I0.081705 J0.000000
G03 X32.829239 Y28.786000 Z-0.125000 I0.008560 J0.146254
G02 X32.887636 Y28.829997 Z-0.125000 I0.085629 J-0.052901
G02 X33.151886 Y28.876700 Z-0.125000 I0.367151 J-1.306443
G02 X33.358210 Y28.853396 Z-0.125000 I0.042045 J-0.552757
G01 X33.375529 Y28.807200 Z-0.125000
G02 X33.304721 Y28.742890 Z-0.125000 I-0.147340 J0.091091
G02 X33.191404 Y28.716500 Z-0.125000 I-0.113317 J0.230094
G03 X33.090722 Y28.643829 Z-0.125000 I0.000000 J-0.106081
G03 X33.122604 Y28.509170 Z-0.125000 I0.125051 J-0.041497
G03 X33.191512 Y28.474117 Z-0.125000 I0.088218 J0.088164
G03 X33.455801 Y28.456970 Z-0.125000 I0.226447 J1.444934
G03 X33.617751 Y28.484228 Z-0.125000 I-0.015593 J0.587375
G01 X33.618700 Y28.508770 Z-0.125000
G01 X33.618706 Y28.508940 Z-0.125000
G00 Z5.000000

(End cutting path id: path858)


(Start cutting path id: path858)
(Change tool to Cylindrical cutter)

G00 Z5.000000
G00 X32.707965 Y28.148730

G01 Z-0.125000 F1000.0(Penetrate)
G01 X32.692162 Y28.167851 Z-0.125000 F1100.000000
G03 X32.525013 Y28.183730 Z-0.125000 I-0.167149 J-0.871796
G03 X32.405679 Y28.148296 Z-0.125000 I-0.000000 J-0.218665
G01 X32.394580 Y28.098730 Z-0.125000
G03 X32.589309 Y28.009591 Z-0.125000 I0.164239 J0.101520
G03 X32.707965 Y28.148730 Z-0.125000 I-0.022251 J0.139139
G01 X32.707965 Y28.148730 Z-0.125000
G00 Z5.000000

(End cutting path id: path858)


(Start cutting path id: path858)
(Change tool to Cylindrical cutter)

G00 Z5.000000
G00 X32.596895 Y28.333640

G01 Z-0.125000 F1000.0(Penetrate)
G03 X32.441406 Y28.353666 Z-0.125000 I-0.155489 J-0.593635 F1100.000000
G03 X32.285910 Y28.333640 Z-0.125000 I-0.000000 J-0.613715
G01 X32.285921 Y28.312984 Z-0.125000
G03 X32.441403 Y28.293040 Z-0.125000 I0.155482 J0.596087
G03 X32.596900 Y28.313015 Z-0.125000 I-0.000000 J0.615233
G01 X32.596895 Y28.333640 Z-0.125000
G01 X32.596895 Y28.333640 Z-0.125000
G00 Z5.000000

(End cutting path id: path858)


(Start cutting path id: path858)
(Change tool to Cylindrical cutter)

G00 Z5.000000
G00 X32.386453 Y28.765700

G01 Z-0.125000 F1000.0(Penetrate)
G03 X32.385385 Y28.838434 Z-0.125000 I-0.091308 J0.035034 F1100.000000
G01 X32.351533 Y28.849300 Z-0.125000
G03 X32.284620 Y28.783233 Z-0.125000 I0.110995 J-0.179336
G03 X32.263693 Y28.711400 Z-0.125000 I0.112826 J-0.071833
G01 X32.307600 Y28.682805 Z-0.125000
G03 X32.386449 Y28.765700 Z-0.125000 I-0.060232 J0.136239
G01 X32.386453 Y28.765700 Z-0.125000
G00 Z5.000000

(End cutting path id: path858)


(Start cutting path id: path858)
(Change tool to Cylindrical cutter)

G00 Z5.000000
G00 X32.643016 Y29.129870

G01 Z-0.125000 F1000.0(Penetrate)
G03 X32.532253 Y29.152136 Z-0.125000 I-0.114706 J-0.283979 F1100.000000
G03 X32.376457 Y29.132870 Z-0.125000 I-0.007458 J-0.579259
G01 X32.375034 Y29.110919 Z-0.125000
G03 X32.485830 Y29.088670 Z-0.125000 I0.114549 J0.283436
G03 X32.641586 Y29.107625 Z-0.125000 I0.007966 J0.583964
G01 X32.643016 Y29.129670 Z-0.125000
G01 X32.643016 Y29.129870 Z-0.125000
G00 Z5.000000

(End cutting path id: path858)


(Start cutting path id: path858)
(Change tool to Cylindrical cutter)

G00 Z5.000000
G00 X32.530256 Y27.816730

G01 Z-0.125000 F1000.0(Penetrate)
G03 X32.273563 Y28.126430 Z-0.125000 I-0.315174 J0.000000 F1100.000000
G03 X31.748337 Y27.964320 Z-0.125000 I-0.109178 J-0.578176
G01 X31.753686 Y27.938489 Z-0.125000
G03 X31.871264 Y27.915620 Z-0.125000 I0.119656 J0.301506
G02 X31.924300 Y27.880197 Z-0.125000 I-0.000407 J-0.058025
G01 X31.908284 Y27.828120 Z-0.125000
G01 X31.913520 Y27.782611 Z-0.125000
G03 X32.152629 Y27.740620 Z-0.125000 I0.241700 J0.674542
G03 X32.495445 Y27.774226 Z-0.125000 I0.004713 J1.717282
G01 X32.530254 Y27.816720 Z-0.125000
G01 X32.530256 Y27.816730 Z-0.125000
G00 Z5.000000

(End cutting path id: path858)


(Start cutting path id: path858)
(Change tool to Cylindrical cutter)

G00 Z5.000000
G00 X32.263698 Y26.752790

G01 Z-0.125000 F1000.0(Penetrate)
G03 X32.228778 Y26.804571 Z-0.125000 I-0.055851 J0.000000 F1100.000000
G03 X31.841646 Y26.923420 Z-0.125000 I-0.880548 J-2.178304
G03 X30.780205 Y27.033143 Z-0.125000 I-1.034349 J-4.817144
G03 X30.664629 Y26.917420 Z-0.125000 I0.000639 J-0.116214
G03 X30.725452 Y26.848099 Z-0.125000 I0.069588 J-0.000287
G03 X31.308529 Y26.835720 Z-0.125000 I0.350237 J2.758704
G02 X31.431220 Y26.813037 Z-0.125000 I0.019469 J-0.237853
G02 X31.464022 Y26.760920 Z-0.125000 I-0.025002 J-0.052117
G01 X31.503166 Y26.712249 Z-0.125000
G03 X31.863859 Y26.673120 Z-0.125000 I0.360693 J1.642871
G03 X32.227661 Y26.709158 Z-0.125000 I-0.000000 J1.854303
G01 X32.263698 Y26.753120 Z-0.125000
G01 X32.263698 Y26.752790 Z-0.125000
G00 Z5.000000

(End cutting path id: path858)


(Start cutting path id: path858)
(Change tool to Cylindrical cutter)

G00 Z5.000000
G00 X31.936709 Y25.454810

G01 Z-0.125000 F1000.0(Penetrate)
G03 X31.880082 Y25.489266 Z-0.125000 I-0.062169 J-0.038413 F1100.000000
G03 X31.723104 Y25.471110 Z-0.125000 I-0.031556 J-0.414873
G02 X31.588916 Y25.466294 Z-0.125000 I-0.075746 J0.238676
G01 X31.552874 Y25.512010 Z-0.125000
G03 X31.518642 Y25.572040 Z-0.125000 I-0.069750 J-0.000000
G03 X31.397382 Y25.604010 Z-0.125000 I-0.116963 J-0.197681
G01 X31.358410 Y25.563270 Z-0.125000
G03 X31.401182 Y25.480380 Z-0.125000 I0.108133 J0.003317
G03 X31.854752 Y25.315770 Z-0.125000 I0.492155 J0.648899
G03 X31.936705 Y25.454880 Z-0.125000 I0.004323 J0.091148
G01 X31.936709 Y25.454810 Z-0.125000
G00 Z5.000000

(End cutting path id: path858)


(Start cutting path id: path858)
(Change tool to Cylindrical cutter)

G00 Z5.000000
G00 X31.686154 Y24.540160

G01 Z-0.125000 F1000.0(Penetrate)
G03 X31.745857 Y24.594472 Z-0.125000 I-0.048929 J0.113757 F1100.000000
G01 X31.730574 Y24.621360 Z-0.125000
G03 X31.603209 Y24.604411 Z-0.125000 I-0.011027 J-0.404153
G03 X31.464016 Y24.540160 Z-0.125000 I0.157417 J-0.523927
G01 X31.476725 Y24.497075 Z-0.125000
