%
(Header)
(Generated by gcodetools from Inkscape.)
(Using default header. To add your own header create file "header" in the output dir.)
M3
(Header end.)
G21 (All units in mm)

(Start cutting path id: path1056)
(Change tool to Default tool)

G00 Z5.000000
G00 X70.926650 Y89.902790

G01 Z-0.125000 F1000.0(Penetrate)
G01 X63.643557 Y102.096960 Z-0.125000 F1400.000000
G01 X63.476512 Y99.791760 Z-0.125000
G01 X70.926650 Y89.902790 Z-0.125000
G01 X78.042700 Y102.397640 Z-0.125000
G01 X78.176336 Y99.457680 Z-0.125000
G01 X70.926650 Y89.902790 Z-0.125000
G00 Z5.000000

(End cutting path id: path1056)


(Start cutting path id: path1056)
(Change tool to Default tool)

G00 Z5.000000
G00 X64.946495 Y76.439090

G01 Z-0.125000 F1000.0(Penetrate)
G01 X71.093694 Y70.559160 Z-0.125000 F1400.000000
G01 X77.508163 Y77.641800 Z-0.125000
G01 X81.383570 Y69.222810 Z-0.125000
G01 X71.093694 Y70.559160 Z-0.125000
G01 X75.102738 Y63.342880 Z-0.125000
G01 X81.116301 Y69.222810 Z-0.125000
G01 X92.742524 Y83.388090 Z-0.125000
G01 X77.374527 Y77.374530 Z-0.125000
G01 X84.189900 Y100.359710 Z-0.125000
G01 X100.493340 Y104.903290 Z-0.125000
G01 X92.876160 Y83.120830 Z-0.125000
G01 X111.184120 Y81.784480 Z-0.125000
G01 X108.778700 Y68.955540 Z-0.125000
G01 X92.742524 Y83.388090 Z-0.125000
G00 Z5.000000

(End cutting path id: path1056)


(Start cutting path id: path1056)
(Change tool to Default tool)

G00 Z5.000000
G00 X81.383570 Y69.222810

G01 Z-0.125000 F1000.0(Penetrate)
G01 X108.778700 Y68.955540 Z-0.125000 F1400.000000
G01 X112.386840 Y49.712130 Z-0.125000
G01 X81.383570 Y69.222810 Z-0.125000
G00 Z5.000000

(End cutting path id: path1056)


(Start cutting path id: path1056)
(Change tool to Default tool)

G00 Z5.000000
G00 X66.951015 Y62.674710

G01 Z-0.125000 F1000.0(Penetrate)
G01 X68.460937 Y57.499630 Z-0.125000 F1400.000000
G01 X70.917781 Y42.947550 Z-0.125000
G01 X73.280134 Y57.877610 Z-0.125000
G01 X75.102738 Y63.342880 Z-0.125000
G00 Z5.000000

(End cutting path id: path1056)


(Start cutting path id: path1056)
(Change tool to Default tool)

G00 Z5.000000
G00 X60.402914 Y68.554640

G01 Z-0.125000 F1000.0(Penetrate)
G01 X32.874151 Y68.688270 Z-0.125000 F1400.000000
G01 X21.916101 Y54.656620 Z-0.125000
G01 X34.210500 Y25.524240 Z-0.125000
G01 X34.344133 Y12.695310 Z-0.125000
G01 X47.974879 Y20.045220 Z-0.125000
G01 X53.587541 Y32.072350 Z-0.125000
G01 X34.210500 Y25.524240 Z-0.125000
G01 X29.666917 Y49.311230 Z-0.125000
G01 X22.049736 Y55.191160 Z-0.125000
G00 Z5.000000

(End cutting path id: path1056)


(Start cutting path id: path1056)
(Change tool to Default tool)

G00 Z5.000000
G00 X32.874151 Y68.688270

G01 Z-0.125000 F1000.0(Penetrate)
G01 X29.666917 Y49.311230 Z-0.125000 F1400.000000
G01 X60.402914 Y68.554640 Z-0.125000
G01 X48.643054 Y52.251190 Z-0.125000
G01 X29.666917 Y49.311230 Z-0.125000
G01 X53.587541 Y32.072350 Z-0.125000
G01 X66.951015 Y62.674710 Z-0.125000
G01 X48.509419 Y52.384830 Z-0.125000
G01 X53.587541 Y32.072350 Z-0.125000
G00 Z5.000000

(End cutting path id: path1056)


(Start cutting path id: path1056)
(Change tool to Default tool)

G00 Z5.000000
G00 X88.733481 Y32.205980

G01 Z-0.125000 F1000.0(Penetrate)
G01 X94.078874 Y20.045220 Z-0.125000 F1400.000000
G01 X107.575980 Y13.630750 Z-0.125000
G01 X107.442350 Y25.925150 Z-0.125000
G01 X119.736750 Y55.324800 Z-0.125000
G00 Z5.000000

(End cutting path id: path1056)


(Start cutting path id: path1056)
(Change tool to Default tool)

G00 Z5.000000
G00 X92.207986 Y53.453910

G01 Z-0.125000 F1000.0(Penetrate)
G01 X75.102738 Y63.342880 Z-0.125000 F1400.000000
G01 X88.599848 Y32.339620 Z-0.125000
G01 X107.442350 Y25.925150 Z-0.125000
G01 X112.386840 Y49.712130 Z-0.125000
G01 X88.733483 Y32.205980 Z-0.125000
G01 X92.207986 Y53.453910 Z-0.125000
G00 Z5.000000

(End cutting path id: path1056)


(Start cutting path id: path1056)
(Change tool to Default tool)

G00 Z5.000000
G00 X92.207984 Y53.453910

G01 Z-0.125000 F1000.0(Penetrate)
G01 X112.386840 Y49.712130 Z-0.125000 F1400.000000
G01 X119.736750 Y55.324800 Z-0.125000
G01 X108.778700 Y68.955540 Z-0.125000
G01 X122.543080 Y76.305450 Z-0.125000
G01 X120.538560 Y103.834210 Z-0.125000
G01 X129.759350 Y117.197690 Z-0.125000
G01 X134.302930 Y94.078880 Z-0.125000
G01 X120.271290 Y103.834210 Z-0.125000
G01 X100.493340 Y104.903290 Z-0.125000
G01 X111.184120 Y81.784480 Z-0.125000
G01 X120.672190 Y103.700580 Z-0.125000
G00 Z5.000000

(End cutting path id: path1056)


(Start cutting path id: path1056)
(Change tool to Default tool)

G00 Z5.000000
G00 X129.759350 Y117.197690

G01 Z-0.125000 F1000.0(Penetrate)
G01 X112.520470 Y115.727710 Z-0.125000 F1400.000000
G01 X84.189900 Y100.359710 Z-0.125000
G01 X75.470232 Y82.085150 Z-0.125000
G01 X70.926651 Y89.902790 Z-0.125000
G01 X66.683746 Y81.383570 Z-0.125000
G00 Z5.000000

(End cutting path id: path1056)


(Start cutting path id: path1056)
(Change tool to Default tool)

G00 Z5.000000
G00 X60.402914 Y68.554640

G01 Z-0.125000 F1000.0(Penetrate)
G01 X66.951015 Y62.674710 Z-0.125000 F1400.000000
G01 X71.093694 Y70.559160 Z-0.125000
G01 X60.402914 Y68.554640 Z-0.125000
G00 Z5.000000

(End cutting path id: path1056)


(Start cutting path id: path1056)
(Change tool to Default tool)

G00 Z5.000000
G00 X49.578498 Y82.719920

G01 Z-0.125000 F1000.0(Penetrate)
G01 X64.946495 Y76.439090 Z-0.125000 F1400.000000
G00 Z5.000000

(End cutting path id: path1056)


(Start cutting path id: path1056)
(Change tool to Default tool)

G00 Z5.000000
G00 X41.827680 Y104.769660

G01 Z-0.125000 F1000.0(Penetrate)
G01 X11.893494 Y116.529520 Z-0.125000 F1400.000000
G00 Z5.000000

(End cutting path id: path1056)


(Start cutting path id: path1056)
(Change tool to Default tool)

G00 Z5.000000
G00 X11.893494 Y116.529520

G01 Z-0.125000 F1000.0(Penetrate)
G01 X7.216277 Y93.277070 Z-0.125000 F1400.000000
G00 Z5.000000

(End cutting path id: path1056)


(Start cutting path id: path1056)
(Change tool to Default tool)

G00 Z5.000000
G00 X19.777945 Y76.038180

G01 Z-0.125000 F1000.0(Penetrate)
G01 X32.874151 Y68.688270 Z-0.125000 F1400.000000
G00 Z5.000000

(End cutting path id: path1056)


(Start cutting path id: path1056)
(Change tool to Default tool)

G00 Z5.000000
G00 X41.827680 Y104.769660

G01 Z-0.125000 F1000.0(Penetrate)
G01 X21.247927 Y103.032410 Z-0.125000 F1400.000000
G00 Z5.000000

(End cutting path id: path1056)


(Start cutting path id: path1056)
(Change tool to Default tool)

G00 Z5.000000
G00 X11.893494 Y116.529520

G01 Z-0.125000 F1000.0(Penetrate)
G01 X21.247927 Y103.032410 Z-0.125000 F1400.000000
G01 X7.216277 Y93.277070 Z-0.125000
G01 X19.777945 Y76.038180 Z-0.125000
G01 X21.247927 Y102.898770 Z-0.125000
G01 X29.934188 Y81.249940 Z-0.125000
G01 X41.827680 Y104.769660 Z-0.125000
G01 X49.578498 Y82.319020 Z-0.125000
G01 X29.934188 Y81.116310 Z-0.125000
G01 X32.874151 Y68.688270 Z-0.125000
G01 X49.578498 Y82.719920 Z-0.125000
G01 X60.402914 Y68.554640 Z-0.125000
G01 X64.946495 Y76.439090 Z-0.125000
G01 X57.596582 Y100.626980 Z-0.125000
G01 X41.560411 Y104.903290 Z-0.125000
G00 Z5.000000

(End cutting path id: path1056)


(Start cutting path id: path1056)
(Change tool to Default tool)

G00 Z5.000000
G00 X11.893494 Y116.529520

G01 Z-0.125000 F1000.0(Penetrate)
G01 X29.266012 Y115.460440 Z-0.125000 F1400.000000
G01 X57.596582 Y100.626980 Z-0.125000
G01 X66.683746 Y81.383570 Z-0.125000
G00 Z5.000000

(End cutting path id: path1056)


(Start cutting path id: path1056)
(Change tool to Default tool)

G00 Z5.000000
G00 X100.493340 Y104.903290

G01 Z-0.125000 F1000.0(Penetrate)
G01 X129.759350 Y117.197690 Z-0.125000 F1400.000000
G00 Z5.000000

(End cutting path id: path1056)


(Start cutting path id: path1056)
(Change tool to Default tool)

G00 Z5.000000
G00 X134.302930 Y94.078880

G01 Z-0.125000 F1000.0(Penetrate)
G01 X122.543080 Y76.305450 Z-0.125000 F1400.000000
G00 Z5.000000

(End cutting path id: path1056)


(Footer)
M5
G00 X0.0000 Y0.0000
M2
(Using default footer. To add your own footer create file "footer" in the output dir.)
(end)
%