%
(Header)
(Generated by gcodetools from Inkscape.)
(Using default header. To add your own header create file "header" in the output dir.)
M3
(Header end.)
G21 (All units in mm)

(Start cutting path id: path826)
(Change tool to Cylindrical cutter)

G00 Z5.000000
G00 X1.419722 Y1.394850

G01 Z-0.125000 F700.0(Penetrate)
G02 X1.392880 Y1.489170 Z-0.125000 I0.152993 J0.094520 F700.000000
G02 X1.418957 Y2.093350 Z-0.125000 I6.836256 J0.007587
G03 X1.497856 Y3.955038 Z-0.125000 I-20.622662 J1.806506
G03 X1.398717 Y9.687390 Z-0.125000 I-195.983580 J-0.522417
G02 X1.349899 Y12.839686 Z-0.125000 I95.876299 J3.061331
G02 X1.401817 Y12.963260 Z-0.125000 I0.173412 J-0.000164
G02 X1.525454 Y13.021376 Z-0.125000 I0.144875 J-0.147639
G02 X2.945619 Y13.122590 Z-0.125000 I2.305620 J-22.336841
G03 X4.378652 Y13.194535 Z-0.125000 I-2.623242 J66.559140
G03 X4.420518 Y13.212490 Z-0.125000 I-0.004110 J0.067369
G03 X4.678362 Y13.791157 Z-0.125000 I-0.551814 J0.592657
G03 X4.526352 Y19.337520 Z-0.125000 I-62.105999 J1.073119
G02 X4.435652 Y20.653660 Z-0.125000 I201.417323 J14.541611
G02 X4.334416 Y22.262030 Z-0.125000 I300.214403 J19.703817
G03 X4.219907 Y23.868625 Z-0.125000 I-73.254981 J-4.413829
G03 X4.171125 Y24.245830 Z-0.125000 I-4.079012 J-0.335756
G02 X4.159306 Y24.609774 Z-0.125000 I1.261315 J0.223124
G02 X4.234515 Y24.818990 Z-0.125000 I0.474650 J-0.052500
G03 X4.314584 Y25.028848 Z-0.125000 I-0.439236 J0.287790
G03 X4.321355 Y25.397700 Z-0.125000 I-1.400681 J0.210200
G02 X4.314372 Y25.760927 Z-0.125000 I1.943269 J0.219043
G02 X4.352865 Y25.824370 Z-0.125000 I0.081453 J-0.006022
G03 X4.397186 Y25.887148 Z-0.125000 I-0.051584 J0.083452
G03 X4.427285 Y26.169620 Z-0.125000 I-1.310401 J0.282472
G02 X4.486396 Y26.423245 Z-0.125000 I0.573669 J0.000000
G02 X4.596619 Y26.513170 Z-0.125000 I0.153535 J-0.075677
G03 X4.741157 Y26.576588 Z-0.125000 I-0.127738 J0.487549
G03 X4.765952 Y26.621970 Z-0.125000 I-0.029133 J0.045382
G02 X4.791372 Y26.669525 Z-0.125000 I0.057192 J0.000000
G02 X5.019952 Y26.791700 Z-0.125000 I0.734762 J-1.099763
G03 X5.245343 Y26.916041 Z-0.125000 I-0.444012 J1.071303
G03 X5.273952 Y26.971300 Z-0.125000 I-0.039062 J0.055259
G02 X5.297678 Y27.021955 Z-0.125000 I0.065938 J0.000000
G02 X5.363262 Y27.045700 Z-0.125000 I0.065584 J-0.078701
G03 X6.077967 Y27.284561 Z-0.125000 I0.000000 J1.188677
G03 X6.482686 Y27.888050 Z-0.125000 I-0.664491 J0.883082
G02 X6.583716 Y27.989663 Z-0.125000 I0.137883 J-0.036061
G02 X7.131419 Y28.061700 Z-0.125000 I0.547703 J-2.046085
G03 X7.682985 Y28.135988 Z-0.125000 I0.000000 J2.084742
G03 X7.802901 Y28.245960 Z-0.125000 I-0.047118 J0.171745
G01 X7.871061 Y28.430210 Z-0.125000
G01 X7.919241 Y28.245960 Z-0.125000
G03 X8.021328 Y28.131517 Z-0.125000 I0.162958 J0.042611
G03 X8.394653 Y28.061700 Z-0.125000 I0.373325 J0.963208
G02 X8.785158 Y27.972405 Z-0.125000 I-0.000000 J-0.898524
G02 X9.228080 Y27.659530 Z-0.125000 I-0.715719 J-1.483160
G03 X9.651811 Y27.281823 Z-0.125000 I3.814535 J3.852803
G03 X9.888278 Y27.130370 Z-0.125000 I0.829907 J1.035427
G02 X10.130826 Y26.986748 Z-0.125000 I-0.892950 J-1.784618
G02 X10.353945 Y26.808060 Z-0.125000 I-1.163442 J-1.681381
G03 X10.574119 Y26.624083 Z-0.125000 I1.980084 J2.145927
G03 X10.798445 Y26.472300 Z-0.125000 I1.568603 J2.076637
G02 X10.880013 Y26.268276 Z-0.125000 I-0.094048 J-0.155918
G02 X10.713775 Y26.163210 Z-0.125000 I-0.140676 J0.038535
G01 X10.396275 Y26.219710 Z-0.125000
G01 X10.583235 Y26.040040 Z-0.125000
G03 X10.787204 Y25.902631 Z-0.125000 I0.496118 J0.516345
G03 X10.985402 Y25.860360 Z-0.125000 I0.198198 J0.443515
G02 X11.127029 Y25.786771 Z-0.125000 I0.000000 J-0.173080
G02 X11.200608 Y25.554030 Z-0.125000 I-0.331309 J-0.232741
G03 X11.260016 Y25.270092 Z-0.125000 I0.708243 J-0.000000
G03 X11.467861 Y24.943330 Z-0.125000 I1.156299 J0.506010
G01 X11.735113 Y24.638940 Z-0.125000
G01 X11.672743 Y19.809820 Z-0.125000
G03 X11.634833 Y13.436405 Z-0.125000 I457.409990 J-5.907582
G03 X11.679543 Y13.129050 Z-0.125000 I1.086398 J0.001106
G03 X11.781740 Y13.047828 Z-0.125000 I0.109041 J0.032295
G03 X13.305007 Y13.031050 Z-0.125000 I0.932003 J15.459138
G02 X14.883842 Y13.080400 Z-0.125000 I4.327539 J-113.169828
G02 X16.335095 Y13.104650 Z-0.125000 I2.328485 J-95.910380
G03 X17.761357 Y13.182607 Z-0.125000 I-0.144129 J15.722943
G03 X17.951297 Y13.266900 Z-0.125000 I-0.033226 J0.331015
G02 X18.143020 Y13.346243 Z-0.125000 I0.207000 J-0.228880
G02 X21.325784 Y13.434150 Z-0.125000 I3.597034 J-72.573090
G02 X29.195400 Y13.334494 Z-0.125000 I1.221165 J-214.339308
G02 X29.807403 Y13.170900 Z-0.125000 I-0.043062 J-1.387645
G02 X29.951227 Y13.045684 Z-0.125000 I-0.202008 J-0.377236
G02 X30.092797 Y12.779220 Z-0.125000 I-0.865251 J-0.630539
G03 X30.219288 Y12.510525 Z-0.125000 I1.503253 J0.543551
G03 X30.267590 Y12.482940 Z-0.125000 I0.048302 J0.028497
G01 X30.302543 Y12.450238 Z-0.125000
G02 X30.335250 Y11.466940 Z-0.125000 I-14.764334 J-0.983298
G03 X30.371048 Y10.486729 Z-0.125000 I13.437956 J0.000000
G01 X30.409550 Y10.450940 Z-0.125000
G03 X30.474062 Y10.471808 Z-0.125000 I-0.000000 J0.110153
G03 X30.594956 Y10.584820 Z-0.125000 I-0.385572 J0.533630
G03 X30.644679 Y10.722823 Z-0.125000 I-0.165995 J0.137768
G03 X30.594617 Y10.897120 Z-0.125000 I-0.329697 J-0.000359
G02 X30.568500 Y11.061253 Z-0.125000 I0.180808 J0.112914
G02 X30.677787 Y11.233110 Z-0.125000 I0.310707 J-0.076907
G03 X30.800187 Y11.423331 Z-0.125000 I-0.227397 J0.280812
G03 X30.851445 Y11.903660 Z-0.125000 I-1.595227 J0.413133
G02 X30.884361 Y12.344956 Z-0.125000 I1.922534 J0.078473
G01 X30.942705 Y12.379060 Z-0.125000
G02 X31.009501 Y12.307090 Z-0.125000 I-0.032563 J-0.097204
G02 X31.079424 Y11.840720 Z-0.125000 I-2.291657 J-0.582013
G03 X31.201839 Y10.686075 Z-0.125000 I10.232452 J0.501030
G03 X31.279286 Y10.620280 Z-0.125000 I0.077447 J0.012683
G02 X31.741335 Y10.472693 Z-0.125000 I0.000000 J-0.797060
G02 X32.843820 Y9.507250 Z-0.125000 I-4.217912 J-5.928843
G02 X33.479885 Y8.624998 Z-0.125000 I-3.163439 J-2.951117
G02 X33.501431 Y8.299530 Z-0.125000 I-0.341718 J-0.186069
G02 X33.435339 Y8.197532 Z-0.125000 I-0.274143 J0.105225
G02 X33.334356 Y8.131810 Z-0.125000 I-0.204333 J0.203519
G03 X33.257349 Y8.055734 Z-0.125000 I0.048316 J-0.125919
G03 X33.213902 Y7.828930 Z-0.125000 I0.570261 J-0.226804
G03 X33.271541 Y7.629918 Z-0.125000 I0.372383 J-0.000000
G03 X33.376180 Y7.572280 Z-0.125000 I0.104639 J0.066163
G02 X33.514427 Y7.538059 Z-0.125000 I-0.000000 J-0.296359
G02 X33.576784 Y7.466440 Z-0.125000 I-0.061392 J-0.116408
G03 X33.637780 Y7.423650 Z-0.125000 I0.060996 J0.022080
G03 X33.794358 Y7.466440 Z-0.125000 I0.000000 J0.307870
G02 X33.979004 Y7.552488 Z-0.125000 I0.533440 J-0.903549
G02 X34.094698 Y7.572280 Z-0.125000 I0.115694 J-0.328246
G02 X34.197166 Y7.543069 Z-0.125000 I0.000000 J-0.194330
G02 X34.265180 Y7.466440 Z-0.125000 I-0.094630 J-0.152489
G03 X34.314570 Y7.434980 Z-0.125000 I0.049390 J0.023039
G03 X34.363960 Y7.466440 Z-0.125000 I0.000000 J0.054499
G02 X34.434168 Y7.539572 Z-0.125000 I0.142428 J-0.066467
G02 X34.568572 Y7.572280 Z-0.125000 I0.134404 J-0.259797
G02 X34.699829 Y7.538548 Z-0.125000 I-0.000000 J-0.272237
G02 X34.760813 Y7.466440 Z-0.125000 I-0.063666 J-0.115686
G01 X34.817571 Y7.436626 Z-0.125000
G03 X34.986477 Y7.528140 Z-0.125000 I-0.111349 J0.407144
G02 X35.159256 Y7.601649 Z-0.125000 I0.195812 J-0.220439
G02 X35.257054 Y7.549340 Z-0.125000 I0.008036 J-0.102553
G03 X35.466138 Y7.418298 Z-0.125000 I0.224282 J0.125531
G03 X35.584589 Y7.529940 Z-0.125000 I0.006613 J0.111642
G02 X35.626945 Y7.614630 Z-0.125000 I0.105845 J0.000000
G02 X35.753923 Y7.656940 Z-0.125000 I0.126978 J-0.169381
G02 X35.889230 Y7.622922 Z-0.125000 I-0.000000 J-0.286099
G02 X35.923256 Y7.566040 Z-0.125000 I-0.030532 J-0.056882
G03 X35.956715 Y7.515542 Z-0.125000 I0.054836 J-0.000000
G03 X36.071423 Y7.503240 Z-0.125000 I0.077698 J0.183535
G03 X36.166489 Y7.579980 Z-0.125000 I-0.024094 J0.127103
G03 X36.261923 Y7.953950 Z-0.125000 I-1.189351 J0.502673
G02 X36.352480 Y8.323250 Z-0.125000 I1.349645 J-0.135198
G02 X36.431256 Y8.376550 Z-0.125000 I0.078776 J-0.031564
G02 X36.505613 Y8.323910 Z-0.125000 I0.000000 J-0.078836
G02 X36.558256 Y8.016060 Z-0.125000 I-0.873810 J-0.307850
G03 X36.632787 Y7.700783 Z-0.125000 I0.704103 J-0.000000
G03 X36.802498 Y7.528330 Z-0.125000 I0.351179 J0.175864
G03 X37.040435 Y7.460167 Z-0.125000 I0.286017 J0.549035
G03 X37.165920 Y7.500030 Z-0.125000 I0.013603 J0.174618
G02 X37.282478 Y7.542355 Z-0.125000 I0.117298 J-0.141368
G02 X37.383111 Y7.500920 Z-0.125000 I0.000570 J-0.141536
G03 X37.532054 Y7.461636 Z-0.125000 I0.108188 J0.108191
G03 X37.641121 Y7.572220 Z-0.125000 I-0.041438 J0.149947
G02 X37.807934 Y7.735308 Z-0.125000 I0.219172 J-0.057322
G02 X37.997589 Y7.656920 Z-0.125000 I0.040522 J-0.170583
G03 X38.104870 Y7.657534 Z-0.125000 I0.053453 J0.033037
G03 X38.155734 Y7.919480 Z-0.125000 I-0.332985 J0.200570
G02 X38.177533 Y8.185964 Z-0.125000 I0.554964 J0.088736
G02 X38.260566 Y8.233910 Z-0.125000 I0.068557 J-0.022856
G02 X38.368986 Y8.165659 Z-0.125000 I-0.036400 J-0.178062
G02 X38.395900 Y8.055390 Z-0.125000 I-0.113615 J-0.086150
G03 X38.524821 Y7.731624 Z-0.125000 I0.329087 J-0.056511
G03 X39.049001 Y7.566240 Z-0.125000 I0.497942 J0.664835
G02 X39.239904 Y7.535182 Z-0.125000 I0.017558 J-0.494312
G02 X39.408834 Y7.432360 Z-0.125000 I-0.184730 J-0.493681
G03 X39.538365 Y7.350931 Z-0.125000 I0.295881 J0.326926
G01 X39.565219 Y7.368660 Z-0.125000
G02 X39.579194 Y7.441541 Z-0.125000 I0.215019 J-0.003449
G02 X39.635489 Y7.553990 Z-0.125000 I0.581328 J-0.220713
G02 X39.844264 Y7.616087 Z-0.125000 I0.140056 J-0.088874
G02 X39.987257 Y7.393890 Z-0.125000 I-0.101139 J-0.222197
G03 X40.035485 Y7.281842 Z-0.125000 I0.154274 J-0.000000
G03 X40.156590 Y7.233620 Z-0.125000 I0.121105 J0.127960
G02 X40.283617 Y7.191260 Z-0.125000 I-0.000000 J-0.211639
G02 X40.325923 Y7.106620 Z-0.125000 I-0.063514 J-0.084640
G03 X40.355457 Y7.009119 Z-0.125000 I0.175707 J0.000000
G03 X40.410593 Y6.979620 Z-0.125000 I0.055136 J0.036777
G03 X40.516447 Y7.092968 Z-0.125000 I0.000000 J0.106102
G03 X40.391813 Y7.253990 Z-0.125000 I-0.182472 J-0.012491
G02 X40.309816 Y7.691287 Z-0.125000 I0.080442 J0.241420
G02 X41.388285 Y8.080290 Z-0.125000 I1.078469 J-1.300467
G03 X41.509487 Y8.096979 Z-0.125000 I-0.000000 J0.448465
G03 X41.660579 Y8.156690 Z-0.125000 I-0.214144 J0.762878
G02 X42.366703 Y8.420148 Z-0.125000 I1.425403 J-2.742376
G02 X42.602906 Y8.382190 Z-0.125000 I0.072478 J-0.302882
G02 X42.670321 Y8.309667 Z-0.125000 I-0.097838 J-0.158541
G02 X42.696596 Y8.202280 Z-0.125000 I-0.206306 J-0.107387
G03 X42.725679 Y8.109365 Z-0.125000 I0.162967 J0.000000
G03 X42.781266 Y8.080280 Z-0.125000 I0.055587 J0.038577
G02 X42.835689 Y8.050051 Z-0.125000 I0.000000 J-0.064105
G02 X42.865936 Y7.944220 Z-0.125000 I-0.170023 J-0.105831
G03 X42.907549 Y7.868677 Z-0.125000 I0.089376 J-0.000000
G03 X42.999861 Y7.859520 Z-0.125000 I0.055284 J0.087437
G02 X43.134735 Y7.905810 Z-0.125000 I0.706605 J-1.839170
G02 X43.169194 Y7.910920 Z-0.125000 I0.034459 J-0.113638
G01 X43.190443 Y7.925066 Z-0.125000
G03 X43.204604 Y7.995620 Z-0.125000 I-0.168687 J0.070554
G03 X43.172246 Y8.047980 Z-0.125000 I-0.058542 J0.000000
G03 X43.035271 Y8.080320 Z-0.125000 I-0.136975 J-0.273907
G02 X42.909739 Y8.124079 Z-0.125000 I-0.000000 J0.201937
G02 X42.865937 Y8.214760 Z-0.125000 I0.071966 J0.090681
G02 X42.921750 Y8.283481 Z-0.125000 I0.070214 J0.000000
G02 X43.225771 Y8.290160 Z-0.125000 I0.169893 J-0.810704
G02 X43.570853 Y8.200022 Z-0.125000 I-0.312074 J-1.900365
G02 X43.723815 Y8.109270 Z-0.125000 I-0.163010 J-0.449035
G03 X43.873805 Y8.035815 Z-0.125000 I0.208983 J0.236866
G03 X44.078727 Y8.041770 Z-0.125000 I0.088950 J0.467901
G02 X44.280661 Y8.028930 Z-0.125000 I0.080868 J-0.322515
G02 X44.633472 Y7.824510 Z-0.125000 I-0.488793 J-1.250283
G01 X44.971513 Y7.552850 Z-0.125000
G01 X45.252225 Y7.748980 Z-0.125000
G03 X45.528029 Y7.950480 Z-0.125000 I-4.640330 J6.640988
G03 X45.575270 Y7.995610 Z-0.125000 I-0.179741 J0.235437
G02 X45.622643 Y8.040613 Z-0.125000 I0.220353 J-0.184526
G02 X45.913937 Y8.250900 Z-0.125000 I5.263624 J-6.984363
G03 X46.299277 Y8.688751 Z-0.125000 I-0.685320 J0.991618
G03 X46.386144 Y9.163870 Z-0.125000 I-0.734180 J0.379733
G02 X46.334107 Y9.647019 Z-0.125000 I28.923810 J3.359611
G02 X46.283599 Y10.196940 Z-0.125000 I37.339196 J3.706700
G01 X46.237139 Y10.747280 Z-0.125000
G01 X46.679677 Y11.339940 Z-0.125000
G02 X47.127793 Y11.927237 Z-0.125000 I28.455108 J-21.247010
G02 X47.174727 Y11.974940 Z-0.125000 I0.229768 J-0.179128
G03 X47.222030 Y12.022307 Z-0.125000 I-0.196410 J0.243447
G03 X47.458308 Y12.327450 Z-0.125000 I-8.072619 J6.494832
G02 X47.694944 Y12.632874 Z-0.125000 I8.205719 J-6.113234
G02 X47.799280 Y12.750780 Z-0.125000 I1.322829 J-1.065466
G03 X47.902263 Y12.869597 Z-0.125000 I-0.989646 J0.961802
G03 X48.115274 Y13.160280 Z-0.125000 I-5.768493 J4.450505
G02 X48.328071 Y13.451089 Z-0.125000 I6.159859 J-4.284160
G02 X48.427021 Y13.565520 Z-0.125000 I1.047824 J-0.806072
G03 X48.523280 Y13.681600 Z-0.125000 I-0.695345 J0.674566
G03 X48.680896 Y13.925360 Z-0.125000 I-2.933968 J2.069947
G02 X48.842938 Y14.152059 Z-0.125000 I1.380414 J-0.815444
G02 X48.895529 Y14.176280 Z-0.125000 I0.052591 J-0.044984
G03 X48.938313 Y14.199919 Z-0.125000 I-0.000000 J0.050537
G03 X48.962049 Y14.282110 Z-0.125000 I-0.130987 J0.082350
G02 X48.988736 Y14.378057 Z-0.125000 I0.186474 J-0.000183
G02 X49.173716 Y14.633950 Z-0.125000 I1.606386 J-0.966415
G03 X49.343005 Y14.895631 Z-0.125000 I-0.871012 J0.749083
G03 X49.385279 Y15.085500 Z-0.125000 I-0.405253 J0.189869
G02 X49.492312 Y15.181854 Z-0.125000 I0.096887 J0.000000
G02 X49.636944 Y15.059000 Z-0.125000 I-0.017617 J-0.167302
G03 X50.186146 Y13.793549 Z-0.125000 I4.697666 J1.286870
G03 X50.909279 Y12.990940 Z-0.125000 I2.544564 J1.565529
G02 X50.956946 Y12.941662 Z-0.125000 I-0.143722 J-0.186716
G02 X51.334843 Y12.398280 Z-0.125000 I-17.794127 J-12.778099
G03 X51.715563 Y11.856021 Z-0.125000 I14.032446 J9.447389
G03 X51.857655 Y11.683810 Z-0.125000 I1.550252 J1.134397
G02 X51.990677 Y11.512107 Z-0.125000 I-0.898772 J-0.833678
G02 X52.009946 Y11.446390 Z-0.125000 I-0.102431 J-0.065717
G03 X52.031271 Y11.381543 Z-0.125000 I0.109259 J0.000000
G03 X52.263554 Y11.102520 Z-0.125000 I2.485168 J1.832672
G01 X52.517163 Y10.831940 Z-0.125000
G01 X52.517586 Y9.765570 Z-0.125000
G03 X52.584210 Y8.728588 Z-0.125000 I8.149961 J0.002986
G03 X52.672811 Y8.559070 Z-0.125000 I0.273886 J0.035237
G03 X52.931655 Y8.452028 Z-0.125000 I0.279071 J0.308353
G03 X53.025978 Y8.541870 Z-0.125000 I0.004375 J0.089842
G02 X53.193635 Y8.943392 Z-0.125000 I0.564631 J0.000000
G02 X53.806906 Y9.313950 Z-0.125000 I1.076485 J-1.088817
G02 X53.976169 Y9.339921 Z-0.125000 I0.167550 J-0.527440
G02 X54.338248 Y9.311950 Z-0.125000 I-0.007602 J-2.455947
G02 X54.638808 Y9.167012 Z-0.125000 I-0.083599 J-0.557465
G02 X55.006428 Y8.689750 Z-0.125000 I-1.252458 J-1.344945
G03 X55.669843 Y7.612406 Z-0.125000 I9.259720 J4.959086
G03 X55.781028 Y7.586660 Z-0.125000 I0.069947 J0.049118
G01 X55.806833 Y7.628457 Z-0.125000
G03 X55.836438 Y9.043960 Z-0.125000 I-41.377126 J1.573468
G02 X55.860157 Y10.471365 Z-0.125000 I55.765513 J-0.212743
G02 X55.883148 Y10.631460 Z-0.125000 I0.715486 J-0.021052
G02 X55.992933 Y10.731176 Z-0.125000 I0.131357 J-0.034328
G02 X56.073944 Y10.662160 Z-0.125000 I0.011107 J-0.069016
G03 X56.111880 Y10.573049 Z-0.125000 I0.123628 J-0.000000
G03 X56.205944 Y10.535160 Z-0.125000 I0.094064 J0.097817
G03 X56.282889 Y10.565839 Z-0.125000 I-0.000000 J0.111832
G01 X56.289144 Y10.614060 Z-0.125000
G01 X56.301687 Y10.663255 Z-0.125000
G02 X56.474644 Y10.719900 Z-0.125000 I0.224925 J-0.394400
G03 X56.719582 Y10.954347 Z-0.125000 I-0.032042 J0.278649
G03 X56.580504 Y11.383240 Z-0.125000 I-0.489805 J0.078166
G02 X56.487505 Y11.667915 Z-0.125000 I0.233959 J0.233959
G02 X56.642604 Y11.783500 Z-0.125000 I0.136384 J-0.021155
G03 X56.778475 Y11.790210 Z-0.125000 I0.050075 J0.365022
G03 X56.823104 Y11.826900 Z-0.125000 I-0.015368 J0.064180
G03 X56.836661 Y11.893861 Z-0.125000 I-0.135213 J0.062228
G03 X56.789904 Y12.885230 Z-0.125000 I-32.361285 J-1.029508
G02 X56.751632 Y13.880344 Z-0.125000 I20.385694 J1.282330
G02 X56.711104 Y18.493880 Z-0.125000 I437.073037 J6.146428
G03 X56.581757 Y25.185616 Z-0.125000 I-211.479054 J-0.740625
G03 X56.454374 Y25.793370 Z-0.125000 I-1.818637 J-0.063955
G02 X56.447513 Y25.932476 Z-0.125000 I0.200259 J0.079599
G02 X56.563534 Y26.174370 Z-0.125000 I0.773528 J-0.222240
G03 X56.669174 Y26.430258 Z-0.125000 I-0.508521 J0.359685
G03 X56.745254 Y27.249650 Z-0.125000 I-5.426019 J0.917032
G02 X56.792478 Y28.080669 Z-0.125000 I10.553534 J-0.182868
G02 X56.840354 Y28.238920 Z-0.125000 I0.419196 J-0.040454
G03 X56.901091 Y28.393623 Z-0.125000 I-0.626103 J0.335087
G03 X56.920554 Y28.544350 Z-0.125000 I-0.573918 J0.150727
G02 X56.957428 Y28.686741 Z-0.125000 I0.293360 J-0.000000
G02 X57.185144 Y29.020950 Z-0.125000 I1.938917 J-1.076412
G01 X57.449724 Y29.341940 Z-0.125000
G01 X57.444724 Y30.484700 Z-0.125000
G01 X57.439724 Y31.627470 Z-0.125000
G01 X57.667424 Y31.601170 Z-0.125000
G02 X57.803346 Y31.490311 Z-0.125000 I-0.018702 J-0.161685
G02 X57.919584 Y30.834040 Z-0.125000 I-2.232550 J-0.733857
G02 X57.864874 Y30.169833 Z-0.125000 I-2.898316 J-0.095627
G02 X57.771414 Y30.093210 Z-0.125000 I-0.093460 J0.018687
G03 X57.641768 Y30.050225 Z-0.125000 I0.000000 J-0.217004
G03 X57.598784 Y29.964600 Z-0.125000 I0.063791 J-0.085625
G03 X57.645825 Y29.896246 Z-0.125000 I0.073182 J-0.000000
G03 X57.801824 Y29.886900 Z-0.125000 I0.092821 J0.242716
G02 X57.942212 Y29.841968 Z-0.125000 I0.033998 J-0.135558
G02 X58.065844 Y29.576920 Z-0.125000 I-0.418709 J-0.356666
G03 X58.152712 Y29.224969 Z-0.125000 I2.391426 J0.403550
G03 X58.269304 Y28.956070 Z-0.125000 I1.510236 J0.495099
G02 X58.512797 Y28.299714 Z-0.125000 I-2.106774 J-1.154909
G02 X58.614784 Y27.327450 Z-0.125000 I-4.583423 J-0.972264
G03 X58.648067 Y26.669011 Z-0.125000 I6.529522 J-0.000000
G03 X58.691084 Y26.575270 Z-0.125000 I0.158700 J0.016085
G02 X58.742379 Y26.483209 Z-0.125000 I-0.154361 J-0.146329
G02 X58.812854 Y26.113840 Z-0.125000 I-2.619312 J-0.691168
G03 X58.861336 Y25.733233 Z-0.125000 I23.942059 J2.856366
G03 X58.984844 Y24.843840 Z-0.125000 I133.584362 J18.097286
G02 X59.081809 Y23.952067 Z-0.125000 I-13.422015 J-1.910568
G02 X59.201294 Y21.972680 Z-0.125000 I-66.239417 J-4.991828
G03 X59.309864 Y19.998705 Z-0.125000 I103.168665 J4.684366
G03 X59.332004 Y19.949780 Z-0.125000 I0.075974 J0.004908
G03 X59.503266 Y19.958957 Z-0.125000 I0.081509 J0.081509
G03 X59.630834 Y20.320550 Z-0.125000 I-0.448684 J0.361593
G02 X59.751914 Y20.828096 Z-0.125000 I1.124310 J-0.000000
G02 X59.948854 Y20.949170 Z-0.125000 I0.196940 J-0.099634
G02 X60.062165 Y20.923673 Z-0.125000 I0.000000 J-0.264537
G02 X60.312624 Y20.776670 Z-0.125000 I-0.706864 J-1.491190
G01 X60.554874 Y20.604170 Z-0.125000
G01 X60.855324 Y20.797830 Z-0.125000
G03 X61.123117 Y21.019621 Z-0.125000 I-0.792473 J1.229404
G03 X61.260644 Y21.224340 Z-0.125000 I-0.533300 J0.506816
G02 X61.436562 Y21.380799 Z-0.125000 I0.262805 J-0.118361
G02 X61.664274 Y21.351950 Z-0.125000 I0.082589 J-0.261224
G03 X61.960021 Y21.356393 Z-0.125000 I0.144433 J0.231277
G03 X62.151724 Y21.677380 Z-0.125000 I-0.241433 J0.361930
G02 X62.276483 Y22.212754 Z-0.125000 I2.038735 J-0.192867
G02 X62.468034 Y22.508670 Z-0.125000 I0.786854 J-0.299387
G03 X62.647530 Y22.732442 Z-0.125000 I-0.929316 J0.929316
G03 X62.678834 Y22.839950 Z-0.125000 I-0.168957 J0.107508
G02 X62.706960 Y22.947288 Z-0.125000 I0.218878 J-0.000000
G02 X62.805834 Y23.065840 Z-0.125000 I0.370468 J-0.208466
G02 X63.026281 Y23.015355 Z-0.125000 I0.090916 J-0.109550
G02 X63.327054 Y21.922840 Z-0.125000 I-3.252339 J-1.483040
G03 X63.401049 Y21.510992 Z-0.125000 I3.048999 J0.335228
G03 X63.459904 Y21.393670 Z-0.125000 I0.293064 J0.073594
G03 X63.700953 Y21.284129 Z-0.125000 I0.231072 J0.188493
G03 X64.092454 Y21.414870 Z-0.125000 I-0.024241 J0.724128
G02 X64.370383 Y21.454674 Z-0.125000 I0.178263 J-0.254497
G02 X64.633634 Y21.231600 Z-0.125000 I-0.150539 J-0.444521
G03 X64.939766 Y20.933897 Z-0.125000 I0.621065 J0.332399
G03 X65.260434 Y20.918320 Z-0.125000 I0.178014 J0.356160
G02 X65.355394 Y20.919784 Z-0.125000 I0.049477 J-0.128823
G01 X65.388174 Y20.873620 Z-0.125000
G03 X65.419626 Y20.811343 Z-0.125000 I0.077382 J0.000000
G03 X65.515174 Y20.779920 Z-0.125000 I0.095548 J0.129555
G03 X65.612661 Y20.809453 Z-0.125000 I-0.000000 J0.175664
G03 X65.642174 Y20.864620 Z-0.125000 I-0.036803 J0.055167
G03 X65.617366 Y20.924512 Z-0.125000 I-0.084700 J-0.000000
G03 X65.557474 Y20.949320 Z-0.125000 I-0.059892 J-0.059892
G02 X65.497582 Y20.974128 Z-0.125000 I-0.000000 J0.084700
G02 X65.472774 Y21.034020 Z-0.125000 I0.059892 J0.059892
G02 X65.581460 Y21.103641 Z-0.125000 I0.076641 J0.000000
G02 X65.932704 Y20.822350 Z-0.125000 I-0.389574 J-0.846399
G03 X66.179166 Y20.567319 Z-0.125000 I1.210819 J0.923530
G03 X66.294854 Y20.526020 Z-0.125000 I0.115688 J0.141385
G03 X66.375213 Y20.606849 Z-0.125000 I0.000000 J0.080361
G03 X66.266454 Y25.394350 Z-0.125000 I-141.839242 J-0.827222
G02 X66.295316 Y26.714039 Z-0.125000 I10.734223 J0.425395
G02 X66.393104 Y26.910310 Z-0.125000 I0.295392 J-0.024676
G03 X66.510563 Y27.099699 Z-0.125000 I-0.263367 J0.294458
G03 X66.573424 Y27.563900 Z-0.125000 I-1.682518 J0.464201
G02 X66.711577 Y28.366491 Z-0.125000 I2.400380 J-0.000000
G02 X66.990214 Y28.738680 Z-0.125000 I0.737294 J-0.261577
G03 X67.135795 Y28.966971 Z-0.125000 I-0.215819 J0.298192
G03 X67.284984 Y30.262680 Z-0.125000 I-8.386321 J1.622051
G02 X67.323363 Y31.236288 Z-0.125000 I428.212940 J-16.392228
G02 X67.328784 Y31.342180 Z-0.125000 I4.990178 J-0.202391
G02 X67.497884 Y31.493012 Z-0.125000 I0.160406 J-0.009628
G02 X67.719054 Y31.320980 Z-0.125000 I-0.013289 J-0.245273
G03 X67.759604 Y31.194223 Z-0.125000 I8.704506 J2.714710
G03 X67.809254 Y31.045810 Z-0.125000 I12.543677 J4.113876
G02 X67.842456 Y30.894335 Z-0.125000 I-0.651077 J-0.222085
G02 X67.889254 Y30.270520 Z-0.125000 I-11.134610 J-1.148977
G03 X67.949358 Y29.660310 Z-0.125000 I5.978305 J0.280786
G03 X67.991134 Y29.593180 Z-0.125000 I0.098703 J0.014860
G02 X68.273448 Y29.283273 Z-0.125000 I-0.533868 J-0.769876
G02 X68.663584 Y28.399980 Z-0.125000 I-4.330576 J-2.440548
G02 X68.738490 Y28.098847 Z-0.125000 I-1.965741 J-0.648855
G02 X68.819234 Y27.486980 Z-0.125000 I-8.098509 J-1.379968
G03 X68.914272 Y26.887777 Z-0.125000 I4.736452 J0.444095
G03 X68.981154 Y26.766290 Z-0.125000 I0.242988 J0.054619
G02 X69.082377 Y26.550104 Z-0.125000 I-0.247788 J-0.247810
G02 X69.247394 Y23.827980 Z-0.125000 I-45.553404 J-4.127546
G03 X69.421952 Y21.649511 Z-0.125000 I22.202787 J0.682854
G03 X69.544354 Y21.541980 Z-0.125000 I0.122402 J0.015899
G03 X69.623549 Y21.614435 Z-0.125000 I0.000000 J0.079509
G03 X69.632954 Y22.536810 Z-0.125000 I-5.847962 J0.520863
G02 X69.652067 Y22.776467 Z-0.125000 I0.812216 J0.055815
G01 X69.696754 Y22.811980 Z-0.125000
G03 X69.749588 Y22.845512 Z-0.125000 I0.000000 J0.058389
G03 X69.806254 Y23.044810 Z-0.125000 I-0.578618 J0.272222
G02 X69.951518 Y23.193690 Z-0.125000 I0.168804 J-0.019397
G02 X70.087264 Y23.084110 Z-0.125000 I0.016557 J-0.118359
G03 X70.126427 Y22.902004 Z-0.125000 I0.680998 J0.051188
G03 X70.190134 Y22.801990 Z-0.125000 I0.257025 J0.093424
G02 X70.230157 Y22.702910 Z-0.125000 I-0.096675 J-0.096675
G02 X70.184134 Y22.462520 Z-0.125000 I-0.716683 J0.012610
G03 X70.137563 Y22.226569 Z-0.125000 I0.681665 J-0.257117
G03 X70.175134 Y22.151970 Z-0.125000 I0.087778 J-0.002551
G02 X70.223817 Y22.072382 Z-0.125000 I-0.066340 J-0.095262
G02 X70.280074 Y21.380950 Z-0.125000 I-6.338218 J-0.863703
G03 X70.335957 Y20.683380 Z-0.125000 I6.621015 J0.179390
G03 X70.389584 Y20.560860 Z-0.125000 I0.240024 J0.032062
G02 X70.429980 Y20.447118 Z-0.125000 I-0.134847 J-0.111935
G02 X70.386584 Y20.278120 Z-0.125000 I-0.365438 J0.003767
G03 X70.351087 Y20.103726 Z-0.125000 I0.273725 J-0.146525
G03 X70.425184 Y19.849380 Z-0.125000 I0.685721 J0.061801
G03 X70.663482 Y19.792834 Z-0.125000 I0.143461 J0.074185
G03 X70.818994 Y20.135060 Z-0.125000 I-0.223409 J0.307966
G02 X70.833003 Y20.285667 Z-0.125000 I0.412269 J0.037607
G02 X70.895094 Y20.403600 Z-0.125000 I0.310231 J-0.088023
G03 X70.932335 Y20.516221 Z-0.125000 I-0.125179 J0.103861
G03 X70.879994 Y20.681770 Z-0.125000 I-0.347205 J-0.018726
G02 X70.831070 Y20.847079 Z-0.125000 I0.273473 J0.170830
G02 X70.874994 Y20.972360 Z-0.125000 I0.191285 J0.003275
G03 X71.068613 Y21.471618 Z-0.125000 I-0.649490 J0.539054
G03 X70.944394 Y22.441300 Z-0.125000 I-2.811099 J0.132687
G02 X70.986769 Y22.724629 Z-0.125000 I0.314117 J0.097853
G02 X71.178774 Y22.784610 Z-0.125000 I0.133928 J-0.091411
G02 X71.263260 Y22.697509 Z-0.125000 I-0.051642 J-0.134617
G02 X71.314324 Y22.396270 Z-0.125000 I-0.863012 J-0.301239
G03 X71.344349 Y22.076673 Z-0.125000 I1.715960 J0.000000
G03 X71.386524 Y22.015310 Z-0.125000 I0.090760 J0.017205
G02 X71.424696 Y21.952669 Z-0.125000 I-0.042761 J-0.069009
G02 X71.433424 Y21.419270 Z-0.125000 I-4.280535 J-0.336813
G03 X71.466620 Y20.900493 Z-0.125000 I2.369913 J-0.108801
G03 X71.543624 Y20.792050 Z-0.125000 I0.152554 J0.026765
G02 X71.624306 Y20.696410 Z-0.125000 I-0.086839 J-0.155109
G02 X71.622724 Y20.569230 Z-0.125000 I-0.173093 J-0.061447
G02 X71.545448 Y20.501911 Z-0.125000 I-0.102081 J0.039167
G02 X71.440314 Y20.526730 Z-0.125000 I-0.027563 J0.118326
G02 X71.342886 Y20.645395 Z-0.125000 I0.258542 J0.311599
G02 X71.308944 Y20.769100 Z-0.125000 I0.248525 J0.134700
G01 X71.282680 Y20.785668 Z-0.125000
G03 X71.235844 Y20.737600 Z-0.125000 I0.034801 J-0.080762
G03 X71.094044 Y19.808044 Z-0.125000 I1.922683 J-0.768891
G03 X71.324744 Y19.594600 Z-0.125000 I0.230700 J0.017954
G02 X71.375785 Y19.571463 Z-0.125000 I-0.000000 J-0.067868
G02 X71.398944 Y19.509900 Z-0.125000 I-0.070247 J-0.061563
G02 X71.369431 Y19.454733 Z-0.125000 I-0.066316 J0.000000
G02 X71.271944 Y19.425200 Z-0.125000 I-0.097487 J0.146131
G03 X71.174457 Y19.395667 Z-0.125000 I-0.000000 J-0.175664
G03 X71.144944 Y19.340500 Z-0.125000 I0.036803 J-0.055167
G03 X71.259920 Y19.250482 Z-0.125000 I0.092727 J-0.000000
G03 X71.573054 Y19.446340 Z-0.125000 I-0.142305 J0.575759
G01 X71.731974 Y19.636840 Z-0.125000
G01 X71.734974 Y19.451330 Z-0.125000
G03 X71.764915 Y19.281090 Z-0.125000 I0.561546 J0.011009
G03 X71.815174 Y19.217970 Z-0.125000 I0.113264 J0.038617
G03 X72.150591 Y19.303261 Z-0.125000 I0.126500 J0.204703
G03 X72.194944 Y19.882370 Z-0.125000 I-0.588404 J0.336318
G02 X72.177807 Y20.014942 Z-0.125000 I0.265508 J0.101714
G02 X72.221444 Y20.124750 Z-0.125000 I0.220580 J-0.024082
G03 X72.272567 Y20.239740 Z-0.125000 I-0.220451 J0.166869
G03 X72.322314 Y20.652840 Z-0.125000 I-2.967723 J0.566928
G02 X72.393625 Y21.523463 Z-0.125000 I14.134304 J-0.719482
G02 X72.441964 Y21.711170 Z-0.125000 I0.692806 J-0.078336
G03 X72.478807 Y21.840645 Z-0.125000 I-0.542941 J0.224478
G03 X72.483764 Y21.965170 Z-0.125000 I-0.502700 J0.082372
G02 X72.504943 Y22.414459 Z-0.125000 I1.716104 J0.144247
G02 X72.575164 Y22.473170 Z-0.125000 I0.070221 J-0.012638
G02 X72.655880 Y22.406124 Z-0.125000 I0.000000 J-0.082109
G02 X72.785424 Y21.346430 Z-0.125000 I-8.352978 J-1.558890
G03 X72.848693 Y20.870100 Z-0.125000 I3.273669 J0.192462
G03 X72.907104 Y20.761960 Z-0.125000 I0.210489 J0.043849
G02 X72.949968 Y20.661873 Z-0.125000 I-0.103584 J-0.103584
G02 X72.913104 Y20.507450 Z-0.125000 I-0.310779 J-0.007422
G03 X72.872436 Y20.350163 Z-0.125000 I0.302959 J-0.162233
G03 X72.909104 Y20.245260 Z-0.125000 I0.161733 J-0.002328
G02 X72.960082 Y20.123437 Z-0.125000 I-0.174985 J-0.144802
G02 X73.003304 Y19.319340 Z-0.125000 I-8.410631 J-0.855298
G03 X73.095063 Y19.007086 Z-0.125000 I0.587443 J0.003016
G03 X73.258814 Y18.917170 Z-0.125000 I0.163751 J0.104151
G03 X73.457889 Y18.984487 Z-0.125000 I-0.000000 J0.328021
G03 X73.563694 Y19.150000 Z-0.125000 I-0.173907 J0.227745
G02 X73.617689 Y19.382300 Z-0.125000 I12.384401 J-2.756172
G02 X73.656994 Y19.535070 Z-0.125000 I5.460420 J-1.323421
G03 X73.660723 Y19.678925 Z-0.125000 I-0.292016 J0.079546
G03 X73.596394 Y19.810230 Z-0.125000 I-0.298784 J-0.064971
G02 X73.549972 Y19.933254 Z-0.125000 I0.155343 J0.128887
G02 X73.589394 Y20.048080 Z-0.125000 I0.172352 J0.005008
G03 X73.651914 Y20.176319 Z-0.125000 I-0.231254 J0.192102
G03 X73.722914 Y20.661920 Z-0.125000 I-3.484117 J0.757408
G02 X73.865039 Y21.644342 Z-0.125000 I7.346788 J-0.561355
G02 X73.947704 Y21.711170 Z-0.125000 I0.082665 J-0.017713
G02 X73.995506 Y21.683911 Z-0.125000 I0.000000 J-0.055543
G02 X74.022804 Y21.584170 Z-0.125000 I-0.168568 J-0.099741
G03 X74.065138 Y21.499502 Z-0.125000 I0.105835 J-0.000000
G03 X74.192134 Y21.457170 Z-0.125000 I0.126996 J0.169327
G03 X74.292113 Y21.526507 Z-0.125000 I0.000000 J0.106750
G03 X74.361464 Y21.909710 Z-0.125000 I-1.024034 J0.383203
G02 X74.418955 Y22.336726 Z-0.125000 I1.614597 J0.000000
G02 X74.526594 Y22.511690 Z-0.125000 I0.353670 J-0.096990
G03 X74.638380 Y22.688004 Z-0.125000 I-0.262455 J0.289995
G03 X74.749194 Y23.244480 Z-0.125000 I-2.764668 J0.839813
G02 X74.853468 Y23.776173 Z-0.125000 I2.831254 J-0.279186
G02 X74.922734 Y23.827840 Z-0.125000 I0.069266 J-0.020596
G02 X74.986231 Y23.775315 Z-0.125000 I0.000000 J-0.064642
G02 X75.038794 Y23.219460 Z-0.125000 I-2.912783 J-0.555855
G03 X75.096461 Y22.633051 Z-0.125000 I3.010394 J-0.000000
G03 X75.194374 Y22.436290 Z-0.125000 I0.410477 J0.081520
G02 X75.367131 Y22.091102 Z-0.125000 I-0.553871 J-0.493020
G02 X75.632664 Y20.282030 Z-0.125000 I-16.305204 J-3.317280
G02 X75.681758 Y19.250603 Z-0.125000 I-11.898219 J-1.083210
G02 X75.637664 Y19.143270 Z-0.125000 I-0.151087 J-0.000655
G01 X75.588547 Y19.153010 Z-0.125000
G02 X75.547064 Y19.360910 Z-0.125000 I0.500228 J0.207900
G03 X75.513525 Y19.650453 Z-0.125000 I-1.266585 J0.000000
G03 X75.462364 Y19.721500 Z-0.125000 I-0.111160 J-0.026103
G01 X75.416298 Y19.704436 Z-0.125000
G03 X75.376764 Y19.451330 Z-0.125000 I0.807291 J-0.255735
G02 X75.362664 Y19.129938 Z-0.125000 I-3.927411 J0.011293
G02 X75.321264 Y18.798170 Z-0.125000 I-4.235673 J0.360090
G03 X75.320644 Y18.548113 Z-0.125000 I0.767983 J-0.126934
G01 X75.364564 Y18.528000 Z-0.125000
G02 X75.435772 Y18.540693 Z-0.125000 I0.051594 J-0.083357
G01 X75.462464 Y18.508000 Z-0.125000
G03 X75.637074 Y18.286037 Z-0.125000 I0.228383 J0.000000
G03 X75.977214 Y18.383310 Z-0.125000 I0.084377 J0.348285
G03 X76.013669 Y18.464313 Z-0.125000 I-0.091673 J0.089962
G03 X76.070814 Y19.721490 Z-0.125000 I-25.747397 J1.800236
G02 X76.156488 Y20.931224 Z-0.125000 I12.208073 J-0.256685
G02 X76.224484 Y20.991490 Z-0.125000 I0.067996 J-0.008225
G02 X76.301124 Y20.937861 Z-0.125000 I0.000000 J-0.081577
G02 X76.378064 Y20.570310 Z-0.125000 I-1.234964 J-0.450346
G03 X76.435858 Y20.161525 Z-0.125000 I2.660740 J0.167696
G03 X76.495584 Y20.039550 Z-0.125000 I0.281931 J0.062440
G02 X76.523942 Y19.931309 Z-0.125000 I-0.101968 J-0.084549
G02 X76.447784 Y19.776740 Z-0.125000 I-0.308911 J0.056157
G03 X76.377399 Y19.607260 Z-0.125000 I0.202908 J-0.183623
G01 X76.436784 Y19.564140 Z-0.125000
G02 X76.508226 Y19.535730 Z-0.125000 I0.020327 J-0.052914
G02 X76.549674 Y19.328650 Z-0.125000 I-0.385648 J-0.184878
G03 X76.559751 Y19.048677 Z-0.125000 I1.608882 J-0.082259
G03 X76.604774 Y18.884440 Z-0.125000 I0.586759 J0.072561
G02 X76.606788 Y18.786723 Z-0.125000 I-0.117256 J-0.051296
G01 X76.557774 Y18.763720 Z-0.125000
G02 X76.469396 Y18.829665 Z-0.125000 I0.055700 J0.166842
G02 X76.386604 Y19.008100 Z-0.125000 I0.458846 J0.321324
G01 X76.295504 Y19.012566 Z-0.125000
G03 X76.255684 Y18.655740 Z-0.125000 I0.694731 J-0.258164
G03 X76.438066 Y18.237329 Z-0.125000 I0.825735 J0.110976
G03 X76.563104 Y18.282160 Z-0.125000 I0.054482 J0.044831
G02 X76.602751 Y18.538828 Z-0.125000 I0.850637 J-0.000000
G02 X76.656904 Y18.578490 Z-0.125000 I0.054153 J-0.017139
G01 X76.703197 Y18.541399 Z-0.125000
G02 X76.701104 Y18.380520 Z-0.125000 I-0.340274 J-0.076026
G03 X76.757990 Y17.995958 Z-0.125000 I0.492632 J-0.123617
G03 X76.980854 Y17.913410 Z-0.125000 I0.162839 J0.097516
G03 X77.036558 Y17.985313 Z-0.125000 I-0.025852 J0.077557
G03 X77.075554 Y19.279730 Z-0.125000 I-16.526356 J1.145672
G02 X77.098764 Y20.575715 Z-0.125000 I23.593921 J0.225650
G01 X77.135154 Y20.610490 Z-0.125000
G01 X77.178808 Y20.577453 Z-0.125000
G02 X77.320294 Y19.954330 Z-0.125000 I-5.933226 J-1.674823
G03 X77.447532 Y19.303052 Z-0.125000 I15.236552 J2.638638
G03 X77.481304 Y19.214980 Z-0.125000 I0.304794 J0.066366
G02 X77.517451 Y19.128309 Z-0.125000 I-0.330225 J-0.188597
G02 X77.540304 Y19.003310 Z-0.125000 I-0.677190 J-0.188396
G03 X77.558105 Y18.875862 Z-0.125000 I1.185321 J0.100593
G03 X77.622604 Y18.578490 Z-0.125000 I7.215836 J1.409401
G02 X77.678951 Y18.280285 Z-0.125000 I-3.105527 J-0.741226
G02 X77.699704 Y18.028160 Z-0.125000 I-2.195773 J-0.307657
G03 X77.789079 Y17.853345 Z-0.125000 I0.226874 J0.005736
G03 X78.067594 Y17.748040 Z-0.125000 I0.316105 J0.415079
G01 X78.429124 Y17.721940 Z-0.125000
G01 X78.413624 Y18.383060 Z-0.125000
G03 X78.360693 Y19.023522 Z-0.125000 I-5.569113 J-0.137842
G03 X78.311544 Y19.101230 Z-0.125000 I-0.110700 J-0.015619
G02 X78.281446 Y19.166702 Z-0.125000 I0.037444 J0.056868
G02 X78.335744 Y19.291730 Z-0.125000 I0.242116 J-0.030843
G03 X78.382561 Y19.425327 Z-0.125000 I-0.156567 J0.129868
G03 X78.330744 Y19.565950 Z-0.125000 I-0.228069 J-0.004181
G02 X78.283102 Y19.687148 Z-0.125000 I0.161765 J0.133551
G02 X78.320344 Y19.742340 Z-0.125000 I0.054733 J0.003229
G03 X78.383494 Y19.808566 Z-0.125000 I-0.031342 J0.093107
G03 X78.426174 Y20.114570 Z-0.125000 I-1.075643 J0.306004
G02 X78.461337 Y20.388154 Z-0.125000 I1.081897 J-0.000000
G01 X78.501874 Y20.404370 Z-0.125000
G02 X78.564907 Y20.313303 Z-0.125000 I-0.072636 J-0.117623
G02 X78.735034 Y19.213510 Z-0.125000 I-13.717247 J-2.684982
G03 X78.817449 Y18.811565 Z-0.125000 I2.306532 J0.263513
G03 X78.879914 Y18.729260 Z-0.125000 I0.141072 J0.042209
G02 X78.918974 Y18.655046 Z-0.125000 I-0.044744 J-0.070935
G02 X78.870914 Y18.497580 Z-0.125000 I-0.323453 J0.012653
G03 X78.707831 Y17.952051 Z-0.125000 I0.926312 J-0.574058
G03 X78.849714 Y17.689510 Z-0.125000 I0.299339 J-0.007839
G03 X78.905114 Y17.690045 Z-0.125000 I0.027277 J0.044135
G03 X78.934414 Y17.743810 Z-0.125000 I-0.034680 J0.053765
G01 X78.965472 Y17.775180 Z-0.125000
G02 X79.039544 Y17.744810 Z-0.125000 I0.001029 J-0.103005
G02 X79.074172 Y17.646197 Z-0.125000 I-0.085362 J-0.085362
G02 X79.018344 Y17.552990 Z-0.125000 I-0.129619 J0.014315
G01 X79.020543 Y17.526511 Z-0.125000
G03 X79.086644 Y17.521190 Z-0.125000 I0.040218 J0.086377
G02 X79.271797 Y17.532550 Z-0.125000 I0.118721 J-0.420433
G02 X79.407734 Y17.471090 Z-0.125000 I-0.042225 J-0.274454
G03 X79.616338 Y17.472877 Z-0.125000 I0.103244 J0.124395
G03 X79.632664 Y17.664350 Z-0.125000 I-0.089418 J0.104057
G02 X79.581359 Y17.786278 Z-0.125000 I0.177269 J0.146350
G02 X79.573964 Y18.215160 Z-0.125000 I2.393958 J0.255781
G03 X79.575021 Y18.640768 Z-0.125000 I-3.075537 J0.220441
G03 X79.541664 Y18.696090 Z-0.125000 I-0.070333 J-0.004690
G02 X79.111123 Y19.441087 Z-0.125000 I0.478239 J0.773285
G02 X79.505664 Y19.848100 Z-0.125000 I0.394541 J0.012281
G02 X79.551610 Y19.818027 Z-0.125000 I0.000000 J-0.050135
G02 X79.681264 Y19.445940 Z-0.125000 I-2.365611 J-1.032934
G03 X79.789861 Y19.044342 Z-0.125000 I39.217602 J10.389473
G03 X79.862334 Y18.789770 Z-0.125000 I15.705736 J4.333573
G02 X79.909788 Y18.532800 Z-0.125000 I-1.220985 J-0.358342
G02 X79.912034 Y18.167110 Z-0.125000 I-2.478454 J-0.198075
G03 X79.922137 Y17.906796 Z-0.125000 I1.225379 J-0.082796
G01 X79.950534 Y17.900980 Z-0.125000
G02 X80.013951 Y17.939466 Z-0.125000 I0.069423 J-0.042904
G02 X80.071824 Y17.909980 Z-0.125000 I0.004611 J-0.062487
G02 X80.101394 Y17.816295 Z-0.125000 I-0.170648 J-0.105371
G02 X80.081824 Y17.738710 Z-0.125000 I-0.132841 J-0.007754
G03 X80.064027 Y17.658207 Z-0.125000 I0.106294 J-0.065718
G03 X80.117024 Y17.442380 Z-0.125000 I0.905190 J0.107853
G03 X80.243409 Y17.286291 Z-0.125000 I0.300679 J0.114247
G03 X80.456304 Y17.223610 Z-0.125000 I0.212895 J0.330209
G03 X80.628308 Y17.312199 Z-0.125000 I0.000000 J0.211276
G03 X80.596014 Y17.419480 Z-0.125000 I-0.057676 J0.041139
G02 X80.529629 Y17.499225 Z-0.125000 I0.038151 J0.099263
G02 X80.467124 Y18.110050 Z-0.125000 I3.656972 J0.682824
G03 X80.418304 Y18.745147 Z-0.125000 I-5.587731 J-0.110106
G03 X80.359454 Y18.908330 Z-0.125000 I-0.407802 J-0.054866
G02 X80.306629 Y19.067354 Z-0.125000 I0.302359 J0.188723
G02 X80.326254 Y19.306330 Z-0.125000 I0.725822 J0.060690
G01 X80.388254 Y19.551940 Z-0.125000
G01 X80.495844 Y19.340270 Z-0.125000
G02 X80.580466 Y19.120866 Z-0.125000 I-1.025739 J-0.521637
G02 X80.703304 Y18.578270 Z-0.125000 I-6.226677 J-1.694860
G03 X81.126256 Y17.075127 Z-0.125000 I8.119653 J1.473619
G03 X81.308304 Y17.013970 Z-0.125000 I0.116423 J0.045028
G03 X81.361771 Y17.103530 Z-0.125000 I-0.059557 J0.096295
G03 X81.350504 Y17.722490 Z-0.125000 I-3.979456 J0.237147
G03 X81.234549 Y18.637615 Z-0.125000 I-15.238771 J-1.465984
G03 X81.193814 Y18.717660 Z-0.125000 I-0.143370 J-0.022574
G02 X81.044261 Y19.094817 Z-0.125000 I0.361623 J0.361623
G02 X81.210014 Y19.255610 Z-0.125000 I0.165753 J-0.005037
G02 X81.291677 Y19.200998 Z-0.125000 I0.000000 J-0.088363
G02 X81.542434 Y18.451270 Z-0.125000 I-5.287259 J-2.185195
G03 X81.630461 Y18.112674 Z-0.125000 I272.834526 J70.750098
G03 X81.721584 Y17.764120 Z-0.125000 I235.508147 J61.382835
G02 X81.796302 Y17.413470 Z-0.125000 I-3.714357 J-0.974760
G02 X81.812984 Y17.209550 Z-0.125000 I-1.238033 J-0.203920
G03 X81.907674 Y16.894960 Z-0.125000 I0.569925 J-0.000000
G03 X82.083914 Y16.800270 Z-0.125000 I0.176240 J0.116665
G01 X82.118374 Y16.833624 Z-0.125000
G03 X82.151614 Y18.871310 Z-0.125000 I-62.441438 J2.037686
G02 X82.233690 Y20.906773 Z-0.125000 I25.280637 J0.000000
G02 X82.332244 Y21.110620 Z-0.125000 I0.312264 J-0.025224
G03 X82.446226 Y21.308852 Z-0.125000 I-0.264641 J0.284053
G03 X82.529704 Y21.981750 Z-0.125000 I-3.329478 J0.754671
G02 X82.612514 Y22.714557 Z-0.125000 I4.169633 J-0.100105
G02 X82.796824 Y23.292480 Z-0.125000 I2.765557 J-0.563632
G03 X82.866076 Y23.569825 Z-0.125000 I-0.764966 J0.338328
G03 X82.860224 Y24.160310 Z-0.125000 I-3.556978 J0.260020
G02 X82.854556 Y24.713381 Z-0.125000 I3.348260 J0.310878
G01 X82.903524 Y24.758940 Z-0.125000
G02 X83.053808 Y24.645158 Z-0.125000 I0.000000 J-0.156140
G02 X83.167584 Y23.822090 Z-0.125000 I-2.920205 J-0.823068
G03 X83.197657 Y23.349740 Z-0.125000 I3.724624 J-0.000000
G01 X83.231884 Y23.319610 Z-0.125000
G02 X83.409537 Y23.188659 Z-0.125000 I0.000000 J-0.185981
G02 X83.559714 Y22.261270 Z-0.125000 I-3.219108 J-0.997141
G03 X83.629224 Y21.290218 Z-0.125000 I9.594892 J0.198805
G03 X83.705184 Y21.076570 Z-0.125000 I0.517035 J0.063499
G02 X83.764006 Y20.893198 Z-0.125000 I-0.328779 J-0.206587
G02 X83.791384 Y19.636610 Z-0.125000 I-16.495359 J-0.987980
G02 X83.684584 Y16.261925 Z-0.125000 I-109.568745 J1.778546
G02 X83.626324 Y16.130130 Z-0.125000 I-0.199444 J0.009389
G01 X83.586486 Y16.126014 Z-0.125000
G02 X83.504984 Y16.209630 Z-0.125000 I0.147339 J0.225142
G03 X83.424078 Y16.243922 Z-0.125000 I-0.064647 J-0.039934
G03 X83.300614 Y16.164830 Z-0.125000 I0.045239 J-0.206530
G03 X83.211531 Y15.868253 Z-0.125000 I0.355074 J-0.268321
G03 X83.328514 Y15.726310 Z-0.125000 I0.156702 J0.009969
G02 X83.585176 Y15.483020 Z-0.125000 I-0.092905 J-0.355041
G02 X83.489254 Y15.223410 Z-0.125000 I-0.214063 J-0.068432
G02 X83.419083 Y15.221520 Z-0.125000 I-0.036713 J0.059453
G02 X83.291634 Y15.331260 Z-0.125000 I0.191767 J0.351588
G01 X83.227971 Y15.320397 Z-0.125000
G03 X83.165394 Y14.937580 Z-0.125000 I1.250095 J-0.400868
G02 X83.136975 Y14.389600 Z-0.125000 I-7.108789 J0.093942
G02 X83.085094 Y14.048580 Z-0.125000 I-2.837922 J0.257292
G01 X83.050303 Y14.050900 Z-0.125000
G02 X83.023694 Y14.830270 Z-0.125000 I8.779712 J0.689898
G03 X82.991266 Y15.932748 Z-0.125000 I-14.151918 J0.135460
G03 X82.939794 Y16.045860 Z-0.125000 I-0.176599 J-0.012095
G03 X82.808632 Y16.014109 Z-0.125000 I-0.055893 J-0.055896
G03 X82.625014 Y15.064580 Z-0.125000 I3.865782 J-1.240077
G02 X82.563191 Y14.303295 Z-0.125000 I-40.812584 J2.931183
G02 X82.519564 Y13.901860 Z-0.125000 I-11.241001 J1.018559
G03 X82.633903 Y13.530274 Z-0.125000 I0.468012 J-0.059374
G03 X82.887944 Y13.484540 Z-0.125000 I0.155916 J0.137638
G02 X83.044524 Y13.526893 Z-0.125000 I0.169817 J-0.317198
G02 X83.176114 Y13.495140 Z-0.125000 I0.009216 J-0.250346
G03 X83.311536 Y13.454362 Z-0.125000 I0.159895 J0.285753
G03 X83.496394 Y13.471140 Z-0.125000 I0.042149 J0.562376
G03 X83.604984 Y13.581705 Z-0.125000 I-0.038157 J0.146083
G03 X83.674724 Y14.207910 Z-0.125000 I-2.425969 J0.587164
G02 X83.671095 Y14.894919 Z-0.125000 I32.438237 J0.514852
G02 X83.679724 Y15.064570 Z-0.125000 I1.866848 J-0.009907
G01 X83.749485 Y15.067251 Z-0.125000
G02 X83.834804 Y14.159400 Z-0.125000 I-5.917414 J-1.014045
G03 X83.876467 Y13.610927 Z-0.125000 I4.864089 J0.093666
G03 X83.917104 Y13.548240 Z-0.125000 I0.086422 J0.011508
G02 X83.960228 Y13.485608 Z-0.125000 I-0.049889 J-0.080512
G02 X84.044054 Y12.887080 Z-0.125000 I-5.848956 J-1.124303
G03 X84.498507 Y11.350356 Z-0.125000 I4.036899 J0.358265
G03 X85.070644 Y10.946380 Z-0.125000 I0.684251 J0.361945
G02 X86.141321 Y10.652111 Z-0.125000 I-0.656247 J-4.482627
G02 X86.496624 Y10.358430 Z-0.125000 I-0.297628 J-0.721847
G03 X86.892255 Y9.986194 Z-0.125000 I0.973675 J0.638506
G03 X87.676494 Y9.683660 Z-0.125000 I1.384101 J2.420177
G03 X88.146206 Y9.682315 Z-0.125000 I0.237950 J1.080029
G03 X88.178374 Y9.791240 Z-0.125000 I-0.013548 J0.063213
G02 X88.059675 Y10.127255 Z-0.125000 I0.292218 J0.292200
G02 X88.230574 Y10.280900 Z-0.125000 I0.170899 J-0.018223
G03 X88.462928 Y10.404147 Z-0.125000 I0.000000 J0.280649
G03 X88.586174 Y10.805830 Z-0.125000 I-0.592960 J0.401683
G01 X88.586174 Y11.127570 Z-0.125000
G01 X89.623334 Y11.124570 Z-0.125000
G02 X90.642856 Y11.069517 Z-0.125000 I-0.025570 J-9.941246
G02 X90.824854 Y10.997570 Z-0.125000 I-0.038408 J-0.363321
G03 X90.994426 Y10.888805 Z-0.125000 I0.785760 J1.038489
G03 X91.056184 Y10.873270 Z-0.125000 I0.061758 J0.114984
G01 X91.090556 Y10.906172 Z-0.125000
G03 X91.145884 Y12.925640 Z-0.125000 I-61.848457 J2.704973
G01 X91.168584 Y14.978020 Z-0.125000
G01 X91.422584 Y15.026820 Z-0.125000
G02 X91.674235 Y15.044238 Z-0.125000 I0.197789 J-1.031014
G02 X91.880864 Y15.003320 Z-0.125000 I-0.037611 J-0.732111
G03 X92.075154 Y14.975238 Z-0.125000 I0.167682 J0.473973
G03 X92.172964 Y15.018820 Z-0.125000 I-0.007913 J0.149306
G02 X92.509830 Y15.156539 Z-0.125000 I0.332550 J-0.332579
G02 X92.650254 Y15.014820 Z-0.125000 I-0.001301 J-0.141719
G01 X92.690419 Y14.970296 Z-0.125000
G03 X92.988914 Y14.979920 Z-0.125000 I0.113839 J1.103020
G01 X93.327584 Y15.037120 Z-0.125000
G01 X93.327584 Y14.015290 Z-0.125000
G03 X93.412627 Y13.062681 Z-0.125000 I5.377833 J-0.000000
G03 X93.518084 Y12.954830 Z-0.125000 I0.132214 J0.023796
G02 X93.708137 Y12.914135 Z-0.125000 I-1.867255 J-9.184618
G02 X93.962584 Y12.854770 Z-0.125000 I-3.628105 J-16.125497
G03 X94.218896 Y12.817204 Z-0.125000 I0.332066 J1.372474
G03 X94.703416 Y12.814870 Z-0.125000 I0.266123 J4.953437
G02 X95.128404 Y12.771887 Z-0.125000 I0.065468 J-1.475189
G02 X95.190256 Y12.692590 Z-0.125000 I-0.019906 J-0.079297
G03 X95.235276 Y12.617970 Z-0.125000 I0.084351 J0.000000
G03 X95.338416 Y12.614490 Z-0.125000 I0.055160 J0.104650
G02 X95.491127 Y12.665160 Z-0.125000 I0.335037 J-0.754297
G02 X96.015756 Y12.767960 Z-0.125000 I2.019342 J-8.915368
G03 X96.514104 Y12.881787 Z-0.125000 I-0.691448 J4.175083
G01 X96.544916 Y12.922920 Z-0.125000
G01 X96.570208 Y12.964942 Z-0.125000
G02 X96.671916 Y12.990220 Z-0.125000 I0.101708 J-0.191975
G03 X96.769403 Y13.019753 Z-0.125000 I-0.000000 J0.175664
G03 X96.798916 Y13.074920 Z-0.125000 I-0.036803 J0.055167
G03 X96.769366 Y13.130123 Z-0.125000 I-0.066339 J-0.000000
G03 X96.671916 Y13.159620 Z-0.125000 I-0.097450 J-0.146227
G02 X96.553739 Y13.169657 Z-0.125000 I-0.000000 J0.700728
G01 X96.543756 Y13.180820 Z-0.125000
G02 X96.542237 Y13.201912 Z-0.125000 I26.097520 J1.889378
G03 X96.493256 Y13.879320 Z-0.125000 I-482.665281 J-34.554805
G02 X96.610816 Y14.851675 Z-0.125000 I2.546189 J0.185444
G02 X96.851496 Y14.984970 Z-0.125000 I0.191641 J-0.062095
G03 X97.052546 Y14.982486 Z-0.125000 I0.105741 J0.420877
G03 X97.167726 Y15.056170 Z-0.125000 I-0.044068 J0.195749
G02 X97.282356 Y15.154912 Z-0.125000 I0.293932 J-0.225319
G02 X97.497386 Y15.238560 Z-0.125000 I0.416889 J-0.753467
G02 X97.679250 Y15.229978 Z-0.125000 I0.076222 J-0.316023
G02 X97.730226 Y15.158560 Z-0.125000 I-0.024541 J-0.071418
G03 X97.812753 Y15.073937 Z-0.125000 I0.084650 J0.000000
G03 X97.931726 Y15.153560 Z-0.125000 I0.003112 J0.124046
G02 X98.015834 Y15.224303 Z-0.125000 I0.105996 J-0.040651
G02 X98.300616 Y15.226060 Z-0.125000 I0.147014 J-0.748174
G02 X98.600548 Y15.139565 Z-0.125000 I-0.285303 J-1.552598
G02 X98.678856 Y15.075120 Z-0.125000 I-0.061858 J-0.154964
G02 X98.710936 Y14.974675 Z-0.125000 I-0.169621 J-0.109519
G02 X98.735256 Y13.820690 Z-0.125000 I-24.137594 J-1.085938
G03 X98.756829 Y12.665612 Z-0.125000 I26.494883 J-0.082908
G03 X98.785356 Y12.572330 Z-0.125000 I0.192237 J0.007786
G03 X98.851712 Y12.532375 Z-0.125000 I0.072052 J0.044584
G03 X98.982936 Y12.559130 Z-0.125000 I0.016975 J0.251926
G02 X99.597471 Y12.807811 Z-0.125000 I1.778840 J-3.512177
G02 X99.965486 Y12.863310 Z-0.125000 I0.366936 J-1.185250
G02 X100.467425 Y12.805743 Z-0.125000 I-0.001788 J-2.232637
G02 X101.243840 Y12.567280 Z-0.125000 I-1.302402 J-5.623705
G03 X101.415160 Y12.508181 Z-0.125000 I0.909345 J2.358219
G03 X101.794180 Y12.399340 Z-0.125000 I3.452147 J11.307109
G02 X102.170592 Y12.285009 Z-0.125000 I-1.599550 J-5.943009
G02 X102.322190 Y12.220360 Z-0.125000 I-0.347298 J-1.024456
G03 X102.473970 Y12.163335 Z-0.125000 I0.313423 J0.603712
G03 X102.634700 Y12.143960 Z-0.125000 I0.160730 J0.657006
G02 X102.784496 Y12.115870 Z-0.125000 I0.000000 J-0.413450
G02 X102.852510 Y12.059260 Z-0.125000 I-0.050443 J-0.129769
G03 X103.038807 Y11.967049 Z-0.125000 I0.167039 J0.103176
G03 X103.148840 Y12.088460 Z-0.125000 I-0.011967 J0.121411
G02 X103.177117 Y12.189744 Z-0.125000 I0.195532 J-0.000000
G02 X103.301540 Y12.340530 Z-0.125000 I0.577097 J-0.349472
G03 X103.387773 Y12.508819 Z-0.125000 I-0.179268 J0.198097
G03 X103.475760 Y13.892340 Z-0.125000 I-14.269266 J1.602028
G02 X103.535095 Y15.296176 Z-0.125000 I25.957062 J-0.393946
G02 X103.585240 Y15.470330 Z-0.125000 I0.431532 J-0.029956
G03 X103.635854 Y15.643076 Z-0.125000 I-0.386915 J0.207154
G03 X103.643840 Y16.216170 Z-0.125000 I-4.429321 J0.348322
G02 X103.655419 Y16.768348 Z-0.125000 I3.872266 J0.195014
G02 X103.699140 Y16.820280 Z-0.125000 I0.059209 J-0.005478
G01 X103.745532 Y16.790976 Z-0.125000
G02 X103.808680 Y16.229080 Z-0.125000 I-3.896171 J-0.722362
G03 X103.907876 Y16.196290 Z-0.125000 I0.055765 J0.002261
G03 X104.013670 Y16.483080 Z-0.125000 I-0.371812 J0.300067
G01 X104.037770 Y17.350910 Z-0.125000
G01 X104.270610 Y17.335010 Z-0.125000
G03 X104.411577 Y17.417572 Z-0.125000 I0.009888 J0.144742
G03 X104.503440 Y17.825560 Z-0.125000 I-0.860058 J0.407988
G02 X104.568103 Y18.255625 Z-0.125000 I1.462494 J0.000000
G02 X104.651610 Y18.307170 Z-0.125000 I0.071179 J-0.021899
G03 X104.746479 Y18.354667 Z-0.125000 I0.014872 J0.088786
G03 X104.857230 Y18.705620 Z-0.125000 I-0.962072 J0.496556
G02 X104.917432 Y19.128551 Z-0.125000 I32.576489 J-4.421325
G02 X105.005390 Y19.700450 Z-0.125000 I60.717677 J-9.045681
G03 X105.094963 Y20.272135 Z-0.125000 I-141.602484 J22.479445
G03 X105.175580 Y20.801120 Z-0.125000 I-122.149410 J18.886167
G02 X105.264895 Y21.328449 Z-0.125000 I14.110247 J-2.118670
G02 X105.387250 Y21.922920 Z-0.125000 I18.115233 J-3.418667
G03 X105.492749 Y22.518496 Z-0.125000 I-6.691037 J1.492371
G03 X105.519440 Y22.924810 Z-0.125000 I-3.079330 J0.406314
G02 X105.564668 Y23.271365 Z-0.125000 I1.350326 J0.000000
G01 X105.619240 Y23.300800 Z-0.125000
G02 X105.742779 Y23.161834 Z-0.125000 I-0.058872 J-0.176732
G02 X105.939570 Y21.753620 Z-0.125000 I-10.667304 J-2.208558
G03 X106.184944 Y19.258402 Z-0.125000 I51.085582 J3.763964
G03 X106.272000 Y19.053400 Z-0.125000 I0.401220 J0.049396
G02 X106.324315 Y18.949547 Z-0.125000 I-0.212524 J-0.172161
G02 X106.394460 Y18.578620 Z-0.125000 I-2.791377 J-0.719963
G02 X106.440585 Y18.197568 Z-0.125000 I-172.636066 J-21.090350
G02 X106.499100 Y17.705910 Z-0.125000 I-273.425399 J-32.791160
G03 X106.604062 Y17.291737 Z-0.125000 I1.631374 J0.193046
G03 X106.676550 Y17.259980 Z-0.125000 I0.052318 J0.020813
G02 X106.773751 Y17.256200 Z-0.125000 I0.044199 J-0.115059
G02 X106.844040 Y17.180180 Z-0.125000 I-0.060008 J-0.125989
G03 X106.917176 Y17.090865 Z-0.125000 I0.171360 J0.065717
G03 X107.042140 Y17.054610 Z-0.125000 I0.124964 J0.197238
G02 X107.230903 Y16.928830 Z-0.125000 I0.000000 J-0.204533
G02 X107.375620 Y16.255270 Z-0.125000 I-1.741157 J-0.726420
G03 X107.413665 Y15.674063 Z-0.125000 I7.759429 J0.216067
G03 X107.445020 Y15.581940 Z-0.125000 I0.216768 J0.022382
G02 X107.474208 Y15.489147 Z-0.125000 I-0.168115 J-0.103867
G02 X107.563990 Y13.460280 Z-0.125000 I-85.592474 J-4.804091
G03 X107.738958 Y10.180525 Z-0.125000 I78.558883 J2.546409
G03 X107.812830 Y10.111940 Z-0.125000 I0.073872 J0.005491
G03 X107.878369 Y10.127616 Z-0.125000 I0.000000 J0.144841
G03 X108.313420 Y10.365940 Z-0.125000 I-3.552321 J7.000871
G02 X108.750400 Y10.597276 Z-0.125000 I2.738422 J-4.644340
G02 X108.851510 Y10.619940 Z-0.125000 I0.101110 J-0.214204
G03 X108.949412 Y10.644687 Z-0.125000 I0.000000 J0.206026
G03 X109.125900 Y10.768110 Z-0.125000 I-0.445580 J0.825054
G02 X109.985204 Y11.314564 Z-0.125000 I2.132791 J-2.404978
G02 X110.705610 Y11.449720 Z-0.125000 I0.659743 J-1.529019
G01 X111.403750 Y11.424320 Z-0.125000
G01 X111.429550 Y11.022150 Z-0.125000
G01 X111.455350 Y10.619980 Z-0.125000
G01 X111.810540 Y10.618980 Z-0.125000
G02 X112.265693 Y10.488505 Z-0.125000 I-0.003852 J-0.872563
G02 X112.338420 Y10.292180 Z-0.125000 I-0.089572 J-0.144815
G03 X112.415499 Y10.182626 Z-0.125000 I0.080228 J-0.025446
G03 X112.848330 Y10.273080 Z-0.125000 I0.034320 J0.916574
G02 X114.322953 Y10.850026 Z-0.125000 I4.498112 J-9.323795
G02 X114.781540 Y10.863450 Z-0.125000 I0.253820 J-0.831160
G02 X115.204490 Y10.740672 Z-0.125000 I-1.158342 J-4.780171
G02 X115.294170 Y10.689450 Z-0.125000 I-0.087165 J-0.256728
G03 X115.382779 Y10.642216 Z-0.125000 I0.149093 J0.172963
G03 X115.548170 Y10.619650 Z-0.125000 I0.167377 J0.609351
G02 X115.817057 Y10.532840 Z-0.125000 I-0.001498 J-0.464472
G02 X116.818670 Y9.710040 Z-0.125000 I-5.690468 J-7.948181
G03 X117.494818 Y9.153173 Z-0.125000 I4.609639 J4.908101
G03 X117.671500 Y9.096200 Z-0.125000 I0.176682 J0.245472
G02 X117.854055 Y9.066302 Z-0.125000 I0.000000 J-0.572277
G02 X117.923070 Y9.011500 Z-0.125000 I-0.041397 J-0.122992
G03 X117.990923 Y8.954586 Z-0.125000 I0.120003 J0.074165
G03 X118.135930 Y8.926800 Z-0.125000 I0.145007 J0.364474
G02 X118.275858 Y8.878467 Z-0.125000 I-0.000000 J-0.226719
G02 X118.783550 Y8.418800 Z-0.125000 I-2.994687 J-3.817765
G03 X119.306719 Y7.995403 Z-0.125000 I1.932239 J1.852636
G03 X119.604100 Y7.910800 Z-0.125000 I0.297381 J0.480352
G01 X119.937580 Y7.910800 Z-0.125000
G01 X119.884680 Y8.536950 Z-0.125000
G02 X119.887620 Y9.139687 Z-0.125000 I3.369072 J0.284943
G02 X119.953280 Y9.263930 Z-0.125000 I0.183083 J-0.017285
G02 X121.836232 Y10.483810 Z-0.125000 I6.092460 J-7.340888
G02 X122.270100 Y10.403180 Z-0.125000 I0.162871 J-0.331227
G01 X122.276720 Y10.355005 Z-0.125000
G02 X122.220000 Y10.305180 Z-0.125000 I-0.091283 J0.046719
G03 X122.137880 Y10.250692 Z-0.125000 I0.069040 J-0.193179
G03 X122.114170 Y10.189780 Z-0.125000 I0.066389 J-0.060912
G03 X122.239953 Y10.077588 Z-0.125000 I0.112927 J0.000000
G03 X122.536670 Y10.238180 Z-0.125000 I-0.051522 J0.449603
G03 X122.564585 Y10.344126 Z-0.125000 I-0.099986 J0.082995
G03 X122.504670 Y10.416570 Z-0.125000 I-0.094191 J-0.016902
G02 X122.414864 Y10.538519 Z-0.125000 I0.050310 J0.131092
G02 X122.491370 Y10.620180 Z-0.125000 I0.076506 J0.004992
G03 X122.607771 Y10.645368 Z-0.125000 I-0.000000 J0.281560
G03 X123.027300 Y10.863500 Z-0.125000 I-1.835535 J4.042742
G02 X123.447802 Y11.090147 Z-0.125000 I3.161492 J-5.362157
G02 X123.757680 Y11.221700 Z-0.125000 I1.360655 J-2.774338
G03 X123.985520 Y11.392163 Z-0.125000 I-0.166214 J0.459658
G03 X124.043360 Y11.610960 Z-0.125000 I-0.249272 J0.182940
G02 X124.061055 Y11.855577 Z-0.125000 I0.649811 J0.075944
G02 X124.127960 Y11.930090 Z-0.125000 I0.106635 J-0.028454
G02 X124.256336 Y11.922308 Z-0.125000 I0.055637 J-0.144960
G02 X124.284510 Y11.847090 Z-0.125000 I-0.028376 J-0.053514
G03 X124.293678 Y11.448752 Z-0.125000 I0.489786 J-0.188001
G03 X124.524990 Y11.297490 Z-0.125000 I0.231312 J0.101231
G02 X124.627768 Y11.271195 Z-0.125000 I0.000000 J-0.214007
G02 X124.654080 Y11.226790 Z-0.125000 I-0.024313 J-0.044405
G03 X124.684272 Y11.175085 Z-0.125000 I0.059369 J-0.000000
G03 X125.479580 Y10.760900 Z-0.125000 I6.555142 J11.616360
G02 X126.301724 Y10.359297 Z-0.125000 I-25.062418 J-52.348943
G02 X126.516750 Y10.244100 Z-0.125000 I-1.841161 J-3.694998
G03 X126.731120 Y10.127565 Z-0.125000 I2.571545 J4.475026
G03 X127.236420 Y9.874590 Z-0.125000 I12.745709 J24.827477
G02 X128.342975 Y9.284120 Z-0.125000 I-7.614781 J-15.602365
G02 X128.483960 Y9.149820 Z-0.125000 I-0.210202 J-0.361817
G02 X128.518099 Y9.045509 Z-0.125000 I-0.180193 J-0.116716
G02 X128.547460 Y8.051910 Z-0.125000 I-17.553349 J-1.015934
G03 X128.596748 Y7.116666 Z-0.125000 I9.117998 J0.011600
G01 X128.648540 Y7.083290 Z-0.125000
G03 X128.734132 Y7.152535 Z-0.125000 I-0.049579 J0.148805
G03 X129.097040 Y7.845270 Z-0.125000 I-6.821713 J4.015165
G02 X129.548727 Y8.474640 Z-0.125000 I1.867718 J-0.863657
G02 X130.013230 Y8.714210 Z-0.125000 I0.644522 J-0.679568
G03 X130.281257 Y8.777852 Z-0.125000 I-0.665114 J3.397320
G03 X130.453750 Y8.837420 Z-0.125000 I-0.413025 J1.475545
G02 X130.625284 Y8.901071 Z-0.125000 I0.950252 J-2.297883
G02 X131.004080 Y9.018820 Z-0.125000 I3.623598 J-10.988888
G03 X131.349750 Y9.189183 Z-0.125000 I-0.312378 J1.069689
G03 X131.971950 Y9.726970 Z-0.125000 I-2.998787 J4.098312
G01 X132.558820 Y10.323800 Z-0.125000
G01 X133.025770 Y10.302900 Z-0.125000
G02 X133.478462 Y10.249661 Z-0.125000 I-0.141088 J-3.150934
G02 X133.577670 Y10.197070 Z-0.125000 I-0.035991 J-0.187761
G03 X133.675675 Y10.143759 Z-0.125000 I0.139248 J0.139248
G03 X133.973990 Y10.112170 Z-0.125000 I0.298315 J1.392797
G02 X134.266648 Y10.073645 Z-0.125000 I0.000000 J-1.130867
G02 X134.368840 Y10.006340 Z-0.125000 I-0.050237 J-0.187510
G02 X134.415027 Y9.886918 Z-0.125000 I-0.170794 J-0.134698
G02 X134.516350 Y7.910840 Z-0.125000 I-51.790708 J-3.646190
G02 X134.682939 Y1.773708 Z-0.125000 I-610.771429 J-19.649885
G02 X134.656410 Y1.577830 Z-0.125000 I-0.633019 J-0.014001
G02 X134.585530 Y1.522626 Z-0.125000 I-0.074298 J0.022289
G02 X133.681590 Y1.534830 Z-0.125000 I-0.346093 J7.848056
G03 X132.739428 Y1.587774 Z-0.125000 I-2.238285 J-31.421514
G03 X132.316420 Y1.591030 Z-0.125000 I-0.260136 J-6.317014
G03 X131.893109 Y1.578968 Z-0.125000 I2.001912 J-77.687501
G03 X129.945750 Y1.516930 Z-0.125000 I47.940593 J-1535.452034
G02 X127.998289 Y1.491247 Z-0.125000 I-1.640283 J50.529695
G02 X124.103750 Y1.552430 Z-0.125000 I1.228444 J202.177250
G03 X120.208807 Y1.631374 Z-0.125000 I-9.720032 J-383.441834
G03 X116.737750 Y1.664260 Z-0.125000 I-4.613477 J-303.748855
G02 X113.266768 Y1.695358 Z-0.125000 I1.202253 J327.910944
G02 X111.488420 Y1.738760 Z-0.125000 I1.248979 J87.629876
G03 X105.553795 Y1.899585 Z-0.125000 I-13.741055 J-397.483927
G03 X102.492590 Y1.915480 Z-0.125000 I-2.081086 J-106.006600
G02 X102.017316 Y1.964963 Z-0.125000 I-0.020789 J2.107516
G02 X101.963420 Y2.032060 Z-0.125000 I0.014817 J0.067097
G03 X101.919178 Y2.109361 Z-0.125000 I-0.089652 J-0.000000
G03 X101.756750 Y2.153540 Z-0.125000 I-0.162428 J-0.276500
G02 X101.566953 Y2.183778 Z-0.125000 I0.000000 J0.610776
G02 X101.497750 Y2.238240 Z-0.125000 I0.039818 J0.121793
G01 X101.514100 Y2.284643 Z-0.125000
G02 X101.737150 Y2.322940 Z-0.125000 I0.223050 J-0.630404
G03 X101.960062 Y2.403022 Z-0.125000 I0.000000 J0.350284
G03 X102.070730 Y2.598110 Z-0.125000 I-0.199936 J0.242351
G03 X102.093159 Y2.869675 Z-0.125000 I-1.970315 J0.299440
G03 X102.075730 Y2.936770 Z-0.125000 I-0.130814 J0.001830
G03 X102.020775 Y2.969331 Z-0.125000 I-0.056941 J-0.033447
G03 X99.964146 Y3.000270 Z-0.125000 I-2.056629 J-68.340829
G03 X97.964875 Y2.958424 Z-0.125000 I-0.000000 J-47.780623
G01 X97.942136 Y2.915570 Z-0.125000
G03 X98.015905 Y2.869514 Z-0.125000 I0.083425 J0.051517
G03 X98.798796 Y2.830870 Z-0.125000 I0.782891 J7.911005
G02 X99.529564 Y2.789848 Z-0.125000 I-0.000000 J-6.529552
G01 X99.550806 Y2.746170 Z-0.125000
G02 X99.476963 Y2.700044 Z-0.125000 I-0.083560 J0.051600
G02 X98.699146 Y2.661470 Z-0.125000 I-0.777817 J7.822783
G03 X97.939929 Y2.621368 Z-0.125000 I0.000000 J-7.206897
G01 X97.899806 Y2.576770 Z-0.125000
G03 X97.936064 Y2.527049 Z-0.125000 I0.052221 J-0.000000
G03 X98.196136 Y2.481570 Z-0.125000 I0.294313 J0.916690
G02 X98.491485 Y2.463972 Z-0.125000 I-0.239597 J-6.508262
G02 X98.577136 Y2.449870 Z-0.125000 I-0.044091 J-0.534973
G03 X98.663014 Y2.437306 Z-0.125000 I0.106383 J0.427365
G03 X99.487306 Y2.407570 Z-0.125000 I1.826020 J39.178428
G02 X99.849193 Y2.357560 Z-0.125000 I-0.042058 J-1.638717
G01 X99.847136 Y2.316070 Z-0.125000
G02 X99.379918 Y2.267267 Z-0.125000 I-0.764973 J5.062656
G02 X98.714126 Y2.250070 Z-0.125000 I-0.598498 J10.274236
G03 X98.007019 Y2.125237 Z-0.125000 I-0.012483 J-1.994383
G03 X97.952716 Y1.967080 Z-0.125000 I0.037648 J-0.101327
G02 X97.623730 Y1.381455 Z-0.125000 I-0.326387 J-0.201866
G02 X95.910136 Y1.981180 Z-0.125000 I0.018979 J2.802215
G03 X95.690433 Y2.052015 Z-0.125000 I-0.205556 J-0.261422
G03 X95.387126 Y1.958780 Z-0.125000 I0.026687 J-0.626789
G02 X95.130040 Y1.927943 Z-0.125000 I-0.161788 J0.261740
G02 X95.021136 Y2.077950 Z-0.125000 I0.048860 J0.150007
G01 X94.987384 Y2.119825 Z-0.125000
G03 X94.673406 Y2.153550 Z-0.125000 I-0.313978 J-1.444705
G03 X94.407398 Y2.097381 Z-0.125000 I-0.000000 J-0.657970
G03 X94.376116 Y2.022150 Z-0.125000 I0.023893 J-0.054054
G02 X94.374257 Y1.953853 Z-0.125000 I-0.083180 J-0.031909
G01 X94.341016 Y1.943650 Z-0.125000
G03 X92.529824 Y2.453740 Z-0.125000 I-1.795923 J-2.906268
G03 X85.411454 Y1.902750 Z-0.125000 I0.219413 J-49.092129
G02 X84.901407 Y1.848528 Z-0.125000 I-0.870844 J5.765733
G02 X83.421794 Y1.779350 Z-0.125000 I-3.016201 J48.653810
G02 X82.201438 Y1.785278 Z-0.125000 I-0.528558 J16.805408
G01 X82.194124 Y1.829950 Z-0.125000
G02 X82.626564 Y1.926193 Z-0.125000 I0.542219 J-1.416665
G02 X86.152294 Y2.117160 Z-0.125000 I6.973261 J-96.101308
G01 X87.739794 Y2.173960 Z-0.125000
G01 X87.739794 Y2.664720 Z-0.125000
G02 X87.785368 Y3.122676 Z-0.125000 I2.323699 J0.000000
G02 X87.845624 Y3.191010 Z-0.125000 I0.089214 J-0.017934
G03 X87.887628 Y3.251933 Z-0.125000 I-0.019603 J0.058457
G03 X87.835524 Y3.444160 Z-0.125000 I-0.446598 J-0.017878
G03 X87.373970 Y3.940698 Z-0.125000 I-1.166088 J-0.621144
G03 X87.096974 Y3.909690 Z-0.125000 I-0.119085 J-0.188919
G02 X86.870826 Y3.891699 Z-0.125000 I-0.123625 J0.123625
G02 X86.723764 Y4.179720 Z-0.125000 I0.208514 J0.288021
G03 X86.460075 Y4.599165 Z-0.125000 I-0.465308 J0.000087
G03 X85.302814 Y4.862910 Z-0.125000 I-1.157261 J-2.407045
G02 X84.980141 Y4.898171 Z-0.125000 I0.000000 J1.494021
G02 X84.708044 Y4.994500 Z-0.125000 I0.254955 J1.152618
G03 X83.564821 Y5.368872 Z-0.125000 I-1.842193 J-3.692802
G03 X82.395614 Y5.391890 Z-0.125000 I-0.660493 J-3.843289
G02 X82.109311 Y5.394215 Z-0.125000 I-0.134844 J1.024065
G02 X82.030784 Y5.445890 Z-0.125000 I0.016360 J0.110364
G03 X81.888910 Y5.525174 Z-0.125000 I-0.142196 J-0.087871
G03 X81.013904 Y5.447890 Z-0.125000 I-0.009414 J-4.885414
G03 X79.952045 Y5.206827 Z-0.125000 I2.149223 J-11.926322
G03 X79.718124 Y5.091820 Z-0.125000 I0.184042 J-0.669738
G02 X79.604748 Y5.047582 Z-0.125000 I-0.135228 J0.179170
G02 X79.379464 Y5.058620 Z-0.125000 I-0.075230 J0.769107
G03 X78.600656 Y4.963090 Z-0.125000 I-0.244069 J-1.232608
G03 X78.231084 Y4.518470 Z-0.125000 I0.290229 J-0.617146
G02 X78.145679 Y4.410212 Z-0.125000 I-0.166593 J0.043609
G02 X77.925254 Y4.354990 Z-0.125000 I-0.220425 J0.412316
G03 X77.524929 Y4.283074 Z-0.125000 I0.000000 J-1.150174
G03 X77.241144 Y4.100990 Z-0.125000 I0.275075 J-0.740902
G02 X77.181581 Y4.054893 Z-0.125000 I-0.210630 J0.210630
G02 X76.607174 Y3.727940 Z-0.125000 I-11.632858 J19.769125
G03 X76.451941 Y3.620236 Z-0.125000 I0.438458 J-0.797667
G03 X76.327204 Y3.487160 Z-0.125000 I0.555990 J-0.646149
G02 X76.193627 Y3.382960 Z-0.125000 I-0.260559 J0.196299
G02 X75.976614 Y3.338990 Z-0.125000 I-0.217013 J0.513554
G03 X75.780136 Y3.276731 Z-0.125000 I0.000000 J-0.341153
G03 X75.646194 Y3.106160 Z-0.125000 I0.217397 J-0.308588
G03 X75.456049 Y2.298016 Z-0.125000 I2.704076 J-1.062673
G03 X75.552094 Y2.037050 Z-0.125000 I0.324919 J-0.028575
G03 X75.597541 Y2.016886 Z-0.125000 I0.049462 J0.050182
G03 X77.198784 Y1.943150 Z-0.125000 I4.154202 J72.789379
G02 X80.417754 Y1.763005 Z-0.125000 I-2.713402 J-77.334944
G01 X80.425124 Y1.695100 Z-0.125000
G02 X80.175629 Y1.658013 Z-0.125000 I-0.251064 J0.831222
G02 X78.774124 Y1.692100 Z-0.125000 I-0.048492 J26.834902
G03 X77.368040 Y1.761035 Z-0.125000 I-25.258833 J-500.837309
G03 X76.902454 Y1.781300 Z-0.125000 I-2.713513 J-56.983599
G03 X67.807841 Y1.961361 Z-0.125000 I-9.190633 J-234.436953
G03 X67.183184 Y1.783300 Z-0.125000 I-0.000484 J-1.183012
G02 X67.111455 Y1.762542 Z-0.125000 I-0.073195 J0.118615
G02 X58.526644 Y1.692400 Z-0.125000 I-19.216313 J1826.534058
G03 X49.937453 Y1.609004 Z-0.125000 I6.486533 J-1110.416428
G03 X48.835454 Y1.560690 Z-0.125000 I0.247674 J-18.241318
G02 X46.979985 Y1.473743 Z-0.125000 I-2.530687 J34.164102
G02 X39.141121 Y1.369670 Z-0.125000 I-12.005301 J608.979358
G02 X37.744672 Y1.385172 Z-0.125000 I-0.258069 J39.657426
G02 X35.500455 Y1.474680 Z-0.125000 I2.890102 J100.642305
G03 X33.049007 Y1.544381 Z-0.125000 I-2.768057 J-54.210295
G03 X27.287788 Y1.522580 Z-0.125000 I-1.747165 J-299.537320
G02 X24.877410 Y1.529323 Z-0.125000 I-0.996835 J74.479125
G02 X24.282122 Y1.579280 Z-0.125000 I0.087609 J4.615690
G03 X18.710566 Y1.991131 Z-0.125000 I-5.516014 J-36.728896
G03 X17.695775 Y1.570280 Z-0.125000 I0.002152 J-1.439088
G01 X17.707120 Y1.518060 Z-0.125000
G03 X17.978689 Y1.464500 Z-0.125000 I0.298732 J0.799432
G01 X18.355455 Y1.452600 Z-0.125000
G01 X17.889789 Y1.388200 Z-0.125000
G02 X3.236766 Y0.380560 Z-0.125000 I-14.647381 J105.955683
G02 X1.420190 Y1.395200 Z-0.125000 I0.000113 J2.133689
G01 X1.419722 Y1.394850 Z-0.125000
G00 Z5.000000

(End cutting path id: path826)


(Start cutting path id: path826)
(Change tool to Cylindrical cutter)

G00 Z5.000000
G00 X2.225989 Y3.085610

G01 Z-0.125000 F700.0(Penetrate)
G03 X2.201180 Y3.145512 Z-0.125000 I-0.084721 J0.000000 F700.000000
G03 X2.141319 Y3.170310 Z-0.125000 I-0.059860 J-0.059851
G03 X2.081459 Y3.145512 Z-0.125000 I0.000000 J-0.084649
G03 X2.056649 Y3.085610 Z-0.125000 I0.059911 J-0.059902
G03 X2.081459 Y3.025708 Z-0.125000 I0.084721 J0.000000
G03 X2.141319 Y3.000910 Z-0.125000 I0.059860 J0.059851
G03 X2.201180 Y3.025708 Z-0.125000 I0.000000 J0.084649
G03 X2.225989 Y3.085610 Z-0.125000 I-0.059911 J0.059902
G01 X2.225989 Y3.085610 Z-0.125000
G00 Z5.000000

(End cutting path id: path826)


(Start cutting path id: path826)
(Change tool to Cylindrical cutter)

G00 Z5.000000
G00 X2.903323 Y2.576780

G01 Z-0.125000 F700.0(Penetrate)
G03 X2.888584 Y2.646745 Z-0.125000 I-0.173423 J-0.000000 F700.000000
G01 X2.865983 Y2.661480 Z-0.125000
G01 X2.835423 Y2.649329 Z-0.125000
G03 X2.776323 Y2.576780 Z-0.125000 I0.247200 J-0.261718
G03 X2.772332 Y2.519028 Z-0.125000 I0.052899 J-0.032670
G01 X2.813663 Y2.492080 Z-0.125000
G03 X2.877805 Y2.517581 Z-0.125000 I0.000000 J0.093418
G03 X2.903323 Y2.576780 Z-0.125000 I-0.055909 J0.059199
G01 X2.903323 Y2.576780 Z-0.125000
G00 Z5.000000

(End cutting path id: path826)


(Start cutting path id: path826)
(Change tool to Cylindrical cutter)

G00 Z5.000000
G00 X4.596656 Y3.255200

G01 Z-0.125000 F700.0(Penetrate)
G03 X4.571846 Y3.315102 Z-0.125000 I-0.084721 J-0.000000 F700.000000
G03 X4.511986 Y3.339900 Z-0.125000 I-0.059860 J-0.059851
G03 X4.452126 Y3.315102 Z-0.125000 I0.000000 J-0.084649
G03 X4.427316 Y3.255200 Z-0.125000 I0.059911 J-0.059902
G03 X4.452126 Y3.195298 Z-0.125000 I0.084721 J0.000000
G03 X4.511986 Y3.170500 Z-0.125000 I0.059860 J0.059851
G03 X4.571846 Y3.195298 Z-0.125000 I0.000000 J0.084649
G03 X4.596656 Y3.255200 Z-0.125000 I-0.059911 J0.059902
G01 X4.596656 Y3.255200 Z-0.125000
G00 Z5.000000

(End cutting path id: path826)


(Start cutting path id: path826)
(Change tool to Cylindrical cutter)

G00 Z5.000000
G00 X6.033010 Y2.655880

G01 Z-0.125000 F700.0(Penetrate)
G03 X6.065963 Y2.909498 Z-0.125000 I-0.318190 J0.170292 F700.000000
G03 X5.951320 Y3.000120 Z-0.125000 I-0.114643 J-0.027205
G03 X5.841030 Y2.941100 Z-0.125000 I0.000000 J-0.132558
G03 X5.781987 Y2.746120 Z-0.125000 I0.292422 J-0.194980
G03 X5.885363 Y2.599122 Z-0.125000 I0.156201 J0.000000
G03 X6.033008 Y2.655920 Z-0.125000 I0.040931 J0.113900
G01 X6.033010 Y2.655880 Z-0.125000
G00 Z5.000000

(End cutting path id: path826)


(Start cutting path id: path826)
(Change tool to Cylindrical cutter)

G00 Z5.000000
G00 X6.244040 Y2.486510

G01 Z-0.125000 F700.0(Penetrate)
G03 X6.253795 Y2.556085 Z-0.125000 I-0.074130 J0.045865 F700.000000
G03 X6.206700 Y2.618500 Z-0.125000 I-0.103784 J-0.029335
G01 X6.153192 Y2.613477 Z-0.125000
G03 X6.120650 Y2.539700 Z-0.125000 I0.067361 J-0.073777
G03 X6.170812 Y2.463446 Z-0.125000 I0.083040 J-0.000000
G03 X6.244034 Y2.486500 Z-0.125000 I0.023257 J0.053940
G01 X6.244040 Y2.486510 Z-0.125000
G00 Z5.000000

(End cutting path id: path826)


(Start cutting path id: path826)
(Change tool to Cylindrical cutter)

G00 Z5.000000
G00 X6.289989 Y1.815050

G01 Z-0.125000 F700.0(Penetrate)
G03 X6.247069 Y1.941464 Z-0.125000 I-0.207625 J0.000000 F700.000000
G03 X6.160010 Y1.984390 Z-0.125000 I-0.087059 J-0.066819
G02 X6.102876 Y2.028027 Z-0.125000 I0.000000 J0.059221
G02 X6.116130 Y2.145260 Z-0.125000 I0.153868 J0.041970
G03 X6.135005 Y2.281095 Z-0.125000 I-0.174705 J0.093505
G03 X6.069850 Y2.356920 Z-0.125000 I-0.102880 J-0.022497
G03 X5.885833 Y2.316296 Z-0.125000 I-0.061252 J-0.159634
G03 X5.781992 Y2.059990 Z-0.125000 I0.264394 J-0.256306
G03 X5.835640 Y1.790313 Z-0.125000 I0.704633 J0.000000
G03 X5.906281 Y1.759960 Z-0.125000 I0.050902 J0.021087
G02 X6.017801 Y1.769907 Z-0.125000 I0.073250 J-0.191122
G02 X6.080611 Y1.726660 Z-0.125000 I-0.017686 J-0.092922
G03 X6.205034 Y1.686964 Z-0.125000 I0.085379 J0.052768
G03 X6.289992 Y1.815060 Z-0.125000 I-0.054089 J0.128096
G01 X6.289989 Y1.815050 Z-0.125000
G00 Z5.000000

(End cutting path id: path826)


(Start cutting path id: path826)
(Change tool to Cylindrical cutter)

G00 Z5.000000
G00 X7.171934 Y2.266610

G01 Z-0.125000 F700.0(Penetrate)
G03 X7.101125 Y2.875397 Z-0.125000 I-4.652053 J-0.232573 F700.000000
G01 X7.052723 Y2.915720 Z-0.125000
G01 X7.008629 Y2.877756 Z-0.125000
G03 X6.989223 Y2.493060 Z-0.125000 I1.932492 J-0.290322
G03 X7.046580 Y2.123916 Z-0.125000 I1.765912 J0.085357
G01 X7.094322 Y2.097950 Z-0.125000
G03 X7.148703 Y2.146359 Z-0.125000 I-0.028215 J0.086445
G03 X7.171932 Y2.266610 Z-0.125000 I-0.233296 J0.107434
G01 X7.171934 Y2.266610 Z-0.125000
G00 Z5.000000

(End cutting path id: path826)


(Start cutting path id: path826)
(Change tool to Cylindrical cutter)

G00 Z5.000000
G00 X7.221322 Y3.424530

G01 Z-0.125000 F700.0(Penetrate)
G03 X7.187121 Y3.475049 Z-0.125000 I-0.054411 J0.000000 F700.000000
G03 X7.009656 Y3.509230 Z-0.125000 I-0.177465 J-0.443597
G03 X6.832190 Y3.475049 Z-0.125000 I0.000000 J-0.477782
G03 X6.797989 Y3.424530 Z-0.125000 I0.020210 J-0.050519
G03 X6.832190 Y3.374011 Z-0.125000 I0.054411 J0.000000
G03 X7.009656 Y3.339830 Z-0.125000 I0.177466 J0.443601
G03 X7.187121 Y3.374011 Z-0.125000 I0.000000 J0.477779
G03 X7.221322 Y3.424530 Z-0.125000 I-0.020210 J0.050519
G01 X7.221322 Y3.424530 Z-0.125000
G00 Z5.000000

(End cutting path id: path826)


(Start cutting path id: path826)
(Change tool to Cylindrical cutter)

G00 Z5.000000
G00 X7.734305 Y3.678280

G01 Z-0.125000 F700.0(Penetrate)
G03 X7.789935 Y3.702322 Z-0.125000 I-0.000000 J0.076382 F700.000000
G03 X7.813985 Y3.762980 Z-0.125000 I-0.064471 J0.060658
G03 X7.702754 Y3.859991 Z-0.125000 I-0.097920 J0.000000
G03 X7.496665 Y3.719480 Z-0.125000 I0.038031 J-0.277174
G03 X7.456519 Y3.585163 Z-0.125000 I0.280639 J-0.157038
G03 X7.465195 Y3.274980 Z-0.125000 I1.570959 J-0.111272
G01 X7.505455 Y2.958660 Z-0.125000
G01 X7.580035 Y3.318500 Z-0.125000
G02 X7.682443 Y3.644141 Z-0.125000 I1.668958 J-0.345936
G02 X7.734299 Y3.678330 Z-0.125000 I0.051856 J-0.022230
G01 X7.734305 Y3.678280 Z-0.125000
G00 Z5.000000

(End cutting path id: path826)


(Start cutting path id: path826)
(Change tool to Cylindrical cutter)

G00 Z5.000000
G00 X7.780532 Y4.778390

G01 Z-0.125000 F700.0(Penetrate)
G02 X7.845953 Y5.071132 Z-0.125000 I4.324244 J-0.812686 F700.000000
G02 X7.874982 Y5.142330 Z-0.125000 I0.280219 J-0.072734
G02 X8.027244 Y5.155773 Z-0.125000 I0.080814 J-0.046317
G02 X8.152658 Y4.810350 Z-0.125000 I-0.412984 J-0.345423
G01 X8.235574 Y4.785526 Z-0.125000
G03 X8.340461 Y5.095890 Z-0.125000 I-0.540719 J0.355639
G03 X8.239464 Y5.559967 Z-0.125000 I-0.844527 J0.059234
G03 X8.060080 Y5.610840 Z-0.125000 I-0.114602 J-0.062399
G03 X7.456678 Y5.092163 Z-0.125000 I1.043063 J-1.823768
G03 X7.305991 Y4.659480 Z-0.125000 I0.545860 J-0.432683
G02 X7.275827 Y4.554555 Z-0.125000 I-0.197573 J-0.000000
G02 X7.221321 Y4.524390 Z-0.125000 I-0.054506 J0.034162
G03 X7.050959 Y4.361157 Z-0.125000 I0.000000 J-0.170517
G03 X7.198181 Y3.983080 Z-0.125000 I0.503764 J-0.021538
G03 X7.444078 Y4.001971 Z-0.125000 I0.114851 J0.114847
G03 X7.780527 Y4.778390 Z-0.125000 I-1.542701 J1.129611
G01 X7.780532 Y4.778390 Z-0.125000
G00 Z5.000000

(End cutting path id: path826)


(Start cutting path id: path826)
(Change tool to Cylindrical cutter)

G00 Z5.000000
G00 X6.967322 Y5.286500

G01 Z-0.125000 F700.0(Penetrate)
G03 X6.942512 Y5.346402 Z-0.125000 I-0.084721 J-0.000000 F700.000000
G03 X6.882652 Y5.371200 Z-0.125000 I-0.059860 J-0.059851
G03 X6.822792 Y5.346402 Z-0.125000 I-0.000000 J-0.084649
G03 X6.797982 Y5.286500 Z-0.125000 I0.059911 J-0.059902
G03 X6.822792 Y5.226598 Z-0.125000 I0.084721 J0.000000
G03 X6.882652 Y5.201800 Z-0.125000 I0.059860 J0.059851
G03 X6.942512 Y5.226598 Z-0.125000 I0.000000 J0.084649
G03 X6.967322 Y5.286500 Z-0.125000 I-0.059911 J0.059902
G01 X6.967322 Y5.286500 Z-0.125000
G00 Z5.000000

(End cutting path id: path826)


(Start cutting path id: path826)
(Change tool to Cylindrical cutter)

G00 Z5.000000
G00 X7.136656 Y5.647200

G01 Z-0.125000 F700.0(Penetrate)
G02 X7.286780 Y6.033919 Z-0.125000 I0.573156 J0.000000 F700.000000
G02 X7.669249 Y6.229830 Z-0.125000 I0.453998 J-0.415027
G02 X7.771883 Y6.239533 Z-0.125000 I0.216307 J-1.740343
G02 X7.983322 Y6.251030 Z-0.125000 I0.651034 J-10.022993
G03 X8.169645 Y6.449751 Z-0.125000 I-0.008466 J0.194648
G03 X7.972662 Y6.760840 Z-0.125000 I-0.355891 J-0.007442
G03 X7.688971 Y6.747573 Z-0.125000 I-0.129971 J-0.260541
G03 X7.609961 Y6.535380 Z-0.125000 I0.097720 J-0.157192
G02 X7.610595 Y6.420649 Z-0.125000 I-0.187694 J-0.058404
G01 X7.565691 Y6.387210 Z-0.125000
G02 X7.509254 Y6.421125 Z-0.125000 I0.000000 J0.063914
G02 X7.475321 Y6.557260 Z-0.125000 I0.256107 J0.136135
G03 X7.422558 Y6.632837 Z-0.125000 I-0.080509 J-0.000000
G03 X7.302354 Y6.620760 Z-0.125000 I-0.047665 J-0.129831
G03 X7.182438 Y6.492798 Z-0.125000 I0.175012 J-0.284177
G03 X7.167427 Y6.366050 Z-0.125000 I0.156266 J-0.082770
G02 X7.153882 Y6.257888 Z-0.125000 I-0.143782 J-0.036924
G02 X7.086397 Y6.217880 Z-0.125000 I-0.067485 J0.036914
G03 X6.993812 Y6.191442 Z-0.125000 I0.000000 J-0.175337
G03 X6.967323 Y6.143780 Z-0.125000 I0.029636 J-0.047662
G02 X6.961607 Y6.070185 Z-0.125000 I-0.476636 J-0.000000
G02 X6.914403 Y5.805110 Z-0.125000 I-6.273066 J0.980355
G03 X6.926292 Y5.593655 Z-0.125000 I0.413939 J-0.082788
G03 X6.999073 Y5.540530 Z-0.125000 I0.072781 J0.023292
G03 X7.101566 Y5.575609 Z-0.125000 I-0.000000 J0.167269
G03 X7.136657 Y5.647220 Z-0.125000 I-0.055523 J0.071611
G01 X7.136656 Y5.647200 Z-0.125000
G00 Z5.000000

(End cutting path id: path826)


(Start cutting path id: path826)
(Change tool to Cylindrical cutter)

G00 Z5.000000
G00 X6.628646 Y4.021360

G01 Z-0.125000 F700.0(Penetrate)
G03 X6.604618 Y4.076998 Z-0.125000 I-0.076431 J-0.000000 F700.000000
G03 X6.543976 Y4.101060 Z-0.125000 I-0.060642 J-0.064386
G03 X6.489227 Y4.071134 Z-0.125000 I0.000000 J-0.065044
G03 X6.459306 Y3.969070 Z-0.125000 I0.159116 J-0.102064
G03 X6.491442 Y3.894694 Z-0.125000 I0.102135 J0.000000
G01 X6.543976 Y3.889370 Z-0.125000
G03 X6.608583 Y3.952921 Z-0.125000 I-0.107620 J0.174024
G03 X6.628646 Y4.021360 Z-0.125000 I-0.106696 J0.068439
G01 X6.628646 Y4.021360 Z-0.125000
G00 Z5.000000

(End cutting path id: path826)


(Start cutting path id: path826)
(Change tool to Cylindrical cutter)

G00 Z5.000000
G00 X6.628656 Y3.594160

G01 Z-0.125000 F700.0(Penetrate)
G03 X6.603846 Y3.654062 Z-0.125000 I-0.084721 J0.000000 F700.000000
G03 X6.543986 Y3.678860 Z-0.125000 I-0.059860 J-0.059851
G03 X6.484126 Y3.654062 Z-0.125000 I0.000000 J-0.084649
G03 X6.459316 Y3.594160 Z-0.125000 I0.059911 J-0.059902
G03 X6.484126 Y3.534258 Z-0.125000 I0.084721 J0.000000
G03 X6.543986 Y3.509460 Z-0.125000 I0.059860 J0.059851
G03 X6.603846 Y3.534258 Z-0.125000 I0.000000 J0.084649
G03 X6.628656 Y3.594160 Z-0.125000 I-0.059911 J0.059902
G01 X6.628656 Y3.594160 Z-0.125000
G00 Z5.000000

(End cutting path id: path826)


(Start cutting path id: path826)
(Change tool to Cylindrical cutter)

G00 Z5.000000
G00 X8.754837 Y4.125370

G01 Z-0.125000 F700.0(Penetrate)
G03 X8.694261 Y4.138418 Z-0.125000 I-0.040384 J-0.040349 F700.000000
G03 X8.660647 Y4.089770 Z-0.125000 I0.018396 J-0.048648
G03 X8.733369 Y3.914207 Z-0.125000 I0.248280 J-0.000000
G03 X8.816574 Y3.933850 Z-0.125000 I0.035533 J0.035533
G03 X8.817014 Y4.023692 Z-0.125000 I-0.136906 J0.045593
G03 X8.754834 Y4.125400 Z-0.125000 I-0.241581 J-0.077831
G01 X8.754837 Y4.125370 Z-0.125000
G00 Z5.000000

(End cutting path id: path826)


(Start cutting path id: path826)
(Change tool to Cylindrical cutter)

G00 Z5.000000
G00 X9.314178 Y4.351080

G01 Z-0.125000 F700.0(Penetrate)
G02 X9.314167 Y4.494844 Z-0.125000 I0.274969 J0.071903 F700.000000
G02 X9.367808 Y4.556300 Z-0.125000 I0.088532 J-0.023136
G01 X9.392437 Y4.604040 Z-0.125000
G03 X9.338358 Y4.683840 Z-0.125000 I-0.130328 J-0.030096
G03 X9.215951 Y4.732403 Z-0.125000 I-0.165403 J-0.238359
G03 X9.154371 Y4.711440 Z-0.125000 I-0.010502 J-0.070080
G03 X9.056048 Y4.359112 Z-0.125000 I0.278237 J-0.267530
G03 X9.272728 Y4.185800 Z-0.125000 I0.216680 J0.048794
G01 X9.314852 Y4.218666 Z-0.125000
G03 X9.314178 Y4.351070 Z-0.125000 I-0.258787 J0.064886
G01 X9.314178 Y4.351080 Z-0.125000
G00 Z5.000000

(End cutting path id: path826)


(Start cutting path id: path826)
(Change tool to Cylindrical cutter)

G00 Z5.000000
G00 X9.422646 Y3.931700

G01 Z-0.125000 F700.0(Penetrate)
G03 X9.393115 Y3.986885 Z-0.125000 I-0.066327 J0.000000 F700.000000
G03 X9.295646 Y4.016400 Z-0.125000 I-0.097469 J-0.146179
G03 X9.198177 Y3.986885 Z-0.125000 I0.000000 J-0.175694
G03 X9.168646 Y3.931700 Z-0.125000 I0.036796 J-0.055185
G03 X9.198177 Y3.876515 Z-0.125000 I0.066327 J-0.000000
G03 X9.295646 Y3.847000 Z-0.125000 I0.097469 J0.146179
G03 X9.393115 Y3.876515 Z-0.125000 I-0.000000 J0.175694
G03 X9.422646 Y3.931700 Z-0.125000 I-0.036796 J0.055185
G01 X9.422646 Y3.931700 Z-0.125000
G00 Z5.000000

(End cutting path id: path826)


(Start cutting path id: path826)
(Change tool to Cylindrical cutter)

G00 Z5.000000
G00 X9.507322 Y4.947690

G01 Z-0.125000 F700.0(Penetrate)
G03 X9.482512 Y5.007592 Z-0.125000 I-0.084721 J0.000000 F700.000000
G03 X9.422652 Y5.032390 Z-0.125000 I-0.059860 J-0.059851
G03 X9.362792 Y5.007592 Z-0.125000 I-0.000000 J-0.084649
G03 X9.337982 Y4.947690 Z-0.125000 I0.059911 J-0.059902
G03 X9.362792 Y4.887788 Z-0.125000 I0.084721 J-0.000000
G03 X9.422652 Y4.862990 Z-0.125000 I0.059860 J0.059851
G03 X9.482512 Y4.887788 Z-0.125000 I0.000000 J0.084649
G03 X9.507322 Y4.947690 Z-0.125000 I-0.059911 J0.059902
G01 X9.507322 Y4.947690 Z-0.125000
G00 Z5.000000

(End cutting path id: path826)


(Start cutting path id: path826)
(Change tool to Cylindrical cutter)

G00 Z5.000000
G00 X9.168656 Y4.947690

G01 Z-0.125000 F700.0(Penetrate)
G03 X9.143846 Y5.007592 Z-0.125000 I-0.084721 J0.000000 F700.000000
G03 X9.083986 Y5.032390 Z-0.125000 I-0.059860 J-0.059851
G03 X9.024126 Y5.007592 Z-0.125000 I-0.000000 J-0.084649
G03 X8.999316 Y4.947690 Z-0.125000 I0.059911 J-0.059902
G03 X9.024126 Y4.887788 Z-0.125000 I0.084721 J-0.000000
G03 X9.083986 Y4.862990 Z-0.125000 I0.059860 J0.059851
G03 X9.143846 Y4.887788 Z-0.125000 I0.000000 J0.084649
G03 X9.168656 Y4.947690 Z-0.125000 I-0.059911 J0.059902
G01 X9.168656 Y4.947690 Z-0.125000
G00 Z5.000000

(End cutting path id: path826)


(Start cutting path id: path826)
(Change tool to Cylindrical cutter)

G00 Z5.000000
G00 X9.026716 Y5.421900

G01 Z-0.125000 F700.0(Penetrate)
G03 X8.962497 Y5.484442 Z-0.125000 I-0.099899 J-0.038336 F700.000000
G03 X8.893857 Y5.468900 Z-0.125000 I-0.021997 J-0.062193
G03 X8.862812 Y5.285990 Z-0.125000 I0.113381 J-0.113334
G03 X9.001475 Y5.245490 Z-0.125000 I0.087567 J0.042185
G03 X9.039964 Y5.304247 Z-0.125000 I-0.043511 J0.070487
G03 X9.026716 Y5.421900 Z-0.125000 I-0.233016 J0.033334
G01 X9.026716 Y5.421900 Z-0.125000
G00 Z5.000000

(End cutting path id: path826)


(Start cutting path id: path826)
(Change tool to Cylindrical cutter)

G00 Z5.000000
G00 X9.337989 Y5.577800

G01 Z-0.125000 F700.0(Penetrate)
G01 X9.325862 Y5.608330 Z-0.125000 F700.000000
G03 X9.253319 Y5.667500 Z-0.125000 I-0.261936 J-0.247083
G03 X9.195589 Y5.671512 Z-0.125000 I-0.032677 J-0.052838
G01 X9.168649 Y5.630200 Z-0.125000
G03 X9.194143 Y5.566026 Z-0.125000 I0.093516 J0.000000
G03 X9.253319 Y5.540500 Z-0.125000 I0.059176 J0.055828
G03 X9.323275 Y5.555234 Z-0.125000 I-0.000000 J0.173440
G01 X9.337989 Y5.577800 Z-0.125000
G01 X9.337989 Y5.577800 Z-0.125000
G00 Z5.000000

(End cutting path id: path826)


(Start cutting path id: path826)
(Change tool to Cylindrical cutter)

G00 Z5.000000
G00 X8.999322 Y5.794410

G01 Z-0.125000 F700.0(Penetrate)
G03 X8.974512 Y5.854312 Z-0.125000 I-0.084721 J0.000000 F700.000000
G03 X8.914652 Y5.879110 Z-0.125000 I-0.059860 J-0.059851
G03 X8.854792 Y5.854312 Z-0.125000 I0.000000 J-0.084649
G03 X8.829982 Y5.794410 Z-0.125000 I0.059911 J-0.059902
G03 X8.854792 Y5.734508 Z-0.125000 I0.084721 J0.000000
G03 X8.914652 Y5.709710 Z-0.125000 I0.059860 J0.059851
G03 X8.974512 Y5.734508 Z-0.125000 I-0.000000 J0.084649
G03 X8.999322 Y5.794410 Z-0.125000 I-0.059911 J0.059902
G01 X8.999322 Y5.794410 Z-0.125000
G00 Z5.000000

(End cutting path id: path826)


(Start cutting path id: path826)
(Change tool to Cylindrical cutter)

G00 Z5.000000
G00 X8.321989 Y7.657830

G01 Z-0.125000 F700.0(Penetrate)
G02 X8.351520 Y7.713015 Z-0.125000 I0.066327 J0.000000 F700.000000
G02 X8.448989 Y7.742530 Z-0.125000 I0.097469 J-0.146179
G02 X8.546458 Y7.713015 Z-0.125000 I-0.000000 J-0.175694
G02 X8.575989 Y7.657830 Z-0.125000 I-0.036796 J-0.055185
G02 X8.546458 Y7.602645 Z-0.125000 I-0.066327 J-0.000000
G02 X8.448989 Y7.573130 Z-0.125000 I-0.097469 J0.146179
G02 X8.351520 Y7.602645 Z-0.125000 I0.000000 J0.175694
G02 X8.321989 Y7.657830 Z-0.125000 I0.036796 J0.055185
G01 X8.321989 Y7.657830 Z-0.125000
G00 Z5.000000

(End cutting path id: path826)


(Start cutting path id: path826)
(Change tool to Cylindrical cutter)

G00 Z5.000000
G00 X6.459322 Y7.615530

G01 Z-0.125000 F700.0(Penetrate)
G02 X6.488820 Y7.712994 Z-0.125000 I0.175767 J-0.000000 F700.000000
G02 X6.543992 Y7.742530 Z-0.125000 I0.055172 J-0.036763
G02 X6.599164 Y7.712994 Z-0.125000 I-0.000000 J-0.066299
G02 X6.628662 Y7.615530 Z-0.125000 I-0.146270 J-0.097464
G02 X6.599128 Y7.518029 Z-0.125000 I-0.175707 J-0.000000
G02 X6.543992 Y7.488530 Z-0.125000 I-0.055136 J0.036777
G02 X6.488820 Y7.518066 Z-0.125000 I0.000000 J0.066299
G02 X6.459322 Y7.615530 Z-0.125000 I0.146270 J0.097464
G01 X6.459322 Y7.615530 Z-0.125000
G00 Z5.000000

(End cutting path id: path826)


(Start cutting path id: path826)
(Change tool to Cylindrical cutter)

G00 Z5.000000
G00 X6.028090 Y8.370050

G01 Z-0.125000 F700.0(Penetrate)
G03 X6.087047 Y8.554595 Z-0.125000 I-0.528587 J0.270560 F700.000000
G03 X6.140678 Y9.139110 Z-0.125000 I-5.393243 J0.789560
G01 X6.162988 Y9.731780 Z-0.125000
G01 X6.534325 Y9.758380 Z-0.125000
G02 X6.893368 Y9.751942 Z-0.125000 I0.143569 J-2.008347
G02 X6.980281 Y9.710380 Z-0.125000 I-0.015509 J-0.144087
G02 X7.025713 Y9.622389 Z-0.125000 I-0.114978 J-0.115090
G02 X7.106982 Y8.960400 Z-0.125000 I-7.277214 J-1.229372
G01 X7.159062 Y8.285040 Z-0.125000
G01 X7.569524 Y8.303940 Z-0.125000
G03 X7.973907 Y8.342552 Z-0.125000 I-0.190209 J4.128887
G03 X8.066320 Y8.376140 Z-0.125000 I-0.034868 J0.239861
G03 X8.114074 Y8.450948 Z-0.125000 I-0.053604 J0.086865
G03 X8.152650 Y9.101830 Z-0.125000 I-5.471794 J0.650882
G01 X8.152650 Y9.774170 Z-0.125000
G01 X8.575983 Y9.774170 Z-0.125000
G02 X8.920403 Y9.695254 Z-0.125000 I-0.000000 J-0.791048
G02 X8.999316 Y9.569430 Z-0.125000 I-0.060854 J-0.125824
G03 X9.013780 Y9.367366 Z-0.125000 I1.418707 J0.000000
G03 X9.046436 Y9.241890 Z-0.125000 I0.575665 J0.082835
G02 X9.033489 Y9.149950 Z-0.125000 I-0.089358 J-0.034299
G02 X8.919436 Y9.073560 Z-0.125000 I-0.166969 J0.125954
G03 X8.775914 Y9.004454 Z-0.125000 I0.104673 J-0.400981
G03 X8.745314 Y8.943360 Z-0.125000 I0.045690 J-0.061094
G01 X8.778388 Y8.901491 Z-0.125000
G03 X8.914648 Y8.902960 Z-0.125000 I0.065185 J0.273878
G02 X9.029898 Y8.877451 Z-0.125000 I0.032742 J-0.125177
G02 X9.083981 Y8.762470 Z-0.125000 I-0.095185 J-0.114981
G03 X9.224184 Y8.402144 Z-0.125000 I0.533125 J-0.000000
G03 X9.483834 Y8.326450 Z-0.125000 I0.192255 J0.176306
G03 X9.619066 Y8.459768 Z-0.125000 I-0.049588 J0.185545
G03 X9.688382 Y9.050280 Z-0.125000 I-1.811860 J0.512006
G02 X9.839364 Y9.679163 Z-0.125000 I1.180124 J0.049241
G02 X10.142314 Y9.856230 Z-0.125000 I0.302950 J-0.170630
G02 X10.476236 Y9.695163 Z-0.125000 I-0.000000 J-0.426676
G02 X10.656475 Y9.209830 Z-0.125000 I-0.651183 J-0.517965
G03 X10.676196 Y8.715837 Z-0.125000 I360.299228 J14.136138
G03 X10.684255 Y8.525330 Z-0.125000 I56.244802 J2.283974
G03 X10.769349 Y8.414976 Z-0.125000 I0.121030 J0.005342
G03 X11.297556 Y8.334830 Z-0.125000 I0.528207 J1.700517
G01 X11.902466 Y8.334830 Z-0.125000
G01 X11.836606 Y8.906330 Z-0.125000
G02 X11.773569 Y9.478123 Z-0.125000 I58.008747 J6.684515
G02 X11.718529 Y10.028160 Z-0.125000 I53.463753 J5.627674
G01 X11.666309 Y10.578490 Z-0.125000
G01 X10.946643 Y10.566490 Z-0.125000
G03 X10.227170 Y10.547733 Z-0.125000 I0.759214 J-42.929973
G03 X8.820280 Y10.492490 Z-0.125000 I5.050529 J-146.565360
G02 X7.438539 Y10.477654 Z-0.125000 I-0.913625 J20.738070
G02 X7.354783 Y10.525590 Z-0.125000 I0.002281 J0.101125
G01 X7.378732 Y10.575323 Z-0.125000
G02 X8.253479 Y10.633630 Z-0.125000 I0.986342 J-8.206672
G03 X9.411034 Y10.698043 Z-0.125000 I-0.185018 J13.758296
G03 X9.481180 Y10.754010 Z-0.125000 I-0.008041 J0.082021
G03 X9.180177 Y11.165279 Z-0.125000 I-0.296458 J0.098811
G03 X5.781976 Y10.699710 Z-0.125000 I0.205587 J-14.135141
G02 X5.482265 Y10.647713 Z-0.125000 I-0.452841 J1.720405
G02 X4.871809 Y10.621210 Z-0.125000 I-0.614686 J7.114698
G03 X4.297390 Y10.581365 Z-0.125000 I0.003223 J-4.206841
G01 X4.257976 Y10.536110 Z-0.125000
G01 X4.296142 Y10.489554 Z-0.125000
G03 X4.681309 Y10.451410 Z-0.125000 I0.385167 J1.925602
G02 X5.066477 Y10.413266 Z-0.125000 I0.000000 J-1.963752
G01 X5.104643 Y10.366710 Z-0.125000
G01 X5.066477 Y10.320154 Z-0.125000
G02 X4.681309 Y10.282010 Z-0.125000 I-0.385168 J1.925609
G01 X4.257976 Y10.282010 Z-0.125000
G01 X4.257976 Y9.308340 Z-0.125000
G03 X4.294311 Y8.371023 Z-0.125000 I12.107813 J-0.000000
G01 X4.333586 Y8.334680 Z-0.125000
G03 X4.443103 Y8.429077 Z-0.125000 I0.000000 J0.110728
G03 X4.462241 Y9.197480 Z-0.125000 I-3.095139 J0.461528
G01 X4.405431 Y9.774010 Z-0.125000
G01 X4.882037 Y9.774010 Z-0.125000
G01 X5.358644 Y9.774010 Z-0.125000
G01 X5.375554 Y9.456510 Z-0.125000
G03 X5.392755 Y9.139022 Z-0.125000 I172.645883 J9.194337
G03 X5.407044 Y8.885010 Z-0.125000 I110.372754 J6.081526
G02 X5.421158 Y8.630980 Z-0.125000 I-74.671784 J-4.276122
G02 X5.432464 Y8.412290 Z-0.125000 I-50.911366 J-2.741752
G03 X5.507288 Y8.260780 Z-0.125000 I0.212199 J0.010565
G03 X5.690556 Y8.193560 Z-0.125000 I0.183268 J0.216219
G03 X5.905510 Y8.246332 Z-0.125000 I0.000000 J0.464167
G03 X6.028078 Y8.369950 Z-0.125000 I-0.132889 J0.254332
G01 X6.028090 Y8.370050 Z-0.125000
G00 Z5.000000

(End cutting path id: path826)


(Start cutting path id: path826)
(Change tool to Cylindrical cutter)

G00 Z5.000000
G00 X5.097443 Y8.271010

G01 Z-0.125000 F700.0(Penetrate)
G03 X5.110524 Y8.514618 Z-0.125000 I-0.376724 J0.142384 F700.000000
G03 X5.014993 Y8.588510 Z-0.125000 I-0.095531 J-0.024807
G03 X4.966255 Y8.557578 Z-0.125000 I0.000000 J-0.053862
G03 X4.935323 Y8.419170 Z-0.125000 I0.294188 J-0.138408
G02 X4.892982 Y8.292165 Z-0.125000 I-0.211651 J-0.000000
G02 X4.808323 Y8.249840 Z-0.125000 I-0.084659 J0.063506
G03 X4.710854 Y8.220325 Z-0.125000 I-0.000000 J-0.175694
G03 X4.681323 Y8.165140 Z-0.125000 I0.036796 J-0.055185
G03 X4.840506 Y8.041382 Z-0.125000 I0.127700 J0.000000
G03 X5.097444 Y8.270980 Z-0.125000 I-0.091957 J0.361472
G01 X5.097443 Y8.271010 Z-0.125000
G00 Z5.000000

(End cutting path id: path826)


(Start cutting path id: path826)
(Change tool to Cylindrical cutter)

G00 Z5.000000
G00 X5.140064 Y8.894280

G01 Z-0.125000 F700.0(Penetrate)
G03 X5.206428 Y9.011360 Z-0.125000 I-0.037935 J0.098852 F700.000000
G03 X5.104654 Y9.096890 Z-0.125000 I-0.101774 J-0.017787
G03 X4.977678 Y9.054581 Z-0.125000 I-0.000000 J-0.211693
G03 X4.935320 Y8.969890 Z-0.125000 I0.063487 J-0.084691
G03 X4.988666 Y8.893325 Z-0.125000 I0.081618 J0.000000
G03 X5.140062 Y8.894290 Z-0.125000 I0.074416 J0.201530
G01 X5.140064 Y8.894280 Z-0.125000
G00 Z5.000000

(End cutting path id: path826)


(Start cutting path id: path826)
(Change tool to Cylindrical cutter)

G00 Z5.000000
G00 X4.005089 Y8.293770

G01 Z-0.125000 F700.0(Penetrate)
G03 X4.219692 Y8.909409 Z-0.125000 I-0.717232 J0.595240 F700.000000
G03 X3.964969 Y10.126300 Z-0.125000 I-3.388471 J-0.074179
G03 X3.661892 Y10.365951 Z-0.125000 I-0.365284 J-0.150490
G03 X2.522327 Y10.356330 Z-0.125000 I-0.541168 J-3.394033
G02 X2.013588 Y10.271706 Z-0.125000 I-4.416032 J24.976507
G02 X1.802660 Y10.244210 Z-0.125000 I-0.654376 J4.197125
G03 X1.650657 Y10.162601 Z-0.125000 I0.023831 J-0.226752
G03 X1.564462 Y9.955680 Z-0.125000 I0.296928 J-0.245100
G03 X1.639467 Y9.757823 Z-0.125000 I0.236346 J-0.023549
G03 X1.760433 Y9.774280 Z-0.125000 I0.053709 J0.058025
G02 X1.981778 Y9.889548 Z-0.125000 I0.207481 J-0.128263
G02 X2.477185 Y9.733480 Z-0.125000 I-0.060056 J-1.054953
G02 X2.526763 Y9.658330 Z-0.125000 I-0.056167 J-0.090982
G02 X2.564655 Y9.149350 Z-0.125000 I-3.399412 J-0.508980
G03 X2.633978 Y8.650872 Z-0.125000 I1.826870 J-0.000000
G03 X2.764206 Y8.445780 Z-0.125000 I0.409534 J0.116153
G03 X3.096097 Y8.253274 Z-0.125000 I0.666118 J0.766073
G03 X3.549121 Y8.172100 Z-0.125000 I0.480942 J1.379360
G03 X3.877293 Y8.211980 Z-0.125000 I0.022031 J1.188906
G03 X4.005088 Y8.293740 Z-0.125000 I-0.064266 J0.241206
G01 X4.005089 Y8.293770 Z-0.125000
G00 Z5.000000

(End cutting path id: path826)


(Start cutting path id: path826)
(Change tool to Cylindrical cutter)

G00 Z5.000000
G00 X3.749989 Y8.047140

G01 Z-0.125000 F700.0(Penetrate)
G01 X3.734927 Y8.065355 Z-0.125000 F700.000000
G03 X3.575659 Y8.080440 Z-0.125000 I-0.159267 J-0.833213
G03 X3.461949 Y8.046675 Z-0.125000 I0.000000 J-0.208354
G01 X3.451371 Y7.999440 Z-0.125000
G03 X3.636875 Y7.914509 Z-0.125000 I0.156470 J0.096708
G03 X3.749989 Y8.047140 Z-0.125000 I-0.021199 J0.132631
G01 X3.749989 Y8.047140 Z-0.125000
G00 Z5.000000

(End cutting path id: path826)


(Start cutting path id: path826)
(Change tool to Cylindrical cutter)

G00 Z5.000000
G00 X3.030468 Y8.588540

G01 Z-0.125000 F700.0(Penetrate)
G02 X2.999406 Y8.672283 Z-0.125000 I0.192824 J0.119156 F700.000000
G02 X2.930548 Y9.220320 Z-0.125000 I8.556678 J1.353442
G01 X2.878838 Y9.774110 Z-0.125000
G01 X3.307190 Y9.774110 Z-0.125000
G01 X3.735542 Y9.774110 Z-0.125000
G01 X3.766582 Y9.202610 Z-0.125000
G02 X3.789939 Y8.632902 Z-0.125000 I-21.441554 J-1.164405
G02 X3.783122 Y8.605140 Z-0.125000 I-0.053858 J-0.001492
G02 X3.411524 Y8.381513 Z-0.125000 I-0.381181 J0.212849
G02 X3.030470 Y8.588540 Z-0.125000 I-0.009584 J0.436556
G01 X3.030468 Y8.588540 Z-0.125000
G00 Z5.000000

(End cutting path id: path826)


(Start cutting path id: path826)
(Change tool to Cylindrical cutter)

G00 Z5.000000
G00 X2.141323 Y7.995740

G01 Z-0.125000 F700.0(Penetrate)
G03 X2.116514 Y8.055642 Z-0.125000 I-0.084721 J0.000000 F700.000000
G03 X2.056653 Y8.080440 Z-0.125000 I-0.059860 J-0.059851
G03 X1.996793 Y8.055642 Z-0.125000 I0.000000 J-0.084649
G03 X1.971983 Y7.995740 Z-0.125000 I0.059911 J-0.059902
G03 X1.996793 Y7.935838 Z-0.125000 I0.084721 J0.000000
G03 X2.056653 Y7.911040 Z-0.125000 I0.059860 J0.059851
G03 X2.116514 Y7.935838 Z-0.125000 I0.000000 J0.084649
G03 X2.141323 Y7.995740 Z-0.125000 I-0.059911 J0.059902
G01 X2.141323 Y7.995740 Z-0.125000
G00 Z5.000000

(End cutting path id: path826)


(Start cutting path id: path826)
(Change tool to Cylindrical cutter)

G00 Z5.000000
G00 X2.912111 Y6.496800

G01 Z-0.125000 F700.0(Penetrate)
G03 X2.794687 Y6.504691 Z-0.125000 I-0.063226 J-0.063226 F700.000000
G03 X2.773695 Y6.391300 Z-0.125000 I0.052029 J-0.068271
G03 X2.840286 Y6.341730 Z-0.125000 I0.095865 J0.059269
G03 X2.916550 Y6.352900 Z-0.125000 I0.025218 J0.093759
G03 X2.948594 Y6.412465 Z-0.125000 I-0.035494 J0.057496
G03 X2.912150 Y6.496810 Z-0.125000 I-0.124667 J-0.003820
G01 X2.912111 Y6.496800 Z-0.125000
G00 Z5.000000

(End cutting path id: path826)


(Start cutting path id: path826)
(Change tool to Cylindrical cutter)

G00 Z5.000000
G00 X3.411323 Y10.657210

G01 Z-0.125000 F700.0(Penetrate)
G01 X3.399196 Y10.687740 Z-0.125000 F700.000000
G03 X3.326653 Y10.746910 Z-0.125000 I-0.261936 J-0.247083
G03 X3.268923 Y10.750922 Z-0.125000 I-0.032677 J-0.052838
G01 X3.241983 Y10.709610 Z-0.125000
G03 X3.267477 Y10.645436 Z-0.125000 I0.093516 J-0.000000
G03 X3.326653 Y10.619910 Z-0.125000 I0.059176 J0.055828
G03 X3.396609 Y10.634644 Z-0.125000 I0.000000 J0.173440
G01 X3.411323 Y10.657210 Z-0.125000
G01 X3.411323 Y10.657210 Z-0.125000
G00 Z5.000000

(End cutting path id: path826)


(Start cutting path id: path826)
(Change tool to Cylindrical cutter)

G00 Z5.000000
G00 X3.072656 Y10.789240

G01 Z-0.125000 F700.0(Penetrate)
G03 X3.044957 Y10.933111 Z-0.125000 I-0.387483 J0.000000 F700.000000
G03 X2.987986 Y11.000910 Z-0.125000 I-0.131323 J-0.052514
G01 X2.941114 Y10.985461 Z-0.125000
G03 X2.903316 Y10.789240 Z-0.125000 I0.490421 J-0.196221
G03 X2.941107 Y10.593020 Z-0.125000 I0.528310 J0.000000
G01 X2.987986 Y10.577570 Z-0.125000
G03 X3.044944 Y10.645365 Z-0.125000 I-0.074433 J0.120360
G03 X3.072656 Y10.789240 Z-0.125000 I-0.359631 J0.143875
G01 X3.072656 Y10.789240 Z-0.125000
G00 Z5.000000

(End cutting path id: path826)


(Start cutting path id: path826)
(Change tool to Cylindrical cutter)

G00 Z5.000000
G00 X2.150848 Y10.813540

G01 Z-0.125000 F700.0(Penetrate)
G03 X2.090272 Y10.826588 Z-0.125000 I-0.040384 J-0.040349 F700.000000
G03 X2.056658 Y10.777940 Z-0.125000 I0.018396 J-0.048648
G03 X2.129380 Y10.602369 Z-0.125000 I0.248301 J-0.000000
G03 X2.212586 Y10.622010 Z-0.125000 I0.035534 J0.035532
G03 X2.213028 Y10.711857 Z-0.125000 I-0.136919 J0.045597
G03 X2.150846 Y10.813570 Z-0.125000 I-0.241580 J-0.077823
G01 X2.150848 Y10.813540 Z-0.125000
G00 Z5.000000

(End cutting path id: path826)


(Start cutting path id: path826)
(Change tool to Cylindrical cutter)

G00 Z5.000000
G00 X2.395323 Y11.466330

G01 Z-0.125000 F700.0(Penetrate)
G02 X2.421469 Y11.609506 Z-0.125000 I0.405097 J0.000000 F700.000000
G01 X2.459323 Y11.635670 Z-0.125000
G03 X2.506628 Y11.661048 Z-0.125000 I-0.000000 J0.056776
G03 X2.641955 Y11.910830 Z-0.125000 I-1.324701 J0.879251
G02 X2.773091 Y12.179051 Z-0.125000 I2.876833 J-1.240342
G02 X2.916623 Y12.410740 Z-0.125000 I2.287556 J-1.256848
G03 X3.018324 Y12.724876 Z-0.125000 I-0.468289 J0.325139
G03 X2.924523 Y12.819620 Z-0.125000 I-0.092936 J0.001794
G03 X2.812282 Y12.760985 Z-0.125000 I0.001289 J-0.139215
G03 X2.437690 Y12.133710 Z-0.125000 I3.779306 J-2.682383
G03 X2.155694 Y11.378941 Z-0.125000 I3.550621 J-1.756647
G03 X2.218968 Y11.297000 Z-0.125000 I0.063275 J-0.016541
G03 X2.344759 Y11.347609 Z-0.125000 I0.000000 J0.181632
G03 X2.395357 Y11.466330 Z-0.125000 I-0.113979 J0.118721
G01 X2.395323 Y11.466330 Z-0.125000
G00 Z5.000000

(End cutting path id: path826)


(Start cutting path id: path826)
(Change tool to Cylindrical cutter)

G00 Z5.000000
G00 X2.183656 Y11.997040

G01 Z-0.125000 F700.0(Penetrate)
G03 X2.521336 Y12.694451 Z-0.125000 I-249.117248 J121.050589 F700.000000
G03 X2.550545 Y12.757500 Z-0.125000 I-1.996021 J0.963009
G01 X2.539265 Y12.795307 Z-0.125000
G03 X2.451965 Y12.821000 Z-0.125000 I-0.087300 J-0.135468
G03 X2.357124 Y12.770021 Z-0.125000 I0.000000 J-0.113712
G03 X1.979243 Y12.106330 Z-0.125000 I4.771630 J-3.156206
G03 X1.690819 Y11.362362 Z-0.125000 I4.441220 J-2.149683
G01 X1.739157 Y11.298540 Z-0.125000
G03 X1.817975 Y11.342559 Z-0.125000 I-0.001388 J0.095059
G03 X2.183656 Y11.997040 Z-0.125000 I-5.531191 J3.519863
G01 X2.183656 Y11.997040 Z-0.125000
G00 Z5.000000

(End cutting path id: path826)


(Start cutting path id: path826)
(Change tool to Cylindrical cutter)

G00 Z5.000000
G00 X1.717989 Y11.974800

G01 Z-0.125000 F700.0(Penetrate)
G02 X1.750318 Y12.111787 Z-0.125000 I0.306390 J-0.000000 F700.000000
G02 X1.802659 Y12.144140 Z-0.125000 I0.052341 J-0.026162
G03 X1.854990 Y12.176482 Z-0.125000 I0.000000 J0.058508
G03 X1.887329 Y12.313470 Z-0.125000 I-0.273970 J0.136988
G02 X1.919659 Y12.450449 Z-0.125000 I0.306348 J0.000000
G02 X1.971999 Y12.482800 Z-0.125000 I0.052340 J-0.026164
G03 X2.024328 Y12.515141 Z-0.125000 I0.000000 J0.058506
G03 X2.056669 Y12.652140 Z-0.125000 I-0.273998 J0.136999
G03 X1.980029 Y12.736488 Z-0.125000 I-0.084735 J0.000000
G03 X1.835862 Y12.673340 Z-0.125000 I-0.015441 J-0.160889
G02 X1.759364 Y12.635368 Z-0.125000 I-0.076499 J0.058071
G01 X1.720695 Y12.673340 Z-0.125000
G03 X1.548582 Y12.828030 Z-0.125000 I-0.158164 J-0.002885
G03 X1.379336 Y12.643140 Z-0.125000 I0.016367 J-0.184890
G03 X1.424414 Y12.530325 Z-0.125000 I0.163709 J-0.000000
G03 X1.503624 Y12.512440 Z-0.125000 I0.053006 J0.050407
G02 X1.662325 Y12.459263 Z-0.125000 I0.047111 J-0.122802
G02 X1.642892 Y12.289220 Z-0.125000 I-0.116675 J-0.072798
G03 X1.496386 Y11.945164 Z-0.125000 I0.353922 J-0.353928
G03 X1.633292 Y11.805530 Z-0.125000 I0.136906 J-0.002701
G03 X1.685623 Y11.837872 Z-0.125000 I0.000000 J0.058508
G03 X1.717962 Y11.974860 Z-0.125000 I-0.273970 J0.136988
G01 X1.717989 Y11.974800 Z-0.125000
G00 Z5.000000

(End cutting path id: path826)


(Start cutting path id: path826)
(Change tool to Cylindrical cutter)

G00 Z5.000000
G00 X3.347823 Y11.965680

G01 Z-0.125000 F700.0(Penetrate)
G03 X3.620744 Y12.735776 Z-0.125000 I-3.534784 J1.686133 F700.000000
G03 X3.553591 Y12.821000 Z-0.125000 I-0.067153 J0.016155
G03 X3.222939 Y12.670721 Z-0.125000 I0.000000 J-0.438899
G03 X3.072656 Y12.270020 Z-0.125000 I0.459056 J-0.400701
G02 X3.043193 Y12.173130 Z-0.125000 I-0.174041 J-0.000000
G02 X2.987986 Y12.143670 Z-0.125000 I-0.055206 J0.036997
G03 X2.935657 Y12.111329 Z-0.125000 I-0.000000 J-0.058506
G03 X2.903316 Y11.974330 Z-0.125000 I0.273998 J-0.136999
G02 X2.873818 Y11.834510 Z-0.125000 I-0.346115 J0.000000
G01 X2.828526 Y11.805000 Z-0.125000
G03 X2.772086 Y11.779043 Z-0.125000 I-0.000000 J-0.074340
G03 X2.701471 Y11.656830 Z-0.125000 I0.291684 J-0.250043
G02 X2.646200 Y11.509890 Z-0.125000 I-3.567334 J1.257978
G02 X2.599874 Y11.402830 Z-0.125000 I-1.944480 J0.777843
G01 X2.619961 Y11.341563 Z-0.125000
G03 X2.790429 Y11.298540 Z-0.125000 I0.168221 J0.307305
G03 X2.975777 Y11.385766 Z-0.125000 I-0.001126 J0.242930
G03 X3.347818 Y11.965680 Z-0.125000 I-2.115804 J1.766684
G01 X3.347823 Y11.965680 Z-0.125000
G00 Z5.000000

(End cutting path id: path826)


(Start cutting path id: path826)
(Change tool to Cylindrical cutter)

G00 Z5.000000
G00 X3.672047 Y11.529830

G01 Z-0.125000 F700.0(Penetrate)
G02 X3.804339 Y11.752105 Z-0.125000 I1.886345 J-0.972191 F700.000000
G02 X3.868025 Y11.817620 Z-0.125000 I0.218854 J-0.149034
G03 X3.927903 Y12.017091 Z-0.125000 I-0.100416 J0.138866
G03 X3.744720 Y12.143670 Z-0.125000 I-0.183183 J-0.069260
G03 X3.674901 Y12.110732 Z-0.125000 I-0.000000 J-0.090467
G03 X3.605188 Y11.974330 Z-0.125000 I0.274906 J-0.226516
G02 X3.539510 Y11.832731 Z-0.125000 I-0.425292 J0.111234
G02 X3.486114 Y11.805000 Z-0.125000 I-0.053395 J0.037541
G01 X3.440825 Y11.775492 Z-0.125000
G03 X3.411324 Y11.635670 Z-0.125000 I0.316603 J-0.139822
G02 X3.378995 Y11.498683 Z-0.125000 I-0.306390 J-0.000000
G02 X3.326654 Y11.466330 Z-0.125000 I-0.052341 J0.026162
G03 X3.266794 Y11.441532 Z-0.125000 I0.000000 J-0.084649
G03 X3.241984 Y11.381630 Z-0.125000 I0.059911 J-0.059902
G03 X3.383890 Y11.280435 Z-0.125000 I0.107035 J0.000000
G03 X3.672042 Y11.529790 Z-0.125000 I-0.166724 J0.483836
G01 X3.672047 Y11.529830 Z-0.125000
G00 Z5.000000

(End cutting path id: path826)


(Start cutting path id: path826)
(Change tool to Cylindrical cutter)

G00 Z5.000000
G00 X4.003989 Y11.381670

G01 Z-0.125000 F700.0(Penetrate)
G03 X3.974458 Y11.436855 Z-0.125000 I-0.066327 J0.000000 F700.000000
G03 X3.876989 Y11.466370 Z-0.125000 I-0.097469 J-0.146179
G03 X3.779521 Y11.436855 Z-0.125000 I-0.000000 J-0.175694
G03 X3.749989 Y11.381670 Z-0.125000 I0.036796 J-0.055185
G03 X3.779521 Y11.326485 Z-0.125000 I0.066327 J0.000000
G03 X3.876989 Y11.296970 Z-0.125000 I0.097469 J0.146179
G03 X3.974458 Y11.326485 Z-0.125000 I0.000000 J0.175694
G03 X4.003989 Y11.381670 Z-0.125000 I-0.036796 J0.055185
G01 X4.003989 Y11.381670 Z-0.125000
G00 Z5.000000

(End cutting path id: path826)


(Start cutting path id: path826)
(Change tool to Cylindrical cutter)

G00 Z5.000000
G00 X4.632798 Y11.523510

G01 Z-0.125000 F700.0(Penetrate)
G03 X4.590617 Y11.699397 Z-0.125000 I-0.149142 J0.057234 F700.000000
G03 X4.321489 Y11.804150 Z-0.125000 I-0.272694 J-0.302503
G03 X4.220176 Y11.731818 Z-0.125000 I-0.000677 J-0.106170
G03 X4.224709 Y11.516040 Z-0.125000 I0.302126 J-0.101590
G03 X4.427492 Y11.379322 Z-0.125000 I0.198947 J0.076337
G03 X4.632793 Y11.523040 Z-0.125000 I-0.004037 J0.224263
G01 X4.632798 Y11.523510 Z-0.125000
G00 Z5.000000

(End cutting path id: path826)


(Start cutting path id: path826)
(Change tool to Cylindrical cutter)

G00 Z5.000000
G00 X4.935322 Y11.080500

G01 Z-0.125000 F700.0(Penetrate)
G01 X4.923195 Y11.111030 Z-0.125000 F700.000000
G03 X4.850652 Y11.170200 Z-0.125000 I-0.261936 J-0.247083
G03 X4.792922 Y11.174212 Z-0.125000 I-0.032677 J-0.052838
G01 X4.765982 Y11.132900 Z-0.125000
G03 X4.791476 Y11.068726 Z-0.125000 I0.093516 J-0.000000
G03 X4.850652 Y11.043200 Z-0.125000 I0.059176 J0.055828
G03 X4.920608 Y11.057934 Z-0.125000 I0.000000 J0.173440
G01 X4.935322 Y11.080500 Z-0.125000
G01 X4.935322 Y11.080500 Z-0.125000
G00 Z5.000000

(End cutting path id: path826)


(Start cutting path id: path826)
(Change tool to Cylindrical cutter)

G00 Z5.000000
G00 X5.593090 Y11.655110

G01 Z-0.125000 F700.0(Penetrate)
G02 X5.857739 Y11.849319 Z-0.125000 I0.251926 J-0.065877 F700.000000
G02 X6.327165 Y11.619210 Z-0.125000 I-0.032272 J-0.659708
G01 X6.486641 Y11.432950 Z-0.125000
G01 X6.610308 Y11.619210 Z-0.125000
G02 X6.937151 Y11.819776 Z-0.125000 I0.379644 J-0.252075
G02 X7.299639 Y11.699610 Z-0.125000 I0.052361 J-0.448868
G03 X7.395880 Y11.661367 Z-0.125000 I0.096241 J0.101980
G03 X7.450628 Y11.699610 Z-0.125000 I0.000000 J0.058309
G02 X7.516676 Y11.766422 Z-0.125000 I0.106210 J-0.038944
G02 X7.729322 Y11.805440 Z-0.125000 I0.212646 J-0.559940
