%
(Header)
(Generated by gcodetools from Inkscape.)
(Using default header. To add your own header create file "header" in the output dir.)
M3
(Header end.)
G21 (All units in mm)

(Pass at depth -1.0)
(Start cutting path id: path1784)
(Change tool to Cylindrical cutter)

G00 Z5.000000
G00 X64.345284 Y0.111000

G01 Z-1.000000 F1000.0(Penetrate)
G03 X56.894924 Y0.318107 Z-1.000000 I-24.729839 J-755.506858 F1100.000000
G03 X37.687545 Y0.720540 Z-1.000000 I-114.831802 J-5022.142383
G02 X24.993347 Y1.035337 Z-1.000000 I20.990731 J1102.557143
G02 X24.045053 Y1.137460 Z-1.000000 I0.190042 J6.218567
G03 X23.101328 Y1.274896 Z-1.000000 I-2.216086 J-11.908232
G03 X22.555359 Y1.294810 Z-1.000000 I-0.417520 J-3.952733
G02 X18.719323 Y1.580284 Z-1.000000 I-0.584786 J18.057948
G02 X6.796625 Y4.177560 Z-1.000000 I32.725569 J178.889474
G02 X4.314941 Y5.563577 Z-1.000000 I1.350728 J5.333254
G02 X3.053923 Y7.811390 Z-1.000000 I3.150819 J3.245223
G02 X2.461247 Y11.734341 Z-1.000000 I26.751530 J6.047843
G02 X1.545832 Y27.218320 Z-1.000000 I417.940293 J32.477734
G03 X1.379868 Y31.295366 Z-1.000000 I-15180.565504 J-615.687804
G03 X1.228814 Y34.980440 Z-1.000000 I-12346.525453 J-504.411100
G02 X0.821021 Y60.207738 Z-1.000000 I505.177910 J20.783036
G02 X1.627864 Y80.377016 Z-1.000000 I323.605330 J-2.844595
G02 X3.439197 Y97.942848 Z-1.000000 I278.935586 J-19.886649
G02 X6.057073 Y113.150356 Z-1.000000 I211.615279 J-28.599147
G03 X6.795832 Y117.970106 Z-1.000000 I-43.788266 J9.178253
G03 X6.732444 Y120.050005 Z-1.000000 I-8.109282 J0.793773
G02 X6.599038 Y121.305414 Z-1.000000 I11.846813 J1.893698
G02 X6.627129 Y122.026801 Z-1.000000 I3.917200 J0.208703
G03 X6.632985 Y122.744311 Z-1.000000 I-2.901209 J0.382457
G03 X6.383165 Y124.143742 Z-1.000000 I-11.413310 J-1.315438
G02 X6.128940 Y125.548750 Z-1.000000 I11.652444 J2.833923
G02 X6.037018 Y127.028062 Z-1.000000 I12.830307 J1.539760
G02 X6.156978 Y128.490356 Z-1.000000 I8.489310 J0.039642
G02 X6.443513 Y129.419417 Z-1.000000 I3.674901 J-0.624673
G02 X6.908493 Y130.244403 Z-1.000000 I5.173748 J-2.372508
G02 X7.061675 Y130.329739 Z-1.000000 I0.161428 J-0.109618
G02 X7.266440 Y130.333813 Z-1.000000 I0.192554 J-4.529849
G02 X9.069675 Y130.324390 Z-1.000000 I-0.959029 J-356.085392
G03 X15.875163 Y130.539332 Z-1.000000 I0.679520 J86.330164
G03 X25.691562 Y131.506845 Z-1.000000 I-12.855376 J180.713241
G03 X35.478758 Y132.874035 Z-1.000000 I-46.410713 J367.951722
G03 X35.857728 Y133.065351 Z-1.000000 I-0.103694 J0.676403
G03 X35.871727 Y133.122685 Z-1.000000 I-0.039979 J0.040138
G03 X35.740685 Y133.432684 Z-1.000000 I-1.754348 J-0.558898
G02 X35.638435 Y133.752551 Z-1.000000 I0.817976 J0.437753
G02 X35.668078 Y133.999465 Z-1.000000 I0.504661 J0.064650
G02 X36.283605 Y134.547623 Z-1.000000 I0.838344 J-0.321709
G02 X42.771830 Y135.819088 Z-1.000000 I14.337265 J-55.972086
G02 X46.073775 Y135.927087 Z-1.000000 I2.170472 J-15.829127
G02 X47.046978 Y135.515570 Z-1.000000 I-0.115741 J-1.630247
G01 X47.526745 Y135.086899 Z-1.000000
G01 X50.996491 Y135.672793 Z-1.000000
G02 X64.186078 Y137.479572 Z-1.000000 I35.594367 J-210.795062
G02 X74.145925 Y138.112366 Z-1.000000 I12.590947 J-119.477114
G02 X79.916266 Y136.801825 Z-1.000000 I0.266900 J-12.183575
G02 X82.731979 Y133.766494 Z-1.000000 I-2.694245 J-5.322963
G02 X84.027030 Y130.268439 Z-1.000000 I-44.232703 J-18.364604
G02 X84.566700 Y128.147799 Z-1.000000 I-15.668700 J-5.116429
G02 X84.320933 Y125.193318 Z-1.000000 I-5.549865 J-1.025799
G02 X83.055106 Y123.990735 Z-1.000000 I-1.839691 J0.668950
G03 X82.917596 Y123.839734 Z-1.000000 I0.058753 J-0.191616
G03 X82.931042 Y123.391249 Z-1.000000 I0.947334 J-0.196042
G02 X88.123936 Y103.441164 Z-1.000000 I-1062.534272 J-287.222525
G02 X89.812274 Y95.901417 Z-1.000000 I-149.992515 J-37.545983
G02 X91.403108 Y85.163648 Z-1.000000 I-110.458331 J-21.851470
G02 X92.487454 Y68.930057 Z-1.000000 I-251.717925 J-24.966878
G02 X93.214145 Y29.809842 Z-1.000000 I-1225.216224 J-42.326268
G02 X92.645128 Y8.636490 Z-1.000000 I-359.259184 J-0.939525
G02 X92.251441 Y4.548396 Z-1.000000 I-51.716093 J2.917306
G02 X92.024737 Y4.091440 Z-1.000000 I-0.791709 J0.108067
G02 X91.298534 Y3.633874 Z-1.000000 I-1.371198 J1.371166
G02 X86.533930 Y2.154820 Z-1.000000 I-21.790816 J61.782800
G02 X81.386671 Y1.062196 Z-1.000000 I-12.728822 J47.293935
G02 X74.929980 Y0.336620 Z-1.000000 I-11.559708 J73.775615
G02 X69.277834 Y0.082998 Z-1.000000 I-8.210406 J119.866969
G02 X64.345281 Y0.111190 Z-1.000000 I-1.944519 J91.302988
G01 X64.345284 Y0.111000 Z-1.000000
G00 Z5.000000

(Change tool to Cylindrical cutter)

G00 Z5.000000
G00 X73.760335 Y1.677560

G01 Z-1.000000 F1000.0(Penetrate)
G01 X74.550826 Y1.772560 Z-1.000000 F1100.000000
G01 X74.989769 Y6.654920 Z-1.000000
G03 X76.592150 Y25.870924 Z-1.000000 I-1484.765169 J133.486178
G03 X77.275894 Y36.391720 Z-1.000000 I-444.325517 J34.159218
G02 X77.440404 Y39.449399 Z-1.000000 I2234.383232 J-118.681461
G02 X77.535253 Y41.151696 Z-1.000000 I694.277734 J-37.830171
G01 X77.632173 Y42.853862 Z-1.000000
G01 X77.182740 Y42.762752 Z-1.000000
G02 X73.416834 Y42.163112 Z-1.000000 I-8.989451 J44.330926
G02 X63.561236 Y41.179151 Z-1.000000 I-35.237001 J303.092677
G03 X60.586374 Y40.897404 Z-1.000000 I11.144484 J-133.516422
G03 X59.797789 Y40.780321 Z-1.000000 I1.004878 J-9.482353
G02 X57.049203 Y40.479476 Z-1.000000 I-3.246426 J16.953774
G02 X44.665602 Y40.343724 Z-1.000000 I-9.987000 J346.139605
G01 X34.080911 Y40.417004 Z-1.000000
G01 X34.058471 Y30.524650 Z-1.000000
G02 X33.905831 Y18.187255 Z-1.000000 I-610.531923 J1.383935
G02 X33.514251 Y6.314060 Z-1.000000 I-565.995265 J12.723577
G03 X33.381287 Y2.360693 Z-1.000000 I200.780257 J-8.731776
G03 X33.418041 Y2.268910 Z-1.000000 I0.125524 J-0.002985
G03 X33.737292 Y2.132588 Z-1.000000 I0.329367 J0.329355
G03 X52.950658 Y1.783111 Z-1.000000 I59.090403 J2720.317036
G03 X71.852202 Y1.570824 Z-1.000000 I40.439135 J2759.016450
G03 X73.760352 Y1.677600 Z-1.000000 I0.117159 J15.009502
G01 X73.760335 Y1.677560 Z-1.000000
G00 Z5.000000

(Change tool to Cylindrical cutter)

G00 Z5.000000
G00 X78.379801 Y2.061900

G01 Z-1.000000 F1000.0(Penetrate)
G03 X82.064303 Y2.590302 Z-1.000000 I-5.618662 J52.288530 F1100.000000
G03 X85.828290 Y3.400680 Z-1.000000 I-9.952887 J55.375000
G03 X90.994151 Y4.916530 Z-1.000000 I-16.769340 J66.708483
G03 X91.320688 Y5.248680 Z-1.000000 I-0.164199 J0.488009
G03 X91.353390 Y5.425598 Z-1.000000 I-0.688734 J0.218787
G03 X91.621943 Y10.439620 Z-1.000000 I-561.767510 J32.602740
G03 X92.159643 Y37.030916 Z-1.000000 I-460.806818 J22.619022
G03 X91.071744 Y74.339821 Z-1.000000 I-908.573850 J-7.823014
G03 X89.135983 Y91.410132 Z-1.000000 I-135.785637 J-6.753080
G03 X83.532932 Y116.696021 Z-1.000000 I-304.198936 J-54.143124
G01 X81.606603 Y123.937630 Z-1.000000
G01 X79.483567 Y123.839320 Z-1.000000
G03 X69.735191 Y123.228466 Z-1.000000 I13.859284 J-299.265373
G03 X69.317234 Y123.035694 Z-1.000000 I0.052418 J-0.663132
G03 X69.296703 Y122.959123 Z-1.000000 I0.056137 J-0.056090
G03 X70.532444 Y118.486786 Z-1.000000 I262.545746 J70.136517
G02 X74.986552 Y100.386885 Z-1.000000 I-243.387411 J-69.491909
G02 X77.514892 Y84.813425 Z-1.000000 I-177.563388 J-36.819250
G03 X78.006185 Y81.438906 Z-1.000000 I62.385016 J7.359545
G03 X78.187343 Y80.935976 Z-1.000000 I1.521011 J0.263785
G02 X78.334744 Y80.464896 Z-1.000000 I-0.997183 J-0.570620
G02 X78.256683 Y80.138705 Z-1.000000 I-0.528496 J-0.045961
G03 X78.159135 Y79.789417 Z-1.000000 I0.549077 J-0.341610
G03 X78.297213 Y76.724481 Z-1.000000 I46.284966 J0.549599
G02 X78.711585 Y69.630555 Z-1.000000 I-178.583100 J-13.990494
G02 X78.957016 Y59.599663 Z-1.000000 I-356.897548 J-13.750855
G02 X78.520391 Y39.238313 Z-1.000000 I-319.698697 J-3.329802
G02 X76.102367 Y6.088390 Z-1.000000 I-850.357156 J45.363669
G03 X75.717111 Y1.893826 Z-1.000000 I2830.986406 J-262.131286
G03 X75.713990 Y1.825170 Z-1.000000 I0.753635 J-0.068656
G01 X75.746066 Y1.792793 Z-1.000000
G03 X76.223625 Y1.820170 Z-1.000000 I0.033571 J3.593301
G02 X76.733688 Y1.880901 Z-1.000000 I4.520121 J-35.790934
G02 X78.379766 Y2.061390 Z-1.000000 I42.280260 J-378.003891
G01 X78.379801 Y2.061900 Z-1.000000
G00 Z5.000000

(Change tool to Cylindrical cutter)

G00 Z5.000000
G00 X84.192604 Y9.642520

G01 Z-1.000000 F1000.0(Penetrate)
G02 X84.106211 Y9.892307 Z-1.000000 I0.288895 J0.239753 F1100.000000
G02 X84.241864 Y11.485040 Z-1.000000 I13.727564 J-0.367031
G03 X84.885805 Y19.277619 Z-1.000000 I-63.720933 J9.188487
G03 X84.584771 Y27.296720 Z-1.000000 I-67.793328 J1.470262
G03 X83.885832 Y32.989587 Z-1.000000 I-112.221476 J-10.888598
G03 X83.458720 Y34.870350 Z-1.000000 I-12.611256 J-1.875075
G02 X83.564946 Y35.361487 Z-1.000000 I0.490049 J0.151065
G02 X84.112002 Y35.607680 Z-1.000000 I0.547056 J-0.484698
G02 X84.384789 Y35.415735 Z-1.000000 I0.000000 J-0.289810
G02 X84.955874 Y33.255520 Z-1.000000 I-12.242025 J-4.391960
G02 X85.947323 Y24.638729 Z-1.000000 I-73.846342 J-12.862202
G02 X85.907699 Y16.476820 Z-1.000000 I-66.269218 J-3.759332
G02 X85.384070 Y10.781615 Z-1.000000 I-112.780620 J7.497611
G02 X85.119844 Y9.773180 Z-1.000000 I-3.729142 J0.438261
G02 X84.697716 Y9.447159 Z-1.000000 I-0.497326 J0.207639
G02 X84.192594 Y9.642520 Z-1.000000 I-0.077533 J0.550230
G01 X84.192604 Y9.642520 Z-1.000000
G00 Z5.000000

(Change tool to Cylindrical cutter)

G00 Z5.000000
G00 X88.844526 Y11.322210

G01 Z-1.000000 F1000.0(Penetrate)
G02 X88.702541 Y11.542354 Z-1.000000 I0.136500 J0.243898 F1100.000000
G02 X88.674776 Y13.312360 Z-1.000000 I12.717107 J1.084704
G03 X88.696540 Y15.147531 Z-1.000000 I-21.898541 J1.177424
G03 X88.587516 Y16.221040 Z-1.000000 I-7.578903 J-0.227415
G02 X88.666308 Y17.443859 Z-1.000000 I2.573352 J0.448135
G02 X89.056541 Y17.731290 Z-1.000000 I0.390233 J-0.121187
G02 X89.425575 Y17.452250 Z-1.000000 I0.000000 J-0.383546
G02 X89.794449 Y15.125560 Z-1.000000 I-9.567510 J-2.709421
G02 X89.426866 Y11.573888 Z-1.000000 I-12.638185 J-0.486860
G02 X88.844492 Y11.322210 Z-1.000000 I-0.387384 J0.096756
G01 X88.844526 Y11.322210 Z-1.000000
G00 Z5.000000

(Change tool to Cylindrical cutter)

G00 Z5.000000
G00 X32.109623 Y2.300460

G01 Z-1.000000 F1000.0(Penetrate)
G03 X32.210407 Y2.529976 Z-1.000000 I-0.244117 J0.244081 F1100.000000
G03 X32.734781 Y17.104060 Z-1.000000 I-1167.379435 J49.298683
G03 X32.981774 Y33.509486 Z-1.000000 I-559.033395 J16.621149
G03 X32.746441 Y47.290058 Z-1.000000 I-394.682246 J0.152234
G03 X29.400966 Y85.200199 Z-1.000000 I-355.762487 J-12.292466
G03 X23.071122 Y115.209768 Z-1.000000 I-228.876253 J-32.603944
G01 X21.874049 Y119.464526 Z-1.000000
G01 X17.392796 Y119.547866 Z-1.000000
G02 X12.017092 Y119.892020 Z-1.000000 I1.104994 J59.416569
G02 X9.424627 Y120.422041 Z-1.000000 I1.563775 J14.254019
G03 X8.941958 Y120.514353 Z-1.000000 I-0.678973 J-2.242104
G03 X8.858089 Y120.469661 Z-1.000000 I-0.007339 J-0.087270
G03 X8.812946 Y120.358180 Z-1.000000 I0.428559 J-0.238418
G03 X8.529984 Y119.245189 Z-1.000000 I43.143250 J-11.561027
G01 X8.260906 Y118.126771 Z-1.000000
G01 X8.687847 Y117.049844 Z-1.000000
G03 X9.142645 Y115.985357 Z-1.000000 I20.443424 J8.104971
G03 X9.946292 Y114.306573 Z-1.000000 I51.653598 J23.695252
G02 X12.184668 Y108.532179 Z-1.000000 I-29.822432 J-14.881355
G02 X14.774995 Y97.307255 Z-1.000000 I-110.933732 J-31.511034
G02 X16.326118 Y87.669243 Z-1.000000 I-278.422207 J-49.752563
G02 X18.077005 Y74.261390 Z-1.000000 I-537.155672 J-76.963611
G03 X18.640529 Y69.558193 Z-1.000000 I1265.660212 J149.262523
G03 X18.792657 Y68.381009 Z-1.000000 I79.495704 J9.674844
G02 X19.430790 Y62.755645 Z-1.000000 I-122.098239 J-16.699517
G02 X20.433883 Y50.191023 Z-1.000000 I-608.361534 J-54.890728
G02 X21.166643 Y36.681045 Z-1.000000 I-445.098043 J-30.916272
G02 X21.538950 Y21.886750 Z-1.000000 I-533.396871 J-20.825082
G03 X22.109516 Y6.424500 Z-1.000000 I302.379336 J3.416317
G03 X22.651502 Y4.100580 Z-1.000000 I7.178570 J0.449030
G03 X23.618113 Y2.990080 Z-1.000000 I2.156284 J0.900959
G03 X25.848386 Y2.209800 Z-1.000000 I3.064187 J5.180826
G03 X31.118137 Y1.881312 Z-1.000000 I4.771320 J34.109595
G03 X32.109638 Y2.300400 Z-1.000000 I-0.020717 J1.431433
G01 X32.109623 Y2.300460 Z-1.000000
G00 Z5.000000

(Change tool to Cylindrical cutter)

G00 Z5.000000
G00 X21.311252 Y3.969830

G01 Z-1.000000 F1000.0(Penetrate)
G02 X20.939403 Y6.338714 Z-1.000000 I12.285585 J3.142121 F1100.000000
G02 X20.520378 Y16.915950 Z-1.000000 I246.669339 J15.068912
G03 X18.733846 Y54.474233 Z-1.000000 I-640.434949 J-11.641891
G03 X15.015368 Y88.374338 Z-1.000000 I-525.369157 J-40.473370
G03 X11.698797 Y105.828748 Z-1.000000 I-190.603565 J-27.174923
G03 X9.047690 Y113.417709 Z-1.000000 I-38.341245 J-9.136482
G03 X7.869293 Y115.845402 Z-1.000000 I-89.430563 J-41.909539
G03 X7.806901 Y115.887467 Z-1.000000 I-0.068619 J-0.034474
G03 X7.535008 Y115.680207 Z-1.000000 I-0.020719 J-0.254790
G03 X5.211804 Y102.173640 Z-1.000000 I403.607712 J-76.375836
G03 X2.850814 Y81.105720 Z-1.000000 I249.148356 J-38.587223
G03 X1.962248 Y55.522591 Z-1.000000 I366.708644 J-25.543702
G03 X2.229281 Y39.524866 Z-1.000000 I482.255056 J0.048684
G03 X3.115888 Y20.867500 Z-1.000000 I657.121272 J21.876968
G03 X4.137952 Y8.370791 Z-1.000000 I314.218605 J19.408751
G03 X4.521489 Y7.069560 Z-1.000000 I3.666246 J0.373482
G03 X5.560241 Y6.102827 Z-1.000000 I1.845405 J0.941447
G03 X9.540109 Y4.948020 Z-1.000000 I6.879580 J16.274028
G02 X11.967440 Y4.525531 Z-1.000000 I-27.058861 J-162.645828
G02 X16.753380 Y3.636940 Z-1.000000 I-115.250944 J-634.072804
G03 X21.532591 Y2.747556 Z-1.000000 I134.430297 J709.092119
G03 X21.575508 Y2.756360 Z-1.000000 I0.010531 J0.057670
G01 X21.590001 Y2.792123 Z-1.000000
G03 X21.311252 Y3.969830 Z-1.000000 I-32.898109 J-7.164745
G01 X21.311252 Y3.969830 Z-1.000000
G00 Z5.000000

(Change tool to Cylindrical cutter)

G00 Z5.000000
G00 X10.634080 Y69.718372

G01 Z-1.000000 F1000.0(Penetrate)
G02 X10.526233 Y69.986907 Z-1.000000 I0.364038 J0.302126 F1100.000000
G02 X10.530821 Y71.168868 Z-1.000000 I7.872811 J0.560429
G02 X11.260593 Y73.969169 Z-1.000000 I8.233307 J-0.650398
G02 X11.947183 Y74.248732 Z-1.000000 I0.492416 J-0.226451
G02 X12.163049 Y73.953665 Z-1.000000 I-0.120844 J-0.314903
G02 X12.038933 Y72.691245 Z-1.000000 I-4.053489 J-0.238789
G03 X11.813211 Y71.587684 Z-1.000000 I10.271675 J-2.675825
G03 X11.744488 Y70.725343 Z-1.000000 I6.191399 J-0.927327
G02 X11.662592 Y69.885691 Z-1.000000 I-4.831723 J0.047443
G02 X11.547279 Y69.666878 Z-1.000000 I-0.410870 J0.076736
G02 X11.085490 Y69.490671 Z-1.000000 I-0.427721 J0.427723
G02 X10.634079 Y69.718408 Z-1.000000 I0.035646 J0.631909
G01 X10.634080 Y69.718372 Z-1.000000
G00 Z5.000000

(Change tool to Cylindrical cutter)

G00 Z5.000000
G00 X7.062505 Y72.646272

G01 Z-1.000000 F1000.0(Penetrate)
G02 X6.934786 Y73.010649 Z-1.000000 I0.314985 J0.314978 F1100.000000
G02 X7.500219 Y76.568906 Z-1.000000 I38.546066 J-4.301193
G02 X10.715860 Y89.409123 Z-1.000000 I156.833935 J-32.453964
G02 X11.610188 Y90.508161 Z-1.000000 I1.760289 J-0.519019
G02 X12.245997 Y90.538236 Z-1.000000 I0.349507 J-0.653066
G02 X12.519503 Y90.127056 Z-1.000000 I-0.172324 J-0.411180
G02 X12.490514 Y89.935420 Z-1.000000 I-0.647912 J-0.000000
G02 X11.732230 Y87.584406 Z-1.000000 I-100.546585 J31.131983
G03 X9.672208 Y80.625697 Z-1.000000 I95.791457 J-32.141902
G03 X8.283232 Y74.183012 Z-1.000000 I80.701998 J-20.769578
G02 X8.077375 Y73.171709 Z-1.000000 I-18.133905 J3.164679
G02 X7.963633 Y72.810923 Z-1.000000 I-2.408823 J0.561087
G02 X7.568681 Y72.488397 Z-1.000000 I-0.489833 J0.196745
G02 X7.062504 Y72.646272 Z-1.000000 I-0.102590 J0.561461
G01 X7.062505 Y72.646272 Z-1.000000
G00 Z5.000000

(Change tool to Cylindrical cutter)

G00 Z5.000000
G00 X77.624111 Y44.428268

G01 Z-1.000000 F1000.0(Penetrate)
G03 X77.674392 Y44.575188 Z-1.000000 I-0.215323 J0.155754 F1100.000000
G03 X77.740945 Y47.281942 Z-1.000000 I-156.133273 J5.193162
G03 X77.759952 Y49.988097 Z-1.000000 I-152.134544 J2.421696
G01 X77.713341 Y50.034511 Z-1.000000
G03 X77.647932 Y49.980867 Z-1.000000 I0.000155 J-0.066888
G03 X77.578721 Y49.367793 Z-1.000000 I3.483990 J-0.703760
G02 X77.556305 Y48.701531 Z-1.000000 I-41.688729 J1.069082
G02 X77.461104 Y46.544953 Z-1.000000 I-432.866467 J18.028282
G03 X77.492539 Y44.465347 Z-1.000000 I16.832584 J-0.785604
G03 X77.624098 Y44.428268 Z-1.000000 I0.072580 J0.005590
G01 X77.624111 Y44.428268 Z-1.000000
G00 Z5.000000

(Change tool to Cylindrical cutter)

G00 Z5.000000
G00 X47.014578 Y46.231828

G01 Z-1.000000 F1000.0(Penetrate)
G03 X47.501516 Y46.566562 Z-1.000000 I-0.974022 J1.938452 F1100.000000
G03 X47.798629 Y46.946082 Z-1.000000 I-0.972082 J1.067069
G03 X47.880964 Y47.351693 Z-1.000000 I-0.623455 J0.337717
G03 X47.734659 Y47.611045 Z-1.000000 I-0.365324 J-0.035142
G03 X47.424051 Y47.685436 Z-1.000000 I-0.242204 J-0.325643
G03 X46.765874 Y47.445386 Z-1.000000 I0.329123 J-1.924732
G02 X45.815607 Y47.225369 Z-1.000000 I-0.827556 J1.412128
G02 X45.056001 Y47.573944 Z-1.000000 I0.090090 J1.198267
G02 X44.341985 Y48.952358 Z-1.000000 I1.813551 J1.813553
G02 X43.876555 Y54.424926 Z-1.000000 I31.639227 J5.446922
G02 X44.004961 Y57.597700 Z-1.000000 I40.056798 J-0.032156
G02 X44.165374 Y58.023118 Z-1.000000 I0.818560 J-0.065703
G02 X44.907552 Y58.535788 Z-1.000000 I1.131392 J-0.844335
G02 X45.788251 Y58.488582 Z-1.000000 I0.372081 J-1.297269
G03 X46.200473 Y58.409613 Z-1.000000 I0.403788 J0.992404
G03 X46.533103 Y58.494482 Z-1.000000 I-0.005639 J0.716382
G03 X46.734157 Y58.823383 Z-1.000000 I-0.179683 J0.335740
G03 X46.547323 Y59.286144 Z-1.000000 I-0.638123 J0.011462
G03 X45.568444 Y59.675546 Z-1.000000 I-0.941377 J-0.941379
G03 X43.954931 Y59.213084 Z-1.000000 I0.095197 J-3.378114
G03 X43.208834 Y58.282577 Z-1.000000 I0.845020 J-1.441922
G03 X42.786353 Y55.577402 Z-1.000000 I8.385060 J-2.695116
G03 X43.217289 Y49.256865 Z-1.000000 I47.344377 J0.052993
G03 X43.932596 Y47.139182 Z-1.000000 I5.842131 J0.793696
G03 X45.274377 Y46.075473 Z-1.000000 I1.987100 J1.128435
G03 X47.014575 Y46.231927 Z-1.000000 I0.671921 J2.282511
G01 X47.014578 Y46.231828 Z-1.000000
G00 Z5.000000

(Change tool to Cylindrical cutter)

G00 Z5.000000
G00 X52.483269 Y46.503948

G01 Z-1.000000 F1000.0(Penetrate)
G03 X52.984149 Y47.555754 Z-1.000000 I-1.605682 J1.409806 F1100.000000
G03 X53.302993 Y51.327404 Z-1.000000 I-22.238027 J3.779239
G03 X52.098095 Y58.777122 Z-1.000000 I-23.578761 J0.008729
G03 X50.424069 Y59.984560 Z-1.000000 I-1.674026 J-0.556739
G03 X49.568889 Y59.632261 Z-1.000000 I-0.000000 J-1.214092
G03 X48.888005 Y58.460282 Z-1.000000 I1.836560 J-1.850762
G03 X48.534250 Y55.475836 Z-1.000000 I10.014392 J-2.700225
G03 X49.121036 Y49.960065 Z-1.000000 I35.318247 J0.968176
G03 X50.932499 Y46.464321 Z-1.000000 I6.688264 J1.248583
G03 X52.483269 Y46.503948 Z-1.000000 I0.757071 J0.736506
G01 X52.483269 Y46.503948 Z-1.000000
G00 Z5.000000

(Change tool to Cylindrical cutter)

G00 Z5.000000
G00 X51.207581 Y47.212638

G01 Z-1.000000 F1000.0(Penetrate)
G02 X50.255204 Y48.753392 Z-1.000000 I1.630121 J2.072338 F1100.000000
G02 X49.626171 Y54.895350 Z-1.000000 I30.004174 J6.176089
G02 X50.180906 Y58.638948 Z-1.000000 I12.814621 J0.014001
G02 X50.858070 Y58.944587 Z-1.000000 I0.472424 J-0.143717
G02 X51.393617 Y58.403482 Z-1.000000 I-0.444465 J-0.975476
G02 X52.139728 Y56.052952 Z-1.000000 I-10.283029 J-4.557746
G02 X52.700592 Y50.671755 Z-1.000000 I-28.361049 J-5.675802
G02 X52.223668 Y47.812229 Z-1.000000 I-8.303843 J-0.084585
G02 X51.702372 Y47.179585 Z-1.000000 I-1.131299 J0.401091
G02 X51.207577 Y47.212638 Z-1.000000 I-0.223231 J0.378296
G01 X51.207581 Y47.212638 Z-1.000000
G00 Z5.000000

(Change tool to Cylindrical cutter)

G00 Z5.000000
G00 X56.905506 Y46.830115

G01 Z-1.000000 F1000.0(Penetrate)
G03 X57.017050 Y47.172254 Z-1.000000 I-0.375567 J0.311695 F1100.000000
G03 X56.529449 Y52.847049 Z-1.000000 I-122.026842 J-7.626690
G02 X56.601707 Y53.002269 Z-1.000000 I0.164208 J0.017987
G02 X57.031753 Y53.183622 Z-1.000000 I0.683359 J-1.019901
G03 X57.529650 Y53.348391 Z-1.000000 I-0.484296 J2.298093
G03 X57.802329 Y53.538342 Z-1.000000 I-0.394710 J0.857310
G03 X57.790626 Y53.992064 Z-1.000000 I-0.221301 J0.221304
G03 X57.042278 Y54.223751 Z-1.000000 I-0.624399 J-0.692383
G01 X56.469100 Y54.146901 Z-1.000000
G01 X56.284317 Y56.050041 Z-1.000000
G02 X56.325197 Y58.637410 Z-1.000000 I11.462442 J1.112903
G02 X56.661583 Y58.972444 Z-1.000000 I0.384470 J-0.049633
G03 X57.152837 Y59.170899 Z-1.000000 I-0.128015 J1.024137
G03 X57.288825 Y59.442877 Z-1.000000 I-0.203986 J0.271978
G03 X57.140051 Y59.694553 Z-1.000000 I-0.287264 J-0.000000
G03 X56.491933 Y59.881385 Z-1.000000 I-0.737162 J-1.339635
G03 X55.728236 Y59.824649 Z-1.000000 I-0.168788 J-2.896297
G03 X55.339430 Y59.639909 Z-1.000000 I0.187938 J-0.897049
G01 X54.983813 Y59.351949 Z-1.000000
G01 X55.230698 Y56.692433 Z-1.000000
G02 X55.477471 Y53.708533 Z-1.000000 I-148.289015 J-13.765897
G02 X55.859248 Y48.033406 Z-1.000000 I-536.128533 J-38.916793
G03 X56.354762 Y46.823811 Z-1.000000 I2.031399 J0.125876
G03 X56.905506 Y46.830142 Z-1.000000 I0.272683 J0.237101
G01 X56.905506 Y46.830115 Z-1.000000
G00 Z5.000000

(Change tool to Cylindrical cutter)

G00 Z5.000000
G00 X61.353065 Y46.836715

G01 Z-1.000000 F1000.0(Penetrate)
G03 X61.589855 Y47.180158 Z-1.000000 I-0.132200 J0.344496 F1100.000000
G03 X61.364635 Y50.891044 Z-1.000000 I-29.306014 J0.083648
G02 X61.257727 Y53.153601 Z-1.000000 I14.633798 J1.825264
G02 X61.436915 Y53.327552 Z-1.000000 I0.179188 J-0.005316
G03 X62.306798 Y53.562730 Z-1.000000 I0.000000 J1.726360
G03 X62.541966 Y53.972173 Z-1.000000 I-0.238849 J0.409443
G03 X62.291746 Y54.363002 Z-1.000000 I-0.430336 J0.000000
G03 X61.575086 Y54.417769 Z-1.000000 I-0.432068 J-0.937531
G02 X61.143179 Y54.307910 Z-1.000000 I-2.035365 J7.098019
G01 X61.129107 Y54.318569 Z-1.000000
G03 X61.126833 Y54.346645 Z-1.000000 I-0.452136 J-0.022490
G03 X60.896951 Y56.385354 Z-1.000000 I-2904.023907 J-326.421460
G02 X60.946129 Y58.809990 Z-1.000000 I9.091663 J1.028413
G02 X61.325333 Y59.159720 Z-1.000000 I0.409139 J-0.063174
G03 X61.899368 Y59.310141 Z-1.000000 I-0.117300 J1.618163
G03 X62.045684 Y59.499014 Z-1.000000 I-0.112069 J0.237928
G03 X61.885040 Y59.880179 Z-1.000000 I-0.367142 J0.069701
G03 X61.140942 Y60.098851 Z-1.000000 I-0.725971 J-1.094991
G03 X60.041987 Y59.561648 Z-1.000000 I0.019760 J-1.433089
G03 X59.708299 Y58.309890 Z-1.000000 I1.254781 J-1.004850
G02 X59.973661 Y56.065910 Z-1.000000 I-30.597402 J-4.755978
G02 X60.439284 Y49.328901 Z-1.000000 I-275.655828 J-22.436327
G03 X60.913856 Y47.036271 Z-1.000000 I7.961975 J0.452688
G03 X61.353063 Y46.836713 Z-1.000000 I0.317899 J0.116560
G01 X61.353065 Y46.836715 Z-1.000000
G00 Z5.000000

(Change tool to Cylindrical cutter)

G00 Z5.000000
G00 X67.576639 Y47.193987

G01 Z-1.000000 F1000.0(Penetrate)
G03 X67.589741 Y47.649920 Z-1.000000 I-0.189146 J0.233590 F1100.000000
G03 X66.694930 Y47.996010 Z-1.000000 I-0.894811 J-0.983716
G01 X65.868367 Y47.996010 Z-1.000000
G01 X65.753937 Y50.590183 Z-1.000000
G02 X65.689228 Y53.165042 Z-1.000000 I67.892383 J2.994461
G02 X65.737317 Y53.282166 Z-1.000000 I0.164206 J0.001014
G02 X65.849709 Y53.349561 Z-1.000000 I0.190994 J-0.191100
G02 X66.187876 Y53.419104 Z-1.000000 I0.544453 J-1.790535
G03 X66.540541 Y53.458969 Z-1.000000 I-8.705798 J78.595250
G03 X66.641453 Y53.471274 Z-1.000000 I-0.891500 J7.731130
G03 X66.858728 Y53.664563 Z-1.000000 I-0.033117 J0.255990
G03 X66.825831 Y54.207484 Z-1.000000 I-0.876055 J0.219374
G03 X66.663696 Y54.350369 Z-1.000000 I-0.217614 J-0.083500
G03 X66.125107 Y54.379214 Z-1.000000 I-0.345592 J-1.410200
G01 X65.521356 Y54.298234 Z-1.000000
G01 X65.520256 Y55.655398 Z-1.000000
G03 X65.491329 Y57.011244 Z-1.000000 I-33.144244 J-0.028906
G03 X65.419178 Y58.071033 Z-1.000000 I-20.269001 J-0.847570
G01 X65.319208 Y59.129504 Z-1.000000
G01 X65.782344 Y59.129504 Z-1.000000
G03 X66.605194 Y59.424139 Z-1.000000 I0.000000 J1.296334
G03 X66.677908 Y59.865170 Z-1.000000 I-0.215215 J0.261993
G03 X66.441122 Y60.039347 Z-1.000000 I-0.336265 J-0.209098
G03 X65.603359 Y60.144068 Z-1.000000 I-0.820663 J-3.161883
G03 X64.620310 Y59.739093 Z-1.000000 I0.007538 J-1.413927
G03 X64.330503 Y58.894287 Z-1.000000 I0.698913 J-0.711871
G02 X64.389310 Y58.264786 Z-1.000000 I-7.739169 J-1.040474
G02 X64.652804 Y52.778692 Z-1.000000 I-588.349848 J-31.007526
G03 X64.922617 Y47.296944 Z-1.000000 I468.643511 J20.319219
G03 X64.965932 Y47.094325 Z-1.000000 I0.667587 J0.036775
G03 X65.816962 Y46.532801 Z-1.000000 I0.817636 J0.313526
G03 X67.576647 Y47.193955 Z-1.000000 I-0.113512 J2.974426
G01 X67.576639 Y47.193987 Z-1.000000
G00 Z5.000000

(Change tool to Cylindrical cutter)

G00 Z5.000000
G00 X72.271992 Y47.294396

G01 Z-1.000000 F1000.0(Penetrate)
G03 X72.356599 Y47.769587 Z-1.000000 I-0.139613 J0.269985 F1100.000000
G03 X71.486361 Y48.152821 Z-1.000000 I-0.870238 J-0.796439
G01 X70.734162 Y48.152821 Z-1.000000
G01 X70.620532 Y50.728960 Z-1.000000
G02 X70.559474 Y53.291420 Z-1.000000 I63.224420 J2.788464
G02 X70.610732 Y53.473132 Z-1.000000 I0.343370 J0.001226
G02 X70.748997 Y53.579485 Z-1.000000 I0.209819 J-0.129723
G02 X71.165200 Y53.641174 Z-1.000000 I0.416203 J-1.373175
G03 X71.538968 Y53.746178 Z-1.000000 I-0.000000 J0.717730
G03 X71.723994 Y53.982045 Z-1.000000 I-0.222846 J0.365316
G03 X71.556192 Y54.465274 Z-1.000000 I-0.407365 J0.129291
G03 X70.842111 Y54.578943 Z-1.000000 I-0.478659 J-0.707186
G01 X70.382468 Y54.447119 Z-1.000000
G01 X70.381530 Y55.808264 Z-1.000000
G03 X70.352579 Y57.168077 Z-1.000000 I-33.323117 J-0.029245
G03 X70.280446 Y58.227878 Z-1.000000 I-20.209239 J-0.843144
G01 X70.180476 Y59.286343 Z-1.000000
G01 X70.605485 Y59.286343 Z-1.000000
G03 X71.449280 Y59.751401 Z-1.000000 I-0.000000 J0.998014
G03 X71.272804 Y60.342859 Z-1.000000 I-0.346301 J0.218730
G03 X70.222716 Y60.482445 Z-1.000000 I-0.754418 J-1.655757
G03 X69.326545 Y60.022370 Z-1.000000 I0.267409 J-1.623734
G03 X69.203448 Y59.740236 Z-1.000000 I0.297907 J-0.297900
G03 X69.262735 Y58.318409 Z-1.000000 I8.997971 J-0.336953
G02 X69.391588 Y56.852007 Z-1.000000 I-22.043754 J-2.675855
G02 X69.603070 Y52.079089 Z-1.000000 I-233.545084 J-12.739221
G03 X69.854088 Y47.352841 Z-1.000000 I124.489425 J4.242023
G03 X69.956617 Y47.181169 Z-1.000000 I0.221793 J0.016010
G03 X70.912608 Y46.928283 Z-1.000000 I0.876207 J1.378922
G03 X72.272112 Y47.294396 Z-1.000000 I-0.161725 J3.307748
G01 X72.271992 Y47.294396 Z-1.000000
G00 Z5.000000

(Change tool to Cylindrical cutter)

G00 Z5.000000
G00 X56.801399 Y64.429785

G01 Z-1.000000 F1000.0(Penetrate)
G03 X58.724164 Y65.794660 Z-1.000000 I-2.796991 J5.977037 F1100.000000
G03 X60.120318 Y67.826127 Z-1.000000 I-5.157964 J5.040381
G03 X60.971703 Y70.404320 Z-1.000000 I-11.094530 J5.093369
G03 X61.072214 Y72.347177 Z-1.000000 I-6.133160 J1.291318
G03 X60.506627 Y74.643207 Z-1.000000 I-8.586592 J-0.897480
G03 X60.029133 Y74.967044 Z-1.000000 I-0.477494 J-0.190111
G03 X59.233958 Y74.590251 Z-1.000000 I-0.000000 J-1.027455
G03 X57.206503 Y71.517502 Z-1.000000 I13.918171 J-11.388710
G02 X56.316597 Y69.889834 Z-1.000000 I-41.929966 J21.867544
G02 X55.752145 Y68.977121 Z-1.000000 I-13.733354 J7.862271
G02 X53.574049 Y67.083500 Z-1.000000 I-4.545373 J3.028753
G02 X50.646794 Y66.521838 Z-1.000000 I-2.524852 J5.250026
G03 X49.884734 Y66.529995 Z-1.000000 I-0.450705 J-6.504887
G01 X49.840242 Y66.483278 Z-1.000000
G03 X50.010552 Y66.001101 Z-1.000000 I0.770683 J0.001047
G03 X51.126959 Y64.884839 Z-1.000000 I5.717686 J4.602022
G03 X53.685388 Y63.866530 Z-1.000000 I2.932331 J3.644183
G03 X56.801399 Y64.429788 Z-1.000000 I0.494430 J6.165460
G01 X56.801399 Y64.429785 Z-1.000000
G00 Z5.000000

(Change tool to Cylindrical cutter)

G00 Z5.000000
G00 X53.231285 Y67.835160

G01 Z-1.000000 F1000.0(Penetrate)
G03 X54.590471 Y68.873954 Z-1.000000 I-1.911136 J3.909176 F1100.000000
G03 X56.253430 Y71.278389 Z-1.000000 I-9.550976 J8.382949
G02 X57.734261 Y73.685762 Z-1.000000 I20.235848 J-10.788405
G02 X58.762397 Y74.844364 Z-1.000000 I5.633518 J-3.963668
G01 X59.543249 Y75.546412 Z-1.000000
G01 X58.910855 Y75.883970 Z-1.000000
G03 X56.021975 Y76.179498 Z-1.000000 I-1.805607 J-3.382758
G03 X51.942886 Y73.831825 Z-1.000000 I2.845279 J-9.661232
G03 X49.971411 Y71.126385 Z-1.000000 I6.323554 J-6.679059
G03 X49.372309 Y68.465677 Z-1.000000 I5.505980 J-2.637563
G03 X49.809859 Y67.705655 Z-1.000000 I0.884675 J0.003352
G03 X51.251630 Y67.364916 Z-1.000000 I1.276007 J2.178519
G03 X52.402183 Y67.538169 Z-1.000000 I-0.456543 J6.938810
G03 X53.231285 Y67.835160 Z-1.000000 I-0.920784 J3.876318
G01 X53.231285 Y67.835160 Z-1.000000
G00 Z5.000000

(Change tool to Cylindrical cutter)

G00 Z5.000000
G00 X46.860943 Y79.359733

G01 Z-1.000000 F1000.0(Penetrate)
G03 X60.249650 Y79.924472 Z-1.000000 I-14.831739 J510.618295 F1100.000000
G03 X72.406696 Y80.773134 Z-1.000000 I-23.339596 J421.837554
G02 X76.077908 Y81.071392 Z-1.000000 I50.646648 J-600.658339
G02 X76.366162 Y81.082641 Z-1.000000 I0.288254 J-3.687636
G03 X76.560183 Y81.284596 Z-1.000000 I0.000000 J0.194177
G03 X76.177157 Y85.797329 Z-1.000000 I-50.739992 J-2.034024
G03 X73.723793 Y100.356100 Z-1.000000 I-194.407735 J-25.274422
G03 X69.654980 Y117.227401 Z-1.000000 I-265.238099 J-55.040583
G03 X67.972466 Y122.811133 Z-1.000000 I-117.232654 J-32.279690
G03 X67.779476 Y122.950981 Z-1.000000 I-0.192990 J-0.063239
G03 X67.219906 Y122.924404 Z-1.000000 I-0.000000 J-5.904174
G03 X54.561380 Y121.692565 Z-1.000000 I288.402497 J-3029.313835
G03 X51.531824 Y121.365920 Z-1.000000 I18.143453 J-182.488710
G03 X51.462479 Y121.332375 Z-1.000000 I0.013532 J-0.116421
G03 X51.439492 Y121.263305 Z-1.000000 I0.057495 J-0.057495
G03 X51.962900 Y117.853068 Z-1.000000 I180.758538 J25.997791
G02 X52.476441 Y114.431317 Z-1.000000 I-133.722652 J-21.818677
G02 X52.474432 Y114.120605 Z-1.000000 I-1.082563 J-0.148364
G02 X52.369352 Y113.847835 Z-1.000000 I-0.666711 J0.100213
G02 X52.153883 Y113.637959 Z-1.000000 I-0.594531 J0.394832
G02 X51.904739 Y113.650055 Z-1.000000 I-0.115890 J0.184870
G02 X50.666524 Y114.785131 Z-1.000000 I6.041949 J7.833857
G01 X49.452991 Y116.103956 Z-1.000000
G01 X49.293842 Y115.175984 Z-1.000000
G02 X49.015195 Y114.371064 Z-1.000000 I-2.580156 J0.442506
G02 X48.762327 Y114.195340 Z-1.000000 I-0.300781 J0.163024
G02 X48.428624 Y114.260225 Z-1.000000 I-0.072959 J0.515325
G02 X47.723762 Y114.796486 Z-1.000000 I1.770362 J3.058337
G01 X47.057578 Y115.450303 Z-1.000000
G01 X46.967178 Y114.927559 Z-1.000000
G03 X46.884737 Y114.403648 Z-1.000000 I17.113982 J-2.961432
G03 X46.781892 Y113.620765 Z-1.000000 I38.368071 J-5.438515
G02 X46.434579 Y112.319546 Z-1.000000 I-4.776937 J0.578069
G02 X46.149882 Y112.131071 Z-1.000000 I-0.284697 J0.120784
G02 X45.823246 Y112.258638 Z-1.000000 I0.000000 J0.481958
G02 X44.954627 Y113.232713 Z-1.000000 I4.524717 J4.909190
G03 X44.142512 Y114.239213 Z-1.000000 I-10.755864 J-7.847707
G03 X44.055400 Y114.242593 Z-1.000000 I-0.045183 J-0.040232
G03 X43.985101 Y114.135537 Z-1.000000 I0.199828 J-0.207828
G03 X43.717575 Y113.336963 Z-1.000000 I11.672607 J-4.354475
G02 X43.357552 Y112.680876 Z-1.000000 I-1.701026 J0.506601
G02 X43.011926 Y112.523096 Z-1.000000 I-0.345626 J0.299668
G02 X42.480214 Y112.864843 Z-1.000000 I0.000000 J0.584509
G02 X41.594486 Y115.627653 Z-1.000000 I11.203241 J5.115024
G03 X40.693539 Y120.033917 Z-1.000000 I-231.992347 J-45.140135
G03 X40.599816 Y120.266956 Z-1.000000 I-0.720890 J-0.154560
G03 X40.453908 Y120.346599 Z-1.000000 I-0.142894 J-0.088311
G03 X37.367709 Y120.208966 Z-1.000000 I1.040970 J-58.012397
G02 X29.666595 Y119.748278 Z-1.000000 I-23.973516 J336.155859
G02 X25.934006 Y119.656252 Z-1.000000 I-3.811194 J78.839673
G03 X24.204745 Y119.619718 Z-1.000000 I0.054843 J-43.539851
G03 X23.640786 Y119.561702 Z-1.000000 I0.188913 J-4.606419
G01 X23.079710 Y119.468872 Z-1.000000
G01 X23.769219 Y117.093660 Z-1.000000
G02 X28.053103 Y99.959830 Z-1.000000 I-226.029852 J-65.615543
G02 X31.019555 Y82.650747 Z-1.000000 I-227.718715 J-47.935453
G03 X31.348359 Y80.221096 Z-1.000000 I482.170353 J64.015016
G03 X31.424997 Y79.710557 Z-1.000000 I21.371563 J2.947082
G01 X31.507747 Y79.200926 Z-1.000000
G01 X36.479370 Y79.201519 Z-1.000000
G03 X41.450439 Y79.239800 Z-1.000000 I-0.061574 J330.777569
G03 X46.860940 Y79.359542 Z-1.000000 I-5.955760 J391.405543
G01 X46.860943 Y79.359733 Z-1.000000
G00 Z5.000000

(Change tool to Cylindrical cutter)

G00 Z5.000000
G00 X29.455006 Y120.911642

G01 Z-1.000000 F1000.0(Penetrate)
G03 X40.008724 Y121.508536 Z-1.000000 I-29.180454 J609.539721 F1100.000000
G03 X40.246241 Y121.615780 Z-1.000000 I-0.024151 J0.370130
G03 X40.376518 Y122.179385 Z-1.000000 I-0.383809 J0.385576
G03 X37.298013 Y130.129266 Z-1.000000 I-111.660923 J-38.668474
G03 X36.401778 Y131.906273 Z-1.000000 I-14.857908 J-6.379084
G03 X36.217052 Y131.979665 Z-1.000000 I-0.139265 J-0.081355
G02 X34.916556 Y131.690178 Z-1.000000 I-2.815591 J9.582894
G02 X26.005180 Y130.412463 Z-1.000000 I-69.178406 J450.767328
G02 X17.085899 Y129.473211 Z-1.000000 I-21.458258 J160.951793
G02 X10.660207 Y129.223943 Z-1.000000 I-6.446315 J83.228541
G03 X8.607858 Y129.092007 Z-1.000000 I0.003604 J-16.084853
G03 X8.526053 Y128.948973 Z-1.000000 I0.013205 J-0.102462
G02 X9.436073 Y125.570999 Z-1.000000 I-11.496411 J-4.908675
G02 X9.262875 Y122.977012 Z-1.000000 I-6.851355 J-0.845318
G01 X8.961736 Y121.826961 Z-1.000000
G01 X9.325924 Y121.688501 Z-1.000000
G03 X9.694909 Y121.565253 Z-1.000000 I1.689384 J4.443801
G03 X10.595173 Y121.321554 Z-1.000000 I7.584309 J26.232920
G03 X11.541975 Y121.121913 Z-1.000000 I3.001520 J11.889833
G03 X14.322820 Y120.688004 Z-1.000000 I17.384523 J102.286404
G03 X16.967665 Y120.520567 Z-1.000000 I2.393618 J16.836922
G03 X29.455006 Y120.911642 Z-1.000000 I-5.581434 J377.780470
G01 X29.455006 Y120.911642 Z-1.000000
G00 Z5.000000

(Change tool to Cylindrical cutter)

G00 Z5.000000
G00 X58.621710 Y123.261638

G01 Z-1.000000 F1000.0(Penetrate)
G02 X72.916784 Y124.535028 Z-1.000000 I101.625812 J-1059.976601 F1100.000000
G02 X80.496738 Y125.061739 Z-1.000000 I24.477386 J-297.451115
G03 X82.865208 Y125.766551 Z-1.000000 I-0.303492 J5.351803
G03 X83.522573 Y126.801558 Z-1.000000 I-0.657822 J1.144063
G03 X83.394080 Y128.310855 Z-1.000000 I-4.522669 J0.375083
G03 X82.121719 Y132.228777 Z-1.000000 I-32.498211 J-8.388361
G03 X80.920423 Y134.931992 Z-1.000000 I-32.187748 J-12.685553
G03 X80.378305 Y135.739265 Z-1.000000 I-3.348319 J-1.662872
G03 X79.148501 Y136.460508 Z-1.000000 I-1.708237 J-1.503644
G03 X74.947489 Y136.907090 Z-1.000000 I-4.201012 J-19.536241
G03 X67.112770 Y136.595011 Z-1.000000 I-0.000000 J-98.501147
G03 X57.132016 Y135.485558 Z-1.000000 I12.851453 J-161.061564
G03 X48.245205 Y134.127721 Z-1.000000 I64.602992 J-452.575685
G03 X47.976120 Y133.994336 Z-1.000000 I0.082016 J-0.503570
G03 X47.957998 Y133.925840 Z-1.000000 I0.046286 J-0.048892
G03 X48.888064 Y130.998121 Z-1.000000 I121.219814 J36.897053
G02 X50.764079 Y124.778291 Z-1.000000 I-115.176240 J-38.132106
G02 X50.938012 Y123.479055 Z-1.000000 I-4.765517 J-1.299236
G03 X50.961891 Y123.289398 Z-1.000000 I0.765095 J0.000000
G03 X51.089828 Y122.885704 Z-1.000000 I3.638836 J0.931082
G03 X51.318949 Y122.622077 Z-1.000000 I0.473245 J0.179924
G03 X51.677866 Y122.562053 Z-1.000000 I0.264998 J0.481478
G02 X52.116190 Y122.622091 Z-1.000000 I1.059172 J-6.102677
G02 X58.621710 Y123.261638 Z-1.000000 I135.916332 J-1349.144613
G01 X58.621710 Y123.261638 Z-1.000000
G00 Z5.000000

(Change tool to Cylindrical cutter)

G00 Z5.000000
G00 X8.251723 Y125.303133

G01 Z-1.000000 F1000.0(Penetrate)
G03 X7.750334 Y128.170278 Z-1.000000 I-11.272813 J-0.493907 F1100.000000
G03 X7.305219 Y128.336490 Z-1.000000 I-0.287035 J-0.089565
G03 X7.223338 Y128.196955 Z-1.000000 I0.090942 J-0.147158
G03 X7.226053 Y126.541666 Z-1.000000 I18.091975 J-0.797971
G03 X7.413886 Y124.874490 Z-1.000000 I12.933992 J0.613046
G03 X7.646052 Y124.193921 Z-1.000000 I2.341501 J0.418882
G02 X7.931491 Y123.531869 Z-1.000000 I-4.357497 J-2.271260
G02 X7.960771 Y123.285885 Z-1.000000 I-0.548145 J-0.189983
G03 X8.041931 Y123.186240 Z-1.000000 I0.090919 J-0.008821
G03 X8.158644 Y123.264625 Z-1.000000 I0.011679 J0.108693
G03 X8.250359 Y123.821400 Z-1.000000 I-2.309770 J0.666423
G03 X8.251725 Y125.303160 Z-1.000000 I-16.560789 J0.756138
G01 X8.251723 Y125.303133 Z-1.000000
G00 Z5.000000

(End cutting path id: path1784)


(Pass at depth -2.0)

(Footer)
M5
G00 X0.0000 Y0.0000
M2
(Using default footer. To add your own footer create file "footer" in the output dir.)
(end)
%