%
(Header)
(Generated by gcodetools from Inkscape.)
(Using default header. To add your own header create file "header" in the output dir.)
M3
(Header end.)
G21 (All units in mm)

(Start cutting path id: path922)
(Change tool to Cylindrical cutter)

G00 Z5.000000
G00 X20.495435 Y0.975630

G01 Z0.000000 F1000.0(Penetrate)
G02 X19.560825 Y1.230349 Z0.000000 I1.967596 J9.061454 F1100.000000
G02 X18.711697 Y1.563445 Z0.000000 I2.573373 J7.808893
G01 X17.878652 Y1.944825 Z0.000000
G01 X15.798448 Y4.027211 Z0.000000
G02 X12.270179 Y7.816564 Z0.000000 I52.130034 J52.075580
G02 X12.353187 Y7.998471 Z0.000000 I0.083009 J0.072014
G02 X12.408699 Y7.973813 Z0.000000 I0.000000 J-0.074815
G02 X13.457573 Y6.776162 Z0.000000 I-38.137356 J-34.457871
G03 X16.120913 Y4.096396 Z0.000000 I18.355218 J15.579322
G03 X18.353440 Y2.568645 Z0.000000 I8.044915 J9.361073
G01 X19.189631 Y2.122295 Z0.000000
G01 X20.166769 Y1.963756 Z0.000000
G03 X21.147432 Y1.848713 Z0.000000 I1.794913 J11.063174
G03 X22.358821 Y1.804082 Z0.000000 I1.227253 J16.848044
G01 X23.573736 Y1.802941 Z0.000000
G01 X24.466014 Y2.035350 Z0.000000
G03 X26.856548 Y3.232491 Z0.000000 I-1.620403 J6.221099
G03 X29.029398 Y5.678588 Z0.000000 I-6.006809 J7.523917
G02 X29.616370 Y6.600884 Z0.000000 I41.432308 J-25.720595
G02 X30.238196 Y7.531752 Z0.000000 I42.820857 J-27.931497
G03 X30.797978 Y8.489996 Z0.000000 I-6.440645 J4.405089
G03 X31.120045 Y9.322760 Z0.000000 I-4.531415 J2.231161
G02 X31.423918 Y10.167248 Z0.000000 I6.650905 J-1.916283
G02 X31.980182 Y11.300212 Z0.000000 I12.551649 J-5.459594
G01 X32.590565 Y12.410840 Z0.000000
G01 X32.496697 Y13.566873 Z0.000000
G02 X32.403610 Y14.722968 Z0.000000 I864.750865 J70.210802
G02 X32.307250 Y15.939617 Z0.000000 I948.399058 J75.726109
G01 X32.211669 Y17.156321 Z0.000000
G01 X32.471496 Y18.055165 Z0.000000
G02 X33.350288 Y20.147287 Z0.000000 I9.395524 J-2.715946
G02 X34.984093 Y22.505838 Z0.000000 I13.615779 J-7.686703
G03 X36.251859 Y24.489227 Z0.000000 I-7.013394 J5.879773
G03 X36.762264 Y26.285065 Z0.000000 I-5.209176 J2.450980
G03 X36.867259 Y28.004814 Z0.000000 I-16.135395 J1.848188
G03 X36.776586 Y28.096207 Z0.000000 I-0.090673 J0.000717
G03 X36.399717 Y27.885526 Z0.000000 I0.000000 J-0.442416
G03 X35.661580 Y26.282878 Z0.000000 I6.294024 J-3.870167
G02 X34.628803 Y24.489373 Z0.000000 I-4.712470 J1.519530
G02 X32.905107 Y23.221337 Z0.000000 I-3.933801 J3.541822
G01 X32.174964 Y22.885836 Z0.000000
G01 X30.890523 Y22.884123 Z0.000000
G01 X29.606083 Y22.882409 Z0.000000
G01 X28.752616 Y23.282542 Z0.000000
G02 X27.363497 Y24.236231 Z0.000000 I2.200740 J4.694064
G02 X26.278325 Y25.657260 Z0.000000 I4.042245 J4.211730
G03 X25.824376 Y26.380719 Z0.000000 I-6.045699 J-3.289348
G03 X25.721245 Y26.433648 Z0.000000 I-0.103131 J-0.074010
G01 X25.586647 Y26.433648 Z0.000000
G01 X25.687233 Y25.544583 Z0.000000
G01 X25.787820 Y24.655513 Z0.000000
G01 X25.611454 Y24.121118 Z0.000000
G02 X25.393409 Y23.615135 Z0.000000 I-2.972896 J0.981145
G02 X25.231974 Y23.418148 Z0.000000 I-0.588644 J0.317763
G01 X25.028864 Y23.249584 Z0.000000
G01 X25.253832 Y23.897175 Z0.000000
G01 X25.478799 Y24.544760 Z0.000000
G01 X25.376899 Y25.595886 Z0.000000
G03 X25.214735 Y26.629236 Z0.000000 I-8.825936 J-0.855652
G03 X25.054920 Y27.072601 Z0.000000 I-1.758715 J-0.383461
G01 X24.834843 Y27.498177 Z0.000000
G01 X24.827375 Y28.470268 Z0.000000
G02 X24.859798 Y29.431195 Z0.000000 I11.610446 J0.089264
G02 X24.911736 Y29.590931 Z0.000000 I0.353435 J-0.026609
G03 X24.914827 Y29.719038 Z0.000000 I-0.107916 J0.066695
G03 X24.735937 Y29.908706 Z0.000000 I-0.459543 J-0.254232
G01 X24.468316 Y30.077909 Z0.000000
G01 X25.427332 Y29.984397 Z0.000000
G01 X26.386348 Y29.890885 Z0.000000
G01 X26.287300 Y30.051149 Z0.000000
G03 X26.160875 Y30.162830 Z0.000000 I-0.247867 J-0.153190
G03 X25.932726 Y30.213724 Z0.000000 I-0.233217 J-0.508657
G02 X25.689007 Y30.253553 Z0.000000 I0.006544 J0.805624
G02 X25.450535 Y30.371070 Z0.000000 I0.291764 J0.892786
G01 X25.223869 Y30.526099 Z0.000000
G01 X25.951474 Y30.425679 Z0.000000
G01 X26.679081 Y30.325259 Z0.000000
G01 X27.160359 Y30.819026 Z0.000000
G02 X28.303360 Y31.706147 Z0.000000 I3.760960 J-3.665862
G02 X29.666614 Y32.260120 Z0.000000 I2.707906 J-4.709411
G01 X30.633815 Y32.507212 Z0.000000
G01 X31.421307 Y32.408819 Z0.000000
G02 X32.189254 Y32.243215 Z0.000000 I-0.553568 J-4.430410
G02 X33.101923 Y31.888052 Z0.000000 I-2.053615 J-6.627449
G01 X33.995045 Y31.465673 Z0.000000
G01 X34.695535 Y30.686556 Z0.000000
G01 X35.396027 Y29.907445 Z0.000000
G01 X35.636599 Y29.201405 Z0.000000
G02 X35.838466 Y28.488947 Z0.000000 I-6.704559 J-2.284496
G02 X35.877172 Y28.144507 Z0.000000 I-1.513229 J-0.344441
G03 X36.029636 Y28.009480 Z0.000000 I0.136024 J0.000000
G03 X36.408532 Y28.209203 Z0.000000 I-0.072712 J0.597207
G01 X36.774286 Y28.624756 Z0.000000
G01 X36.776454 Y30.060306 Z0.000000
G03 X36.501133 Y32.642349 Z0.000000 I-12.074296 J0.018231
G03 X35.791634 Y34.592707 Z0.000000 I-7.538032 J-1.637947
G01 X35.237426 Y35.647367 Z0.000000
G01 X33.514250 Y37.500489 Z0.000000
G01 X31.791072 Y39.353612 Z0.000000
G01 X30.559297 Y41.166939 Z0.000000
G02 X29.577813 Y42.704449 Z0.000000 I26.434435 J17.956695
G01 X29.617916 Y42.738805 Z0.000000
G03 X29.915598 Y42.507832 Z0.000000 I3.568087 J4.291296
G03 X30.119236 Y42.376268 Z0.000000 I1.353434 J1.871509
G01 X30.330164 Y42.255189 Z0.000000
G01 X30.233214 Y42.641467 Z0.000000
G03 X30.126621 Y43.024697 Z0.000000 I-7.603746 J-1.908501
G03 X30.032386 Y43.298448 Z0.000000 I-3.970775 J-1.213787
G01 X29.928506 Y43.569151 Z0.000000
G01 X30.409517 Y43.226640 Z0.000000
G03 X30.625322 Y43.259508 Z0.000000 I0.090951 J0.127730
G03 X30.663862 Y43.561399 Z0.000000 I-0.242683 J0.184387
G02 X30.632871 Y44.100254 Z0.000000 I0.750235 J0.313467
G02 X30.888437 Y44.339802 Z0.000000 I0.329027 J-0.094926
G01 X31.339679 Y44.438910 Z0.000000
G01 X31.111222 Y44.880699 Z0.000000
G02 X31.140949 Y45.124390 Z0.000000 I0.193486 J0.100056
G02 X31.333042 Y45.133596 Z0.000000 I0.100491 J-0.088143
G01 X31.533777 Y44.944704 Z0.000000
G01 X31.445263 Y45.956566 Z0.000000
G01 X31.356749 Y46.968423 Z0.000000
G01 X31.652524 Y47.062302 Z0.000000
G03 X31.839736 Y47.303181 Z0.000000 I-0.081391 J0.256447
G03 X31.723269 Y48.282899 Z0.000000 I-2.809266 J0.162822
G02 X31.745883 Y48.821152 Z0.000000 I0.780611 J0.236806
G02 X31.955452 Y48.866731 Z0.000000 I0.120131 J-0.047775
G01 X32.415936 Y48.425558 Z0.000000
G01 X32.539338 Y48.625228 Z0.000000
G01 X32.662737 Y48.824893 Z0.000000
G01 X33.217258 Y48.338017 Z0.000000
G03 X33.769412 Y47.903341 Z0.000000 I4.325713 J4.926770
G01 X33.826755 Y47.909032 Z0.000000
G03 X33.834394 Y47.971618 Z0.000000 I-0.038392 J0.036445
G03 X33.000110 Y49.364693 Z0.000000 I-30.544072 J-17.345868
G02 X32.218210 Y50.707464 Z0.000000 I18.562959 J11.708302
G01 X32.251141 Y50.762469 Z0.000000
G02 X32.364470 Y50.727804 Z0.000000 I0.000000 J-0.202586
G02 X32.478709 Y50.608890 Z0.000000 I-0.219434 J-0.325140
G03 X32.589280 Y50.521632 Z0.000000 I0.175142 J0.108251
G03 X32.702520 Y50.534975 Z0.000000 I0.042311 J0.128108
G02 X32.822487 Y50.527513 Z0.000000 I0.054713 J-0.088469
G02 X34.132118 Y49.383412 Z0.000000 I-13.664906 J-16.963574
G03 X35.431774 Y48.228453 Z0.000000 I19.008276 J20.080970
G03 X35.512741 Y48.232112 Z0.000000 I0.038481 J0.046145
G03 X35.538459 Y48.322728 Z0.000000 I-0.068360 J0.068360
G03 X35.364853 Y48.857251 Z0.000000 I-3.349184 J-0.792320
G02 X35.460171 Y49.060405 Z0.000000 I0.139725 J0.058381
G02 X35.787582 Y48.986916 Z0.000000 I0.099294 J-0.323714
G03 X36.018598 Y48.816691 Z0.000000 I0.929544 J1.019635
G01 X36.038761 Y48.839457 Z0.000000
G02 X35.897094 Y49.103347 Z0.000000 I0.750416 J0.572827
G02 X35.917156 Y49.190599 Z0.000000 I0.079710 J0.027604
G02 X36.141378 Y49.218662 Z0.000000 I0.130157 J-0.130157
G02 X37.937217 Y47.989635 Z0.000000 I-8.723552 J-14.673279
G01 X39.001348 Y47.157012 Z0.000000
G01 X39.268594 Y46.457233 Z0.000000
G03 X39.438239 Y46.333553 Z0.000000 I0.180034 J0.068756
G03 X39.526568 Y46.443305 Z0.000000 I0.004678 J0.086654
G01 X39.376160 Y46.988037 Z0.000000
G01 X39.516627 Y46.901226 Z0.000000
G02 X39.829666 Y46.551531 Z0.000000 I-0.435732 J-0.705016
G02 X40.245550 Y45.365160 Z0.000000 I-5.372149 J-2.549294
G01 X40.380142 Y44.793585 Z0.000000
G01 X40.391627 Y45.171358 Z0.000000
G03 X40.232902 Y46.289432 Z0.000000 I-3.308618 J0.100601
G03 X39.631308 Y47.525160 Z0.000000 I-4.665643 J-1.507087
G02 X39.224028 Y48.269146 Z0.000000 I3.793173 J2.559966
G02 X38.869730 Y49.286723 Z0.000000 I6.779050 J2.930784
G03 X38.050792 Y51.638440 Z0.000000 I-16.472069 J-4.417619
G03 X37.774112 Y51.820232 Z0.000000 I-0.276680 J-0.119653
G01 X37.753773 Y51.791908 Z0.000000
G03 X38.078880 Y50.916570 Z0.000000 I14.583885 J4.918521
G01 X38.446070 Y50.012909 Z0.000000
G01 X38.436491 Y49.216575 Z0.000000
G01 X38.426913 Y48.420241 Z0.000000
G01 X38.089766 Y49.402464 Z0.000000
G03 X37.708942 Y50.363347 Z0.000000 I-10.474097 J-3.595270
G03 X37.407643 Y50.913567 Z0.000000 I-3.717635 J-1.678159
G01 X37.062667 Y51.442458 Z0.000000
G01 X37.168022 Y51.064680 Z0.000000
G03 X37.286004 Y50.691231 Z0.000000 I5.543816 J1.546064
G03 X37.481942 Y50.177339 Z0.000000 I10.698045 J3.784676
G02 X37.646612 Y49.659139 Z0.000000 I-3.116534 J-1.275614
G02 X37.690506 Y49.273826 Z0.000000 I-1.669224 J-0.385314
G01 X37.690506 Y48.879875 Z0.000000
G01 X36.368288 Y50.187728 Z0.000000
G01 X35.046068 Y51.495576 Z0.000000
G01 X33.725477 Y52.186791 Z0.000000
G03 X32.396743 Y52.844835 Z0.000000 I-15.364689 J-29.354106
G03 X32.247517 Y52.878005 Z0.000000 I-0.149226 J-0.319079
G01 X32.206167 Y52.814489 Z0.000000
G03 X32.600736 Y52.079811 Z0.000000 I5.005974 J2.215235
G02 X32.670239 Y51.643737 Z0.000000 I-0.465481 J-0.297765
G02 X32.475027 Y51.593563 Z0.000000 I-0.111460 J0.028816
G01 X31.477386 Y52.651339 Z0.000000
G01 X30.933586 Y53.748368 Z0.000000
G02 X30.436763 Y54.836272 Z0.000000 I16.845417 J8.350331
G02 X30.451273 Y54.900108 Z0.000000 I0.051956 J0.021758
G02 X31.070403 Y55.075758 Z0.000000 I0.491040 J-0.551841
G02 X33.405025 Y54.380038 Z0.000000 I-1.835331 J-10.423810
G01 X34.124508 Y54.071637 Z0.000000
G01 X33.836973 Y54.389355 Z0.000000
G01 X33.549438 Y54.707079 Z0.000000
G01 X33.978717 Y54.543864 Z0.000000
G03 X34.325029 Y54.576250 Z0.000000 I0.140188 J0.368734
G03 X34.358181 Y54.776411 Z0.000000 I-0.070133 J0.114442
G01 X34.389859 Y54.818835 Z0.000000
G02 X35.054423 Y54.478227 Z0.000000 I-2.134433 J-4.983143
G03 X35.929934 Y54.093115 Z0.000000 I1.931416 J3.203119
G03 X35.999149 Y54.200224 Z0.000000 I0.018771 J0.063788
G02 X35.825062 Y54.532421 Z0.000000 I0.632461 J0.543153
G01 X35.900339 Y54.578003 Z0.000000
G03 X36.128325 Y54.543166 Z0.000000 I0.140232 J0.154300
G03 X36.170765 Y54.703473 Z0.000000 I-0.045368 J0.097782
G01 X35.839320 Y55.168947 Z0.000000
G01 X36.651586 Y54.762340 Z0.000000
G02 X37.413549 Y54.287855 Z0.000000 I-2.167140 J-4.329202
G02 X38.181627 Y53.599691 Z0.000000 I-3.865952 J-5.087616
G03 X38.618200 Y53.398698 Z0.000000 I0.469977 J0.446192
G03 X38.743479 Y53.570692 Z0.000000 I0.006548 J0.126854
G01 X38.587554 Y53.980804 Z0.000000
G01 X38.802776 Y53.802188 Z0.000000
G02 X38.983142 Y53.597865 Z0.000000 I-0.564168 J-0.679789
G02 X39.204713 Y53.172802 Z0.000000 I-2.303346 J-1.470938
G01 X39.391427 Y52.722033 Z0.000000
G01 X39.598748 Y52.894091 Z0.000000
G01 X39.806067 Y53.066154 Z0.000000
G01 X39.806067 Y52.923742 Z0.000000
G03 X39.846260 Y52.796180 Z0.000000 I0.222518 J0.000000
G03 X40.351662 Y52.143923 Z0.000000 I6.939811 J4.855382
G02 X40.834525 Y51.469348 Z0.000000 I-3.639725 J-3.115433
G02 X41.195336 Y50.718952 Z0.000000 I-4.152590 J-2.458620
G03 X41.554105 Y49.962932 Z0.000000 I4.820822 J1.824583
G03 X42.548792 Y48.378725 Z0.000000 I22.295906 J12.894709
G02 X43.561038 Y46.802125 Z0.000000 I-29.545527 J-20.082776
G02 X43.915925 Y46.121290 Z0.000000 I-5.131670 J-3.107804
G01 X44.227681 Y45.416517 Z0.000000
G01 X44.124657 Y43.788347 Z0.000000
G01 X44.021632 Y42.160177 Z0.000000
G01 X44.357360 Y41.134683 Z0.000000
G01 X44.693090 Y40.109188 Z0.000000
G01 X44.713414 Y38.069193 Z0.000000
G01 X44.733738 Y36.029199 Z0.000000
G01 X45.058393 Y35.046981 Z0.000000
G02 X45.850945 Y31.033883 Z0.000000 I-15.671124 J-5.179720
G02 X45.540306 Y28.246006 Z0.000000 I-7.741965 J-0.548598
G01 X45.381236 Y27.718114 Z0.000000
G01 X45.393854 Y24.922471 Z0.000000
G01 X45.406472 Y22.126827 Z0.000000
G01 X45.180200 Y20.944203 Z0.000000
G01 X44.953923 Y19.761573 Z0.000000
G01 X44.483837 Y18.904305 Z0.000000
G03 X44.059489 Y18.027553 Z0.000000 I8.408202 J-4.610634
G03 X43.706204 Y17.064813 Z0.000000 I9.791313 J-4.139191
G02 X42.946240 Y15.305645 Z0.000000 I-8.779282 J2.748930
G02 X42.298381 Y14.560480 Z0.000000 I-2.129172 J1.196925
G03 X41.823223 Y14.104191 Z0.000000 I1.763155 J-2.311616
G03 X41.352906 Y13.419836 Z0.000000 I3.556463 J-2.947936
G01 X40.940103 Y12.685474 Z0.000000
G01 X40.355988 Y12.451758 Z0.000000
G03 X39.376511 Y11.871420 Z0.000000 I1.376174 J-3.439398
G03 X36.876384 Y9.584829 Z0.000000 I20.862536 J-25.320913
G02 X35.812314 Y8.574345 Z0.000000 I-15.882722 J15.659499
G01 X35.771460 Y8.602611 Z0.000000
G02 X35.863352 Y8.827246 Z0.000000 I5.165538 J-1.981957
G02 X36.700995 Y10.739909 Z0.000000 I375.720478 J-163.405468
G03 X37.484513 Y12.670954 Z0.000000 I-31.910818 J14.072228
G03 X37.837897 Y13.801409 Z0.000000 I-10.560962 J3.921859
G03 X38.317177 Y16.473581 Z0.000000 I-18.051196 J4.616723
G03 X38.656070 Y21.598126 Z0.000000 I-66.315534 J6.959020
G03 X38.694621 Y23.492327 Z0.000000 I-132.136316 J3.636718
G01 X38.672986 Y23.499468 Z0.000000
G03 X38.646385 Y23.429563 Z0.000000 I0.117647 J-0.084783
G03 X38.438272 Y21.295906 Z0.000000 I192.119945 J-19.815991
G02 X37.830092 Y16.460797 Z0.000000 I-72.558768 J6.670936
G02 X37.157526 Y13.287040 Z0.000000 I-31.888082 J5.099412
G01 X36.777055 Y11.851490 Z0.000000
G01 X35.889879 Y10.036768 Z0.000000
G02 X34.171470 Y7.302169 Z0.000000 I-13.670009 J6.682947
G02 X31.590211 Y4.580156 Z0.000000 I-16.123654 J12.705014
G02 X28.419798 Y2.062582 Z0.000000 I-27.091277 J30.861335
G02 X27.025549 Y1.308903 Z0.000000 I-3.666323 J5.115946
G02 X24.088101 Y0.682247 Z0.000000 I-3.420931 J8.837634
G02 X20.495419 Y0.975311 Z0.000000 I-0.696354 J13.631318
G01 X20.495435 Y0.975630 Z0.000000
G00 Z5.000000

(End cutting path id: path922)


(Start cutting path id: path922)
(Change tool to Cylindrical cutter)

G00 Z5.000000
G00 X23.335007 Y8.674303

G01 Z0.000000 F1000.0(Penetrate)
G02 X22.024804 Y9.115508 Z0.000000 I5.480430 J18.440687 F1100.000000
G02 X21.975479 Y9.187210 Z0.000000 I0.026910 J0.071328
G01 X22.022353 Y9.236735 Z0.000000
G02 X23.826585 Y9.299756 Z0.000000 I2.122326 J-34.901677
G01 X25.677222 Y9.316598 Z0.000000
G01 X26.425724 Y9.558666 Z0.000000
G02 X27.165876 Y9.766065 Z0.000000 I2.988684 J-9.241400
G02 X27.225881 Y9.749077 Z0.000000 I0.014800 J-0.062191
G02 X27.179832 Y9.470711 Z0.000000 I-0.122692 J-0.122696
G02 X25.054698 Y8.680121 Z0.000000 I-4.949662 J10.053365
G02 X24.129862 Y8.560062 Z0.000000 I-0.937429 J3.599063
G02 X23.335007 Y8.674298 Z0.000000 I-0.009338 J2.757468
G01 X23.335007 Y8.674303 Z0.000000
G00 Z5.000000

(End cutting path id: path922)


(Start cutting path id: path922)
(Change tool to Cylindrical cutter)

G00 Z5.000000
G00 X21.143901 Y10.899889

G01 Z0.000000 F1000.0(Penetrate)
G03 X18.876806 Y11.039776 Z0.000000 I-19.155597 J-292.007195 F1100.000000
G03 X18.159465 Y11.072413 Z0.000000 I-1.687707 J-29.194926
G02 X17.485943 Y11.139062 Z0.000000 I0.172147 J5.176077
G02 X17.441689 Y11.191243 Z0.000000 I0.008637 J0.052181
G02 X17.773710 Y11.565258 Z0.000000 I0.376671 J0.000000
G02 X22.492282 Y11.794189 Z0.000000 I3.983931 J-33.371573
G01 X23.840665 Y11.764734 Z0.000000
G01 X24.579209 Y12.030310 Z0.000000
G01 X25.317753 Y12.295887 Z0.000000
G01 X26.253040 Y11.973385 Z0.000000
G03 X27.200785 Y11.710780 Z0.000000 I2.597905 J7.534356
G03 X28.122507 Y11.577728 Z0.000000 I1.479709 J6.991589
G02 X29.043394 Y11.463890 Z0.000000 I-0.808520 J-10.322126
G02 X29.246423 Y11.387307 Z0.000000 I-0.094540 J-0.558049
G01 X29.436156 Y11.270046 Z0.000000
G01 X28.463352 Y11.065067 Z0.000000
G02 X27.484563 Y10.923576 Z0.000000 I-1.591363 J7.552317
G02 X26.206108 Y10.885352 Z0.000000 I-1.024517 J12.867721
G03 X24.922941 Y10.880834 Z0.000000 I-0.544036 J-27.706441
G03 X24.166114 Y10.830891 Z0.000000 I0.257974 J-9.668613
G02 X23.409599 Y10.799748 Z0.000000 I-0.621335 J5.889247
G02 X21.143901 Y10.899884 Z0.000000 I1.213146 J53.131474
G01 X21.143901 Y10.899889 Z0.000000
G00 Z5.000000

(End cutting path id: path922)


(Start cutting path id: path922)
(Change tool to Cylindrical cutter)

G00 Z5.000000
G00 X25.032279 Y13.438465

G01 Z0.000000 F1000.0(Penetrate)
G02 X25.066263 Y13.702911 Z0.000000 I1.045894 J0.000001 F1100.000000
G01 X25.101386 Y13.702910 Z0.000000
G02 X25.135369 Y13.438465 Z0.000000 I-1.011947 J-0.264446
G02 X25.101387 Y13.174019 Z0.000000 I-1.045930 J-0.000001
G01 X25.066262 Y13.174019 Z0.000000
G02 X25.032279 Y13.438465 Z0.000000 I1.011946 J0.264446
G01 X25.032279 Y13.438465 Z0.000000
G00 Z5.000000

(End cutting path id: path922)


(Start cutting path id: path922)
(Change tool to Cylindrical cutter)

G00 Z5.000000
G00 X22.436219 Y16.452461

G01 Z0.000000 F1000.0(Penetrate)
G01 X22.217434 Y16.590872 Z0.000000 F1100.000000
G01 X22.662885 Y16.687290 Z0.000000
G03 X24.119197 Y17.137289 Z0.000000 I-1.865705 J8.619414
G03 X24.555708 Y17.456989 Z0.000000 I-0.418590 J1.029384
G01 X24.742446 Y17.682000 Z0.000000
G01 X24.842123 Y19.300145 Z0.000000
G01 X24.941798 Y20.918291 Z0.000000
G01 X25.274800 Y21.560515 Z0.000000
G02 X25.636063 Y22.156243 Z0.000000 I4.634595 J-2.403125
G02 X25.725485 Y22.202734 Z0.000000 I0.089422 J-0.062753
G02 X25.809509 Y22.154773 Z0.000000 I0.000000 J-0.097581
G02 X26.029050 Y21.688686 Z0.000000 I-2.382576 J-1.407017
G03 X26.255518 Y21.203153 Z0.000000 I2.819781 J1.019657
G03 X26.431951 Y20.994530 Z0.000000 I0.674427 J0.391446
G01 X26.648967 Y20.814424 Z0.000000
G01 X26.200870 Y20.437370 Z0.000000
G01 X25.752771 Y20.060321 Z0.000000
G01 X25.752771 Y19.252479 Z0.000000
G03 X25.801824 Y18.453655 Z0.000000 I6.529080 J0.000004
G03 X25.900143 Y18.057028 Z0.000000 I1.689233 J0.208241
G01 X26.047514 Y17.669413 Z0.000000
G01 X26.571573 Y17.669413 Z0.000000
G01 X27.095631 Y17.669414 Z0.000000
G01 X27.330866 Y18.005263 Z0.000000
G01 X27.566100 Y18.341106 Z0.000000
G01 X27.566100 Y18.073310 Z0.000000
G02 X27.525542 Y17.815383 Z0.000000 I-0.840403 J-0.000001
G02 X27.336686 Y17.361880 Z0.000000 I-2.831571 J0.913098
G01 X27.107271 Y16.918241 Z0.000000
G01 X26.724041 Y16.822056 Z0.000000
G02 X26.338896 Y16.770748 Z0.000000 I-0.417539 J1.663069
G02 X25.850026 Y16.805500 Z0.000000 I-0.051588 J2.730211
G01 X25.359243 Y16.885147 Z0.000000
G01 X24.541811 Y16.597278 Z0.000000
G02 X23.067430 Y16.292817 Z0.000000 I-1.858240 J5.276554
G02 X22.436219 Y16.452449 Z0.000000 I-0.071797 J1.043874
G01 X22.436219 Y16.452461 Z0.000000
G00 Z5.000000

(End cutting path id: path922)


(Start cutting path id: path922)
(Change tool to Cylindrical cutter)

G00 Z5.000000
G00 X21.143897 Y17.216084

G01 Z0.000000 F1000.0(Penetrate)
G01 X20.870390 Y17.518309 Z0.000000 F1100.000000
G01 X20.431561 Y17.518309 Z0.000000
G01 X19.992731 Y17.518308 Z0.000000
G01 X20.086122 Y17.669415 Z0.000000
G02 X20.209343 Y17.767026 Z0.000000 I0.196453 J-0.121415
G02 X20.538082 Y17.820528 Z0.000000 I0.328739 J-0.983211
G01 X20.896651 Y17.820528 Z0.000000
G01 X21.219452 Y17.367196 Z0.000000
G02 X21.230279 Y17.227901 Z0.000000 I-0.110458 J-0.078653
G02 X21.143897 Y17.216084 Z0.000000 I-0.047230 J0.023615
G01 X21.143897 Y17.216084 Z0.000000
G00 Z5.000000

(End cutting path id: path922)


(Start cutting path id: path922)
(Change tool to Cylindrical cutter)

G00 Z5.000000
G00 X17.551063 Y23.421495

G01 Z0.000000 F1000.0(Penetrate)
G01 X18.491552 Y23.880142 Z0.000000 F1100.000000
G01 X19.005574 Y24.514843 Z0.000000
G03 X19.489452 Y25.169124 Z0.000000 I-7.197207 J5.828813
G03 X19.789445 Y25.678424 Z0.000000 I-4.052381 J2.729975
G01 X20.059295 Y26.207315 Z0.000000
G01 X20.129103 Y27.283365 Z0.000000
G01 X20.198912 Y28.359421 Z0.000000
G01 X19.942974 Y29.129975 Z0.000000
G01 X19.687038 Y29.900529 Z0.000000
G01 X18.996171 Y30.668936 Z0.000000
G01 X18.305305 Y31.437348 Z0.000000
G01 X17.533492 Y31.830357 Z0.000000
G01 X16.761679 Y32.223372 Z0.000000
G01 X15.677207 Y32.294495 Z0.000000
G01 X14.592738 Y32.365612 Z0.000000
G01 X13.788324 Y32.083440 Z0.000000
G01 X12.983912 Y31.801269 Z0.000000
G01 X12.065370 Y30.893171 Z0.000000
G01 X11.146826 Y29.985074 Z0.000000
G01 X10.894264 Y29.240380 Z0.000000
G03 X10.620621 Y27.733667 Z0.000000 I4.939894 J-1.675366
G03 X10.797724 Y26.256067 Z0.000000 I4.923643 J-0.159275
G03 X11.980213 Y24.269928 Z0.000000 I4.234811 J1.176204
G03 X14.131135 Y23.038633 Z0.000000 I3.509048 J3.635532
G01 X14.948357 Y22.810575 Z0.000000
G01 X15.779465 Y22.886711 Z0.000000
G01 X16.610574 Y22.962847 Z0.000000
G01 X17.551063 Y23.421495 Z0.000000
G00 Z5.000000

(End cutting path id: path922)


(Start cutting path id: path922)
(Change tool to Cylindrical cutter)

G00 Z5.000000
G00 X13.860335 Y22.927761

G01 Z0.000000 F1000.0(Penetrate)
G02 X11.733575 Y24.306529 Z0.000000 I1.863019 J5.203374 F1100.000000
G02 X10.620880 Y26.307119 Z0.000000 I3.254648 J3.119908
G03 X10.391855 Y26.984809 Z0.000000 I-4.623392 J-1.184930
G03 X10.310911 Y27.038414 Z0.000000 I-0.080943 J-0.034309
G02 X10.234417 Y27.084465 Z0.000000 I-0.000000 J0.086557
G02 X10.188368 Y27.269824 Z0.000000 I0.350035 J0.185360
G03 X10.123005 Y27.455801 Z0.000000 I-0.297261 J-0.000000
G03 X9.923924 Y27.599565 Z0.000000 I-0.359852 J-0.288592
G02 X9.671454 Y27.721015 Z0.000000 I0.528357 J1.421490
G02 X8.920298 Y28.202325 Z0.000000 I7.926767 J13.197698
G01 X8.181116 Y28.706754 Z0.000000
G01 X7.953749 Y28.363695 Z0.000000
G02 X7.409522 Y27.766676 Z0.000000 I-2.196709 J1.455899
G02 X7.058234 Y27.642857 Z0.000000 I-0.351289 J0.436415
G01 X6.856965 Y27.642857 Z0.000000
G01 X7.103772 Y28.019534 Z0.000000
G01 X7.350580 Y28.396205 Z0.000000
G01 X7.247761 Y28.805872 Z0.000000
G01 X7.144940 Y29.215539 Z0.000000
G01 X6.785415 Y28.330944 Z0.000000
G02 X5.913644 Y26.844503 Z0.000000 I-5.547610 J2.254713
G02 X5.209055 Y26.360742 Z0.000000 I-1.150238 J0.920309
G01 X4.971292 Y26.285280 Z0.000000
G01 X4.693344 Y25.490738 Z0.000000
G01 X4.415396 Y24.696197 Z0.000000
G01 X3.556506 Y23.853405 Z0.000000
G02 X2.664222 Y23.069498 Z0.000000 I-7.551023 J7.695189
G02 X2.376322 Y22.926589 Z0.000000 I-0.487661 J0.620977
G01 X2.055029 Y22.842570 Z0.000000
G01 X2.994216 Y23.721137 Z0.000000
G03 X3.867903 Y24.650380 Z0.000000 I-6.796307 J7.265323
G03 X4.345566 Y25.356980 Z0.000000 I-3.429743 J2.833265
G01 X4.757731 Y26.114267 Z0.000000
G01 X4.226665 Y26.028084 Z0.000000
G01 X3.695601 Y25.941906 Z0.000000
G01 X3.222154 Y26.138008 Z0.000000
G02 X2.800785 Y26.400088 Z0.000000 I0.582620 J1.406508
G02 X2.312994 Y26.935603 Z0.000000 I2.139387 J2.438647
G02 X2.041496 Y27.507787 Z0.000000 I1.402563 J1.016011
G02 X2.146752 Y27.562648 Z0.000000 I0.058800 J0.015589
G03 X2.424965 Y27.276442 Z0.000000 I2.196836 J1.857159
G03 X2.779791 Y26.995983 Z0.000000 I2.463666 J2.752253
G01 X3.153412 Y26.736191 Z0.000000
G01 X3.783047 Y26.736191 Z0.000000
G01 X4.412681 Y26.736191 Z0.000000
G01 X4.769421 Y27.033387 Z0.000000
G01 X5.126160 Y27.330578 Z0.000000
G01 X4.823939 Y27.337028 Z0.000000
G02 X4.536847 Y27.397835 Z0.000000 I0.016164 J0.784457
G02 X3.744972 Y27.788973 Z0.000000 I2.756669 J6.578157
G01 X2.968227 Y28.234466 Z0.000000
G01 X2.636464 Y28.919796 Z0.000000
G02 X2.611997 Y29.326541 Z0.000000 I0.481458 J0.233069
G02 X2.781379 Y29.341942 Z0.000000 I0.088142 J-0.030258
G01 X3.135665 Y28.711581 Z0.000000
G01 X3.602024 Y28.491845 Z0.000000
G01 X4.068385 Y28.272115 Z0.000000
G01 X4.479324 Y28.351996 Z0.000000
G03 X5.090941 Y28.676301 Z0.000000 I-0.226774 J1.166566
G03 X5.128835 Y28.998525 Z0.000000 I-0.184146 J0.184996
G03 X5.001841 Y29.125619 Z0.000000 I-0.333147 J-0.205892
G03 X4.539100 Y29.363630 Z0.000000 I-1.729205 J-2.793081
G02 X3.218658 Y30.212923 Z0.000000 I1.730423 J4.141515
G02 X2.936364 Y30.848861 Z0.000000 I0.599211 J0.646615
G01 X2.980072 Y30.879346 Z0.000000
G02 X3.454178 Y30.650807 Z0.000000 I-1.121232 J-2.932042
G01 X3.973302 Y30.344518 Z0.000000
G01 X4.625285 Y30.391443 Z0.000000
G01 X5.277269 Y30.438368 Z0.000000
G01 X5.277269 Y30.665034 Z0.000000
G01 X5.277269 Y30.891700 Z0.000000
G01 X4.377513 Y31.420585 Z0.000000
G01 X3.477758 Y31.949476 Z0.000000
G01 X4.172085 Y31.994860 Z0.000000
G01 X4.866415 Y32.040244 Z0.000000
G01 X5.123528 Y32.324350 Z0.000000
G01 X5.380641 Y32.608456 Z0.000000
G01 X5.066308 Y32.526258 Z0.000000
G02 X3.884928 Y32.483293 Z0.000000 I-0.687022 J2.627271
G02 X3.758613 Y32.768376 Z0.000000 I0.034392 J0.185764
G02 X3.862816 Y32.850295 Z0.000000 I0.163957 J-0.101325
G02 X4.429024 Y32.986988 Z0.000000 I1.153880 J-3.538558
G01 X5.023031 Y33.081974 Z0.000000
G01 X5.414594 Y33.547317 Z0.000000
G01 X5.806154 Y34.012660 Z0.000000
G01 X5.806154 Y34.464337 Z0.000000
G02 X6.036965 Y35.224573 Z0.000000 I1.367421 J0.000001
G02 X6.547744 Y35.573069 Z0.000000 I0.688456 J-0.460482
G01 X6.989626 Y35.670122 Z0.000000
G01 X7.300133 Y35.476212 Z0.000000
G02 X7.646452 Y34.984032 Z0.000000 I-0.409912 J-0.656363
G02 X7.983796 Y32.327257 Z0.000000 I-14.975771 J-3.251354
G03 X8.101801 Y30.140528 Z0.000000 I72.433121 J2.812234
G03 X8.163964 Y29.720872 Z0.000000 I2.714315 J0.187634
G01 X8.259057 Y29.305588 Z0.000000
G01 X9.132549 Y28.774967 Z0.000000
G02 X9.955094 Y28.201813 Z0.000000 I-4.153703 J-6.837865
G02 X10.096138 Y28.009569 Z0.000000 I-0.281508 J-0.354396
G03 X10.309085 Y27.961263 Z0.000000 I0.122627 J0.047056
G03 X10.490588 Y28.383163 Z0.000000 I-0.399597 J0.421900
G02 X10.794083 Y29.590539 Z0.000000 I2.553353 J0.000002
G02 X11.995984 Y31.188358 Z0.000000 I5.803033 J-3.114165
G01 X12.608508 Y31.786472 Z0.000000
G01 X12.267323 Y31.989099 Z0.000000
G01 X11.926138 Y32.191726 Z0.000000
G01 X12.490685 Y32.101930 Z0.000000
G01 X13.055232 Y32.012139 Z0.000000
G01 X13.384366 Y32.188290 Z0.000000
G02 X13.728077 Y32.321763 Z0.000000 I0.720750 J-1.346741
G02 X14.783995 Y32.544811 Z0.000000 I3.230692 J-12.683344
G01 X15.854489 Y32.725181 Z0.000000
G01 X16.800903 Y32.394482 Z0.000000
G02 X18.424392 Y31.577664 Z0.000000 I-2.312672 J-6.618434
G02 X19.378247 Y30.645856 Z0.000000 I-2.119000 J-3.123251
G01 X19.783893 Y30.077050 Z0.000000
G01 X20.161670 Y30.147860 Z0.000000
G01 X20.539446 Y30.218670 Z0.000000
G01 X20.199448 Y30.068950 Z0.000000
G03 X19.917345 Y29.881469 Z0.000000 I0.399277 J-0.906773
G03 X19.859449 Y29.746876 Z0.000000 I0.127499 J-0.134593
G01 X19.859449 Y29.574510 Z0.000000
G01 X20.275003 Y29.676415 Z0.000000
G01 X20.690558 Y29.778314 Z0.000000
G01 X20.425415 Y29.579460 Z0.000000
G01 X20.160271 Y29.380606 Z0.000000
G01 X20.331294 Y28.473942 Z0.000000
G03 X20.533750 Y27.577353 Z0.000000 I12.672704 J2.390431
G03 X20.660044 Y27.226736 Z0.000000 I2.049937 J0.540341
G01 X20.817769 Y26.886189 Z0.000000
G01 X20.510653 Y26.546738 Z0.000000
G03 X19.882793 Y25.544541 Z0.000000 I2.507645 J-2.268771
G03 X19.957506 Y25.177379 Z0.000000 I0.314738 J-0.127137
G02 X20.023540 Y24.732633 Z0.000000 I-0.266896 J-0.266903
G02 X18.832724 Y23.071735 Z0.000000 I-6.878378 J3.674257
G02 X18.641652 Y23.051759 Z0.000000 I-0.107082 J0.100448
G02 X18.616065 Y23.222847 Z0.000000 I0.068102 J0.097642
G03 X19.841852 Y24.976315 Z0.000000 I-15.380731 J12.057316
G03 X19.820217 Y25.163558 Z0.000000 I-0.128899 J0.079978
G01 X19.768571 Y25.161112 Z0.000000
G03 X19.554515 Y24.842215 Z0.000000 I1.485983 J-1.228737
G02 X18.847359 Y23.992512 Z0.000000 I-2.420813 J1.295582
G02 X17.365622 Y23.093723 Z0.000000 I-4.211519 J5.272298
G01 X16.676529 Y22.788906 Z0.000000
G01 X15.661333 Y22.717645 Z0.000000
G01 X14.646135 Y22.646384 Z0.000000
G01 X13.860335 Y22.927761 Z0.000000
G00 Z5.000000

(End cutting path id: path922)


(Start cutting path id: path922)
(Change tool to Cylindrical cutter)

G00 Z5.000000
G00 X14.687904 Y27.300368

G01 Z0.000000 F1000.0(Penetrate)
G02 X15.333893 Y27.329032 Z0.000000 I0.639847 J-7.126416 F1100.000000
G02 X15.896789 Y27.299227 Z0.000000 I-0.004651 J-5.418149
G01 X15.896569 Y27.269868 Z0.000000
G02 X15.250575 Y27.241187 Z0.000000 I-0.640099 J7.127845
G02 X14.687684 Y27.270873 Z0.000000 I0.004667 J5.440016
G01 X14.687904 Y27.300225 Z0.000000
G01 X14.687904 Y27.300368 Z0.000000
G00 Z5.000000

(End cutting path id: path922)


(Start cutting path id: path922)
(Change tool to Cylindrical cutter)

G00 Z5.000000
G00 X15.078555 Y28.473967

G01 Z0.000000 F1000.0(Penetrate)
G02 X15.036559 Y28.700638 Z0.000000 I0.590724 J0.226671 F1100.000000
G02 X15.078554 Y28.927299 Z0.000000 I0.632668 J0.000000
G02 X15.321517 Y29.125792 Z0.000000 I0.295063 J-0.113224
G02 X15.477240 Y28.993936 Z0.000000 I0.022038 J-0.131856
G03 X15.525333 Y28.920168 Z0.000000 I0.080621 J0.000000
G03 X15.628351 Y28.927300 Z0.000000 I0.044733 J0.101446
G02 X15.779451 Y28.970160 Z0.000000 I0.150846 J-0.244017
G02 X15.930980 Y28.926997 Z0.000000 I-0.000256 J-0.288459
G01 X16.082500 Y28.833353 Z0.000000
G01 X15.925664 Y28.540307 Z0.000000
G02 X15.457755 Y28.234546 Z0.000000 I-0.513405 J0.274763
G02 X15.078555 Y28.473921 Z0.000000 I-0.029283 J0.373651
G01 X15.078555 Y28.473967 Z0.000000
G00 Z5.000000

(End cutting path id: path922)


(Start cutting path id: path922)
(Change tool to Cylindrical cutter)

G00 Z5.000000
G00 X16.117667 Y28.133969

G01 Z0.000000 F1000.0(Penetrate)
G03 X16.306197 Y28.356256 Z0.000000 I-0.426415 J0.552750 F1100.000000
G03 X16.422184 Y28.700634 Z0.000000 I-0.955806 J0.513637
G01 X16.481842 Y29.078413 Z0.000000
G01 X16.602310 Y28.808338 Z0.000000
G01 X16.722779 Y28.538270 Z0.000000
G01 X16.454366 Y28.241673 Z0.000000
G02 X16.166784 Y27.988287 Z0.000000 I-1.260582 J1.140818
G02 X16.029381 Y27.945082 Z0.000000 I-0.137403 J0.196883
G01 X16.001468 Y27.988941 Z0.000000
G02 X16.117667 Y28.133969 Z0.000000 I0.356686 J-0.166721
G01 X16.117667 Y28.133969 Z0.000000
G00 Z5.000000

(End cutting path id: path922)


(Start cutting path id: path922)
(Change tool to Cylindrical cutter)

G00 Z5.000000
G00 X18.110718 Y28.380684

G01 Z0.000000 F1000.0(Penetrate)
G03 X17.982360 Y28.756875 Z0.000000 I-0.218918 J0.135297 F1100.000000
G03 X15.752326 Y29.267299 Z0.000000 I-2.999911 J-7.979861
G01 X14.878195 Y29.346562 Z0.000000
G01 X14.624256 Y29.136930 Z0.000000
G01 X14.370318 Y28.927299 Z0.000000
G01 X14.444713 Y29.153965 Z0.000000
G01 X14.519106 Y29.380631 Z0.000000
G01 X15.564772 Y29.426186 Z0.000000
G01 X16.610437 Y29.471742 Z0.000000
G01 X17.473885 Y29.128780 Z0.000000
G02 X18.316941 Y28.749955 Z0.000000 I-3.859019 J-9.715545
G02 X18.682839 Y28.519935 Z0.000000 I-1.028084 J-2.041425
G01 X19.028341 Y28.254051 Z0.000000
G01 X18.528313 Y28.250625 Z0.000000
G01 X18.028286 Y28.247200 Z0.000000
G01 X18.110718 Y28.380582 Z0.000000
G01 X18.110718 Y28.380684 Z0.000000
G00 Z5.000000

(End cutting path id: path922)


(Start cutting path id: path922)
(Change tool to Cylindrical cutter)

G00 Z5.000000
G00 X18.124167 Y29.463848

G01 Z0.000000 F1000.0(Penetrate)
G03 X17.651180 Y29.697208 Z0.000000 I-1.294945 J-2.028644 F1100.000000
G03 X16.877504 Y29.916848 Z0.000000 I-1.911017 J-5.259067
G02 X16.710373 Y30.059732 Z0.000000 I0.046387 J0.223447
G02 X16.787225 Y30.156118 Z0.000000 I0.067111 J0.025322
G02 X18.532199 Y29.644937 Z0.000000 I-0.833003 J-6.077472
G02 X18.801677 Y29.223156 Z0.000000 I-0.195344 J-0.421782
G02 X18.725893 Y29.169654 Z0.000000 I-0.056777 J-0.000000
G02 X18.124167 Y29.463848 Z0.000000 I0.990721 J2.788827
G01 X18.124167 Y29.463848 Z0.000000
G00 Z5.000000

(End cutting path id: path922)


(Start cutting path id: path922)
(Change tool to Cylindrical cutter)

G00 Z5.000000
G00 X18.933510 Y29.871745

G01 Z0.000000 F1000.0(Penetrate)
G01 X18.726119 Y30.136191 Z0.000000 F1100.000000
G01 X18.990563 Y29.928797 Z0.000000
G02 X19.235341 Y29.711834 Z0.000000 I-1.678295 J-2.140016
G02 X19.255007 Y29.664357 Z0.000000 I-0.047477 J-0.047477
G01 X19.196132 Y29.632276 Z0.000000
G02 X18.933510 Y29.871745 Z0.000000 I0.581753 J0.901742
G01 X18.933510 Y29.871745 Z0.000000
G00 Z5.000000

(End cutting path id: path922)


(Start cutting path id: path922)
(Change tool to Cylindrical cutter)

G00 Z5.000000
G00 X18.197232 Y30.605872

G01 Z0.000000 F1000.0(Penetrate)
G03 X17.653011 Y30.958524 Z0.000000 I-4.004832 J-5.584088 F1100.000000
G03 X17.139457 Y31.222464 Z0.000000 I-2.743538 J-4.706588
G01 X16.610569 Y31.459748 Z0.000000
G01 X15.552794 Y31.477958 Z0.000000
G03 X14.500024 Y31.453186 Z0.000000 I-0.222197 J-12.940203
G03 X14.041688 Y31.380768 Z0.000000 I0.161220 J-2.506971
G01 X13.588356 Y31.265357 Z0.000000
G01 X13.890577 Y31.451298 Z0.000000
G01 X14.192799 Y31.637233 Z0.000000
G01 X15.401683 Y31.642371 Z0.000000
G01 X16.610569 Y31.647510 Z0.000000
G01 X17.290567 Y31.309401 Z0.000000
G02 X18.850528 Y30.370110 Z0.000000 I-5.037162 J-10.130678
G02 X18.801675 Y30.224806 Z0.000000 I-0.046757 J-0.065144
G02 X18.732507 Y30.245828 Z0.000000 I0.003755 J0.136654
G02 X18.197232 Y30.606089 Z0.000000 I5.784715 J9.172702
G01 X18.197232 Y30.605872 Z0.000000
G00 Z5.000000

(End cutting path id: path922)


(Start cutting path id: path922)
(Change tool to Cylindrical cutter)

G00 Z5.000000
G00 X18.959710 Y31.861019

G01 Z0.000000 F1000.0(Penetrate)
G01 X18.791039 Y32.176186 Z0.000000 F1100.000000
G01 X18.931300 Y32.176186 Z0.000000
G02 X19.257692 Y31.968653 Z0.000000 I0.000000 J-0.360428
G02 X19.195250 Y31.612729 Z0.000000 I-0.284898 J-0.133458
G01 X19.138395 Y31.613484 Z0.000000
G02 X18.959710 Y31.861019 Z0.000000 I0.829885 J0.787316
G01 X18.959710 Y31.861019 Z0.000000
G00 Z5.000000

(End cutting path id: path922)


(Start cutting path id: path922)
(Change tool to Cylindrical cutter)

G00 Z5.000000
G00 X19.636662 Y32.319792

G01 Z0.000000 F1000.0(Penetrate)
G02 X19.469781 Y32.816351 Z0.000000 I1.526210 J0.789243 F1100.000000
G01 X19.542346 Y32.865381 Z0.000000
G02 X20.128306 Y32.163207 Z0.000000 I-0.760117 J-1.229892
G02 X19.931023 Y31.873961 Z0.000000 I-0.197284 J-0.077343
G02 X19.882953 Y31.899825 Z0.000000 I-0.000000 J0.057602
G02 X19.636662 Y32.319792 Z0.000000 I3.823528 J2.524530
G01 X19.636662 Y32.319792 Z0.000000
G00 Z5.000000

(End cutting path id: path922)


(Start cutting path id: path922)
(Change tool to Cylindrical cutter)

G00 Z5.000000
G00 X17.931054 Y32.427946

G01 Z0.000000 F1000.0(Penetrate)
G02 X17.772095 Y32.539613 Z0.000000 I0.159668 J0.396264 F1100.000000
G02 X17.570546 Y32.831573 Z0.000000 I1.062504 J0.949024
G01 X17.400660 Y33.158402 Z0.000000
G01 X17.798944 Y32.792064 Z0.000000
G02 X18.180417 Y32.418345 Z0.000000 I-5.743134 J-6.243844
G02 X18.197230 Y32.376506 Z0.000000 I-0.043653 J-0.041839
G01 X18.173045 Y32.356546 Z0.000000
G02 X17.931054 Y32.427940 Z0.000000 I0.249475 J1.291398
G01 X17.931054 Y32.427946 Z0.000000
G00 Z5.000000

(End cutting path id: path922)


(Start cutting path id: path922)
(Change tool to Cylindrical cutter)

G00 Z5.000000
G00 X16.362864 Y32.940264

G01 Z0.000000 F1000.0(Penetrate)
G01 X16.006125 Y33.251024 Z0.000000 F1100.000000
G01 X16.308346 Y33.096441 Z0.000000
G02 X16.605795 Y32.933796 Z0.000000 I-2.800177 J-5.474340
G02 X16.837234 Y32.787999 Z0.000000 I-2.014764 J-3.454844
G01 X17.063900 Y32.634141 Z0.000000
G01 X16.891752 Y32.631857 Z0.000000
G02 X16.735534 Y32.673046 Z0.000000 I-0.003654 J0.302983
G02 X16.362864 Y32.940299 Z0.000000 I1.223746 J2.099908
G01 X16.362864 Y32.940264 Z0.000000
G00 Z5.000000

(End cutting path id: path922)


(Start cutting path id: path922)
(Change tool to Cylindrical cutter)

G00 Z5.000000
G00 X14.646967 Y33.081934

G01 Z0.000000 F1000.0(Penetrate)
G02 X14.492355 Y33.331956 Z0.000000 I0.602999 J0.545707 F1100.000000
G01 X14.528651 Y33.385084 Z0.000000
G02 X15.004912 Y33.168578 Z0.000000 I0.000000 J-0.632082
G02 X14.994143 Y32.851615 Z0.000000 I-0.175019 J-0.152718
G02 X14.922943 Y32.844478 Z0.000000 I-0.039962 J0.039945
G02 X14.646967 Y33.081934 Z0.000000 I0.809079 J1.219423
G01 X14.646967 Y33.081934 Z0.000000
G00 Z5.000000

(End cutting path id: path922)


(Start cutting path id: path922)
(Change tool to Cylindrical cutter)

G00 Z5.000000
G00 X13.588354 Y32.931751

G01 Z0.000000 F1000.0(Penetrate)
G02 X13.578459 Y33.036311 Z0.000000 I0.100780 J0.062286 F1100.000000
G02 X13.646074 Y33.082864 Z0.000000 I0.067615 J-0.025827
G02 X13.776523 Y33.045805 Z0.000000 I0.000000 J-0.248124
G02 X13.890575 Y32.931751 Z0.000000 I-0.184548 J-0.298598
G02 X13.900471 Y32.827192 Z0.000000 I-0.100780 J-0.062286
G02 X13.832856 Y32.780639 Z0.000000 I-0.067615 J0.025827
G02 X13.702407 Y32.817697 Z0.000000 I-0.000000 J0.248124
G02 X13.588354 Y32.931751 Z0.000000 I0.184548 J0.298599
G01 X13.588354 Y32.931751 Z0.000000
G00 Z5.000000

(End cutting path id: path922)


(Start cutting path id: path922)
(Change tool to Cylindrical cutter)

G00 Z5.000000
G00 X12.870579 Y32.523648

G01 Z0.000000 F1000.0(Penetrate)
G02 X12.573271 Y32.791698 Z0.000000 I0.210262 J0.532117 F1100.000000
G02 X12.658270 Y32.931734 Z0.000000 I0.084999 J0.044221
G02 X12.838327 Y32.879470 Z0.000000 I0.000000 J-0.336299
G02 X13.135022 Y32.629514 Z0.000000 I-0.770999 J-1.216232
G02 X13.357452 Y32.358327 Z0.000000 I-2.675480 J-2.421268
G01 X13.347332 Y32.343365 Z0.000000
G02 X13.287164 Y32.362591 Z0.000000 I0.153859 J0.585261
G02 X12.870579 Y32.523648 Z0.000000 I10.653383 J28.174964
G01 X12.870579 Y32.523648 Z0.000000
G00 Z5.000000

(End cutting path id: path922)


(Start cutting path id: path922)
(Change tool to Cylindrical cutter)

G00 Z5.000000
G00 X11.548363 Y29.531810

G01 Z0.000000 F1000.0(Penetrate)
G02 X11.809213 Y30.146822 Z0.000000 I0.855436 J0.000001 F1100.000000
G02 X13.123668 Y31.054783 Z0.000000 I3.400172 J-3.516981
G02 X13.278155 Y31.103502 Z0.000000 I0.256635 J-0.544483
G01 X13.286135 Y31.082755 Z0.000000
G03 X13.002189 Y30.868852 Z0.000000 I1.160665 J-1.836133
G03 X12.266138 Y30.174440 Z0.000000 I11.705290 J-13.144486
G02 X11.574453 Y29.520127 Z0.000000 I-12.279683 J12.288304
G01 X11.548363 Y29.531787 Z0.000000
G01 X11.548363 Y29.531810 Z0.000000
G00 Z5.000000

(End cutting path id: path922)


(Start cutting path id: path922)
(Change tool to Cylindrical cutter)

G00 Z5.000000
G00 X12.001695 Y28.257238

G01 Z0.000000 F1000.0(Penetrate)
G02 X12.153572 Y28.739500 Z0.000000 I0.841609 J0.000001 F1100.000000
G02 X12.642177 Y29.173253 Z0.000000 I1.151706 J-0.805275
G01 X12.973511 Y29.350580 Z0.000000
G01 X12.562148 Y28.861700 Z0.000000
G03 X12.231341 Y28.366934 Z0.000000 I2.071212 J-1.742813
G03 X12.236269 Y28.234506 Z0.000000 I0.119084 J-0.061874
G02 X12.239001 Y28.142330 Z0.000000 I-0.078397 J-0.048453
G02 X12.161725 Y28.096192 Z0.000000 I-0.077276 J0.041648
G02 X12.048715 Y28.143212 Z0.000000 I-0.000000 J0.159316
G02 X12.001695 Y28.257238 Z0.000000 I0.114750 J0.114026
G01 X12.001695 Y28.257238 Z0.000000
G00 Z5.000000

(End cutting path id: path922)


(Start cutting path id: path922)
(Change tool to Cylindrical cutter)

G00 Z5.000000
G00 X12.681693 Y28.398412

G01 Z0.000000 F1000.0(Penetrate)
G02 X12.795746 Y28.512466 Z0.000000 I0.298605 J-0.184548 F1100.000000
G02 X12.926195 Y28.549525 Z0.000000 I0.130449 J-0.211064
G02 X12.993809 Y28.502972 Z0.000000 I0.000000 J-0.072379
G02 X12.983914 Y28.398412 Z0.000000 I-0.110676 J-0.042274
G02 X12.869861 Y28.284358 Z0.000000 I-0.298604 J0.184548
G02 X12.739413 Y28.247300 Z0.000000 I-0.130448 J0.211064
G02 X12.671798 Y28.293852 Z0.000000 I-0.000000 J0.072379
G02 X12.681693 Y28.398412 Z0.000000 I0.110676 J0.042274
G01 X12.681693 Y28.398412 Z0.000000
G00 Z5.000000

(End cutting path id: path922)


(Start cutting path id: path922)
(Change tool to Cylindrical cutter)

G00 Z5.000000
G00 X8.838546 Y34.367298

G01 Z0.000000 F1000.0(Penetrate)
G03 X8.765885 Y36.022115 Z0.000000 I-24.788840 J-0.259438 F1100.000000
G03 X8.662987 Y36.633959 Z0.000000 I-3.467232 J-0.268535
G02 X8.516839 Y37.241155 Z0.000000 I15.305178 J4.005033
G02 X8.280838 Y38.371734 Z0.000000 I52.850653 J11.622169
G01 X8.056858 Y39.505064 Z0.000000
G01 X8.145435 Y40.457677 Z0.000000
G02 X8.559372 Y42.717808 Z0.000000 I12.953711 J-1.204464
G02 X9.105240 Y43.931618 Z0.000000 I4.207244 J-1.162413
G01 X9.232091 Y44.127069 Z0.000000
G01 X9.173589 Y43.251620 Z0.000000
G01 X9.115086 Y42.376164 Z0.000000
G01 X9.727277 Y43.037821 Z0.000000
G02 X10.292927 Y43.580645 Z0.000000 I4.846941 J-4.484626
G01 X10.339469 Y43.559149 Z0.000000
G02 X10.309744 Y43.430864 Z0.000000 I-0.291687 J-0.000000
G02 X10.200448 Y43.275271 Z0.000000 I-0.546127 J0.267442
G03 X10.085968 Y43.115244 Z0.000000 I0.477944 J-0.462873
G03 X9.663580 Y42.225052 Z0.000000 I14.856399 J-7.594542
G01 X9.265730 Y41.318387 Z0.000000
G01 X9.840377 Y41.858097 Z0.000000
G02 X10.996766 Y42.799864 Z0.000000 I7.237795 J-7.706394
G02 X11.329214 Y42.905051 Z0.000000 I0.332448 J-0.472763
G01 X11.346578 Y42.870542 Z0.000000
G02 X10.825707 Y42.226571 Z0.000000 I-7.982021 J5.923555
G01 X10.228487 Y41.548091 Z0.000000
G01 X10.065508 Y40.904354 Z0.000000
G03 X9.701384 Y38.829611 Z0.000000 I13.767167 J-3.485508
G03 X9.843158 Y38.677117 Z0.000000 I0.138073 J-0.013784
G03 X9.930669 Y38.728435 Z0.000000 I-0.002758 J0.104977
G03 X10.490581 Y39.766217 Z0.000000 I-12.202282 J7.253403
G01 X11.019468 Y40.852161 Z0.000000
G01 X11.396326 Y41.085278 Z0.000000
G01 X11.773184 Y41.318389 Z0.000000
G01 X11.442707 Y40.893394 Z0.000000
G03 X10.883481 Y39.823096 Z0.000000 I2.670439 J-2.076537
G03 X10.861128 Y39.026741 Z0.000000 I1.405653 J-0.437947
G01 X10.958186 Y38.640029 Z0.000000
G01 X11.278895 Y38.921435 Z0.000000
G01 X11.599603 Y39.202841 Z0.000000
G01 X11.460648 Y38.900621 Z0.000000
G03 X11.382906 Y38.584916 Z0.000000 I0.784042 J-0.360492
G03 X11.315358 Y36.105075 Z0.000000 I50.171729 J-2.607469
G01 X11.309029 Y33.611748 Z0.000000
G01 X11.130215 Y33.196195 Z0.000000
G02 X10.939615 Y32.798914 Z0.000000 I-4.940418 J2.125856
G01 X10.909884 Y32.781419 Z0.000000
G01 X10.888522 Y32.802170 Z0.000000
G02 X10.859841 Y33.801416 Z0.000000 I24.554375 J1.204794
G03 X10.618912 Y36.186319 Z0.000000 I-13.000469 J-0.108719
G03 X10.350571 Y36.407294 Z0.000000 I-0.268341 J-0.052442
G03 X10.297059 Y36.358607 Z0.000000 I0.000000 J-0.053751
G03 X10.307500 Y35.952175 Z0.000000 I1.689952 J-0.159938
G02 X10.334312 Y35.496284 Z0.000000 I-2.600886 J-0.381700
G02 X10.266131 Y34.487014 Z0.000000 I-12.892240 J0.364004
G01 X10.157965 Y33.476967 Z0.000000
G01 X10.039068 Y33.695464 Z0.000000
G02 X9.948697 Y33.923766 Z0.000000 I0.890322 J0.484459
G02 X9.814452 Y34.555398 Z0.000000 I6.783152 J1.771760
G03 X9.662783 Y35.166042 Z0.000000 I-3.879541 J-0.639421
G03 X9.570770 Y35.282092 Z0.000000 I-0.206541 J-0.069259
G01 X9.432808 Y35.367356 Z0.000000
G01 X9.430753 Y34.942881 Z0.000000
G02 X9.385031 Y34.525254 Z0.000000 I-2.015717 J0.009364
G02 X9.142315 Y33.611747 Z0.000000 I-9.989704 J2.165234
G01 X8.855931 Y32.705082 Z0.000000
G01 X8.838541 Y34.367298 Z0.000000
G01 X8.838546 Y34.367298 Z0.000000
G00 Z5.000000

(End cutting path id: path922)


(Start cutting path id: path922)
(Change tool to Cylindrical cutter)

G00 Z5.000000
G00 X14.738559 Y37.805055

G01 Z0.000000 F1000.0(Penetrate)
G02 X14.584383 Y38.603495 Z0.000000 I9.970703 J2.339418 F1100.000000
G02 X14.465795 Y39.597239 Z0.000000 I15.334643 J2.333889
G01 X14.379171 Y40.596092 Z0.000000
G01 X14.564801 Y41.369882 Z0.000000
G01 X14.750429 Y42.143679 Z0.000000
G01 X15.262869 Y42.814800 Z0.000000
G02 X15.826042 Y43.434544 Z0.000000 I3.897344 J-2.975835
G02 X16.842012 Y44.279134 Z0.000000 I8.299179 J-8.949856
G01 X17.908716 Y45.072340 Z0.000000
G01 X17.432513 Y45.272570 Z0.000000
G01 X16.956312 Y45.472799 Z0.000000
G01 X16.125953 Y45.375204 Z0.000000
G01 X15.295592 Y45.277609 Z0.000000
G01 X14.843480 Y44.897181 Z0.000000
G03 X13.653229 Y43.610135 Z0.000000 I4.528388 J-5.381710
G03 X13.690772 Y43.287301 Z0.000000 I0.196561 J-0.140742
G01 X13.743024 Y43.281101 Z0.000000
G03 X15.017701 Y43.981577 Z0.000000 I-16.519219 J31.570525
G01 X16.295941 Y44.718366 Z0.000000
G01 X16.755472 Y44.718246 Z0.000000
G01 X17.215003 Y44.718126 Z0.000000
G01 X16.535006 Y44.383042 Z0.000000
G03 X15.895641 Y43.991123 Z0.000000 I1.803192 J-3.659154
G03 X15.158995 Y43.354344 Z0.000000 I4.117706 J-5.507963
G01 X14.462983 Y42.660730 Z0.000000
G01 X14.206865 Y41.889634 Z0.000000
G03 X13.996013 Y41.108617 Z0.000000 I6.738245 J-2.238096
G03 X13.844338 Y40.160678 Z0.000000 I9.786087 J-2.051936
G01 X13.737927 Y39.202825 Z0.000000
G01 X13.466930 Y39.807270 Z0.000000
G03 X13.189956 Y40.408770 Z0.000000 I-30.061025 J-13.477695
G03 X13.072815 Y40.641000 Z0.000000 I-4.593310 J-2.171300
G02 X12.998492 Y40.883104 Z0.000000 I0.575995 J0.309282
G02 X12.924521 Y42.076550 Z0.000000 I14.496987 J1.497555
G01 X12.899346 Y43.282814 Z0.000000
G01 X13.251209 Y44.676091 Z0.000000
G01 X13.603072 Y46.069369 Z0.000000
G01 X13.394462 Y46.149421 Z0.000000
G03 X12.595272 Y46.261328 Z0.000000 I-0.641522 J-1.671782
G03 X11.691961 Y45.998924 Z0.000000 I0.214218 J-2.423432
G02 X11.301000 Y45.858519 Z0.000000 I-0.722354 J1.396890
G01 X11.246133 Y45.902819 Z0.000000
G02 X11.444952 Y46.274836 Z0.000000 I0.447456 J0.000000
G02 X12.909279 Y47.014384 Z0.000000 I3.760755 J-5.626933
G01 X13.437237 Y47.204817 Z0.000000
G01 X12.908350 Y47.296126 Z0.000000
G01 X12.379462 Y47.387441 Z0.000000
G01 X13.059460 Y47.703972 Z0.000000
G02 X13.748080 Y47.998149 Z0.000000 I4.950123 J-10.634387
G02 X14.381678 Y48.219552 Z0.000000 I3.422343 J-8.776549
G03 X14.981326 Y48.449982 Z0.000000 I-1.434884 J4.629442
G03 X15.023898 Y48.516577 Z0.000000 I-0.030800 J0.066595
G03 X14.979540 Y48.578013 Z0.000000 I-0.064724 J-0.000000
G03 X14.306122 Y48.754523 Z0.000000 I-1.719246 J-5.186383
G01 X13.588346 Y48.894498 Z0.000000
G01 X14.495010 Y49.079040 Z0.000000
G03 X15.401415 Y49.264828 Z0.000000 I-67.194810 J330.127320
G03 X15.748144 Y49.337693 Z0.000000 I-9.981518 J48.359154
G03 X16.221314 Y49.639942 Z0.000000 I-0.167701 J0.784032
G03 X16.200226 Y49.939055 Z0.000000 I-0.182788 J0.137413
G03 X16.116834 Y49.970929 Z0.000000 I-0.077382 J-0.077428
G03 X14.577136 Y49.849560 Z0.000000 I1.786445 J-32.490109
G02 X13.039468 Y49.733866 Z0.000000 I-2.897586 J28.234969
G02 X12.942940 Y49.771163 Z0.000000 I-0.006126 J0.127706
G02 X12.995456 Y49.990900 Z0.000000 I0.093743 J0.093740
G02 X14.846683 Y50.394076 Z0.000000 I2.899324 J-8.860924
G01 X15.789810 Y50.500782 Z0.000000
G01 X16.162406 Y50.793862 Z0.000000
G03 X16.474137 Y51.116517 Z0.000000 I-1.022247 J1.299553
G03 X16.535003 Y51.302648 Z0.000000 I-0.254166 J0.186131
G01 X16.535003 Y51.518348 Z0.000000
G01 X15.892783 Y51.529822 Z0.000000
G01 X15.250562 Y51.541353 Z0.000000
G01 X15.735011 Y51.718742 Z0.000000
G03 X16.500629 Y52.153546 Z0.000000 I-0.918956 J2.509596
G03 X16.510722 Y52.348562 Z0.000000 I-0.082863 J0.102058
G03 X16.419182 Y52.376066 Z0.000000 I-0.071326 J-0.071308
G03 X15.784022 Y52.199972 Z0.000000 I0.962618 J-4.705662
G02 X15.710864 Y52.278108 Z0.000000 I-0.019444 J0.055110
G02 X15.911622 Y52.497642 Z0.000000 I0.414899 J-0.177852
G03 X17.306284 Y53.402969 Z0.000000 I-4.843440 J8.988253
G03 X17.441665 Y53.678464 Z0.000000 I-0.212616 J0.275494
G01 X17.441665 Y53.827293 Z0.000000
G01 X16.572779 Y53.738089 Z0.000000
G01 X15.703893 Y53.648880 Z0.000000
G01 X16.449157 Y54.056944 Z0.000000
G03 X17.196397 Y54.665618 Z0.000000 I-1.274491 J2.327642
G03 X17.114258 Y54.839189 Z0.000000 I-0.080259 J0.068240
G03 X16.914826 Y54.818498 Z0.000000 I0.017642 J-1.141502
G03 X15.628337 Y54.551874 Z0.000000 I9.572081 J-49.423321
G02 X14.350935 Y54.293587 Z0.000000 I-7.856402 J35.567196
G02 X14.301521 Y54.308218 Z0.000000 I-0.010287 J0.056017
G01 X14.306089 Y54.339956 Z0.000000
G02 X15.033969 Y54.681602 Z0.000000 I5.603968 J-10.993107
G03 X15.731426 Y55.029768 Z0.000000 I-2.715843 J6.313129
G01 X15.738795 Y55.084921 Z0.000000
G03 X15.655633 Y55.116833 Z0.000000 I-0.077437 J-0.077483
G03 X14.570376 Y55.023724 Z0.000000 I0.855260 J-16.340005
G01 X13.471954 Y54.892540 Z0.000000
G01 X13.756079 Y55.100293 Z0.000000
G01 X14.040203 Y55.308053 Z0.000000
G01 X13.831502 Y55.437033 Z0.000000
G01 X13.622802 Y55.566019 Z0.000000
G01 X14.309856 Y55.869934 Z0.000000
G02 X15.001633 Y56.161371 Z0.000000 I8.554727 J-19.339389
G02 X15.342326 Y56.283484 Z0.000000 I1.828126 J-4.564142
G01 X15.687742 Y56.393112 Z0.000000
G01 X15.179613 Y56.847129 Z0.000000
G01 X14.671483 Y57.301140 Z0.000000
G01 X15.678732 Y57.193271 Z0.000000
G03 X17.407576 Y57.194374 Z0.000000 I0.859300 J8.024199
G03 X17.592774 Y57.400728 Z0.000000 I-0.022365 J0.206354
G03 X17.545821 Y57.486550 Z0.000000 I-0.101909 J-0.000000
G03 X16.979603 Y57.793383 Z0.000000 I-2.381925 J-3.719652
G01 X16.366431 Y58.069880 Z0.000000
G01 X16.564048 Y58.175261 Z0.000000
G02 X17.368214 Y58.423774 Z0.000000 I1.047643 J-1.964712
G02 X20.812268 Y58.642616 Z0.000000 I4.093224 J-37.207682
G01 X22.445099 Y58.670931 Z0.000000
G01 X22.776706 Y58.339655 Z0.000000
G02 X23.064713 Y57.980048 Z0.000000 I-1.475143 J-1.476569
G02 X23.295237 Y57.521138 Z0.000000 I-2.190616 J-1.387763
G01 X23.482161 Y57.033897 Z0.000000
G01 X23.445260 Y57.751675 Z0.000000
G02 X23.461571 Y58.418896 Z0.000000 I4.399868 J0.226250
G02 X23.517462 Y58.469447 Z0.000000 I0.055891 J-0.005622
G02 X23.768749 Y58.298776 Z0.000000 I0.000000 J-0.270326
G02 X23.939423 Y57.405442 Z0.000000 I-2.252600 J-0.893335
G01 X23.939423 Y56.926004 Z0.000000
G01 X24.203866 Y57.030586 Z0.000000
G02 X24.474101 Y57.112567 Z0.000000 I0.633720 J-1.602570
G02 X24.997198 Y57.201765 Z0.000000 I1.283296 J-5.947354
G01 X25.526085 Y57.268368 Z0.000000
G01 X25.218617 Y57.130259 Z0.000000
G03 X24.933771 Y56.962404 Z0.000000 I0.615173 J-1.369550
G03 X24.709006 Y56.748581 Z0.000000 I0.792375 J-1.057970
G01 X24.506860 Y56.505012 Z0.000000
G01 X25.150052 Y56.505012 Z0.000000
G02 X26.462846 Y56.291690 Z0.000000 I0.000002 J-4.146135
G02 X27.447414 Y55.738147 Z0.000000 I-0.946828 J-2.836474
G01 X27.943857 Y55.318148 Z0.000000
G01 X27.280434 Y55.463774 Z0.000000
G03 X26.976723 Y55.298832 Z0.000000 I-0.056601 J-0.257864
G03 X27.083430 Y54.939872 Z0.000000 I0.290123 J-0.109096
G02 X27.817018 Y54.331725 Z0.000000 I-4.784998 J-6.518506
G02 X28.325510 Y53.780123 Z0.000000 I-3.420694 J-3.663534
G01 X28.794685 Y53.187747 Z0.000000
G01 X28.033648 Y53.699883 Z0.000000
G03 X26.591224 Y54.453571 Z0.000000 I-4.107130 J-6.103192
G03 X25.943480 Y54.512160 Z0.000000 I-0.425573 J-1.095094
G01 X25.678430 Y54.461125 Z0.000000
G01 X26.508923 Y53.957009 Z0.000000
G02 X28.544146 Y52.451591 Z0.000000 I-7.203086 J-11.866532
G02 X28.774967 Y51.936534 Z0.000000 I-0.459242 J-0.515058
G01 X28.723509 Y51.898472 Z0.000000
G02 X28.176545 Y52.119745 Z0.000000 I0.990212 J3.234355
G03 X27.315699 Y52.395532 Z0.000000 I-1.275716 J-2.500618
G03 X26.747332 Y52.333309 Z0.000000 I-0.165983 J-1.110796
G03 X26.690429 Y52.136386 Z0.000000 I0.046043 J-0.119988
G03 X27.074972 Y51.894900 Z0.000000 I0.505189 J0.377546
G01 X27.641637 Y51.784461 Z0.000000
G01 X27.339416 Y51.673868 Z0.000000
G01 X27.037195 Y51.563275 Z0.000000
G01 X27.681440 Y51.234500 Z0.000000
G01 X28.325687 Y50.905718 Z0.000000
G01 X28.776993 Y50.282709 Z0.000000
G02 X29.120490 Y49.564926 Z0.000000 I-1.794155 J-1.299680
G02 X29.001635 Y49.457467 Z0.000000 I-0.086674 J-0.023594
G03 X28.909622 Y49.369034 Z0.000000 I-0.025254 J-0.065809
G03 X29.190524 Y48.900096 Z0.000000 I1.224803 J0.415075
G01 X29.606078 Y48.456389 Z0.000000
G01 X29.409698 Y48.385624 Z0.000000
G01 X29.213317 Y48.314866 Z0.000000
G01 X29.458206 Y47.941124 Z0.000000
G01 X29.703093 Y47.567375 Z0.000000
G01 X29.377201 Y47.741790 Z0.000000
G03 X29.057993 Y47.871048 Z0.000000 I-0.763326 J-1.426287
G03 X28.988011 Y47.852908 Z0.000000 I-0.019572 J-0.068553
G03 X28.909396 Y47.486775 Z0.000000 I0.243881 J-0.243873
G03 X29.505672 Y46.487437 Z0.000000 I3.114263 J1.180634
G01 X29.740246 Y46.216490 Z0.000000
G01 X29.484274 Y46.314718 Z0.000000
G03 X29.330828 Y46.228108 Z0.000000 I-0.040943 J-0.106696
G03 X29.417191 Y45.939000 Z0.000000 I0.329906 J-0.058903
G01 X29.606080 Y45.739176 Z0.000000
G01 X29.276015 Y45.908778 Z0.000000
G03 X28.998642 Y45.908595 Z0.000000 I-0.138508 J-0.269539
G03 X28.945505 Y45.738388 Z0.000000 I0.057387 J-0.111314
G01 X29.126672 Y45.398389 Z0.000000
G01 X28.871614 Y45.608814 Z0.000000
G03 X28.674818 Y45.567582 Z0.000000 I-0.081915 J-0.099292
G03 X28.648221 Y45.166796 Z0.000000 I0.458451 J-0.231699
G01 X28.825056 Y44.659529 Z0.000000
G01 X28.647962 Y44.600502 Z0.000000
G03 X28.555982 Y44.508543 Z0.000000 I0.046027 J-0.138017
G03 X28.569532 Y44.365484 Z0.000000 I0.168445 J-0.056216
G01 X28.668198 Y44.189505 Z0.000000
G01 X28.470735 Y44.372351 Z0.000000
G02 X28.337066 Y44.588402 Z0.000000 I0.323873 J0.349752
G02 X28.146563 Y45.481717 Z0.000000 I5.913883 J1.728132
G01 X28.019854 Y46.408224 Z0.000000
G01 X28.156482 Y46.652364 Z0.000000
G01 X28.293110 Y46.896504 Z0.000000
G01 X27.864732 Y47.519131 Z0.000000
G03 X27.396293 Y48.103614 Z0.000000 I-4.231037 J-2.911045
G03 X26.921390 Y48.534538 Z0.000000 I-2.757485 J-2.561758
G01 X26.406427 Y48.927318 Z0.000000
G01 X26.542683 Y48.069520 Z0.000000
G02 X26.537303 Y46.591576 Z0.000000 I-4.548091 J-0.722428
G02 X26.046848 Y45.088221 Z0.000000 I-5.200388 J0.864896
G01 X25.981966 Y45.105578 Z0.000000
G02 X26.073119 Y45.549499 Z0.000000 I1.558918 J-0.088783
G01 X26.347336 Y46.305051 Z0.000000
G01 X26.352244 Y47.214073 Z0.000000
G01 X26.357153 Y48.123095 Z0.000000
G01 X26.079091 Y48.641574 Z0.000000
G03 X25.767134 Y49.119818 Z0.000000 I-2.938771 J-1.576083
G03 X25.628695 Y49.217492 Z0.000000 I-0.231304 J-0.180893
G01 X25.456361 Y49.274938 Z0.000000
G01 X25.679160 Y48.847768 Z0.000000
G02 X25.871515 Y48.413051 Z0.000000 I-3.286499 J-1.714131
G02 X25.902891 Y48.239425 Z0.000000 I-0.479251 J-0.176253
G01 X25.903804 Y48.058245 Z0.000000
G01 X25.379770 Y48.277198 Z0.000000
G03 X24.853641 Y48.485503 Z0.000000 I-5.787230 J-13.848637
G03 X24.794776 Y48.496158 Z0.000000 I-0.058865 J-0.157279
G01 X24.762371 Y48.466283 Z0.000000
G03 X24.662582 Y46.871715 Z0.000000 I42.580672 J-3.465132
G01 X24.591385 Y45.247279 Z0.000000
G01 X24.107307 Y44.190992 Z0.000000
G02 X23.589013 Y43.153111 Z0.000000 I-15.776361 J7.230011
G02 X22.947184 Y42.050028 Z0.000000 I-18.465827 J10.006082
G03 X22.301709 Y40.949175 Z0.000000 I20.027964 J-12.482873
G03 X21.948756 Y40.236556 Z0.000000 I8.027790 J-4.419800
G01 X21.626372 Y39.507755 Z0.000000
G01 X21.520167 Y38.297530 Z0.000000
G01 X21.413959 Y37.087299 Z0.000000
G01 X21.393088 Y38.145075 Z0.000000
G02 X21.603222 Y39.637577 Z0.000000 I4.740919 J0.093555
G02 X22.822757 Y42.775358 Z0.000000 I22.602746 J-6.978934
G03 X23.978582 Y45.833448 Z0.000000 I-18.363920 J8.688235
G03 X24.241627 Y47.694588 Z0.000000 I-6.452570 J1.861137
G01 X24.241627 Y48.665103 Z0.000000
G01 X24.090516 Y48.571711 Z0.000000
G03 X23.988864 Y48.450736 Z0.000000 I0.132749 J-0.214740
G03 X23.939406 Y48.193932 Z0.000000 I0.641973 J-0.256804
G02 X23.885886 Y47.939390 Z0.000000 I-0.632061 J-0.000000
G02 X23.767561 Y47.803343 Z0.000000 I-0.278013 J0.122318
G01 X23.595715 Y47.697134 Z0.000000
G01 X23.302705 Y48.058866 Z0.000000
G01 X23.009696 Y48.420597 Z0.000000
G01 X23.098327 Y47.967265 Z0.000000
G02 X23.163225 Y47.510964 Z0.000000 I-4.368538 J-0.854086
G02 X23.267804 Y46.078383 Z0.000000 I-43.061416 J-3.863633
G01 X23.348652 Y44.642833 Z0.000000
G01 X23.045686 Y44.038389 Z0.000000
G01 X22.742721 Y43.433949 Z0.000000
G01 X22.849954 Y43.887282 Z0.000000
G03 X22.917148 Y44.345280 Z0.000000 I-2.603957 J0.615961
G03 X22.957188 Y45.700610 Z0.000000 I-22.918410 J1.355317
G01 X22.957187 Y47.060601 Z0.000000
G01 X22.735308 Y47.778378 Z0.000000
G03 X22.481171 Y48.452419 Z0.000000 I-5.667524 J-1.751925
G03 X22.413642 Y48.496156 Z0.000000 I-0.067528 J-0.030262
G03 X22.340603 Y48.456124 Z0.000000 I0.000000 J-0.086647
G03 X22.129336 Y48.050685 Z0.000000 I2.200544 J-1.404430
G02 X21.471887 Y47.107764 Z0.000000 I-2.475536 J1.025398
G02 X18.497916 Y44.696429 Z0.000000 I-20.170210 J21.836908
G03 X15.793716 Y42.447559 Z0.000000 I13.246892 J-18.679288
G03 X15.155450 Y41.451476 Z0.000000 I1.804729 J-1.858961
G01 X14.948325 Y40.865059 Z0.000000
G01 X14.948326 Y38.938351 Z0.000000
G02 X14.942445 Y37.017567 Z0.000000 I-313.588034 J-0.000188
G01 X14.936511 Y37.011690 Z0.000000
G01 X14.929215 Y37.017415 Z0.000000
G02 X14.738547 Y37.805072 Z0.000000 I55.836882 J13.933357
G01 X14.738559 Y37.805055 Z0.000000
G00 Z5.000000

(End cutting path id: path922)


(Start cutting path id: path922)
(Change tool to Cylindrical cutter)

G00 Z5.000000
G00 X23.911103 Y30.163864

G01 Z0.000000 F1000.0(Penetrate)
G02 X24.099779 Y30.196217 Z0.000000 I0.169871 J-0.424308 F1100.000000
G02 X24.200733 Y30.151933 Z0.000000 I-0.006236 J-0.151427
G01 X24.191073 Y30.104895 Z0.000000
G02 X24.002400 Y30.072566 Z0.000000 I-0.169860 J0.424588
G01 X23.712771 Y30.084497 Z0.000000
G01 X23.911103 Y30.163864 Z0.000000
G00 Z5.000000

(End cutting path id: path922)


(Start cutting path id: path922)
(Change tool to Cylindrical cutter)

G00 Z5.000000
G00 X25.360630 Y32.048471

G01 Z0.000000 F1000.0(Penetrate)
G01 X25.072765 Y32.374084 Z0.000000 F1100.000000
G01 X25.488320 Y32.106647 Z0.000000
G02 X25.815715 Y31.801922 Z0.000000 I-0.684639 J-1.063812
G01 X25.776185 Y31.722858 Z0.000000
G02 X25.665682 Y31.760994 Z0.000000 I-0.000000 J0.179165
G02 X25.360630 Y32.048471 Z0.000000 I1.420619 J1.813058
G01 X25.360630 Y32.048471 Z0.000000
G00 Z5.000000

(End cutting path id: path922)


(Start cutting path id: path922)
(Change tool to Cylindrical cutter)

G00 Z5.000000
G00 X27.266183 Y33.028338

G01 Z0.000000 F1000.0(Penetrate)
G02 X27.307334 Y33.184560 Z0.000000 I0.302566 J0.003831 F1100.000000
G02 X27.574622 Y33.557229 Z0.000000 I2.101533 J-1.225087
G01 X27.885377 Y33.913966 Z0.000000
G01 X27.730794 Y33.611746 Z0.000000
G02 X27.568150 Y33.314296 Z0.000000 I-5.471702 J2.798704
G02 X27.422355 Y33.082861 Z0.000000 I-3.455567 J2.015229
G01 X27.268499 Y32.856195 Z0.000000
G01 X27.266215 Y33.028338 Z0.000000
G01 X27.266183 Y33.028338 Z0.000000
G00 Z5.000000

(End cutting path id: path922)


(Start cutting path id: path922)
(Change tool to Cylindrical cutter)

G00 Z5.000000
G00 X27.880243 Y32.336203

G01 Z0.000000 F1000.0(Penetrate)
G02 X27.918843 Y32.555448 Z0.000000 I0.498579 J0.025241 F1100.000000
G02 X28.103315 Y32.865095 Z0.000000 I1.205701 J-0.508524
G01 X28.338316 Y33.158420 Z0.000000
G01 X28.199289 Y32.856195 Z0.000000
G03 X28.065182 Y32.551936 Z0.000000 I9.430941 J-4.338511
G03 X27.976216 Y32.327309 Z0.000000 I5.053555 J-2.131438
G01 X27.892172 Y32.100643 Z0.000000
G01 X27.880252 Y32.336203 Z0.000000
G01 X27.880243 Y32.336203 Z0.000000
G00 Z5.000000

(End cutting path id: path922)


(Start cutting path id: path922)
(Change tool to Cylindrical cutter)

G00 Z5.000000
G00 X28.935858 Y33.034333

G01 Z0.000000 F1000.0(Penetrate)
G02 X29.176890 Y33.317765 Z0.000000 I1.012769 J-0.617060 F1100.000000
G02 X29.522385 Y33.536999 Z0.000000 I0.933442 J-1.089176
G02 X29.745333 Y33.608043 Z0.000000 I0.422117 J-0.939321
G01 X29.757195 Y33.583296 Z0.000000
G03 X29.606663 Y33.455461 Z0.000000 I14.092337 J-16.746981
G03 X29.170669 Y33.080630 Z0.000000 I120.307400 J-140.379463
G01 X28.735251 Y32.705117 Z0.000000
G01 X28.935858 Y33.034333 Z0.000000
G00 Z5.000000

(End cutting path id: path922)


(Start cutting path id: path922)
(Change tool to Cylindrical cutter)

G00 Z5.000000
G00 X29.199975 Y34.092726

G01 Z0.000000 F1000.0(Penetrate)
G02 X29.388651 Y34.125080 Z0.000000 I0.169872 J-0.424309 F1100.000000
G02 X29.489604 Y34.080795 Z0.000000 I-0.006235 J-0.151423
G01 X29.479945 Y34.033758 Z0.000000
G02 X29.291271 Y34.001429 Z0.000000 I-0.169860 J0.424588
G01 X29.001642 Y34.013359 Z0.000000
G01 X29.199975 Y34.092726 Z0.000000
G00 Z5.000000

(End cutting path id: path922)


(Start cutting path id: path922)
(Change tool to Cylindrical cutter)

G00 Z5.000000
G00 X30.097194 Y34.089302

G01 Z0.000000 F1000.0(Penetrate)
G02 X30.286083 Y34.125959 Z0.000000 I0.188889 J-0.468325 F1100.000000
G02 X30.474971 Y34.089302 Z0.000000 I0.000000 J-0.504982
G01 X30.474975 Y34.049764 Z0.000000
G02 X30.286082 Y34.013086 Z0.000000 I-0.188893 J0.468071
G02 X30.097191 Y34.049761 Z0.000000 I-0.000000 J0.504765
G01 X30.097194 Y34.089302 Z0.000000
G01 X30.097194 Y34.089302 Z0.000000
G00 Z5.000000

(End cutting path id: path922)


(Start cutting path id: path922)
(Change tool to Cylindrical cutter)

G00 Z5.000000
G00 X31.948301 Y32.802057

G01 Z0.000000 F1000.0(Penetrate)
G03 X31.563948 Y32.933642 Z0.000000 I-1.369227 J-3.372319 F1100.000000
G03 X30.966081 Y33.078142 Z0.000000 I-2.257952 J-8.033152
G01 X30.361639 Y33.200854 Z0.000000
G01 X30.857601 Y33.217409 Z0.000000
G02 X32.171133 Y33.030623 Z0.000000 I0.127403 J-3.816025
G02 X32.401633 Y32.712792 Z0.000000 I-0.103876 J-0.317832
G01 X32.360556 Y32.679014 Z0.000000
G02 X31.948301 Y32.802057 Z0.000000 I0.435275 J2.210541
G01 X31.948301 Y32.802057 Z0.000000
G00 Z5.000000

(End cutting path id: path922)


(Start cutting path id: path922)
(Change tool to Cylindrical cutter)

G00 Z5.000000
G00 X33.459407 Y32.705080

G01 Z0.000000 F1000.0(Penetrate)
G01 X32.779409 Y32.902072 Z0.000000 F1100.000000
G01 X33.232741 Y32.911549 Z0.000000
G02 X33.671190 Y32.862513 Z0.000000 I0.034535 J-1.675916
G02 X34.063850 Y32.705075 Z0.000000 I-0.370580 J-1.492619
G01 X34.041888 Y32.622402 Z0.000000
G02 X33.459407 Y32.705074 Z0.000000 I-0.000001 J2.093301
G01 X33.459407 Y32.705080 Z0.000000
G00 Z5.000000

(End cutting path id: path922)


(Start cutting path id: path922)
(Change tool to Cylindrical cutter)

G00 Z5.000000
G00 X34.131849 Y33.370396

G01 Z0.000000 F1000.0(Penetrate)
G03 X33.973083 Y33.478856 Z0.000000 I-0.414030 J-0.435635 F1100.000000
G03 X33.686073 Y33.579531 Z0.000000 I-0.638690 J-1.361371
G01 X33.383851 Y33.652224 Z0.000000
G01 X33.705349 Y33.669750 Z0.000000
G02 X33.997607 Y33.620340 Z0.000000 I0.036673 J-0.672145
G02 X34.214960 Y33.460609 Z0.000000 I-0.211707 J-0.515825
G02 X34.212698 Y33.373074 Z0.000000 I-0.051177 J-0.042474
G02 X34.131849 Y33.370390 Z0.000000 I-0.041746 J0.038456
G01 X34.131849 Y33.370396 Z0.000000
G00 Z5.000000

(End cutting path id: path922)


(Start cutting path id: path922)
(Change tool to Cylindrical cutter)

G00 Z5.000000
G00 X34.517182 Y32.780651

G01 Z0.000000 F1000.0(Penetrate)
G02 X34.418601 Y32.889348 Z0.000000 I0.154659 J0.239318 F1100.000000
G01 X34.441627 Y32.927134 Z0.000000
G02 X34.584833 Y32.900342 Z0.000000 I0.000000 J-0.396119
G02 X34.819403 Y32.780651 Z0.000000 I-0.467880 J-1.206655
G02 X34.917985 Y32.671954 Z0.000000 I-0.154659 J-0.239318
G01 X34.894959 Y32.634168 Z0.000000
G02 X34.751752 Y32.660961 Z0.000000 I-0.000000 J0.396119
G02 X34.517182 Y32.780651 Z0.000000 I0.467880 J1.206655
G01 X34.517182 Y32.780651 Z0.000000
G00 Z5.000000

(End cutting path id: path922)


(Start cutting path id: path922)
(Change tool to Cylindrical cutter)

G00 Z5.000000
G00 X32.552745 Y29.758386

G01 Z0.000000 F1000.0(Penetrate)
G01 X32.326079 Y29.904869 Z0.000000 F1100.000000
G01 X32.506049 Y29.907153 Z0.000000
G02 X32.663350 Y29.868127 Z0.000000 I0.003709 J-0.321582
G02 X32.779411 Y29.758358 Z0.000000 I-0.148580 J-0.273337
G01 X32.747394 Y29.700934 Z0.000000
G02 X32.552745 Y29.758358 Z0.000000 I-0.000000 J0.358613
G01 X32.552745 Y29.758386 Z0.000000
G00 Z5.000000

(End cutting path id: path922)


(Start cutting path id: path922)
(Change tool to Cylindrical cutter)

G00 Z5.000000
G00 X32.703628 Y28.164731

G01 Z0.000000 F1000.0(Penetrate)
G02 X33.073878 Y28.321869 Z0.000000 I0.937160 J-1.693376 F1100.000000
G02 X33.152584 Y28.302269 Z0.000000 I0.023053 J-0.075251
G02 X33.126845 Y28.103681 Z0.000000 I-0.089376 J-0.089378
G02 X32.552746 Y27.952747 Z0.000000 I-0.559185 J0.959639
G01 X32.326080 Y27.955601 Z0.000000
G01 X32.703628 Y28.164548 Z0.000000
G01 X32.703628 Y28.164731 Z0.000000
G00 Z5.000000

(End cutting path id: path922)


(Start cutting path id: path922)
(Change tool to Cylindrical cutter)

G00 Z5.000000
G00 X31.601272 Y27.184248

G01 Z0.000000 F1000.0(Penetrate)
G03 X32.225247 Y27.352941 Z0.000000 I-1.382258 J6.351136 F1100.000000
G03 X32.558656 Y27.494922 Z0.000000 I-0.630607 J1.943290
G02 X32.873121 Y27.615143 Z0.000000 I0.630876 J-1.178817
G02 X32.956407 Y27.591803 Z0.000000 I0.020885 J-0.085743
G02 X32.914870 Y27.399671 Z0.000000 I-0.082682 J-0.082681
G02 X31.689953 Y27.115716 Z0.000000 I-1.683539 J4.478416
G01 X30.966085 Y27.046008 Z0.000000
G01 X31.601272 Y27.184248 Z0.000000
G00 Z5.000000

(End cutting path id: path922)


(Start cutting path id: path922)
(Change tool to Cylindrical cutter)

G00 Z5.000000
G00 X32.867560 Y26.627859

G01 Z0.000000 F1000.0(Penetrate)
G03 X32.929860 Y26.671557 Z0.000000 I-1.420596 J2.091584 F1100.000000
G03 X33.232745 Y26.892299 Z0.000000 I-35.821612 J49.469779
G01 X33.534966 Y27.113987 Z0.000000
G01 X33.327576 Y26.849542 Z0.000000
G02 X33.098692 Y26.629264 Z0.000000 I-0.898906 J0.704976
G02 X32.962392 Y26.585096 Z0.000000 I-0.136300 J0.188221
G02 X32.869537 Y26.605060 Z0.000000 I-0.000000 J0.225915
G01 X32.867560 Y26.627853 Z0.000000
G01 X32.867560 Y26.627859 Z0.000000
G00 Z5.000000

(End cutting path id: path922)


(Start cutting path id: path922)
(Change tool to Cylindrical cutter)

G00 Z5.000000
G00 X33.030464 Y23.468121

G01 Z0.000000 F1000.0(Penetrate)
G01 X33.885957 Y23.874380 Z0.000000 F1100.000000
G01 X34.421693 Y24.467379 Z0.000000
G03 X34.918597 Y25.087571 Z0.000000 I-4.980126 J4.499289
G03 X35.301357 Y25.709402 Z0.000000 I-4.624197 J3.275080
G01 X35.645284 Y26.358431 Z0.000000
G01 X35.644982 Y27.567315 Z0.000000
G01 X35.644678 Y28.776205 Z0.000000
G01 X35.243784 Y29.541347 Z0.000000
G03 X34.338098 Y30.757026 Z0.000000 I-4.275862 J-2.240327
G03 X32.975115 Y31.753677 Z0.000000 I-4.181027 J-4.287508
G01 X32.326085 Y32.099801 Z0.000000
G01 X30.890534 Y32.099498 Z0.000000
G01 X29.454982 Y32.099194 Z0.000000
G01 X28.683170 Y31.692724 Z0.000000
G03 X27.962892 Y31.220077 Z0.000000 I2.094178 J-3.976521
G03 X27.220492 Y30.517845 Z0.000000 I3.960194 J-4.930268
G01 X26.529627 Y29.749437 Z0.000000
G01 X26.275586 Y28.984586 Z0.000000
G01 X26.021543 Y28.219735 Z0.000000
G01 X26.081071 Y27.284876 Z0.000000
G01 X26.140600 Y26.350017 Z0.000000
G01 X26.488764 Y25.674232 Z0.000000
G03 X27.713740 Y24.128579 Z0.000000 I4.536939 J2.337418
G03 X29.428420 Y23.166926 Z0.000000 I3.290949 J3.858434
G01 X30.059431 Y22.960572 Z0.000000
G01 X31.117205 Y23.011208 Z0.000000
G01 X32.174980 Y23.061844 Z0.000000
G01 X33.030471 Y23.468109 Z0.000000
G01 X33.030464 Y23.468121 Z0.000000
G00 Z5.000000

(End cutting path id: path922)


(Start cutting path id: path922)
(Change tool to Cylindrical cutter)

G00 Z5.000000
G00 X28.145857 Y24.124511

G01 Z0.000000 F1000.0(Penetrate)
G02 X27.646558 Y24.561646 Z0.000000 I3.577948 J4.590474 F1100.000000
G02 X27.337719 Y24.917841 Z0.000000 I2.057775 J2.096178
G01 X27.370636 Y24.952204 Z0.000000
G02 X27.877845 Y24.555419 Z0.000000 I-2.465322 J-3.673997
G03 X28.701423 Y23.812583 Z0.000000 I132.592206 J146.176066
G03 X28.762390 Y23.762089 Z0.000000 I0.671361 J0.748551
G01 X28.772498 Y23.731893 Z0.000000
G01 X28.748940 Y23.714022 Z0.000000
G02 X28.679844 Y23.735307 Z0.000000 I-0.000000 J0.122794
G02 X28.145851 Y24.124539 Z0.000000 I5.771565 J8.478999
G01 X28.145857 Y24.124511 Z0.000000
G00 Z5.000000

(End cutting path id: path922)


(Start cutting path id: path922)
(Change tool to Cylindrical cutter)

G00 Z5.000000
G00 X26.879884 Y25.537374

G01 Z0.000000 F1000.0(Penetrate)
G02 X26.825496 Y25.693272 Z0.000000 I0.324854 J0.200767 F1100.000000
G02 X26.852300 Y25.770553 Z0.000000 I0.093065 J0.011011
G01 X26.909017 Y25.770584 Z0.000000
G02 X27.013799 Y25.609394 Z0.000000 I-0.325879 J-0.326491
G02 X26.977361 Y25.511246 Z0.000000 I-0.073959 J-0.028380
G02 X26.879885 Y25.537374 Z0.000000 I-0.034864 J0.064826
G01 X26.879884 Y25.537374 Z0.000000
G00 Z5.000000

(End cutting path id: path922)


(Start cutting path id: path922)
(Change tool to Cylindrical cutter)

G00 Z5.000000
G00 X27.185086 Y25.984221

G01 Z0.000000 F1000.0(Penetrate)
G01 X26.908348 Y26.290014 Z0.000000 F1100.000000
G01 X26.769635 Y26.097554 Z0.000000
G01 X26.630923 Y25.905094 Z0.000000
G01 X26.715989 Y26.169539 Z0.000000
G01 X26.801056 Y26.433985 Z0.000000
G01 X26.634816 Y26.433985 Z0.000000
G01 X26.468577 Y26.433985 Z0.000000
G01 X26.539636 Y27.529536 Z0.000000
G01 X26.610696 Y28.625087 Z0.000000
G01 X26.852585 Y29.091012 Z0.000000
G02 X27.135664 Y29.489143 Z0.000000 I1.562069 J-0.810959
G02 X27.293046 Y29.556938 Z0.000000 I0.157382 J-0.148781
G03 X27.484248 Y29.591358 Z0.000000 I-0.000000 J0.548268
G03 X28.455335 Y29.989428 Z0.000000 I-5.579224 J14.993943
G01 X29.419052 Y30.421919 Z0.000000
G01 X30.419234 Y30.428199 Z0.000000
G01 X31.419415 Y30.434479 Z0.000000
G01 X31.721636 Y30.245479 Z0.000000
G01 X32.023857 Y30.056478 Z0.000000
G01 X31.570525 Y30.171889 Z0.000000
G03 X31.112755 Y30.247795 Z0.000000 I-0.674535 J-2.649645
G03 X30.361640 Y30.268027 Z0.000000 I-0.568305 J-7.145729
G01 X29.606087 Y30.248731 Z0.000000
G01 X28.894571 Y29.923700 Z0.000000
G03 X28.208710 Y29.569584 Z0.000000 I3.334777 J-7.300142
G03 X28.099506 Y29.463488 Z0.000000 I0.156449 J-0.270281
G02 X27.988274 Y29.367362 Z0.000000 I-0.208517 J0.128866
G02 X27.550347 Y29.226038 Z0.000000 I-0.953131 J2.204337
G01 X27.084735 Y29.123774 Z0.000000
G01 X26.872082 Y28.614823 Z0.000000
G03 X26.716479 Y28.094428 Z0.000000 I2.385930 J-0.996877
G03 X26.659430 Y27.480539 Z0.000000 I3.274444 J-0.613887
G01 X26.659431 Y26.855212 Z0.000000
G01 X27.125461 Y26.266797 Z0.000000
G02 X27.244016 Y26.014245 Z0.000000 I-0.477704 J-0.378350
G01 X27.185086 Y25.984181 Z0.000000
G01 X27.185086 Y25.984221 Z0.000000
G00 Z5.000000

(End cutting path id: path922)


(Start cutting path id: path922)
(Change tool to Cylindrical cutter)

G00 Z5.000000
G00 X25.903877 Y27.202095

G01 Z0.000000 F1000.0(Penetrate)
G01 X25.903877 Y27.819127 Z0.000000 F1100.000000
G01 X25.714989 Y27.756921 Z0.000000
G03 X25.428730 Y27.404311 Z0.000000 I0.131476 J-0.399237
G03 X25.608559 Y26.803406 Z0.000000 I0.796729 J-0.088929
G03 X25.773806 Y26.807967 Z0.000000 I0.080834 J0.067087
G03 X25.903877 Y27.202095 Z0.000000 I-0.532085 J0.394128
G01 X25.903877 Y27.202095 Z0.000000
G00 Z5.000000

(End cutting path id: path922)


(Start cutting path id: path922)
(Change tool to Cylindrical cutter)

G00 Z5.000000
G00 X27.263872 Y29.723503

G01 Z0.000000 F1000.0(Penetrate)
G02 X27.497305 Y30.213272 Z0.000000 I0.630509 J0.000000 F1100.000000
G02 X29.005911 Y31.135855 Z0.000000 I4.218248 J-5.202946
G02 X29.645981 Y31.349182 Z0.000000 I1.442331 J-3.260678
G02 X30.524694 Y31.486587 Z0.000000 I1.394034 J-6.036546
G01 X31.419414 Y31.561267 Z0.000000
G01 X30.668134 Y31.423119 Z0.000000
G03 X29.026604 Y30.906965 Z0.000000 I1.270224 J-6.908072
G03 X27.914955 Y30.168947 Z0.000000 I1.750825 J-3.843432
G02 X27.318941 Y29.694456 Z0.000000 I-3.571302 J3.874378
G01 X27.263872 Y29.723503 Z0.000000
G01 X27.263872 Y29.723503 Z0.000000
G00 Z5.000000

(End cutting path id: path922)


(Start cutting path id: path922)
(Change tool to Cylindrical cutter)

G00 Z5.000000
G00 X29.707983 Y28.143721

G01 Z0.000000 F1000.0(Penetrate)
G02 X29.423630 Y28.510966 Z0.000000 I1.778057 J1.670437 F1100.000000
G02 X29.379422 Y28.663690 Z0.000000 I0.241699 J0.152724
G03 X29.192010 Y28.888789 Z0.000000 I-0.228889 J-0.000000
G03 X28.698095 Y28.789228 Z0.000000 I-0.122729 J-0.666067
G02 X28.312877 Y28.618994 Z0.000000 I-0.707132 J1.079185
G02 X27.835854 Y28.567059 Z0.000000 I-0.417942 J1.622125
G01 X27.339428 Y28.584584 Z0.000000
G01 X27.641649 Y28.657598 Z0.000000
G03 X27.937136 Y28.750648 Z0.000000 I-0.533663 J2.210385
G03 X28.983153 Y29.182888 Z0.000000 I-11.088853 J28.316718
G01 X30.022438 Y29.635164 Z0.000000
G01 X30.418705 Y29.538044 Z0.000000
G03 X30.818153 Y29.470324 Z0.000000 I0.666054 J2.716803
G03 X31.304623 Y29.453197 Z0.000000 I0.385161 J4.022762
G02 X32.190368 Y29.275748 Z0.000000 I0.051296 J-2.043300
G02 X32.865972 Y28.754973 Z0.000000 I-0.744225 J-1.664105
G01 X33.081633 Y28.487159 Z0.000000
G01 X32.534910 Y28.820564 Z0.000000
G03 X31.932614 Y29.080441 Z0.000000 I-1.221369 J-2.002791
G03 X31.873583 Y29.001510 Z0.000000 I-0.013977 J-0.051086
G02 X31.914664 Y28.843140 Z0.000000 I-0.235665 J-0.145645
G02 X31.850994 Y28.510398 Z0.000000 I-1.186396 J0.054553
G01 X31.734177 Y28.171752 Z0.000000
G01 X31.652353 Y28.698925 Z0.000000
G01 X31.570528 Y29.226098 Z0.000000
G01 X31.317930 Y29.274392 Z0.000000
G01 X31.065333 Y29.322687 Z0.000000
G01 X31.146877 Y29.010860 Z0.000000
G02 X31.060560 Y28.468128 Z0.000000 I-0.661596 J-0.173009
G02 X30.656155 Y28.247310 Z0.000000 I-0.404406 J0.259905
G02 X30.477858 Y28.293360 Z0.000000 I-0.000000 J0.368194
G02 X30.214159 Y28.491935 Z0.000000 I0.573016 J1.035316
G01 X29.969533 Y28.736566 Z0.000000
G01 X30.203365 Y28.994950 Z0.000000
G03 X30.414815 Y29.261958 Z0.000000 I-1.920566 J1.738166
G03 X30.437198 Y29.333807 Z0.000000 I-0.104124 J0.071849
G03 X30.116133 Y29.565924 Z0.000000 I-0.244438 J-0.000000
G03 X29.573811 Y29.048799 Z0.000000 I0.274143 J-0.830436
G03 X29.613566 Y28.446866 Z0.000000 I0.672065 J-0.257892
G03 X30.171526 Y27.950257 Z0.000000 I0.969473 J0.527493
G01 X30.512754 Y27.813136 Z0.000000
G01 X30.274651 Y27.803546 Z0.000000
G02 X30.062631 Y27.857810 Z0.000000 I-0.015013 J0.382668
G02 X29.707985 Y28.143704 Z0.000000 I0.850927 J1.418470
G01 X29.707983 Y28.143721 Z0.000000
G00 Z5.000000

(End cutting path id: path922)


(Start cutting path id: path922)
(Change tool to Cylindrical cutter)

G00 Z5.000000
G00 X35.650497 Y56.821732

G01 Z0.000000 F1000.0(Penetrate)
G03 X35.192993 Y56.942493 Z0.000000 I-1.709921 J-5.551040 F1100.000000
G03 X34.725375 Y57.026020 Z0.000000 I-1.262670 J-5.718233
G02 X34.259946 Y57.118082 Z0.000000 I0.545642 J3.981097
G02 X33.440934 Y57.359956 Z0.000000 I3.274926 J12.596836
G01 X32.628283 Y57.629236 Z0.000000
G01 X31.228836 Y57.633802 Z0.000000
G01 X29.829388 Y57.638368 Z0.000000
G01 X30.086610 Y57.827255 Z0.000000
G02 X30.357271 Y57.976511 Z0.000000 I0.708587 J-0.964914
G02 X30.579393 Y58.020948 Z0.000000 I0.235239 J-0.598495
G01 X30.814955 Y58.025515 Z0.000000
G01 X30.521630 Y58.247374 Z0.000000
G01 X30.228304 Y58.469234 Z0.000000
G01 X29.057219 Y58.469233 Z0.000000
G01 X27.886133 Y58.469232 Z0.000000
G01 X27.783319 Y58.635593 Z0.000000
G01 X27.680503 Y58.801947 Z0.000000
G01 X28.149061 Y59.466698 Z0.000000
G03 X28.276217 Y59.849522 Z0.000000 I-0.570220 J0.401928
G03 X28.160741 Y59.892994 Z0.000000 I-0.065248 J0.001787
G02 X27.933542 Y59.691429 Z0.000000 I-0.769834 J0.638907
G02 X27.197796 Y59.271286 Z0.000000 I-4.222706 J6.540435
G01 X26.432752 Y58.888027 Z0.000000
G01 X26.876577 Y59.358627 Z0.000000
G01 X27.320403 Y59.829228 Z0.000000
G01 X27.060612 Y59.829228 Z0.000000
G03 X26.272947 Y59.665301 Z0.000000 I0.000001 J-1.974321
G03 X25.397612 Y59.105689 Z0.000000 I1.313456 J-3.018883
G01 X25.106966 Y58.847009 Z0.000000
G01 X25.357131 Y59.336078 Z0.000000
G02 X25.638998 Y59.803616 Z0.000000 I3.488316 J-1.784280
G02 X26.073454 Y60.356075 Z0.000000 I5.314168 J-3.732022
G03 X26.068948 Y60.560989 Z0.000000 I-0.113897 J0.100002
G03 X25.845080 Y60.594198 Z0.000000 I-0.133372 J-0.127911
G01 X25.323774 Y60.301398 Z0.000000
G01 X25.116088 Y60.614195 Z0.000000
G01 X24.908401 Y60.926987 Z0.000000
G01 X24.415877 Y60.672291 Z0.000000
G01 X23.923353 Y60.417596 Z0.000000
G01 X24.161935 Y60.878966 Z0.000000
G01 X24.400518 Y61.340336 Z0.000000
G01 X24.188424 Y61.340336 Z0.000000
G03 X23.503329 Y61.179695 Z0.000000 I0.000001 J-1.541210
G03 X22.003660 Y60.256161 Z0.000000 I4.291690 J-8.648386
G01 X21.201226 Y59.654576 Z0.000000
G01 X21.550327 Y60.190317 Z0.000000
G01 X21.899431 Y60.726059 Z0.000000
G01 X23.036106 Y61.246805 Z0.000000
G02 X25.266173 Y62.032217 Z0.000000 I5.419958 J-11.830515
G02 X26.991878 Y62.247007 Z0.000000 I1.725709 J-6.825129
G01 X27.960722 Y62.247008 Z0.000000
G01 X28.892614 Y61.932304 Z0.000000
G02 X30.479571 Y61.194610 Z0.000000 I-2.563099 J-7.589648
G02 X32.477171 Y59.761219 Z0.000000 I-8.191034 J-13.523815
G03 X33.263508 Y59.170141 Z0.000000 I5.697123 J6.760540
G03 X34.184048 Y58.621045 Z0.000000 I5.830505 J8.728470
G01 X35.135373 Y58.117581 Z0.000000
G01 X35.556466 Y57.575634 Z0.000000
G02 X36.177653 Y56.706027 Z0.000000 I-10.477459 J-8.141048
G01 X36.150525 Y56.668902 Z0.000000
G02 X36.104000 Y56.682464 Z0.000000 I0.513163 J1.846979
G02 X35.650496 Y56.821527 Z0.000000 I55.233953 J180.934721
G01 X35.650497 Y56.821732 Z0.000000
G00 Z5.000000

(End cutting path id: path922)


(Start cutting path id: path922)
(Change tool to Cylindrical cutter)

G00 Z5.000000
G00 X19.571291 Y68.606577

G01 Z0.000000 F1000.0(Penetrate)
G02 X17.723213 Y69.147251 Z0.000000 I2.045627 J10.420958 F1100.000000
G02 X16.396938 Y69.857554 Z0.000000 I2.377053 J6.031776
G02 X13.392800 Y72.457365 Z0.000000 I10.786721 J15.499870
G02 X10.864900 Y75.771608 Z0.000000 I15.180477 J14.199916
G01 X10.908541 Y75.805232 Z0.000000
G02 X11.743098 Y74.850901 Z0.000000 I-10.614193 J-10.124129
G03 X15.669848 Y70.885710 Z0.000000 I20.737606 J16.609621
G03 X18.405213 Y69.407551 Z0.000000 I5.218465 J6.386881
G01 X19.179427 Y69.163121 Z0.000000
G01 X21.370532 Y69.090240 Z0.000000
G01 X23.561637 Y69.017354 Z0.000000
G01 X24.581637 Y69.256762 Z0.000000
G03 X25.580949 Y69.553012 Z0.000000 I-2.066557 J8.804507
G03 X26.488662 Y69.943943 Z0.000000 I-2.756411 J7.649463
G03 X29.155764 Y71.802607 Z0.000000 I-5.206555 J10.314099
G03 X33.282671 Y76.270491 Z0.000000 I-27.561495 J29.597991
G02 X34.493437 Y77.759065 Z0.000000 I60.812749 J-48.226778
G01 X34.517155 Y77.750472 Z0.000000
G02 X34.410674 Y77.379925 Z0.000000 I-0.697983 J-0.000000
G02 X32.846386 Y75.083437 Z0.000000 I-30.723197 J19.246568
G02 X30.950386 Y72.892586 Z0.000000 I-15.133461 J11.180919
G02 X28.472732 Y70.753716 Z0.000000 I-16.893922 J17.065331
G02 X26.358935 Y69.413285 Z0.000000 I-9.544914 J12.714990
G02 X24.554207 Y68.681991 Z0.000000 I-4.497625 J8.506934
G01 X23.733450 Y68.442748 Z0.000000
G01 X21.985326 Y68.459302 Z0.000000
G02 X20.241777 Y68.520711 Z0.000000 I0.322358 J33.935208
G02 X19.571291 Y68.606577 Z0.000000 I0.309810 J5.079818
G01 X19.571291 Y68.606577 Z0.000000
G00 Z5.000000

(End cutting path id: path922)


(Start cutting path id: path922)
(Change tool to Cylindrical cutter)

G00 Z5.000000
G00 X19.103866 Y79.787609

G01 Z0.000000 F1000.0(Penetrate)
G02 X17.826489 Y79.966423 Z0.000000 I2.355154 J21.476154 F1100.000000
G02 X16.988316 Y80.148443 Z0.000000 I1.606271 J9.417481
G01 X16.157207 Y80.368424 Z0.000000
G01 X17.517203 Y80.298306 Z0.000000
G03 X18.877794 Y80.244748 Z0.000000 I2.874772 J55.722615
G03 X23.619326 Y80.132606 Z0.000000 I18.418620 J678.465683
G01 X28.361452 Y80.037023 Z0.000000
G01 X28.077639 Y79.878193 Z0.000000
G01 X27.793826 Y79.719362 Z0.000000
G01 X24.091066 Y79.683053 Z0.000000
G02 X20.391141 Y79.703672 Z0.000000 I-1.179859 J120.252369
G02 X19.103866 Y79.787603 Z0.000000 I0.306238 J14.610546
G01 X19.103866 Y79.787609 Z0.000000
G00 Z5.000000

(End cutting path id: path922)


(Start cutting path id: path922)
(Change tool to Cylindrical cutter)

G00 Z5.000000
G00 X13.966103 Y79.617820

G01 Z0.000000 F1000.0(Penetrate)
G02 X14.229804 Y80.946609 Z0.000000 I3.479724 J0.000002 F1100.000000
G02 X14.900401 Y81.879070 Z0.000000 I2.311715 J-0.955147
G01 X15.494321 Y82.395431 Z0.000000
G01 X16.203540 Y82.534990 Z0.000000
G02 X16.916548 Y82.643555 Z0.000000 I1.612828 J-8.196702
G02 X17.970534 Y82.726429 Z0.000000 I1.933406 J-17.845189
G01 X19.028308 Y82.778321 Z0.000000
G01 X19.179419 Y83.036076 Z0.000000
G02 X19.334892 Y83.291150 Z0.000000 I7.508259 J-4.401524
G02 X19.783861 Y83.990493 Z0.000000 I56.914828 J-36.044766
G01 X20.237193 Y84.687144 Z0.000000
G01 X20.545427 Y84.731272 Z0.000000
G02 X20.836506 Y84.700332 Z0.000000 I0.084457 J-0.590143
G02 X21.376535 Y84.424166 Z0.000000 I-0.886976 J-2.400518
G01 X21.899411 Y84.072944 Z0.000000
G01 X21.950606 Y83.627221 Z0.000000
G02 X21.949739 Y83.186117 Z0.000000 I-1.887684 J-0.216845
G02 X21.829125 Y82.605152 Z0.000000 I-3.413968 J0.405770
G01 X21.656447 Y82.028805 Z0.000000
G01 X21.286819 Y81.860389 Z0.000000
G01 X20.917191 Y81.691979 Z0.000000
G01 X20.917192 Y81.356958 Z0.000000
G02 X20.852572 Y81.052288 Z0.000000 I-0.750538 J-0.000000
G02 X20.681497 Y80.826331 Z0.000000 I-0.567978 J0.252283
G01 X20.445804 Y80.630720 Z0.000000
G01 X20.058079 Y80.770050 Z0.000000
G01 X19.670357 Y80.909379 Z0.000000
G01 X19.500443 Y81.438265 Z0.000000
G03 X19.236370 Y81.552653 Z0.000000 I-0.182161 J-0.058522
G03 X19.011228 Y81.206512 Z0.000000 I0.168634 J-0.355975
G02 X18.967888 Y80.533890 Z0.000000 I-8.562635 J0.214032
G02 X18.933753 Y80.462229 Z0.000000 I-0.118088 J0.012290
G02 X18.862784 Y80.437551 Z0.000000 I-0.060974 J0.060963
G02 X18.175006 Y80.550775 Z0.000000 I0.860149 J7.370530
G03 X17.472807 Y80.649229 Z0.000000 I-1.044950 J-4.899474
G03 X16.677965 Y80.653438 Z0.000000 I-0.430684 J-6.280153
G01 X15.879272 Y80.607140 Z0.000000
G01 X15.587896 Y80.078249 Z0.000000
G02 X15.278225 Y79.561220 Z0.000000 I-7.315803 J4.030491
G02 X14.925841 Y79.058251 Z0.000000 I-7.275619 J4.722437
G01 X14.555165 Y78.567145 Z0.000000
G01 X14.260634 Y78.567145 Z0.000000
G01 X13.966103 Y78.567145 Z0.000000
G01 X13.966103 Y79.617820 Z0.000000
G00 Z5.000000

(End cutting path id: path922)


(Start cutting path id: path922)
(Change tool to Cylindrical cutter)

G00 Z5.000000
G00 X13.514246 Y81.179833

G01 Z0.000000 F1000.0(Penetrate)
G02 X13.801449 Y82.269302 Z0.000000 I2.181289 J0.007566 F1100.000000
G02 X14.614417 Y83.105838 Z0.000000 I2.030077 J-1.159582
G02 X14.820218 Y83.064691 Z0.000000 I0.080588 J-0.132170
G02 X14.801625 Y82.848312 Z0.000000 I-0.134078 J-0.097468
G03 X14.291863 Y82.250519 Z0.000000 I2.917875 J-3.004436
G03 X13.873257 Y81.526088 Z0.000000 I3.887458 J-2.729496
G01 X13.515723 Y80.758257 Z0.000000
G01 X13.514238 Y81.179833 Z0.000000
G01 X13.514246 Y81.179833 Z0.000000
G00 Z5.000000

(End cutting path id: path922)


(Start cutting path id: path922)
(Change tool to Cylindrical cutter)

G00 Z5.000000
G00 X7.890575 Y81.853810

G01 Z0.000000 F1000.0(Penetrate)
G02 X7.340209 Y83.028516 Z0.000000 I1.801292 J1.560210 F1100.000000
G02 X7.390593 Y84.903812 Z0.000000 I4.917953 J0.806194
G01 X7.486789 Y85.341788 Z0.000000
G01 X7.243815 Y85.477767 Z0.000000
G01 X7.000841 Y85.613740 Z0.000000
G01 X6.769870 Y86.510431 Z0.000000
G03 X6.494234 Y87.388786 Z0.000000 I-8.580040 J-2.210077
G03 X6.254729 Y87.895580 Z0.000000 I-3.078773 J-1.145004
G02 X6.028667 Y88.406249 Z0.000000 I2.195314 J1.277186
G02 X5.728532 Y89.557797 Z0.000000 I10.994603 J3.480478
G03 X5.117907 Y91.284972 Z0.000000 I-6.593670 J-1.359596
G03 X4.554040 Y91.834296 Z0.000000 I-1.104800 J-0.569988
G02 X3.879554 Y92.356001 Z0.000000 I0.897590 J1.857309
G02 X3.240409 Y93.380509 Z0.000000 I3.152616 J2.678399
G01 X3.077601 Y93.753770 Z0.000000
G01 X3.147488 Y93.451549 Z0.000000
G03 X3.231045 Y93.153487 Z0.000000 I3.273756 J0.757003
G03 X3.447339 Y92.544885 Z0.000000 I13.890423 J4.593847
G02 X3.617014 Y91.929081 Z0.000000 I-3.157255 J-1.201209
G02 X3.683939 Y91.200261 Z0.000000 I-4.367816 J-0.768560
G01 X3.690572 Y90.460080 Z0.000000
G01 X3.013770 Y91.490531 Z0.000000
G02 X2.380906 Y92.542205 Z0.000000 I13.014549 J8.547997
G02 X2.170197 Y93.026298 Z0.000000 I2.525037 J1.386966
G01 X2.003426 Y93.531614 Z0.000000
G01 X2.258975 Y95.153799 Z0.000000
G01 X2.514523 Y96.775983 Z0.000000
G01 X2.424031 Y97.607092 Z0.000000
G03 X2.324248 Y98.436938 Z0.000000 I-37.028135 J-4.031449
G03 X2.235057 Y99.042642 Z0.000000 I-19.821471 J-2.609324
G01 X2.136575 Y99.647085 Z0.000000
G01 X2.507756 Y99.307087 Z0.000000
G03 X2.882407 Y99.136083 Z0.000000 I0.451166 J0.492544
G03 X2.983258 Y99.252256 Z0.000000 I0.010677 J0.092592
G02 X2.975005 Y99.510880 Z0.000000 I0.563770 J0.147434
G02 X3.056431 Y99.628735 Z0.000000 I0.175331 J-0.034081
G02 X3.322093 Y99.551282 Z0.000000 I0.097927 J-0.158448
G02 X3.904944 Y97.871537 Z0.000000 I-6.924646 J-3.343764
G01 X4.164515 Y96.700429 Z0.000000
G01 X4.460310 Y96.700430 Z0.000000
G01 X4.756105 Y96.700430 Z0.000000
G01 X4.546675 Y97.115983 Z0.000000
G02 X4.392623 Y97.547655 Z0.000000 I1.654142 J0.833643
G02 X4.241602 Y98.488302 Z0.000000 I7.812290 J1.736714
G03 X4.078288 Y99.428383 Z0.000000 I-6.565257 J-0.656313
G03 X3.772416 Y100.369859 Z0.000000 I-6.890815 J-1.718300
G02 X3.445689 Y101.285124 Z0.000000 I10.991151 J4.439525
G02 X3.464128 Y101.359903 Z0.000000 I0.071084 J0.022135
G01 X3.529356 Y101.364024 Z0.000000
G02 X4.039765 Y100.913897 Z0.000000 I-3.282496 J-4.236530
G01 X4.550149 Y100.402640 Z0.000000
G01 X4.726268 Y99.215492 Z0.000000
G03 X4.946530 Y98.044347 Z0.000000 I15.265163 J2.264694
G03 X5.054108 Y97.779941 Z0.000000 I0.863265 J0.197146
G01 X5.205827 Y97.531537 Z0.000000
G01 X5.100684 Y97.984870 Z0.000000
G02 X5.027776 Y98.441783 Z0.000000 I3.237645 J0.750893
G02 X5.000044 Y99.118199 Z0.000000 I7.087011 J0.629333
G01 X5.004553 Y99.798197 Z0.000000
G01 X5.551114 Y101.179068 Z0.000000
G03 X6.065104 Y102.570707 Z0.000000 I-29.875111 J11.824860
G03 X6.355247 Y103.521284 Z0.000000 I-13.639400 J4.682695
G02 X6.650647 Y104.461311 Z0.000000 I11.150216 J-2.987488
G02 X6.757761 Y104.633740 Z0.000000 I0.460646 J-0.166672
G01 X6.902702 Y104.784850 Z0.000000
G01 X6.814139 Y103.802632 Z0.000000
G01 X6.725578 Y102.820412 Z0.000000
G01 X6.265850 Y101.569398 Z0.000000
G01 X5.806123 Y100.318384 Z0.000000
G01 X5.806123 Y99.651656 Z0.000000
G03 X5.863934 Y99.017155 Z0.000000 I3.510910 J0.000002
G03 X5.944328 Y98.899511 Z0.000000 I0.172715 J0.031736
G03 X6.294943 Y98.997726 Z0.000000 I0.130097 J0.210502
G03 X6.874383 Y100.726032 Z0.000000 I-5.526860 J2.814247
G02 X7.307582 Y102.007821 Z0.000000 I4.459548 J-0.793069
G02 X8.148335 Y103.198189 Z0.000000 I4.671219 J-2.407173
G03 X8.955468 Y104.386087 Z0.000000 I-3.342546 J3.139295
G03 X9.569540 Y106.220404 Z0.000000 I-7.528160 J3.540137
G02 X9.875067 Y107.654874 Z0.000000 I214.947840 J-45.031939
G02 X9.962094 Y108.033732 Z0.000000 I15.079299 J-3.264412
G01 X10.053896 Y108.411508 Z0.000000
G01 X9.705558 Y107.846323 Z0.000000
G02 X9.336528 Y107.317536 Z0.000000 I-4.821143 J2.971419
G02 X9.260052 Y107.279657 Z0.000000 I-0.077988 J0.061313
G02 X9.119175 Y107.385084 Z0.000000 I-0.002214 J0.143880
G02 X8.878066 Y108.657067 Z0.000000 I7.507214 J2.081859
G01 X8.786612 Y109.532060 Z0.000000
G01 X9.182014 Y110.340235 Z0.000000
G02 X10.860099 Y112.942187 Z0.000000 I11.832709 J-5.789201
G02 X11.351362 Y112.965490 Z0.000000 I0.256228 J-0.211731
G02 X11.367975 Y112.888211 Z0.000000 I-0.051496 J-0.051496
G02 X10.876941 Y111.712261 Z0.000000 I-17.703036 J6.701657
G01 X10.334497 Y110.527058 Z0.000000
G01 X10.751556 Y111.055946 Z0.000000
G02 X11.179179 Y111.575797 Z0.000000 I12.807063 J-10.099134
G02 X11.658908 Y112.113721 Z0.000000 I14.192705 J-12.174389
G01 X12.149203 Y112.642609 Z0.000000
G01 X12.056538 Y112.151498 Z0.000000
G03 X12.002333 Y111.692271 Z0.000000 I3.295251 J-0.621771
G01 X12.032705 Y111.660389 Z0.000000
G03 X12.088060 Y111.686647 Z0.000000 I-0.000000 J0.071477
G03 X12.602112 Y112.357432 Z0.000000 I-10.531495 J8.603107
G02 X13.862989 Y113.666499 Z0.000000 I5.149137 J-3.697822
G02 X14.623299 Y113.927051 Z0.000000 I0.760311 J-0.979048
G01 X14.647486 Y113.878158 Z0.000000
G02 X14.208466 Y113.383632 Z0.000000 I-3.554646 J2.713530
G03 X13.334507 Y112.311713 Z0.000000 I4.162676 J-4.286162
G03 X12.381294 Y110.520500 Z0.000000 I10.840606 J-6.918180
G01 X11.869174 Y109.342447 Z0.000000
G01 X11.771087 Y109.783643 Z0.000000
G03 X11.672117 Y110.224633 Z0.000000 I-109.818076 J-24.414363
G03 X11.639174 Y110.365963 Z0.000000 I-11.359449 J-2.573327
G03 X11.224467 Y110.367971 Z0.000000 I-0.207599 J-0.049756
G03 X10.735236 Y106.749292 Z0.000000 I16.056980 J-4.013251
G01 X10.717220 Y105.993738 Z0.000000
G01 X11.321662 Y105.993739 Z0.000000
G01 X11.926105 Y105.993739 Z0.000000
G01 X11.971425 Y106.862625 Z0.000000
G02 X12.078972 Y107.665954 Z0.000000 I5.003058 J-0.260927
G02 X12.160313 Y107.731512 Z0.000000 I0.081341 J-0.017683
G02 X12.246292 Y107.673918 Z0.000000 I0.000000 J-0.092973
G02 X12.303884 Y107.382617 Z0.000000 I-0.707909 J-0.291302
G03 X12.354893 Y107.050771 Z0.000000 I1.104932 J0.000001
G03 X12.492772 Y106.782717 Z0.000000 I0.849557 J0.267499
G01 X12.681661 Y106.531711 Z0.000000
G01 X13.172770 Y106.772709 Z0.000000
G01 X13.663880 Y107.013708 Z0.000000
G01 X13.674504 Y107.410388 Z0.000000
G02 X13.717058 Y107.800314 Z0.000000 I2.394385 J-0.064027
G02 X13.809394 Y108.109289 Z0.000000 I1.590256 J-0.306953
G01 X13.933664 Y108.411511 Z0.000000
G01 X14.016592 Y108.184845 Z0.000000
G02 X14.087062 Y107.954929 Z0.000000 I-2.118240 J-0.775004
G02 X14.147879 Y107.657692 Z0.000000 I-3.484456 J-0.867788
G03 X14.258310 Y107.417402 Z0.000000 I0.487276 J0.078418
G03 X14.442039 Y107.309871 Z0.000000 I0.244212 J0.206536
G01 X14.687839 Y107.262535 Z0.000000
G01 X14.933932 Y108.365912 Z0.000000
G02 X15.662319 Y110.485683 Z0.000000 I9.827916 J-2.191998
G02 X16.249218 Y111.141675 Z0.000000 I1.403274 J-0.664935
G02 X16.338599 Y111.155661 Z0.000000 I0.061307 J-0.099197
G01 X16.357730 Y111.114759 Z0.000000
G03 X15.929153 Y109.979297 Z0.000000 I5.955643 J-2.896554
G03 X15.716246 Y108.789287 Z0.000000 I6.334467 J-1.747367
G01 X15.619768 Y107.655957 Z0.000000
G01 X15.905328 Y108.172127 Z0.000000
G01 X16.190887 Y108.688297 Z0.000000
G01 X16.330585 Y108.097596 Z0.000000
G01 X16.470282 Y107.506896 Z0.000000
G01 X16.729758 Y107.456923 Z0.000000
G01 X16.989232 Y107.406955 Z0.000000
G01 X17.082537 Y107.682566 Z0.000000
G02 X17.691719 Y109.133357 Z0.000000 I10.488795 J-3.550913
G02 X17.870683 Y109.239349 Z0.000000 I0.172630 J-0.087397
G02 X17.945525 Y109.198031 Z0.000000 I-0.003027 J-0.093923
G02 X18.197202 Y108.756057 Z0.000000 I-2.757828 J-1.863058
G03 X18.460411 Y108.318293 Z0.000000 I2.309128 J1.090374
G03 X18.594706 Y108.223865 Z0.000000 I0.211338 J0.157853
G01 X18.765543 Y108.171694 Z0.000000
G01 X18.879088 Y108.744934 Z0.000000
G01 X18.992633 Y109.318176 Z0.000000
G01 X19.188599 Y108.854498 Z0.000000
G03 X19.421427 Y108.418207 Z0.000000 I2.524644 J1.067007
G03 X19.621993 Y108.193777 Z0.000000 I0.849018 J0.556907
G01 X19.859419 Y107.996730 Z0.000000
G01 X19.859419 Y108.234788 Z0.000000
G02 X19.891458 Y108.465893 Z0.000000 I0.849523 J0.000001
G02 X20.036738 Y108.862021 Z0.000000 I2.673502 J-0.755804
G01 X20.214059 Y109.251198 Z0.000000
G01 X20.336646 Y109.058021 Z0.000000
G02 X20.423311 Y108.854267 Z0.000000 I-0.574923 J-0.364845
G02 X20.461548 Y108.545059 Z0.000000 I-1.309955 J-0.318962
G01 X20.463832 Y108.225276 Z0.000000
G01 X21.168629 Y107.676173 Z0.000000
G03 X21.894972 Y107.189783 Z0.000000 I3.744502 J4.806257
G03 X22.131535 Y107.127073 Z0.000000 I0.236563 J0.414837
G01 X22.389644 Y107.127073 Z0.000000
G01 X22.494453 Y107.769293 Z0.000000
G01 X22.599261 Y108.411514 Z0.000000
G01 X22.898928 Y108.045655 Z0.000000
G01 X23.198592 Y107.679796 Z0.000000
G01 X23.287574 Y108.020060 Z0.000000
G01 X23.376555 Y108.360324 Z0.000000
G01 X23.646712 Y108.289675 Z0.000000
G01 X23.916870 Y108.219028 Z0.000000
G01 X24.098580 Y108.657718 Z0.000000
G01 X24.280290 Y109.096406 Z0.000000
G01 X24.463737 Y108.944160 Z0.000000
G03 X24.644124 Y108.857882 Z0.000000 I0.261575 J0.315174
G03 X24.742959 Y108.887691 Z0.000000 I0.021640 J0.107004
G02 X24.842005 Y108.913028 Z0.000000 I0.070900 J-0.070900
G02 X25.069055 Y108.792323 Z0.000000 I-0.178063 J-0.608837
G01 X25.299373 Y108.601175 Z0.000000
G01 X25.299373 Y108.770789 Z0.000000
G02 X25.354192 Y108.885583 Z0.000000 I0.147602 J0.000000
G02 X25.509222 Y108.940402 Z0.000000 I0.155031 J-0.191807
G01 X25.719071 Y108.940402 Z0.000000
G01 X25.815442 Y108.426699 Z0.000000
G03 X26.167998 Y107.694252 Z0.000000 I1.535631 J0.288088
G03 X26.490014 Y107.644686 Z0.000000 I0.190058 J0.163946
G03 X26.595012 Y107.764127 Z0.000000 I-0.143278 J0.231824
G03 X26.735306 Y108.186583 Z0.000000 I-1.945244 J0.880521
G01 X26.834493 Y108.638182 Z0.000000
G01 X27.064264 Y108.638182 Z0.000000
G02 X27.962923 Y108.279519 Z0.000000 I0.000001 J-1.305161
G02 X28.321587 Y107.444408 Z0.000000 I-0.792901 J-0.835111
G02 X28.265685 Y107.334089 Z0.000000 I-0.136803 J-0.000000
G02 X28.094921 Y107.278186 Z0.000000 I-0.170764 J0.232859
G01 X27.868255 Y107.278186 Z0.000000
G01 X27.868256 Y106.957463 Z0.000000
G01 X27.868256 Y106.636738 Z0.000000
G01 X27.641590 Y106.824854 Z0.000000
G01 X27.414923 Y107.012970 Z0.000000
G01 X27.414923 Y106.833422 Z0.000000
G03 X27.593490 Y106.247868 Z0.000000 I1.049358 J0.000001
G03 X27.928750 Y106.069301 Z0.000000 I0.335260 J0.225442
G03 X28.114191 Y106.114160 Z0.000000 I-0.000000 J0.405725
G03 X28.508395 Y106.367168 Z0.000000 I-1.117755 J2.175144
G01 X28.887072 Y106.665034 Z0.000000
G01 X29.113799 Y106.404946 Z0.000000
G02 X29.551668 Y105.701232 Z0.000000 I-1.956183 J-1.705273
G02 X29.676779 Y105.059239 Z0.000000 I-1.490942 J-0.623740
G01 X29.671984 Y104.633751 Z0.000000
G01 X29.487902 Y104.885105 Z0.000000
G02 X29.308906 Y105.139894 Z0.000000 I6.385194 J4.676048
G02 X29.131678 Y105.413995 Z0.000000 I7.207912 J4.854832
G01 X28.959534 Y105.691528 Z0.000000
G01 X28.527236 Y105.289513 Z0.000000
G02 X28.068991 Y104.924417 Z0.000000 I-2.614797 J2.811800
G02 X27.429699 Y104.544483 Z0.000000 I-3.474004 J5.117682
G01 X26.764464 Y104.201466 Z0.000000
G01 X25.994149 Y104.140628 Z0.000000
G02 X25.234883 Y104.145256 Z0.000000 I-0.352444 J4.462113
G02 X24.846058 Y104.245407 Z0.000000 I0.113771 J1.246568
G01 X24.468281 Y104.411027 Z0.000000
G01 X25.374945 Y104.354923 Z0.000000
G01 X26.281609 Y104.298820 Z0.000000
G01 X26.772719 Y104.532050 Z0.000000
G03 X27.216350 Y104.795294 Z0.000000 I-1.202175 J2.531402
G03 X27.263828 Y104.888404 Z0.000000 I-0.067562 J0.093110
G03 X26.989432 Y105.153837 Z0.000000 I-0.265579 J-0.000000
G03 X24.592716 Y104.799672 Z0.000000 I0.355103 J-10.689724
G03 X23.822160 Y104.560532 Z0.000000 I2.550156 J-9.578098
G03 X23.322836 Y104.348133 Z0.000000 I1.502028 J-4.224209
G02 X22.662866 Y104.184907 Z0.000000 I-0.694466 J1.392093
G02 X22.369390 Y104.326988 Z0.000000 I-0.007935 J0.357748
G01 X22.201621 Y104.549111 Z0.000000
G01 X21.721399 Y104.313385 Z0.000000
G01 X21.241175 Y104.077660 Z0.000000
G01 X20.975521 Y104.226328 Z0.000000
G01 X20.709866 Y104.374995 Z0.000000
G01 X20.359552 Y104.215383 Z0.000000
G02 X20.098113 Y104.292640 Z0.000000 I-0.086217 J0.189225
G02 X20.082437 Y104.649045 Z0.000000 I0.300065 J0.191745
G03 X20.261972 Y105.099134 Z0.000000 I-2.127402 J1.109446
G03 X20.311806 Y105.451554 Z0.000000 I-1.244619 J0.355730
G01 X20.312720 Y105.816028 Z0.000000
G01 X19.571001 Y104.998222 Z0.000000
G01 X18.829282 Y104.180417 Z0.000000
G01 X17.417674 Y104.216523 Z0.000000
G01 X16.006066 Y104.252629 Z0.000000
G01 X15.182858 Y104.014725 Z0.000000
G03 X14.375805 Y103.736203 Z0.000000 I2.325744 J-8.047678
G03 X13.520641 Y103.344460 Z0.000000 I3.802674 J-9.430413
G01 X12.681632 Y102.912099 Z0.000000
G01 X11.301512 Y101.506260 Z0.000000
G01 X9.921392 Y100.100420 Z0.000000
G01 X9.669862 Y99.498040 Z0.000000
G02 X9.380586 Y98.919959 Z0.000000 I-4.362501 J1.821604
G02 X9.135713 Y98.591376 Z0.000000 I-1.636964 J0.964395
G01 X8.853118 Y98.287091 Z0.000000
G01 X8.547779 Y97.002650 Z0.000000
G03 X7.997571 Y94.548654 Z0.000000 I95.368109 J-22.671064
G03 X7.623495 Y92.617450 Z0.000000 I58.680050 J-12.368217
G01 X7.449372 Y91.632242 Z0.000000
G01 X7.607825 Y91.215476 Z0.000000
G02 X7.709969 Y90.787036 Z0.000000 I-1.596687 J-0.607061
G02 X7.853780 Y88.876251 Z0.000000 I-32.153965 J-3.380802
G03 X7.969759 Y86.955895 Z0.000000 I64.761246 J2.947534
G03 X8.157848 Y84.838243 Z0.000000 I78.945141 J5.944692
G02 X8.176211 Y81.946012 Z0.000000 I-15.061257 J-1.541799
G02 X7.890582 Y81.853810 Z0.000000 I-0.162390 J0.014543
G01 X7.890575 Y81.853810 Z0.000000
G00 Z5.000000

(End cutting path id: path922)


(Start cutting path id: path922)
(Change tool to Cylindrical cutter)

G00 Z5.000000
G00 X18.507885 Y86.931528

G01 Z0.000000 F1000.0(Penetrate)
G02 X18.420415 Y87.328601 Z0.000000 I1.301792 J0.494940 F1100.000000
G02 X18.461166 Y87.594709 Z0.000000 I0.609056 J0.042905
G01 X18.565547 Y87.860463 Z0.000000
G01 X18.667660 Y87.256023 Z0.000000
G02 X18.619477 Y86.926268 Z0.000000 I-0.534505 J-0.090297
G02 X18.507884 Y86.931528 Z0.000000 I-0.054652 J0.026910
G01 X18.507885 Y86.931528 Z0.000000
G00 Z5.000000

(End cutting path id: path922)


(Start cutting path id: path922)
(Change tool to Cylindrical cutter)

G00 Z5.000000
G00 X19.861729 Y85.938545

G01 Z0.000000 F1000.0(Penetrate)
G01 X19.859445 Y86.283288 Z0.000000 F1100.000000
G01 X20.103793 Y86.377052 Z0.000000
G02 X20.803924 Y86.389953 Z0.000000 I0.367847 J-0.958577
G02 X21.182309 Y86.008157 Z0.000000 I-0.195802 J-0.572452
G01 X21.245427 Y85.818071 Z0.000000
G01 X20.892435 Y85.948684 Z0.000000
G03 X20.319979 Y85.992154 Z0.000000 I-0.362211 J-0.978900
G03 X19.975092 Y85.760037 Z0.000000 I0.110242 J-0.536083
G01 X19.864074 Y85.593802 Z0.000000
G01 X19.861790 Y85.938545 Z0.000000
G01 X19.861729 Y85.938545 Z0.000000
G00 Z5.000000

(End cutting path id: path922)


(Start cutting path id: path922)
(Change tool to Cylindrical cutter)

G00 Z5.000000
G00 X24.241625 Y85.666487

G01 Z0.000000 F1000.0(Penetrate)
G02 X24.301185 Y85.787779 Z0.000000 I0.153284 J0.000000 F1100.000000
G02 X24.778652 Y86.081452 Z0.000000 I1.612843 J-2.087259
G01 X25.315681 Y86.337546 Z0.000000
G01 X25.571983 Y86.176147 Z0.000000
G02 X25.776721 Y85.979840 Z0.000000 I-0.375946 J-0.597011
G02 X25.880731 Y85.728723 Z0.000000 I-0.533230 J-0.367958
G01 X25.933176 Y85.442699 Z0.000000
G01 X25.737175 Y85.631585 Z0.000000
G03 X25.253690 Y85.834264 Z0.000000 I-0.503037 J-0.521974
G03 X24.533911 Y85.664066 Z0.000000 I-0.038922 J-1.442502
G01 X24.241624 Y85.507639 Z0.000000
G01 X24.241625 Y85.666487 Z0.000000
G00 Z5.000000

(End cutting path id: path922)


(Start cutting path id: path922)
(Change tool to Cylindrical cutter)

G00 Z5.000000
G00 X26.729418 Y86.585249

G01 Z0.000000 F1000.0(Penetrate)
G01 X26.813486 Y87.123360 Z0.000000 F1100.000000
G01 X26.440157 Y87.869692 Z0.000000
G01 X26.066827 Y88.616021 Z0.000000
G01 X26.511050 Y88.126076 Z0.000000
G02 X26.903283 Y87.608325 Z0.000000 I-2.732470 J-2.477488
G02 X27.046639 Y87.272104 Z0.000000 I-0.989382 J-0.620516
G01 X27.138004 Y86.908071 Z0.000000
G01 X26.891676 Y86.477608 Z0.000000
G01 X26.645350 Y86.047138 Z0.000000
G01 X26.729418 Y86.585249 Z0.000000
G00 Z5.000000

(End cutting path id: path922)


(Start cutting path id: path922)
(Change tool to Cylindrical cutter)

G00 Z5.000000
G00 X27.509172 Y85.448540

G01 Z0.000000 F1000.0(Penetrate)
G02 X27.513115 Y85.616207 Z0.000000 I0.205966 J0.079036 F1100.000000
G01 X27.584505 Y85.620255 Z0.000000
G02 X27.695181 Y85.350937 Z0.000000 I-0.922836 J-0.536638
G02 X27.674134 Y85.273736 Z0.000000 I-0.078055 J-0.020189
G01 X27.618605 Y85.274530 Z0.000000
G02 X27.509172 Y85.448540 Z0.000000 I0.385684 J0.363969
G01 X27.509172 Y85.448540 Z0.000000
G00 Z5.000000

(End cutting path id: path922)


(Start cutting path id: path922)
(Change tool to Cylindrical cutter)

G00 Z5.000000
G00 X24.748843 Y89.492213

G01 Z0.000000 F1000.0(Penetrate)
G03 X24.723842 Y90.580377 Z0.000000 I-177.863043 J-3.542172 F1100.000000
G03 X24.673287 Y92.393786 Z0.000000 I-492.653295 J-12.827119
G01 X24.619396 Y94.207114 Z0.000000
G01 X24.888770 Y94.660447 Z0.000000
G01 X25.158145 Y95.113779 Z0.000000
G01 X25.039881 Y94.584892 Z0.000000
G03 X24.944477 Y93.744603 Z0.000000 I3.866231 J-0.864522
G03 X25.012437 Y90.098360 Z0.000000 I73.670673 J-0.450656
G01 X25.072733 Y88.709599 Z0.000000
G01 X24.921622 Y88.556782 Z0.000000
G01 X24.770512 Y88.403967 Z0.000000
G01 X24.748843 Y89.492213 Z0.000000
G00 Z5.000000

(End cutting path id: path922)


(Start cutting path id: path922)
(Change tool to Cylindrical cutter)

G00 Z5.000000
G00 X29.514246 Y91.630599

G01 Z0.000000 F1000.0(Penetrate)
G02 X28.160544 Y92.157546 Z0.000000 I1.893866 J6.867520 F1100.000000
G02 X26.961612 Y92.938028 Z0.000000 I3.149697 J6.149490
G01 X26.984894 Y92.977615 Z0.000000
G02 X27.737880 Y92.625718 Z0.000000 I-2.838712 J-7.055816
G01 X28.891925 Y92.007425 Z0.000000
G01 X30.155652 Y91.722237 Z0.000000
G01 X31.419378 Y91.437050 Z0.000000
G01 X30.814935 Y91.437792 Z0.000000
G02 X30.216439 Y91.482302 Z0.000000 I0.005624 J4.121636
G02 X29.514246 Y91.630569 Z0.000000 I0.862917 J5.823708
G01 X29.514246 Y91.630599 Z0.000000
G00 Z5.000000

(End cutting path id: path922)


(Start cutting path id: path922)
(Change tool to Cylindrical cutter)

G00 Z5.000000
G00 X33.308260 Y92.922680

G01 Z0.000000 F1000.0(Penetrate)
G03 X33.066624 Y93.018790 Z0.000000 I-0.363904 J-0.563102 F1100.000000
G03 X32.506011 Y93.071476 Z0.000000 I-0.573240 J-3.090658
G01 X31.930429 Y93.073816 Z0.000000
G01 X32.031955 Y93.238091 Z0.000000
