%
(Header)
(Generated by gcodetools from Inkscape.)
(Using default header. To add your own header create file "header" in the output dir.)
M3
(Header end.)
G21 (All units in mm)

(Start cutting path id: path930)
(Change tool to Cylindrical cutter)

G00 Z5.000000
G00 X21.899461 Y0.535332

G01 Z0.000000 F1000.0(Penetrate)
G03 X21.597139 Y0.611959 Z0.000000 I-30.044371 J-117.901406 F1100.000000
G03 X20.389405 Y0.915992 Z0.000000 I-450.502487 J-1787.009445
G02 X19.204235 Y1.277641 Z0.000000 I3.028589 J12.047866
G02 X18.463537 Y1.610415 Z0.000000 I1.809486 J5.018333
G01 X17.745503 Y2.001215 Z0.000000
G01 X15.759906 Y3.979846 Z0.000000
G01 X13.774309 Y5.958478 Z0.000000
G01 X12.340200 Y7.880960 Z0.000000
G03 X10.861293 Y9.740514 Z0.000000 I-30.767061 J-22.951233
G03 X10.640088 Y9.887872 Z0.000000 I-0.366519 J-0.310488
G02 X10.413065 Y10.025059 Z0.000000 I0.171250 J0.539829
G02 X9.980445 Y10.540320 Z0.000000 I2.563346 J2.591468
G01 X9.586803 Y11.108344 Z0.000000
G01 X8.937365 Y11.282045 Z0.000000
G02 X7.975661 Y11.789720 Z0.000000 I0.631421 J2.360847
G02 X6.822756 Y13.099916 Z0.000000 I4.103139 J4.772899
G03 X6.095208 Y14.059932 Z0.000000 I-7.629583 J-5.026384
G03 X5.753264 Y14.332992 Z0.000000 I-0.910905 J-0.790063
G01 X5.356093 Y14.545552 Z0.000000
G01 X5.041803 Y15.389776 Z0.000000
G03 X4.686039 Y16.213321 Z0.000000 I-8.183672 J-3.046649
G03 X4.271781 Y16.947232 Z0.000000 I-6.908207 J-3.415486
G01 X3.816050 Y17.660466 Z0.000000
G01 X3.777140 Y18.533894 Z0.000000
G01 X3.738229 Y19.407323 Z0.000000
G01 X3.418641 Y19.927817 Z0.000000
G02 X3.154820 Y20.472188 Z0.000000 I2.598111 J1.595244
G02 X2.769610 Y21.695385 Z0.000000 I12.861341 J4.722554
G01 X2.440169 Y22.942453 Z0.000000
G01 X1.705393 Y22.570115 Z0.000000
G02 X1.614726 Y22.611962 Z0.000000 I-0.028779 J0.056792
G02 X1.666101 Y22.732838 Z0.000000 I0.107062 J0.025852
G01 X2.361581 Y23.140417 Z0.000000
G01 X2.261171 Y23.944075 Z0.000000
G01 X2.160760 Y24.747727 Z0.000000
G01 X1.333927 Y26.576639 Z0.000000
G02 X0.559968 Y28.424285 Z0.000000 I32.704591 J14.785531
G02 X0.253531 Y29.372299 Z0.000000 I8.282090 J3.200638
G01 X-0.000030 Y30.339058 Z0.000000
G01 X0.219135 Y31.673172 Z0.000000
G01 X0.438299 Y33.007280 Z0.000000
G01 X0.446484 Y35.576160 Z0.000000
G01 X0.454668 Y38.145046 Z0.000000
G01 X0.875242 Y39.278376 Z0.000000
G03 X1.383441 Y41.176250 Z0.000000 I-9.842638 J3.652571
G03 X1.571441 Y43.385208 Z0.000000 I-13.178779 J2.234096
G02 X1.624865 Y45.297442 Z0.000000 I36.742501 J-0.069652
G02 X1.738396 Y46.475387 Z0.000000 I14.032309 J-0.758003
G01 X1.901748 Y47.649848 Z0.000000
G01 X2.812415 Y49.434440 Z0.000000
G01 X3.723084 Y51.219032 Z0.000000
G01 X4.422010 Y51.834255 Z0.000000
G02 X5.138292 Y52.425550 Z0.000000 I9.684278 J-11.001839
G02 X5.528649 Y52.690319 Z0.000000 I2.313483 J-2.990692
G01 X5.936365 Y52.931160 Z0.000000
G01 X6.181593 Y53.573281 Z0.000000
G02 X6.907616 Y54.856273 Z0.000000 I4.603245 J-1.757979
G02 X8.104840 Y56.025416 Z0.000000 I4.996038 J-3.918477
G02 X10.487100 Y57.611281 Z0.000000 I15.850679 J-21.228394
G02 X10.641678 Y57.523031 Z0.000000 I0.052098 J-0.088250
G02 X10.614511 Y57.468998 Z0.000000 I-0.067317 J-0.000000
G02 X9.774734 Y56.878831 Z0.000000 I-11.571860 J15.573597
G03 X7.875241 Y55.359135 Z0.000000 I7.599664 J-11.445895
G03 X6.938787 Y54.164894 Z0.000000 I3.697173 J-3.863382
G03 X6.649501 Y53.535630 Z0.000000 I3.276457 J-1.887385
G03 X6.407309 Y52.658597 Z0.000000 I6.154337 J-2.171470
G01 X6.225235 Y51.758857 Z0.000000
G01 X6.621515 Y51.417990 Z0.000000
G01 X7.017794 Y51.077124 Z0.000000
G01 X6.702381 Y50.908320 Z0.000000
G02 X6.383110 Y50.801139 Z0.000000 I-0.476538 J0.890399
G02 X6.167014 Y50.823918 Z0.000000 I-0.065472 J0.415301
G01 X5.947061 Y50.908325 Z0.000000
G01 X5.492745 Y50.193333 Z0.000000
G03 X5.096432 Y49.452596 Z0.000000 I4.745513 J-3.015359
G03 X4.808790 Y48.647235 Z0.000000 I5.328098 J-2.357025
G02 X4.575995 Y47.817028 Z0.000000 I-109.285521 J30.196515
G02 X4.303626 Y46.871686 Z0.000000 I-141.929877 J40.380641
G03 X4.111990 Y45.990153 Z0.000000 I6.209060 J-1.811379
G03 X4.166422 Y45.927242 Z0.000000 I0.054432 J-0.007908
G03 X4.300418 Y45.948816 Z0.000000 I-0.000000 J0.426916
G03 X4.828778 Y46.146202 Z0.000000 I-2.313985 J6.999884
G02 X5.086951 Y46.098232 Z0.000000 I0.092437 J-0.221231
G02 X5.094376 Y45.892140 Z0.000000 I-0.102221 J-0.106862
G01 X4.835942 Y45.606573 Z0.000000
G01 X5.046882 Y45.476205 Z0.000000
G01 X5.257824 Y45.345838 Z0.000000
G01 X5.040874 Y45.082916 Z0.000000
G01 X4.823925 Y44.819989 Z0.000000
G01 X5.153990 Y44.995843 Z0.000000
G02 X5.382025 Y44.974465 Z0.000000 I0.097809 J-0.183585
G02 X5.411381 Y44.789197 Z0.000000 I-0.087349 J-0.108800
G03 X5.505300 Y44.595177 Z0.000000 I0.105102 J-0.068865
G03 X5.985136 Y44.737934 Z0.000000 I0.060317 J0.675052
G01 X6.631396 Y45.247262 Z0.000000
G01 X6.218770 Y44.540354 Z0.000000
G03 X5.984084 Y43.888191 Z0.000000 I1.645379 J-0.960413
G03 X6.098432 Y43.806392 Z0.000000 I0.077359 J-0.012683
G02 X6.350910 Y43.794014 Z0.000000 I0.115923 J-0.216606
G02 X6.414417 Y43.595111 Z0.000000 I-0.093166 J-0.139337
G01 X6.274614 Y43.227408 Z0.000000
G01 X6.446846 Y43.169996 Z0.000000
G01 X6.619075 Y43.112585 Z0.000000
G01 X6.223249 Y42.404374 Z0.000000
G03 X5.909059 Y41.744054 Z0.000000 I4.873141 J-2.723617
G01 X5.941553 Y41.696158 Z0.000000
G03 X6.285213 Y41.860776 Z0.000000 I-0.000000 J0.441024
G03 X6.913864 Y42.905043 Z0.000000 I-3.516365 J2.828219
G01 X7.141487 Y43.433934 Z0.000000
G01 X7.153818 Y42.993201 Z0.000000
G01 X7.166149 Y42.552468 Z0.000000
G01 X7.705420 Y43.144314 Z0.000000
G02 X8.114233 Y43.547982 Z0.000000 I4.025616 J-3.668070
G01 X8.138609 Y43.529103 Z0.000000
G03 X8.066539 Y43.311622 Z0.000000 I0.666852 J-0.341666
G03 X7.841412 Y41.760741 Z0.000000 I34.573612 J-5.810522
G01 X7.650297 Y40.199430 Z0.000000
G01 X7.332669 Y39.753359 Z0.000000
G03 X7.079099 Y39.061774 Z0.000000 I1.135640 J-0.808660
G03 X7.241699 Y38.673947 Z0.000000 I0.452800 J-0.038159
G01 X7.468365 Y38.485831 Z0.000000
G01 X7.468366 Y37.757698 Z0.000000
G03 X7.712062 Y37.270613 Z0.000000 I0.608627 J0.000000
G03 X8.038463 Y37.330574 Z0.000000 I0.135487 J0.180839
G01 X8.335787 Y37.800165 Z0.000000
G01 X8.207903 Y38.350389 Z0.000000
G02 X8.192168 Y41.854924 Z0.000000 I7.687799 J1.786820
G02 X9.683615 Y44.968593 Z0.000000 I7.476047 J-1.666991
G01 X10.185273 Y45.596586 Z0.000000
G01 X10.865974 Y45.926110 Z0.000000
G03 X11.521162 Y46.283910 Z0.000000 I-3.320200 J6.858585
G03 X11.632859 Y46.395079 Z0.000000 I-0.177156 J0.289696
G02 X11.742628 Y46.509294 Z0.000000 I0.320184 J-0.197863
G02 X12.275916 Y46.828659 Z0.000000 I3.240431 J-4.806067
G01 X12.832789 Y47.122790 Z0.000000
G01 X12.455012 Y47.132837 Z0.000000
G01 X12.077235 Y47.142884 Z0.000000
G01 X12.455012 Y47.434577 Z0.000000
G02 X12.852706 Y47.690558 Z0.000000 I1.690390 J-2.189276
G02 X13.437231 Y47.953827 Z0.000000 I2.374838 J-4.492231
G03 X14.039913 Y48.185829 Z0.000000 I-15.365999 J40.815702
G03 X14.495006 Y48.370031 Z0.000000 I-9.236550 J23.474287
G01 X14.948338 Y48.558678 Z0.000000
G01 X14.117229 Y48.647281 Z0.000000
G01 X13.286120 Y48.735878 Z0.000000
G01 X13.739452 Y48.930685 Z0.000000
G02 X14.203285 Y49.089598 Z0.000000 I1.278272 J-2.974612
G02 X15.001974 Y49.258828 Z0.000000 I2.258148 J-8.688140
G03 X16.076779 Y49.594021 Z0.000000 I-0.660538 J4.008823
G03 X16.232778 Y49.840239 Z0.000000 I-0.116308 J0.246218
G01 X16.185144 Y49.885783 Z0.000000
G03 X14.457227 Y49.760557 Z0.000000 I1.411912 J-31.465909
G02 X12.690114 Y49.607116 Z0.000000 I-6.686892 J66.757921
G02 X12.635950 Y49.626643 Z0.000000 I-0.005184 J0.070504
G02 X12.685536 Y49.923000 Z0.000000 I0.126098 J0.131228
G02 X14.275317 Y50.386238 Z0.000000 I2.323624 J-5.014826
G03 X15.875439 Y50.710114 Z0.000000 I-1.630184 J12.168664
G03 X16.241206 Y50.922374 Z0.000000 I-0.216752 J0.794780
G03 X16.490912 Y51.234427 Z0.000000 I-1.280864 J1.280890
G03 X16.534998 Y51.386502 Z0.000000 I-0.240248 J0.152075
G01 X16.534998 Y51.556841 Z0.000000
G01 X15.784538 Y51.484729 Z0.000000
G02 X15.558182 Y51.595048 Z0.000000 I-0.023066 J0.240056
G02 X15.619625 Y51.743141 Z0.000000 I0.082418 J0.052598
G03 X16.029862 Y51.890805 Z0.000000 I-0.363143 J1.652557
G03 X16.248723 Y52.066488 Z0.000000 I-0.320197 J0.623060
G01 X16.436664 Y52.292943 Z0.000000
G01 X15.994721 Y52.184856 Z0.000000
G03 X15.556244 Y52.065027 Z0.000000 I2.007484 J-8.207915
G03 X14.986113 Y51.879839 Z0.000000 I4.254230 J-14.067513
G02 X14.447329 Y51.722114 Z0.000000 I-1.855056 J5.337720
G01 X14.419448 Y51.744105 Z0.000000
G02 X14.445726 Y51.789391 Z0.000000 I0.052160 J0.000000
G02 X15.612873 Y52.426193 Z0.000000 I16.705175 J-29.229655
G03 X16.773071 Y53.090120 Z0.000000 I-7.705607 J14.811064
G03 X17.071843 Y53.340508 Z0.000000 I-0.753978 J1.203120
G01 X17.337391 Y53.633936 Z0.000000
G01 X16.445084 Y53.640957 Z0.000000
G01 X15.552777 Y53.647978 Z0.000000
G01 X16.242710 Y54.007467 Z0.000000
G03 X16.904178 Y54.402214 Z0.000000 I-3.086068 J5.922826
G03 X17.137985 Y54.614379 Z0.000000 I-0.629592 J0.928726
G01 X17.343326 Y54.861796 Z0.000000
G01 X16.976939 Y54.776845 Z0.000000
G02 X14.666683 Y54.279118 Z0.000000 I-17.073251 J73.636867
G02 X14.343891 Y54.252502 Z0.000000 I-0.277322 J1.392614
G01 X14.041670 Y54.262207 Z0.000000
G01 X14.797223 Y54.639592 Z0.000000
G01 X15.552776 Y55.016983 Z0.000000
G01 X14.502767 Y54.922613 Z0.000000
G01 X13.452760 Y54.828244 Z0.000000
G01 X13.732857 Y55.137748 Z0.000000
G01 X14.012955 Y55.447251 Z0.000000
G01 X13.732646 Y55.447251 Z0.000000
G01 X13.452338 Y55.447251 Z0.000000
G01 X13.595893 Y55.573663 Z0.000000
G02 X13.753170 Y55.678060 Z0.000000 I0.460173 J-0.522588
G02 X14.570556 Y56.044521 Z0.000000 I6.820314 J-14.117833
G03 X15.395693 Y56.398407 Z0.000000 I-14.033666 J33.860417
G03 X15.453869 Y56.436240 Z0.000000 I-0.088726 J0.200076
G01 X15.456275 Y56.483316 Z0.000000
G03 X15.020243 Y56.917596 Z0.000000 I-4.221862 J-3.802855
G01 X14.534413 Y57.351684 Z0.000000
G01 X15.988035 Y57.288108 Z0.000000
G01 X17.441658 Y57.224532 Z0.000000
G01 X17.441658 Y57.370718 Z0.000000
G03 X17.384448 Y57.479950 Z0.000000 I-0.132884 J-0.000000
G03 X16.837215 Y57.789473 Z0.000000 I-1.967478 J-2.839964
G02 X16.274846 Y58.089214 Z0.000000 I1.983868 J4.399532
G02 X16.232773 Y58.164871 Z0.000000 I0.046988 J0.075657
G02 X16.279060 Y58.229910 Z0.000000 I0.068837 J0.000000
G02 X16.950548 Y58.413755 Z0.000000 I1.715851 J-4.948857
G01 X17.668323 Y58.559799 Z0.000000
G01 X16.632408 Y58.892411 Z0.000000
G01 X15.596494 Y59.225022 Z0.000000
G01 X14.765338 Y59.225022 Z0.000000
G03 X13.140796 Y59.014789 Z0.000000 I0.000004 J-6.381869
G03 X11.027767 Y58.241192 Z0.000000 I3.065487 J-11.645761
G02 X9.971356 Y57.769053 Z0.000000 I-10.273177 J21.568328
G01 X9.921988 Y57.778788 Z0.000000
G01 X9.923408 Y57.819480 Z0.000000
G02 X10.703533 Y58.458895 Z0.000000 I11.230286 J-12.906008
G02 X12.194254 Y59.294759 Z0.000000 I3.585825 J-4.647891
G02 X14.331400 Y59.844942 Z0.000000 I3.493159 J-9.143041
G01 X15.645493 Y60.028772 Z0.000000
G01 X15.849219 Y60.420228 Z0.000000
G02 X16.086085 Y60.786511 Z0.000000 I2.057334 J-1.070696
G02 X16.453992 Y61.186398 Z0.000000 I2.825065 J-2.229954
G01 X16.855038 Y61.561112 Z0.000000
G01 X18.225256 Y61.567449 Z0.000000
G01 X19.595475 Y61.573786 Z0.000000
G01 X19.832826 Y61.192748 Z0.000000
G03 X20.071741 Y60.812758 Z0.000000 I45.651500 J28.437776
G03 X20.112261 Y60.752409 Z0.000000 I1.188047 J0.753907
G01 X20.160441 Y60.739627 Z0.000000
G03 X20.369968 Y60.872050 Z0.000000 I-0.405635 J0.873790
G01 X20.585591 Y61.050998 Z0.000000
G01 X20.651451 Y60.855804 Z0.000000
G01 X20.717310 Y60.660609 Z0.000000
G01 X21.294044 Y60.933795 Z0.000000
G01 X21.870779 Y61.206975 Z0.000000
G01 X21.977935 Y61.033599 Z0.000000
G01 X22.085091 Y60.860217 Z0.000000
G01 X22.740541 Y61.194605 Z0.000000
G02 X24.404493 Y61.865211 Z0.000000 I4.604993 J-9.026555
G02 X26.254404 Y62.260325 Z0.000000 I3.269940 J-10.781599
G01 X27.436065 Y62.410451 Z0.000000
G01 X28.352893 Y62.175570 Z0.000000
G02 X30.006617 Y61.522486 Z0.000000 I-1.765016 J-6.889632
G02 X32.099391 Y60.121820 Z0.000000 I-6.857924 J-12.510389
G03 X33.262605 Y59.254761 Z0.000000 I12.096870 J15.014915
G03 X33.988276 Y58.821457 Z0.000000 I3.710394 J5.389632
G02 X34.696400 Y58.369086 Z0.000000 I-2.024173 J-3.948985
G02 X35.669921 Y57.507399 Z0.000000 I-6.540690 J-8.370345
G03 X36.638384 Y56.634538 Z0.000000 I8.830992 J8.824535
G03 X37.465278 Y56.051744 Z0.000000 I4.733846 J5.838577
G02 X38.295115 Y55.472115 Z0.000000 I-4.170725 J-6.854933
G02 X39.235271 Y54.641302 Z0.000000 I-7.682764 J-9.641249
G01 X40.135996 Y53.759751 Z0.000000
G01 X40.569635 Y52.827974 Z0.000000
G02 X40.960625 Y51.880963 Z0.000000 I-10.551334 J-4.910518
G02 X41.235549 Y50.989540 Z0.000000 I-9.071308 J-3.285791
G01 X41.467822 Y50.082876 Z0.000000
G01 X42.504633 Y48.571767 Z0.000000
G02 X43.819915 Y46.412089 Z0.000000 I-19.198236 J-13.172420
G02 X44.174128 Y45.461986 Z0.000000 I-3.298507 J-1.770813
G01 X44.319767 Y44.813790 Z0.000000
G01 X44.183392 Y43.618042 Z0.000000
G01 X44.047016 Y42.422294 Z0.000000
G01 X44.434992 Y41.114822 Z0.000000
G01 X44.822973 Y39.807351 Z0.000000
G01 X44.804249 Y37.946721 Z0.000000
G01 X44.785526 Y36.086097 Z0.000000
G01 X45.163768 Y34.888762 Z0.000000
G01 X45.542004 Y33.691432 Z0.000000
G01 X45.711528 Y31.955301 Z0.000000
G01 X45.881052 Y30.219170 Z0.000000
G01 X45.690762 Y28.968831 Z0.000000
G01 X45.500466 Y27.718496 Z0.000000
G01 X45.475578 Y24.696284 Z0.000000
G01 X45.450691 Y21.674072 Z0.000000
G01 X45.190893 Y20.617277 Z0.000000
G02 X44.866692 Y19.585548 Z0.000000 I-8.286507 J2.037073
G02 X44.433766 Y18.652835 Z0.000000 I-7.198671 J2.774485
G03 X43.986002 Y17.727206 Z0.000000 I8.896145 J-4.874546
G03 X43.836621 Y17.239868 Z0.000000 I2.296072 J-0.970365
G02 X43.695370 Y16.748283 Z0.000000 I-2.962199 J0.585064
G02 X43.272273 Y15.761195 Z0.000000 I-12.438282 J4.747221
G01 X42.807739 Y14.787848 Z0.000000
G01 X42.320750 Y14.468622 Z0.000000
G03 X41.894651 Y14.092680 Z0.000000 I1.095339 J-1.670916
G03 X41.423300 Y13.414219 Z0.000000 I3.215572 J-2.736938
G01 X41.012838 Y12.679047 Z0.000000
G01 X40.353404 Y12.341017 Z0.000000
G03 X37.937580 Y10.645216 Z0.000000 I4.881385 J-9.522661
G03 X35.043153 Y7.390119 Z0.000000 I15.892347 J-17.045859
G02 X34.488145 Y6.724044 Z0.000000 I-5.688865 J4.175986
G02 X32.876990 Y5.093412 Z0.000000 I-35.890977 J33.851016
G01 X31.225580 Y3.497940 Z0.000000
G01 X29.596926 Y2.422300 Z0.000000
G01 X27.968273 Y1.346660 Z0.000000
G01 X26.747193 Y0.954569 Z0.000000
G01 X25.526113 Y0.562473 Z0.000000
G01 X23.863896 Y0.510409 Z0.000000
G02 X22.205702 Y0.494975 Z0.000000 I-1.179349 J37.622744
G02 X21.899457 Y0.535412 Z0.000000 I0.016611 J1.305691
G01 X21.899461 Y0.535332 Z0.000000
G00 Z5.000000

(End cutting path id: path930)


(Start cutting path id: path930)
(Change tool to Cylindrical cutter)

G00 Z5.000000
G00 X24.112845 Y2.159638

G01 Z0.000000 F1000.0(Penetrate)
G03 X25.719088 Y2.804170 Z0.000000 I-1.323009 J5.620812 F1100.000000
G03 X26.776531 Y3.727606 Z0.000000 I-1.927315 J3.274167
G03 X27.586071 Y4.958409 Z0.000000 I-6.789877 J5.347564
G03 X28.083114 Y6.139518 Z0.000000 I-5.750030 J3.114910
G01 X28.185928 Y6.471662 Z0.000000
G01 X27.701138 Y6.722355 Z0.000000
G01 X27.216348 Y6.973049 Z0.000000
G01 X26.246083 Y6.958491 Z0.000000
G03 X25.287096 Y6.905283 Z0.000000 I0.177835 J-11.873903
G03 X25.125048 Y6.850752 Z0.000000 I0.036093 J-0.375295
G02 X24.962270 Y6.805203 Z0.000000 I-0.160335 J0.259357
G02 X23.162100 Y6.866449 Z0.000000 I0.277480 J34.642040
G01 X21.349920 Y6.975334 Z0.000000
G01 X21.188076 Y7.373567 Z0.000000
G02 X20.906161 Y8.843442 Z0.000000 I3.550588 J1.442958
G02 X21.203391 Y9.553953 Z0.000000 I1.014871 J-0.007128
G01 X21.360751 Y9.711311 Z0.000000
G01 X22.184285 Y9.513748 Z0.000000
G01 X23.007819 Y9.316185 Z0.000000
G01 X24.247591 Y9.474463 Z0.000000
G01 X25.487362 Y9.632729 Z0.000000
G01 X25.703536 Y9.848908 Z0.000000
G01 X25.919710 Y10.065082 Z0.000000
G01 X25.736434 Y10.467328 Z0.000000
G03 X25.441360 Y10.769751 Z0.000000 I-0.567549 J-0.258593
G03 X25.297134 Y10.680687 Z0.000000 I-0.043854 J-0.090294
G01 X25.294793 Y10.491800 Z0.000000
G01 X25.164886 Y10.696819 Z0.000000
G01 X25.034978 Y10.901844 Z0.000000
G01 X24.938925 Y10.746421 Z0.000000
G01 X24.842870 Y10.591004 Z0.000000
G01 X22.691153 Y10.659723 Z0.000000
G02 X20.543326 Y10.769332 Z0.000000 I1.800111 J56.372427
G02 X19.614385 Y10.875610 Z0.000000 I0.746385 J10.636875
G03 X18.686836 Y10.962142 Z0.000000 I-1.131076 J-7.109626
G03 X17.525156 Y10.934698 Z0.000000 I-0.316663 J-11.196335
G01 X16.360978 Y10.846619 Z0.000000
G01 X16.542009 Y11.198093 Z0.000000
G02 X17.275062 Y12.177405 Z0.000000 I3.272297 J-1.685423
G02 X17.783025 Y12.380672 Z0.000000 I0.507964 J-0.533068
G02 X18.053214 Y12.326773 Z0.000000 I0.000000 J-0.704156
G02 X18.761836 Y11.973968 Z0.000000 I-2.230485 J-5.368068
G01 X19.455825 Y11.567265 Z0.000000
G01 X20.686528 Y11.820591 Z0.000000
G01 X21.917232 Y12.073922 Z0.000000
G01 X22.417506 Y11.930448 Z0.000000
G03 X23.566375 Y11.817931 Z0.000000 I0.880670 J3.070582
G03 X24.599541 Y12.114290 Z0.000000 I-0.232527 J2.759727
G01 X24.881882 Y12.259357 Z0.000000
G01 X24.802013 Y12.854833 Z0.000000
G03 X24.468431 Y13.621216 Z0.000000 I-1.513548 J-0.203009
G03 X23.695894 Y14.201231 Z0.000000 I-1.576240 J-1.294946
G01 X23.070310 Y14.469387 Z0.000000
G01 X22.825435 Y15.188055 Z0.000000
G03 X22.536533 Y15.880812 Z0.000000 I-5.329399 J-1.815914
G03 X22.329905 Y16.183694 Z0.000000 I-1.202805 J-0.598640
G01 X22.079250 Y16.460664 Z0.000000
G01 X21.568929 Y16.460664 Z0.000000
G02 X20.465469 Y16.691727 Z0.000000 I-0.000002 J2.750348
G02 X19.803624 Y17.233877 Z0.000000 I0.635469 J1.450827
G02 X19.772627 Y17.618342 Z0.000000 I0.312166 J0.218650
G02 X20.111510 Y17.871066 Z0.000000 I0.412218 J-0.199181
G01 X20.665811 Y17.961017 Z0.000000
G01 X21.245276 Y17.437509 Z0.000000
G01 X21.824740 Y16.913996 Z0.000000
G01 X22.255088 Y16.913996 Z0.000000
G03 X23.194719 Y17.079517 Z0.000000 I-0.000002 J2.749830
G03 X24.203862 Y17.622556 Z0.000000 I-1.355557 J3.728244
G01 X24.694972 Y17.987154 Z0.000000
G01 X24.696741 Y19.150568 Z0.000000
G02 X24.762525 Y20.305501 Z0.000000 I10.449172 J-0.015841
G02 X24.921607 Y21.145100 Z0.000000 I5.668369 J-0.639134
G03 X25.108837 Y21.981014 Z0.000000 I-9.879082 J2.651664
G03 X25.146479 Y22.391757 Z0.000000 I-2.333851 J0.420977
G01 X25.148248 Y22.807316 Z0.000000
G01 X24.905415 Y22.807316 Z0.000000
G01 X24.662582 Y22.807315 Z0.000000
G01 X24.775549 Y23.071755 Z0.000000
G03 X24.875521 Y23.340771 Z0.000000 I-2.755049 J1.176922
G03 X25.099912 Y24.091753 Z0.000000 I-21.295441 J6.772021
G01 X25.311305 Y24.847310 Z0.000000
G01 X25.213085 Y25.753975 Z0.000000
G03 X25.067703 Y26.648627 Z0.000000 I-8.475825 J-0.918196
G03 X24.904890 Y27.170201 Z0.000000 I-3.027267 J-0.658786
G02 X24.735565 Y27.687813 Z0.000000 I3.372795 J1.389833
G02 X24.694913 Y28.022918 Z0.000000 I1.360879 J0.335106
G03 X24.622364 Y28.316207 Z0.000000 I-0.629102 J-0.000000
G03 X24.468247 Y28.453056 Z0.000000 I-0.259021 J-0.136497
G02 X24.309950 Y28.587030 Z0.000000 I0.112679 J0.293641
G02 X24.241581 Y28.837737 Z0.000000 I0.425482 J0.250706
G01 X24.241581 Y29.135441 Z0.000000
G01 X23.562590 Y29.237265 Z0.000000
G03 X22.255936 Y29.221555 Z0.000000 I-0.604922 J-4.034019
G03 X21.543796 Y28.884694 Z0.000000 I0.255017 J-1.460298
G01 X21.242216 Y28.625072 Z0.000000
G01 X20.924272 Y27.416188 Z0.000000
G02 X20.569663 Y26.219370 Z0.000000 I-19.555934 J5.143337
G02 X20.129821 Y25.010174 Z0.000000 I-20.402550 J6.736792
G01 X19.653316 Y23.813044 Z0.000000
G01 X19.026695 Y23.159065 Z0.000000
G02 X18.368800 Y22.578366 Z0.000000 I-3.793737 J3.635030
G02 X18.147506 Y22.505086 Z0.000000 I-0.221295 J0.297502
G02 X18.041614 Y22.646191 Z0.000000 I-0.000000 J0.110286
G02 X18.378520 Y23.298840 Z0.000000 I1.835378 J-0.534164
G01 X18.862103 Y23.909410 Z0.000000
G01 X18.265187 Y23.515350 Z0.000000
G02 X16.897538 Y22.876747 Z0.000000 I-2.845644 J4.310502
G02 X15.388281 Y22.656197 Z0.000000 I-1.509260 J5.053798
G01 X14.430729 Y22.656197 Z0.000000
G01 X13.601259 Y22.966539 Z0.000000
G01 X12.771792 Y23.276881 Z0.000000
G01 X12.020774 Y23.952112 Z0.000000
G01 X11.269757 Y24.627338 Z0.000000
G01 X10.880134 Y25.409212 Z0.000000
G02 X10.540200 Y26.203205 Z0.000000 I6.693082 J3.335289
G02 X10.485484 Y26.501405 Z0.000000 I0.866578 J0.313128
G03 X10.423458 Y26.790137 Z0.000000 I-0.759826 J-0.012199
G03 X10.221040 Y27.114698 Z0.000000 I-1.171460 J-0.505198
G03 X8.629224 Y28.598471 Z0.000000 I-7.369052 J-6.309893
G03 X8.322380 Y28.522115 Z0.000000 I-0.121976 J-0.164549
G02 X8.299208 Y28.474053 Z0.000000 I-5.689884 J2.713727
G02 X7.967500 Y27.793953 Z0.000000 I-1159.946838 J565.324068
G01 X7.635594 Y27.113960 Z0.000000
G01 X7.552888 Y25.815474 Z0.000000
G01 X7.470185 Y24.516988 Z0.000000
G01 X7.864974 Y23.548814 Z0.000000
G01 X8.259765 Y22.580639 Z0.000000
G01 X8.377759 Y21.145090 Z0.000000
G03 X8.540571 Y19.719903 Z0.000000 I22.527187 J1.851588
G03 X8.643443 Y19.331761 Z0.000000 I1.752483 J0.256770
G02 X8.742753 Y18.943195 Z0.000000 I-1.529109 J-0.597785
G02 X8.895832 Y17.367320 Z0.000000 I-25.378541 J-3.260628
G03 X9.036177 Y15.784758 Z0.000000 I35.139150 J2.318702
G03 X9.224290 Y14.420662 Z0.000000 I26.292199 J2.930752
G01 X9.448049 Y13.060665 Z0.000000
G01 X10.112000 Y11.700669 Z0.000000
G03 X11.670384 Y9.238459 Z0.000000 I11.914599 J5.816726
G03 X15.129034 Y5.424809 Z0.000000 I32.328352 J25.843839
G01 X17.530260 Y3.087369 Z0.000000
G01 X18.312894 Y2.664641 Z0.000000
G03 X19.604824 Y2.200541 Z0.000000 I2.177644 J4.031728
G03 X21.823826 Y1.972959 Z0.000000 I2.338644 J11.870814
G01 X23.259377 Y1.958746 Z0.000000
G01 X24.112767 Y2.159615 Z0.000000
G01 X24.112845 Y2.159638 Z0.000000
G00 Z5.000000

(End cutting path id: path930)


(Start cutting path id: path930)
(Change tool to Cylindrical cutter)

G00 Z5.000000
G00 X22.315337 Y13.362910

G01 Z0.000000 F1000.0(Penetrate)
G01 X22.318362 Y13.967349 Z0.000000 F1100.000000
G01 X22.384080 Y13.625591 Z0.000000
G02 X22.415668 Y13.284949 Z0.000000 I-1.725312 J-0.331776
G02 X22.381055 Y13.021147 Z0.000000 I-1.063485 J0.005367
G01 X22.346925 Y13.022274 Z0.000000
G02 X22.315337 Y13.362910 Z0.000000 I1.725260 J0.331774
G01 X22.315337 Y13.362910 Z0.000000
G00 Z5.000000

(End cutting path id: path930)


(Start cutting path id: path930)
(Change tool to Cylindrical cutter)

G00 Z5.000000
G00 X18.635195 Y18.840667

G01 Z0.000000 F1000.0(Penetrate)
G01 X18.476187 Y19.256219 Z0.000000 F1100.000000
G01 X18.650324 Y19.840656 Z0.000000
G02 X18.889077 Y20.384897 Z0.000000 I2.305687 J-0.686991
G02 X19.212912 Y20.785100 Z0.000000 I1.550939 J-0.923865
G01 X19.601365 Y21.145108 Z0.000000
G01 X20.070407 Y21.127583 Z0.000000
G01 X20.539452 Y21.110058 Z0.000000
G01 X20.243529 Y21.034892 Z0.000000
G03 X19.551155 Y20.674079 Z0.000000 I0.418629 J-1.648031
G03 X19.024825 Y19.983023 Z0.000000 I1.375299 J-1.593434
G01 X18.768601 Y19.443068 Z0.000000
G01 X18.851195 Y18.934094 Z0.000000
G02 X18.769169 Y18.784256 Z0.000000 I-0.137198 J-0.022264
G02 X18.635195 Y18.840678 Z0.000000 I-0.039958 J0.092393
G01 X18.635195 Y18.840667 Z0.000000
G00 Z5.000000

(End cutting path id: path930)


(Start cutting path id: path930)
(Change tool to Cylindrical cutter)

G00 Z5.000000
G00 X17.036110 Y23.199001

G01 Z0.000000 F1000.0(Penetrate)
G01 X17.742151 Y23.439574 Z0.000000 F1100.000000
G01 X18.490970 Y24.112831 Z0.000000
G01 X19.239788 Y24.786082 Z0.000000
G01 X19.623582 Y25.572255 Z0.000000
G03 X19.946579 Y26.376876 Z0.000000 I-5.384757 J2.628733
G03 X20.105697 Y27.080829 Z0.000000 I-3.954684 J1.263857
G01 X20.204020 Y27.803237 Z0.000000
G01 X19.947059 Y28.752522 Z0.000000
G01 X19.690099 Y29.701812 Z0.000000
G01 X19.127889 Y30.445672 Z0.000000
G01 X18.565679 Y31.189526 Z0.000000
G01 X17.632494 Y31.672606 Z0.000000
G03 X16.677446 Y32.088371 Z0.000000 I-3.571281 J-6.898730
G03 X15.974941 Y32.265478 Z0.000000 I-1.265698 J-3.538652
G01 X15.250572 Y32.375265 Z0.000000
G01 X14.298852 Y32.126860 Z0.000000
G03 X12.090116 Y30.902656 Z0.000000 I1.284859 J-4.922794
G03 X10.843552 Y28.863075 Z0.000000 I3.130189 J-3.313861
G01 X10.604877 Y28.043295 Z0.000000
G01 X10.685806 Y27.259178 Z0.000000
G03 X10.826833 Y26.490699 Z0.000000 I4.945832 J0.510456
G03 X11.101909 Y25.695927 Z0.000000 I5.567325 J1.481901
G01 X11.437086 Y24.916787 Z0.000000
G01 X12.245759 Y24.177705 Z0.000000
G03 X13.663357 Y23.296022 Z0.000000 I3.076851 J3.366584
G03 X15.336992 Y22.970359 Z0.000000 I1.730785 J4.431412
G01 X16.330070 Y22.958429 Z0.000000
G01 X17.036110 Y23.199001 Z0.000000
G00 Z5.000000

(End cutting path id: path930)


(Start cutting path id: path930)
(Change tool to Cylindrical cutter)

G00 Z5.000000
G00 X17.081463 Y25.482131

G01 Z0.000000 F1000.0(Penetrate)
G03 X17.541876 Y25.915671 Z0.000000 I-8.973250 J9.990690 F1100.000000
G03 X17.969205 Y26.358398 Z0.000000 I-8.932718 J9.049648
G02 X18.165215 Y26.529675 Z0.000000 I0.879509 J-0.808717
G01 X18.185869 Y26.509511 Z0.000000
G02 X17.436586 Y25.581148 Z0.000000 I-5.296660 J3.508386
G02 X16.912794 Y25.204681 Z0.000000 I-1.329476 J1.297133
G01 X16.610572 Y25.059192 Z0.000000
G01 X17.081463 Y25.482131 Z0.000000
G00 Z5.000000

(End cutting path id: path930)


(Start cutting path id: path930)
(Change tool to Cylindrical cutter)

G00 Z5.000000
G00 X14.338736 Y23.241415

G01 Z0.000000 F1000.0(Penetrate)
G02 X13.892751 Y23.389114 Z0.000000 I0.890302 J3.435502 F1100.000000
G02 X13.583183 Y23.548503 Z0.000000 I0.733939 J1.805786
G01 X13.286138 Y23.736779 Z0.000000
G01 X13.588360 Y23.636673 Z0.000000
G03 X13.894445 Y23.551447 Z0.000000 I1.031690 J3.113006
G03 X14.721690 Y23.379495 Z0.000000 I5.148021 J22.690802
G01 X15.552799 Y23.222423 Z0.000000
G01 X16.402818 Y23.399436 Z0.000000
G03 X17.223427 Y23.648974 Z0.000000 I-0.973870 J4.676644
G03 X17.984932 Y24.040725 Z0.000000 I-1.788925 J4.413404
G02 X18.487918 Y24.303404 Z0.000000 I1.813225 J-2.859121
G01 X18.517065 Y24.264069 Z0.000000
G02 X18.286629 Y24.061862 Z0.000000 I-0.750441 J0.622800
G02 X17.502427 Y23.624544 Z0.000000 I-4.460161 J7.076222
G01 X16.687753 Y23.225957 Z0.000000
G01 X15.742499 Y23.174294 Z0.000000
G02 X14.802094 Y23.171036 Z0.000000 I-0.502013 J9.180390
G02 X14.338736 Y23.241432 Z0.000000 I0.108597 J2.274946
G01 X14.338736 Y23.241415 Z0.000000
G00 Z5.000000

(End cutting path id: path930)


(Start cutting path id: path930)
(Change tool to Cylindrical cutter)

G00 Z5.000000
G00 X13.701691 Y27.197721

G01 Z0.000000 F1000.0(Penetrate)
G02 X13.271355 Y27.394108 Z0.000000 I0.542768 J1.759030 F1100.000000
G02 X13.210581 Y27.503548 Z0.000000 I0.068151 J0.109440
G01 X13.210581 Y27.657846 Z0.000000
G01 X14.155023 Y27.537007 Z0.000000
G03 X15.101411 Y27.454465 Z0.000000 I1.497894 J11.707470
G03 X16.157239 Y27.443347 Z0.000000 I0.681353 J14.565876
G01 X17.215013 Y27.470520 Z0.000000
G01 X16.932041 Y27.312140 Z0.000000
G02 X15.615454 Y26.943741 Z0.000000 I-1.419468 J2.536088
G02 X13.701691 Y27.197727 Z0.000000 I-0.205138 J5.791330
G01 X13.701691 Y27.197721 Z0.000000
G00 Z5.000000

(End cutting path id: path930)


(Start cutting path id: path930)
(Change tool to Cylindrical cutter)

G00 Z5.000000
G00 X11.006041 Y27.567278

G01 Z0.000000 F1000.0(Penetrate)
G01 X11.049745 Y28.625054 Z0.000000 F1100.000000
G01 X11.375632 Y29.263260 Z0.000000
G02 X12.281893 Y30.479558 Z0.000000 I4.033648 J-2.059687
G02 X13.572914 Y31.360873 Z0.000000 I3.321441 J-3.479261
G01 X14.343906 Y31.719871 Z0.000000
G01 X15.336984 Y31.721584 Z0.000000
G01 X16.330062 Y31.723297 Z0.000000
G01 X17.007666 Y31.492413 Z0.000000
G02 X17.652943 Y31.203593 Z0.000000 I-1.234791 J-3.624001
G02 X18.265062 Y30.783615 Z0.000000 I-2.073134 J-3.677673
G02 X19.460833 Y29.477218 Z0.000000 I-4.030221 J-4.889393
G02 X19.708337 Y28.678526 Z0.000000 I-1.164935 J-0.798692
G01 X19.708337 Y28.412922 Z0.000000
G01 X19.264760 Y28.667497 Z0.000000
G01 X18.821182 Y28.922078 Z0.000000
G01 X18.699354 Y28.800245 Z0.000000
G01 X18.577524 Y28.678417 Z0.000000
G01 X18.871785 Y28.513741 Z0.000000
G01 X19.166046 Y28.349065 Z0.000000
G01 X18.870526 Y28.233471 Z0.000000
G02 X18.567349 Y28.156938 Z0.000000 I-0.454765 J1.162723
G02 X17.838729 Y28.107265 Z0.000000 I-0.826819 J6.759406
G01 X17.102450 Y28.096646 Z0.000000
G01 X17.289082 Y28.321526 Z0.000000
G01 X17.475714 Y28.546399 Z0.000000
G01 X17.252113 Y28.632205 Z0.000000
G01 X17.028513 Y28.718006 Z0.000000
G01 X16.566720 Y28.256213 Z0.000000
G01 X16.104929 Y27.794420 Z0.000000
G01 X15.401685 Y27.794420 Z0.000000
G01 X14.698439 Y27.794420 Z0.000000
G01 X14.244035 Y28.248825 Z0.000000
G03 X13.712796 Y28.497197 Z0.000000 I-0.607966 J-0.608053
G03 X13.512802 Y28.314319 Z0.000000 I-0.016384 J-0.182878
G01 X13.512802 Y28.096576 Z0.000000
G01 X12.681693 Y28.096575 Z0.000000
G02 X11.910843 Y28.156829 Z0.000000 I-0.000003 J4.960940
G02 X11.850584 Y28.227307 Z0.000000 I0.011086 J0.070478
G02 X12.041753 Y28.717652 Z0.000000 I0.724446 J0.000000
G02 X12.914197 Y29.384032 Z0.000000 I2.320304 J-2.133505
G02 X13.130516 Y29.392156 Z0.000000 I0.116793 J-0.225852
G02 X13.144626 Y29.286016 Z0.000000 I-0.024350 J-0.057245
G01 X12.735693 Y28.964347 Z0.000000
G01 X12.861957 Y28.838084 Z0.000000
G01 X12.988223 Y28.711821 Z0.000000
G01 X13.892731 Y29.168556 Z0.000000
G01 X14.797242 Y29.625291 Z0.000000
G01 X15.542674 Y29.586130 Z0.000000
G01 X16.288104 Y29.546970 Z0.000000
G01 X16.348596 Y29.728446 Z0.000000
G01 X16.409089 Y29.909923 Z0.000000
G01 X16.000217 Y29.909923 Z0.000000
G01 X15.591345 Y29.909923 Z0.000000
G01 X15.784775 Y30.142994 Z0.000000
G01 X15.978207 Y30.376059 Z0.000000
G01 X15.841056 Y30.507974 Z0.000000
G03 X15.686370 Y30.603595 Z0.000000 I-0.299199 J-0.311083
G03 X15.326128 Y30.690946 Z0.000000 I-0.600490 J-1.689961
G01 X14.948352 Y30.741981 Z0.000000
G01 X14.987901 Y31.101549 Z0.000000
G01 X15.027450 Y31.461117 Z0.000000
G01 X14.504510 Y31.376258 Z0.000000
G03 X12.299354 Y30.144983 Z0.000000 I0.592572 J-3.651571
G03 X11.079003 Y27.416565 Z0.000000 I3.918264 J-3.389663
G01 X10.962332 Y26.509900 Z0.000000
G01 X11.006041 Y27.567278 Z0.000000
G00 Z5.000000

(End cutting path id: path930)


(Start cutting path id: path930)
(Change tool to Cylindrical cutter)

G00 Z5.000000
G00 X10.935003 Y29.909520

G01 Z0.000000 F1000.0(Penetrate)
G02 X11.157377 Y30.272522 Z0.000000 I2.998873 J-1.587488 F1100.000000
G02 X11.636787 Y30.908499 Z0.000000 I9.717545 J-6.826575
G01 X12.138592 Y31.529699 Z0.000000
G01 X11.760811 Y31.701830 Z0.000000
G03 X11.376500 Y31.843876 Z0.000000 I-1.156837 J-2.538956
G03 X11.163474 Y31.873956 Z0.000000 I-0.213026 J-0.739291
G02 X11.052847 Y32.083927 Z0.000000 I-0.000000 J0.134129
G02 X11.776362 Y32.767947 Z0.000000 I1.947082 J-1.334849
G01 X12.608806 Y33.272463 Z0.000000
G01 X13.249691 Y33.301121 Z0.000000
G03 X13.877214 Y33.378249 Z0.000000 I-0.182036 J4.072436
G03 X14.192797 Y33.492217 Z0.000000 I-0.228018 J1.125305
G01 X14.495018 Y33.654667 Z0.000000
G01 X15.901234 Y33.626468 Z0.000000
G01 X17.307452 Y33.598268 Z0.000000
G01 X17.827895 Y33.182995 Z0.000000
G01 X18.348341 Y32.767723 Z0.000000
G01 X18.348340 Y33.076387 Z0.000000
G02 X18.499730 Y33.185111 Z0.000000 I0.114736 J0.000000
G02 X18.777451 Y32.931720 Z0.000000 I-0.149124 J-0.442332
G03 X19.015361 Y32.535606 Z0.000000 I1.706037 J0.755158
G03 X19.132942 Y32.478388 Z0.000000 I0.117581 J0.092204
G01 X19.287768 Y32.478388 Z0.000000
G01 X19.190964 Y32.864085 Z0.000000
G01 X19.094159 Y33.249781 Z0.000000
G01 X19.384949 Y33.094159 Z0.000000
G02 X19.649918 Y32.906691 Z0.000000 I-0.617438 J-1.153686
G02 X20.075273 Y32.463712 Z0.000000 I-3.158878 J-3.458903
G01 X20.474806 Y31.988893 Z0.000000
G01 X20.375004 Y31.106764 Z0.000000
G01 X20.275204 Y30.224630 Z0.000000
G01 X20.860657 Y30.291067 Z0.000000
G01 X21.446111 Y30.357510 Z0.000000
G01 X20.715545 Y30.121110 Z0.000000
G03 X20.654707 Y29.994668 Z0.000000 I0.029839 J-0.092214
G03 X20.788637 Y29.927474 Z0.000000 I0.103404 J0.039032
G01 X21.446111 Y30.116418 Z0.000000
G01 X23.625596 Y30.126295 Z0.000000
G01 X25.805081 Y30.136172 Z0.000000
G01 X25.394187 Y30.281125 Z0.000000
G01 X24.983293 Y30.426078 Z0.000000
G01 X25.006863 Y31.338902 Z0.000000
G03 X24.984379 Y32.243835 Z0.000000 I-8.935477 J0.230732
G03 X24.914955 Y32.553945 Z0.000000 I-1.098509 J-0.083094
G01 X24.799478 Y32.856165 Z0.000000
G01 X25.276122 Y32.412338 Z0.000000
G03 X25.498129 Y32.445129 Z0.000000 I0.097896 J0.105136
G03 X25.524071 Y32.837715 Z0.000000 I-0.381471 J0.222357
G02 X25.556627 Y32.987571 Z0.000000 I0.123552 J0.051624
G02 X25.666334 Y32.969498 Z0.000000 I0.047836 J-0.051639
G01 X25.891776 Y32.553946 Z0.000000
G01 X25.913251 Y33.007278 Z0.000000
G01 X25.934727 Y33.460610 Z0.000000
G01 X26.092270 Y32.969498 Z0.000000
G03 X26.341074 Y32.751718 Z0.000000 I0.305496 J0.098001
G03 X26.513121 Y32.893945 Z0.000000 I0.025838 J0.143918
G01 X26.517916 Y33.309498 Z0.000000
G01 X26.757117 Y33.007278 Z0.000000
G01 X26.996316 Y32.705053 Z0.000000
G01 X27.064710 Y32.886701 Z0.000000
G02 X27.148328 Y33.060467 Z0.000000 I1.021802 J-0.384700
G02 X27.462923 Y33.555688 Z0.000000 I8.688772 J-5.172100
G01 X27.792744 Y34.043026 Z0.000000
G01 X28.548297 Y34.114042 Z0.000000
G02 X29.304924 Y34.155757 Z0.000000 I0.918240 J-9.772250
G02 X30.890513 Y34.152633 Z0.000000 I0.708087 J-42.998587
G01 X32.477175 Y34.120210 Z0.000000
G01 X32.788300 Y33.919181 Z0.000000
G01 X33.099426 Y33.718152 Z0.000000
G01 X33.502633 Y33.795236 Z0.000000
G01 X33.905839 Y33.872308 Z0.000000
G01 X34.438534 Y33.558015 Z0.000000
G01 X34.971228 Y33.243717 Z0.000000
G01 X35.215832 Y33.337584 Z0.000000
G01 X35.460437 Y33.431445 Z0.000000
G01 X35.374661 Y34.155685 Z0.000000
G03 X34.970029 Y35.295123 Z0.000000 I-2.710697 J-0.321046
G03 X33.326610 Y37.389497 Z0.000000 I-11.178493 J-7.079603
G01 X31.872729 Y38.900599 Z0.000000
G01 X29.618136 Y42.431984 Z0.000000
G01 X27.363543 Y45.963369 Z0.000000
G01 X27.231008 Y46.814191 Z0.000000
G03 X27.038889 Y47.634917 Z0.000000 I-5.526943 J-0.860923
G03 X26.899566 Y47.865660 Z0.000000 I-0.545543 J-0.171967
G01 X26.700659 Y48.066300 Z0.000000
G01 X26.627874 Y46.958995 Z0.000000
G01 X26.555091 Y45.851691 Z0.000000
G01 X26.081743 Y44.918258 Z0.000000
G02 X25.874454 Y44.820514 Z0.000000 I-0.166504 J0.084434
G02 X25.787127 Y44.984216 Z0.000000 I0.026731 J0.119404
G03 X26.173001 Y46.169966 Z0.000000 I-10.414329 J4.044758
G03 X26.316908 Y46.985512 Z0.000000 I-4.763777 J1.261057
G01 X26.392398 Y47.817114 Z0.000000
G01 X26.146142 Y48.406487 Z0.000000
G03 X25.882911 Y48.909834 Z0.000000 I-3.048638 J-1.273818
G01 X25.820655 Y48.916632 Z0.000000
G03 X25.794405 Y48.827844 Z0.000000 I0.068499 J-0.068526
G03 X25.922741 Y48.439460 Z0.000000 I1.847417 J0.395059
G02 X25.919198 Y48.049253 Z0.000000 I-0.419877 J-0.191308
G02 X25.720001 Y48.015088 Z0.000000 I-0.111679 J0.053354
G03 X25.468127 Y48.028360 Z0.000000 I-0.133311 J-0.133310
G03 X25.299410 Y47.674894 Z0.000000 I0.285899 J-0.353465
G02 X25.157708 Y46.327019 Z0.000000 I-6.481330 J-0.000004
G02 X24.561048 Y44.202061 Z0.000000 I-16.812994 J3.574619
G02 X24.212132 Y43.400030 Z0.000000 I-5.706735 J2.005751
G02 X23.200618 Y41.606081 Z0.000000 I-29.706219 J15.567634
G03 X22.182717 Y39.376625 Z0.000000 I9.072726 J-5.489426
G03 X22.005153 Y37.905742 Z0.000000 I3.687469 J-1.191307
G01 X22.070900 Y36.996795 Z0.000000
G01 X21.935208 Y37.239262 Z0.000000
G02 X21.705630 Y38.092866 Z0.000000 I1.574480 J0.881132
G02 X21.898791 Y39.625735 Z0.000000 I5.511407 J0.084098
G01 X21.989409 Y39.958370 Z0.000000
G01 X21.794545 Y39.656150 Z0.000000
G01 X21.599684 Y39.353925 Z0.000000
G01 X21.603510 Y37.957833 Z0.000000
G01 X21.607335 Y36.561741 Z0.000000
G01 X21.473287 Y36.801269 Z0.000000
G02 X21.381085 Y37.053763 Z0.000000 I0.735770 J0.411758
G02 X21.260784 Y37.906005 Z0.000000 I8.489192 J1.632935
G01 X21.182328 Y38.771207 Z0.000000
G01 X21.441567 Y39.667014 Z0.000000
G02 X21.750953 Y40.543861 Z0.000000 I7.770663 J-2.248793
G02 X22.734720 Y42.753917 Z0.000000 I50.500780 J-21.155531
G03 X23.808637 Y45.466968 Z0.000000 I-20.636146 J9.737557
G03 X24.164851 Y47.173906 Z0.000000 I-7.753175 J2.508617
G01 X24.265685 Y48.193903 Z0.000000
G01 X24.102546 Y48.193903 Z0.000000
G03 X23.994685 Y48.138632 Z0.000000 I0.000017 J-0.132913
G03 X23.939417 Y47.967226 Z0.000000 I0.238158 J-0.171406
G02 X23.770363 Y47.801198 Z0.000000 I-0.166055 J-0.000000
G02 X23.322652 Y47.978357 Z0.000000 I0.012381 J0.685589
G01 X23.059866 Y48.216172 Z0.000000
G01 X23.211837 Y47.562805 Z0.000000
G02 X23.319760 Y46.903948 Z0.000000 I-4.917397 J-1.143753
G02 X23.385719 Y45.760733 Z0.000000 I-14.783481 J-1.426467
G01 X23.407630 Y44.612036 Z0.000000
G01 X23.043251 Y43.834072 Z0.000000
G02 X22.795991 Y43.602155 Z0.000000 I-0.414474 J0.194128
G02 X22.697388 Y43.698326 Z0.000000 I-0.027604 J0.070332
G01 X22.931113 Y44.340551 Z0.000000
G01 X22.943214 Y45.549435 Z0.000000
G03 X22.908951 Y46.752287 Z0.000000 I-15.632653 J0.156625
G03 X22.832158 Y47.205297 Z0.000000 I-2.274508 J-0.152558
G01 X22.708998 Y47.652275 Z0.000000
G01 X22.470065 Y47.158931 Z0.000000
G02 X22.006497 Y46.612009 Z0.000000 I-1.293542 J0.626479
G02 X18.801654 Y44.564178 Z0.000000 I-23.355833 J33.020026
G01 X16.610550 Y43.305102 Z0.000000
G01 X16.049810 Y42.708547 Z0.000000
G01 X15.489069 Y42.111991 Z0.000000
G01 X15.231719 Y41.337384 Z0.000000
G01 X14.974369 Y40.562776 Z0.000000
G01 X14.971344 Y39.278339 Z0.000000
G03 X15.002504 Y37.996265 Z0.000000 I24.071047 J-0.056394
G03 X15.075399 Y37.238345 Z0.000000 I8.463091 J0.431493
G01 X15.182508 Y36.482787 Z0.000000
G01 X15.041453 Y36.709453 Z0.000000
G02 X14.929504 Y36.948604 Z0.000000 I0.945652 J0.588449
G02 X14.659939 Y37.864596 Z0.000000 I13.828635 J4.567248
G01 X14.419475 Y38.793073 Z0.000000
G01 X14.420387 Y39.980144 Z0.000000
G02 X14.475822 Y41.159766 Z0.000000 I12.767135 J-0.008856
G02 X14.587271 Y41.765289 Z0.000000 I3.456463 J-0.323161
G01 X14.753313 Y42.363363 Z0.000000
G01 X15.779680 Y43.389732 Z0.000000
G03 X16.710857 Y44.376697 Z0.000000 I-16.534811 J16.532952
G01 X16.693178 Y44.416101 Z0.000000
G03 X16.225117 Y44.253048 Z0.000000 I0.000000 J-0.753340
G03 X14.914614 Y43.005805 Z0.000000 I6.235881 J-7.864267
G01 X14.427530 Y42.450311 Z0.000000
G01 X14.196630 Y41.656049 Z0.000000
G03 X14.015861 Y40.853525 Z0.000000 I6.441573 J-1.872593
G03 X13.928162 Y39.994575 Z0.000000 I7.295158 J-1.178786
G02 X13.850923 Y39.168759 Z0.000000 I-8.296337 J0.359445
G01 X13.803091 Y39.127300 Z0.000000
G02 X13.738989 Y39.164065 Z0.000000 I-0.000070 J0.074143
G02 X13.360222 Y39.885946 Z0.000000 I7.794760 J4.550180
G01 X13.004854 Y40.644671 Z0.000000
G01 X12.490041 Y40.150391 Z0.000000
G03 X12.018921 Y39.622944 Z0.000000 I3.196394 J-3.329167
G03 X11.650698 Y39.051671 Z0.000000 I3.387244 J-2.587614
G01 X11.326172 Y38.447226 Z0.000000
G01 X11.323947 Y35.878346 Z0.000000
G01 X11.321722 Y33.309466 Z0.000000
G01 X11.057279 Y32.935843 Z0.000000
G01 X10.792836 Y32.562220 Z0.000000
G01 X10.792835 Y33.570623 Z0.000000
G03 X10.742188 Y34.573308 Z0.000000 I-9.950813 J-0.000006
G03 X10.609602 Y35.379795 Z0.000000 I-6.561237 J-0.664524
G01 X10.426369 Y36.180565 Z0.000000
G01 X10.320938 Y34.820568 Z0.000000
G02 X10.167769 Y33.471925 Z0.000000 I-18.946467 J1.468784
G02 X10.060417 Y33.082799 Z0.000000 I-1.662172 J0.249187
G01 X9.905328 Y32.705020 Z0.000000
G01 X9.880689 Y33.460572 Z0.000000
G03 X9.824367 Y34.211126 Z0.000000 I-8.895044 J-0.290096
G03 X9.747253 Y34.593902 Z0.000000 I-2.378745 J-0.280068
G01 X9.638459 Y34.971681 Z0.000000
G01 X9.286970 Y33.800571 Z0.000000
G02 X8.904470 Y32.671537 Z0.000000 I-16.280667 J4.886339
G02 X8.844164 Y32.630260 Z0.000000 I-0.059755 J0.022609
G01 X8.797276 Y32.675250 Z0.000000
G02 X8.746992 Y34.556921 Z0.000000 I39.701212 J2.002439
G01 X8.741146 Y36.482783 Z0.000000
G01 X8.586708 Y36.752892 Z0.000000
G01 X8.432269 Y37.023000 Z0.000000
G01 X8.232171 Y34.998773 Z0.000000
G01 X8.032073 Y32.974545 Z0.000000
G01 X8.203987 Y31.328673 Z0.000000
G02 X8.367366 Y29.682367 Z0.000000 I-159.459680 J-16.656017
G02 X8.375486 Y29.504858 Z0.000000 I-1.841853 J-0.173194
G03 X8.442372 Y29.364705 Z0.000000 I0.179124 J-0.000553
G03 X9.281737 Y28.776143 Z0.000000 I4.896466 J6.090190
G01 X10.188401 Y28.225371 Z0.000000
G01 X10.199162 Y27.971869 Z0.000000
G01 X10.239556 Y27.964647 Z0.000000
G03 X10.472491 Y28.625031 Z0.000000 I-5.647758 J2.363380
G02 X10.763021 Y29.520386 Z0.000000 I14.180813 J-4.106668
G02 X10.935032 Y29.909474 Z0.000000 I2.836992 J-1.021628
G01 X10.935003 Y29.909520 Z0.000000
G00 Z5.000000

(End cutting path id: path930)


(Start cutting path id: path930)
(Change tool to Cylindrical cutter)

G00 Z5.000000
G00 X12.170397 Y40.476135

G01 Z0.000000 F1000.0(Penetrate)
G01 X12.908352 Y41.225819 Z0.000000 F1100.000000
G01 X12.908351 Y41.689038 Z0.000000
G01 X12.908351 Y42.152263 Z0.000000
G01 X12.389114 Y41.811893 Z0.000000
G03 X11.928825 Y41.414626 Z0.000000 I1.268258 J-1.934740
G03 X11.406895 Y40.707607 Z0.000000 I3.611021 J-3.211859
G01 X10.943913 Y39.943692 Z0.000000
G01 X10.947339 Y39.346589 Z0.000000
G01 X10.950764 Y38.749491 Z0.000000
G01 X11.191588 Y39.237971 Z0.000000
G02 X11.479205 Y39.693195 Z0.000000 I2.294559 J-1.131266
G02 X12.170365 Y40.476135 Z0.000000 I7.548646 J-5.967217
G01 X12.170397 Y40.476135 Z0.000000
G00 Z5.000000

(End cutting path id: path930)


(Start cutting path id: path930)
(Change tool to Cylindrical cutter)

G00 Z5.000000
G00 X11.665609 Y41.431705

G01 Z0.000000 F1000.0(Penetrate)
G03 X12.550401 Y42.399976 Z0.000000 I-11.937843 J11.797001 F1100.000000
G01 X12.526521 Y42.451137 Z0.000000
G03 X12.061720 Y42.319097 Z0.000000 I0.002488 J-0.892866
G03 X10.981690 Y41.502834 Z0.000000 I3.680449 J-5.992385
G02 X10.695827 Y41.313478 Z0.000000 I-0.735072 J0.799253
G01 X10.641691 Y41.348341 Z0.000000
G02 X10.962938 Y42.066841 Z0.000000 I0.964121 J0.000001
G02 X12.293298 Y42.826113 Z0.000000 I2.435126 J-2.721582
G03 X12.541916 Y42.953829 Z0.000000 I-0.254043 J0.800376
G01 X12.546333 Y43.015205 Z0.000000
G03 X11.900397 Y43.092632 Z0.000000 I-0.372228 J-0.372237
G03 X10.520612 Y41.782144 Z0.000000 I2.341798 J-3.847245
G03 X10.079678 Y40.810316 Z0.000000 I2.570814 J-1.752362
G03 X9.891308 Y39.353935 Z0.000000 I5.702986 J-1.478003
G01 X9.889082 Y38.749490 Z0.000000
G01 X10.273356 Y39.580602 Z0.000000
G01 X10.657630 Y40.411707 Z0.000000
G01 X11.665600 Y41.431705 Z0.000000
G01 X11.665609 Y41.431705 Z0.000000
G00 Z5.000000

(End cutting path id: path930)


(Start cutting path id: path930)
(Change tool to Cylindrical cutter)

G00 Z5.000000
G00 X11.989299 Y43.570110

G01 Z0.000000 F1000.0(Penetrate)
G01 X12.189648 Y43.811516 Z0.000000 F1100.000000
G01 X11.680113 Y43.717661 Z0.000000
G01 X11.170577 Y43.623811 Z0.000000
G01 X11.472798 Y43.864058 Z0.000000
G03 X11.659163 Y44.066122 Z0.000000 I-0.557068 J0.700761
G01 X11.637186 Y44.109117 Z0.000000
G03 X10.727703 Y43.864759 Z0.000000 I-0.056027 J-1.606168
G03 X10.144229 Y43.173486 Z0.000000 I0.787507 J-1.256580
G02 X10.063737 Y42.980990 Z0.000000 I-19.387977 J7.994071
G02 X9.829466 Y42.431133 Z0.000000 I-158.739565 J67.307171
G01 X9.594240 Y41.881673 Z0.000000
G01 X10.691596 Y42.605189 Z0.000000
G03 X11.764019 Y43.356542 Z0.000000 I-12.767998 J19.365065
G03 X11.989299 Y43.570110 Z0.000000 I-0.777828 J1.046086
G01 X11.989299 Y43.570110 Z0.000000
G00 Z5.000000

(End cutting path id: path930)


(Start cutting path id: path930)
(Change tool to Cylindrical cutter)

G00 Z5.000000
G00 X9.813808 Y43.207258

G01 Z0.000000 F1000.0(Penetrate)
G02 X10.394155 Y43.856839 Z0.000000 I9.316407 J-7.739413 F1100.000000
G02 X10.472419 Y43.893114 Z0.000000 I0.085669 J-0.082265
G03 X10.559241 Y43.919901 Z0.000000 I-0.013051 J0.196401
G03 X11.321687 Y44.393554 Z0.000000 I-9.601634 J16.306375
G01 X12.077240 Y44.888137 Z0.000000
G01 X11.699464 Y44.783863 Z0.000000
G03 X10.552014 Y44.302025 Z0.000000 I1.294639 J-4.690236
G03 X9.701026 Y43.624192 Z0.000000 I1.866318 J-3.216185
G02 X9.606297 Y43.674763 Z0.000000 I-0.040611 J0.037936
G02 X9.804008 Y44.065285 Z0.000000 I0.899219 J-0.209940
G01 X10.326321 Y44.675490 Z0.000000
G01 X11.088448 Y45.003348 Z0.000000
G03 X11.819698 Y45.351534 Z0.000000 I-4.198337 J9.759177
G03 X11.850574 Y45.402563 Z0.000000 I-0.026729 J0.051028
G01 X11.817637 Y45.440938 Z0.000000
G03 X11.385153 Y45.473920 Z0.000000 I-0.432482 J-2.819018
G01 X10.919732 Y45.473920 Z0.000000
G01 X10.043389 Y44.597573 Z0.000000
G01 X9.167048 Y43.721233 Z0.000000
G01 X9.158074 Y43.070531 Z0.000000
G03 X9.174149 Y42.482343 Z0.000000 I7.142504 J-0.099115
G01 X9.199005 Y42.473547 Z0.000000
G03 X9.247517 Y42.528539 Z0.000000 I-1.058285 J0.982488
G03 X9.813813 Y43.207258 Z0.000000 I-158.121544 J132.505851
G01 X9.813808 Y43.207258 Z0.000000
G00 Z5.000000

(End cutting path id: path930)


(Start cutting path id: path930)
(Change tool to Cylindrical cutter)

G00 Z5.000000
G00 X8.072808 Y44.771245

G01 Z0.000000 F1000.0(Penetrate)
G01 X8.072808 Y45.277462 Z0.000000 F1100.000000
G01 X8.536948 Y45.918191 Z0.000000
G01 X9.001090 Y46.558920 Z0.000000
G01 X8.669325 Y46.453619 Z0.000000
G01 X8.337560 Y46.348323 Z0.000000
G01 X8.695606 Y46.985376 Z0.000000
G02 X9.087249 Y47.596960 Z0.000000 I5.503487 J-3.093096
G02 X9.430156 Y47.998940 Z0.000000 I2.706076 J-1.961160
G01 X9.806661 Y48.375446 Z0.000000
G01 X9.976589 Y47.959722 Z0.000000
G01 X10.146516 Y47.543998 Z0.000000
G01 X10.346269 Y48.548953 Z0.000000
G02 X10.680182 Y49.369006 Z0.000000 I2.293517 J-0.455878
G02 X10.894824 Y49.391436 Z0.000000 I0.116414 J-0.075799
G01 X11.057295 Y49.228964 Z0.000000
G01 X11.159795 Y49.912478 Z0.000000
G01 X11.262294 Y50.595993 Z0.000000
G01 X11.480877 Y50.512111 Z0.000000
G01 X11.699461 Y50.428234 Z0.000000
G01 X11.699460 Y50.694490 Z0.000000
G01 X11.699460 Y50.960745 Z0.000000
G01 X11.973522 Y50.712717 Z0.000000
G01 X12.247586 Y50.464696 Z0.000000
G01 X12.418399 Y50.635509 Z0.000000
G01 X12.589215 Y50.806328 Z0.000000
G01 X12.502446 Y50.474520 Z0.000000
G01 X12.415678 Y50.142719 Z0.000000
G01 X12.850900 Y50.236386 Z0.000000
G01 X13.286122 Y50.330059 Z0.000000
G01 X12.908346 Y50.028250 Z0.000000
G02 X12.529095 Y49.728340 Z0.000000 I-30.451040 J38.117111
G02 X12.228348 Y49.495967 Z0.000000 I-18.574226 J23.728766
G01 X11.926127 Y49.265488 Z0.000000
G01 X12.530570 Y49.354782 Z0.000000
G01 X13.135012 Y49.444071 Z0.000000
G01 X12.701634 Y48.981005 Z0.000000
G01 X12.268254 Y48.517940 Z0.000000
G01 X12.777189 Y48.469246 Z0.000000
G01 X13.286124 Y48.420551 Z0.000000
G01 X12.441602 Y47.932294 Z0.000000
G03 X10.509402 Y46.663227 Z0.000000 I10.165773 J-17.583216
G03 X10.552859 Y46.531668 Z0.000000 I0.043457 J-0.058602
G03 X10.651851 Y46.551588 Z0.000000 I-0.000000 J0.255929
G03 X11.102524 Y46.762216 Z0.000000 I-2.403038 J5.729143
G01 X11.146303 Y46.700679 Z0.000000
G02 X10.468251 Y46.160014 Z0.000000 I-3.462835 J3.647261
G01 X9.388152 Y45.441791 Z0.000000
G01 X9.498888 Y45.722283 Z0.000000
G03 X9.587022 Y46.008672 Z0.000000 I-1.800983 J0.710996
G03 X9.680809 Y46.531667 Z0.000000 I-5.939907 J1.335082
G01 X9.751992 Y47.060553 Z0.000000
G01 X9.476226 Y46.301839 Z0.000000
G02 X8.568564 Y44.503887 Z0.000000 I-7.979832 J2.900384
G02 X8.123074 Y44.265006 Z0.000000 I-0.445491 J0.295958
G01 X8.096696 Y44.288894 Z0.000000
G02 X8.072809 Y44.771222 Z0.000000 I4.857784 J0.482331
G01 X8.072808 Y44.771245 Z0.000000
G00 Z5.000000

(End cutting path id: path930)


(Start cutting path id: path930)
(Change tool to Cylindrical cutter)

G00 Z5.000000
G00 X6.259478 Y48.274338

G01 Z0.000000 F1000.0(Penetrate)
G02 X6.360079 Y48.610216 Z0.000000 I0.611000 J0.000000 F1100.000000
G02 X7.573860 Y50.271679 Z0.000000 I17.578351 J-11.567761
G03 X7.525408 Y50.415875 Z0.000000 I-0.070112 J0.056679
G03 X7.268595 Y50.347232 Z0.000000 I-0.066146 J-0.267256
G01 X6.678310 Y49.780567 Z0.000000
G01 X6.941108 Y50.300690 Z0.000000
G02 X7.247724 Y50.790452 Z0.000000 I2.822002 J-1.425860
G02 X7.976835 Y51.660687 Z0.000000 I9.709742 J-7.394571
G03 X8.357099 Y52.115519 Z0.000000 I-4.586707 J4.221111
G01 X8.336324 Y52.134781 Z0.000000
G02 X7.925129 Y51.842400 Z0.000000 I-1.576956 J1.782441
G02 X7.837417 Y51.854471 Z0.000000 I-0.035895 J0.063885
G02 X7.839876 Y52.269266 Z0.000000 I0.206179 J0.206182
G02 X9.421727 Y53.401614 Z0.000000 I4.480691 J-4.588302
G02 X11.190254 Y54.118885 Z0.000000 I5.157866 J-10.178497
G02 X11.489877 Y54.044958 Z0.000000 I0.088631 J-0.284924
G01 X11.495332 Y53.980774 Z0.000000
G02 X10.975334 Y53.317247 Z0.000000 I-6.992820 J4.944673
G01 X10.398658 Y52.651674 Z0.000000
G01 X10.208098 Y51.971676 Z0.000000
G02 X10.004212 Y51.295999 Z0.000000 I-17.125450 J4.799036
G02 X9.780974 Y50.651491 Z0.000000 I-15.805886 J5.113752
G01 X9.544406 Y50.011305 Z0.000000
G01 X8.753484 Y49.649207 Z0.000000
G03 X7.978211 Y49.258418 Z0.000000 I4.811331 J-10.509430
G03 X7.111021 Y48.742388 Z0.000000 I7.547563 J-13.670395
G02 X6.291184 Y48.255586 Z0.000000 I-7.724736 J12.075695
G01 X6.259478 Y48.274338 Z0.000000
G01 X6.259478 Y48.274338 Z0.000000
G00 Z5.000000

(End cutting path id: path930)


(Start cutting path id: path930)
(Change tool to Cylindrical cutter)

G00 Z5.000000
G00 X7.518499 Y52.526962

G01 Z0.000000 F1000.0(Penetrate)
G02 X7.801765 Y52.942505 Z0.000000 I1.849218 J-0.956249 F1100.000000
G02 X8.140635 Y53.237160 Z0.000000 I1.248640 J-1.093822
G01 X8.526134 Y53.489749 Z0.000000
G01 X8.527219 Y53.826265 Z0.000000
G02 X8.586495 Y54.145147 Z0.000000 I0.903857 J-0.003066
G02 X8.828444 Y54.616109 Z0.000000 I2.245555 J-0.855987
G02 X8.954394 Y54.595022 Z0.000000 I0.058278 J-0.038596
G02 X8.957745 Y54.116360 Z0.000000 I-0.950785 J-0.246000
G02 X8.599789 Y53.314370 Z0.000000 I-2.374873 J0.579109
G02 X7.880847 Y52.543695 Z0.000000 I-2.904607 J1.988952
G01 X7.281952 Y52.069360 Z0.000000
G01 X7.518588 Y52.526962 Z0.000000
G01 X7.518499 Y52.526962 Z0.000000
G00 Z5.000000

(End cutting path id: path930)


(Start cutting path id: path930)
(Change tool to Cylindrical cutter)

G00 Z5.000000
G00 X9.583909 Y54.067803

G01 Z0.000000 F1000.0(Penetrate)
G02 X9.769335 Y54.493650 Z0.000000 I0.581710 J0.000000 F1100.000000
G02 X10.868349 Y55.263061 Z0.000000 I3.305998 J-3.552621
G02 X12.364929 Y55.756470 Z0.000000 I2.341104 J-4.584530
G02 X12.606121 Y55.552078 Z0.000000 I0.033993 J-0.204392
G02 X12.570344 Y55.497348 Z0.000000 I-0.059750 J-0.000000
G02 X11.844918 Y55.218677 Z0.000000 I-3.383994 J7.725569
G03 X11.109201 Y54.913954 Z0.000000 I1.744809 J-5.253148
G03 X10.333812 Y54.461201 Z0.000000 I3.153878 J-6.291699
G02 X9.628717 Y54.040710 Z0.000000 I-4.199051 J6.239721
G01 X9.583909 Y54.067803 Z0.000000
G01 X9.583909 Y54.067803 Z0.000000
G00 Z5.000000

(End cutting path id: path930)


(Start cutting path id: path930)
(Change tool to Cylindrical cutter)

G00 Z5.000000
G00 X9.886129 Y55.722244

G01 Z0.000000 F1000.0(Penetrate)
G02 X10.152954 Y56.392274 Z0.000000 I0.974677 J0.000001 F1100.000000
G02 X11.429582 Y57.352830 Z0.000000 I3.473681 J-3.288073
G02 X12.932630 Y57.988144 Z0.000000 I4.850147 J-9.379011
G02 X13.054898 Y57.896068 Z0.000000 I0.029450 J-0.088111
G02 X13.013189 Y57.808899 Z0.000000 I-0.122947 J0.005266
G02 X12.202826 Y57.147217 Z0.000000 I-9.519326 J10.831264
G01 X11.355311 Y56.504998 Z0.000000
G01 X12.169604 Y56.494038 Z0.000000
G01 X12.983898 Y56.483078 Z0.000000
G01 X11.623902 Y56.043754 Z0.000000
G02 X9.994844 Y55.631760 Z0.000000 I-3.991791 J12.357159
G02 X9.886129 Y55.722204 Z0.000000 I-0.016735 J0.090444
G01 X9.886129 Y55.722244 Z0.000000
G00 Z5.000000

(End cutting path id: path930)


(Start cutting path id: path930)
(Change tool to Cylindrical cutter)

G00 Z5.000000
G00 X18.029226 Y58.939525

G01 Z0.000000 F1000.0(Penetrate)
G03 X17.624727 Y59.005698 Z0.000000 I-0.299677 J-0.562456 F1100.000000
G03 X17.576908 Y58.864102 Z0.000000 I0.013937 J-0.083579
G01 X17.915946 Y58.503210 Z0.000000
G01 X18.228591 Y58.584969 Z0.000000
G01 X18.541234 Y58.666728 Z0.000000
G01 X18.029226 Y58.939525 Z0.000000
G00 Z5.000000

(End cutting path id: path930)


(Start cutting path id: path930)
(Change tool to Cylindrical cutter)

G00 Z5.000000
G00 X20.129172 Y68.445223

G01 Z0.000000 F1000.0(Penetrate)
G02 X18.025911 Y68.942529 Z0.000000 I2.236137 J14.153655 F1100.000000
G02 X16.724596 Y69.527054 Z0.000000 I1.890566 J5.949728
G02 X14.444889 Y71.277537 Z0.000000 I6.233204 J10.477401
G02 X11.762019 Y74.367941 Z0.000000 I17.258376 J17.692237
G02 X8.893542 Y78.747455 Z0.000000 I40.496030 J29.653087
G02 X9.050433 Y79.020485 Z0.000000 I0.156891 J0.091439
G02 X9.106101 Y78.988976 Z0.000000 I0.000000 J-0.064930
G02 X9.526713 Y78.227154 Z0.000000 I-10.304283 J-6.186157
G03 X12.655108 Y73.824237 Z0.000000 I16.179221 J8.182923
G03 X16.588441 Y70.904519 Z0.000000 I10.735054 J10.352577
G01 X17.366098 Y70.505990 Z0.000000
G01 X18.197207 Y70.498569 Z0.000000
G03 X19.025353 Y70.535168 Z0.000000 I0.068510 J7.837509
G03 X20.905583 Y70.762457 Z0.000000 I-3.951562 J40.579712
G01 X22.782850 Y71.033760 Z0.000000
G01 X24.192009 Y70.768350 Z0.000000
G01 X25.601167 Y70.502947 Z0.000000
G01 X26.394730 Y70.758807 Z0.000000
G03 X27.156889 Y71.075956 Z0.000000 I-1.538658 J4.772015
G03 X27.886382 Y71.529213 Z0.000000 I-2.490052 J4.821263
G01 X28.584474 Y72.043759 Z0.000000
G01 X28.901774 Y72.699216 Z0.000000
G03 X29.162946 Y73.373275 Z0.000000 I-4.011637 J1.941986
G03 X29.441972 Y74.519647 Z0.000000 I-11.381612 J3.377418
G02 X29.977123 Y76.056446 Z0.000000 I5.491452 J-1.050682
G02 X30.490176 Y76.527474 Z0.000000 I0.907905 J-0.473980
G03 X31.116404 Y77.005695 Z0.000000 I-0.598924 J1.433421
G03 X32.083765 Y78.571431 Z0.000000 I-6.684303 J5.211473
G01 X32.697794 Y79.860145 Z0.000000
G01 X33.781853 Y80.830729 Z0.000000
G01 X34.865913 Y81.801313 Z0.000000
G01 X35.299252 Y82.757026 Z0.000000
G03 X35.677366 Y83.731756 Z0.000000 I-8.559804 J3.881193
G03 X36.089938 Y85.188535 Z0.000000 I-18.744610 J6.095438
G02 X36.475331 Y86.656408 Z0.000000 I38.427137 J-9.304609
G02 X36.933948 Y88.169058 Z0.000000 I41.267634 J-11.685975
G01 X37.420614 Y89.673789 Z0.000000
G01 X37.537937 Y91.109340 Z0.000000
G01 X37.655262 Y92.544892 Z0.000000
G01 X37.524848 Y93.849139 Z0.000000
G03 X37.166052 Y95.553796 Z0.000000 I-8.056001 J-0.805537
G03 X36.653983 Y96.519537 Z0.000000 I-3.030766 J-0.988386
G02 X36.265123 Y97.103324 Z0.000000 I3.839679 J2.979012
G02 X35.976333 Y97.715866 Z0.000000 I3.941289 J2.232514
G03 X35.682136 Y98.326192 Z0.000000 I-3.796362 J-1.453899
G03 X35.071746 Y99.250586 Z0.000000 I-9.361286 J-5.517671
G02 X34.189582 Y100.718425 Z0.000000 I7.391118 J5.441030
G02 X32.938061 Y103.693507 Z0.000000 I29.387248 J14.113039
G01 X32.675606 Y104.415485 Z0.000000
G01 X32.156207 Y104.318046 Z0.000000
G01 X31.636810 Y104.220605 Z0.000000
G01 X31.736292 Y104.842730 Z0.000000
G01 X31.835773 Y105.464856 Z0.000000
G01 X31.703126 Y105.463771 Z0.000000
G03 X31.595486 Y105.415888 Z0.000000 I0.001272 J-0.147788
G03 X31.192704 Y104.907227 Z0.000000 I3.298621 J-3.025806
G02 X29.873658 Y103.533185 Z0.000000 I-4.716159 J3.207248
G02 X28.576219 Y102.967059 Z0.000000 I-1.876367 J2.530438
G02 X27.369629 Y102.998290 Z0.000000 I-0.530283 J2.836365
G02 X26.020404 Y103.583256 Z0.000000 I1.003941 J4.164068
G01 X25.456979 Y103.953753 Z0.000000
G01 X24.807365 Y103.953753 Z0.000000
G01 X24.157749 Y103.953752 Z0.000000
G01 X23.834143 Y104.180414 Z0.000000
G01 X23.510539 Y104.407077 Z0.000000
G01 X23.050972 Y104.143320 Z0.000000
G01 X22.591406 Y103.879565 Z0.000000
G01 X22.381970 Y104.165983 Z0.000000
G01 X22.172536 Y104.452401 Z0.000000
G01 X21.711438 Y104.222376 Z0.000000
G01 X21.250339 Y103.992349 Z0.000000
G01 X21.045981 Y104.119369 Z0.000000
G03 X20.829394 Y104.185816 Z0.000000 I-0.233969 J-0.376421
G03 X20.241410 Y104.150949 Z0.000000 I-0.117499 J-2.993694
G01 X19.641196 Y104.055505 Z0.000000
G01 X19.915478 Y104.474113 Z0.000000
G01 X20.189762 Y104.892722 Z0.000000
G01 X20.023743 Y105.058741 Z0.000000
G01 X19.857722 Y105.224762 Z0.000000
G01 X19.422250 Y104.702588 Z0.000000
G01 X18.986777 Y104.180416 Z0.000000
G01 X17.043097 Y104.104859 Z0.000000
G01 X15.099418 Y104.029303 Z0.000000
G01 X13.950274 Y103.480515 Z0.000000
G01 X12.801129 Y102.931727 Z0.000000
G01 X11.402994 Y101.533593 Z0.000000
G01 X10.004862 Y100.135457 Z0.000000
G01 X9.780572 Y99.598655 Z0.000000
G02 X9.524626 Y99.080030 Z0.000000 I-4.260914 J1.780336
G02 X9.206693 Y98.598917 Z0.000000 I-3.981701 J2.285605
G01 X8.857105 Y98.135983 Z0.000000
G01 X8.548996 Y96.775987 Z0.000000
G03 X7.805629 Y93.057010 Z0.000000 I72.513383 J-16.428113
G03 X7.723197 Y92.016000 Z0.000000 I5.554086 J-0.963565
G03 X7.805617 Y90.164004 Z0.000000 I30.158543 J0.414322
G03 X8.313918 Y84.176587 Z0.000000 I315.997413 J23.811271
G01 X8.547686 Y81.701597 Z0.000000
G01 X8.389361 Y81.543274 Z0.000000
G01 X8.231038 Y81.384951 Z0.000000
G01 X7.940210 Y81.648146 Z0.000000
G02 X7.717267 Y81.948716 Z0.000000 I0.641352 J0.708680
G02 X7.553028 Y82.468131 Z0.000000 I1.831389 J0.864760
G03 X7.450360 Y83.023698 Z0.000000 I-24.450676 J-4.231162
G03 X7.289416 Y83.809020 Z0.000000 I-49.035293 J-9.640157
G01 X7.122157 Y84.593121 Z0.000000
G01 X6.684653 Y84.774340 Z0.000000
G02 X6.263790 Y84.985327 Z0.000000 I1.252174 J3.023000
G02 X5.636177 Y85.398148 Z0.000000 I4.259024 J7.158501
G01 X5.025206 Y85.840731 Z0.000000
G01 X4.579941 Y86.792236 Z0.000000
G02 X4.194509 Y87.764350 Z0.000000 I7.870166 J3.682897
G02 X3.826589 Y89.086543 Z0.000000 I14.219498 J4.669071
G03 X3.353083 Y90.563449 Z0.000000 I-8.932199 J-2.049367
G03 X2.577561 Y92.082663 Z0.000000 I-10.230900 J-4.265075
G01 X2.028352 Y92.980436 Z0.000000
G01 X2.030978 Y93.669325 Z0.000000
G02 X2.069244 Y94.355246 Z0.000000 I6.632379 J-0.025977
G02 X2.244078 Y95.642653 Z0.000000 I23.544621 J-2.541872
G03 X2.409060 Y96.927475 Z0.000000 I-18.421034 J3.018411
G03 X2.399121 Y97.304870 Z0.000000 I-1.578733 J0.147254
G03 X2.338682 Y97.681829 Z0.000000 I-14.194199 J-2.082505
G03 X2.018258 Y99.493556 Z0.000000 I-328.047082 J-57.084582
G01 X1.692814 Y101.304462 Z0.000000
G01 X1.789375 Y102.126047 Z0.000000
G02 X1.941596 Y102.932424 Z0.000000 I5.860876 J-0.688807
G02 X2.176754 Y103.605078 Z0.000000 I4.304521 J-1.127421
G03 X2.408931 Y104.280459 Z0.000000 I-3.830655 J1.694471
G03 X2.781555 Y106.016257 Z0.000000 I-25.106059 J6.297407
G01 X3.095535 Y107.769989 Z0.000000
G01 X3.671621 Y108.997411 Z0.000000
G03 X4.194200 Y110.244880 Z0.000000 I-14.537227 J6.823003
G03 X4.657525 Y111.660385 Z0.000000 I-18.263345 J6.761568
G02 X5.125189 Y113.071225 Z0.000000 I17.019466 J-4.858668
G02 X5.447209 Y113.745188 Z0.000000 I4.180118 J-1.583349
G02 X6.274174 Y114.867031 Z0.000000 I5.693062 J-3.330912
G02 X11.782669 Y120.668756 Z0.000000 I160.338843 J-146.719125
G01 X12.999260 Y121.903770 Z0.000000
G01 X15.111235 Y122.961773 Z0.000000
G02 X18.113805 Y124.174707 Z0.000000 I9.019581 J-18.004776
G02 X20.527870 Y124.657707 Z0.000000 I3.477680 J-11.107352
G03 X22.196161 Y124.848606 Z0.000000 I-3.422184 J37.292055
G03 X23.406466 Y125.052665 Z0.000000 I-2.719735 J19.822376
G01 X24.611339 Y125.294031 Z0.000000
G01 X25.446460 Y125.176504 Z0.000000
G03 X26.284423 Y125.097689 Z0.000000 I1.274488 J9.056311
G03 X28.170466 Y125.046336 Z0.000000 I2.193624 J45.905820
G01 X30.059349 Y125.033693 Z0.000000
G01 X31.615950 Y124.477599 Z0.000000
G01 X33.172550 Y123.921504 Z0.000000
G01 X33.498293 Y123.495380 Z0.000000
G03 X35.718180 Y120.936810 Z0.000000 I21.727411 J16.609008
G03 X36.218375 Y120.727043 Z0.000000 I0.500194 J0.491478
G01 X36.244900 Y120.777314 Z0.000000
G03 X35.738838 Y121.428316 Z0.000000 I-5.582081 J-3.817085
G02 X35.835246 Y121.831743 Z0.000000 I0.190521 J0.167704
G02 X36.592220 Y121.769031 Z0.000000 I0.315598 J-0.790472
G01 X37.614879 Y121.148802 Z0.000000
G01 X37.010436 Y121.787526 Z0.000000
G01 X36.405993 Y122.426248 Z0.000000
G01 X36.708214 Y122.270519 Z0.000000
G02 X37.268492 Y121.817581 Z0.000000 I-0.814261 J-1.580226
G02 X38.218891 Y120.428500 Z0.000000 I-7.501578 J-6.152196
G03 X39.712065 Y118.190092 Z0.000000 I15.622467 J8.804041
G03 X41.196811 Y116.618121 Z0.000000 I9.124618 J7.131151
G02 X42.268410 Y115.649743 Z0.000000 I-33.060491 J-37.661591
G02 X42.856875 Y115.073929 Z0.000000 I-11.091783 J-11.924061
G01 X43.430987 Y114.483018 Z0.000000
G01 X43.953872 Y112.807270 Z0.000000
G02 X44.458516 Y111.126413 Z0.000000 I-77.621302 J-24.220458
G02 X44.720706 Y110.149301 Z0.000000 I-25.963400 J-7.490529
G01 X44.964653 Y109.167082 Z0.000000
G01 X45.121802 Y104.860429 Z0.000000
G02 X45.174168 Y98.223584 Z0.000000 I-116.039969 J-4.234203
G02 X44.933675 Y95.770405 Z0.000000 I-16.012663 J0.331397
G03 X44.636149 Y94.055150 Z0.000000 I285.535437 J-50.412021
G03 X44.474253 Y93.073796 Z0.000000 I93.405962 J-15.913379
G01 X44.317507 Y92.091576 Z0.000000
G01 X43.875081 Y91.371531 Z0.000000
G03 X43.459602 Y90.643868 Z0.000000 I11.100699 J-6.820680
G03 X43.432658 Y90.535327 Z0.000000 I0.205149 J-0.108541
G02 X43.404908 Y90.427196 Z0.000000 I-0.224549 J-0.000000
G02 X42.941549 Y89.641502 Z0.000000 I-13.138936 J7.219162
G03 X42.454157 Y88.861548 Z0.000000 I81.914799 J-51.730605
G03 X42.103792 Y88.286601 Z0.000000 I44.146642 J-27.296606
G01 X41.757146 Y87.709366 Z0.000000
G01 X41.848960 Y88.313809 Z0.000000
G02 X41.973629 Y88.910597 Z0.000000 I5.463499 J-0.829906
G02 X42.384494 Y90.317833 Z0.000000 I30.869518 J-8.249255
G03 X42.794462 Y91.722633 Z0.000000 I-30.241588 J9.587739
G03 X42.828214 Y91.979916 Z0.000000 I-0.963723 J0.257282
G01 X42.762024 Y92.000757 Z0.000000
G03 X41.810885 Y90.524625 Z0.000000 I19.091229 J-13.345835
G02 X40.753348 Y88.839896 Z0.000000 I-33.087708 J19.595517
G02 X40.488668 Y88.534478 Z0.000000 I-1.322224 J0.878461
G02 X40.182049 Y88.264100 Z0.000000 I-21.170895 J23.699637
G02 X39.684648 Y87.834632 Z0.000000 I-53.915761 J61.941356
G01 X39.185516 Y87.407142 Z0.000000
G01 X39.055980 Y86.830007 Z0.000000
G01 X38.926444 Y86.252867 Z0.000000
G01 X39.056420 Y85.799666 Z0.000000
G01 X39.186397 Y85.346465 Z0.000000
G01 X38.771834 Y85.437517 Z0.000000
G01 X38.357269 Y85.528575 Z0.000000
G01 X38.009786 Y85.158697 Z0.000000
G01 X37.662303 Y84.788813 Z0.000000
G01 X37.638601 Y84.284652 Z0.000000
G01 X37.614899 Y83.780484 Z0.000000
G01 X38.125934 Y83.804917 Z0.000000
G01 X38.636969 Y83.829351 Z0.000000
G01 X39.535089 Y84.711565 Z0.000000
G03 X40.385352 Y85.631285 Z0.000000 I-9.117667 J9.281993
G03 X40.813961 Y86.236005 Z0.000000 I-3.490404 J2.928162
G02 X40.953263 Y86.321129 Z0.000000 I0.150005 J-0.088934
G02 X41.001504 Y86.247536 Z0.000000 I0.003110 J-0.050569
G02 X40.621297 Y85.658871 Z0.000000 I-3.073304 J1.567867
G02 X39.670462 Y84.585320 Z0.000000 I-11.278309 J9.031252
G01 X38.661165 Y83.553773 Z0.000000
G01 X38.289143 Y83.554075 Z0.000000
G01 X37.917120 Y83.554378 Z0.000000
G01 X37.967214 Y82.584919 Z0.000000
G01 X38.017308 Y81.615460 Z0.000000
G01 X37.847032 Y81.297296 Z0.000000
G01 X37.676756 Y80.979132 Z0.000000
G01 X37.934479 Y80.542846 Z0.000000
G01 X38.192201 Y80.106554 Z0.000000
G01 X37.993704 Y79.627339 Z0.000000
G02 X37.478422 Y79.007169 Z0.000000 I-1.257986 J0.521074
G02 X36.454923 Y78.625923 Z0.000000 I-1.362776 J2.094050
G01 X35.767908 Y78.531753 Z0.000000
G01 X35.535584 Y78.863440 Z0.000000
G01 X35.303260 Y79.195127 Z0.000000
G01 X34.704217 Y77.998277 Z0.000000
G02 X34.066491 Y76.824026 Z0.000000 I-17.856407 J8.937373
G02 X33.305067 Y75.615714 Z0.000000 I-19.671627 J11.552110
G01 X32.504958 Y74.430001 Z0.000000
G01 X30.881454 Y72.815907 Z0.000000
G01 X29.257950 Y71.201814 Z0.000000
G01 X27.912714 Y70.301999 Z0.000000
G02 X26.534239 Y69.464211 Z0.000000 I-10.328180 J15.440772
G02 X25.367152 Y68.902486 Z0.000000 I-5.770191 J10.495364
G01 X24.166823 Y68.402788 Z0.000000
G01 X22.579778 Y68.355748 Z0.000000
G02 X20.996077 Y68.361145 Z0.000000 I-0.710179 J23.970720
G02 X20.129152 Y68.445149 Z0.000000 I0.263818 J7.237917
G01 X20.129172 Y68.445223 Z0.000000
G00 Z5.000000

(End cutting path id: path930)


(Start cutting path id: path930)
(Change tool to Cylindrical cutter)

G00 Z5.000000
G00 X21.219418 Y75.242723

G01 Z0.000000 F1000.0(Penetrate)
G02 X22.036229 Y75.483686 Z0.000000 I0.816812 J-1.263923 F1100.000000
G02 X22.277192 Y75.242724 Z0.000000 I0.000000 J-0.240963
G01 X22.277192 Y75.091617 Z0.000000
G01 X21.634972 Y75.093900 Z0.000000
G01 X20.992752 Y75.096183 Z0.000000
G01 X21.219418 Y75.242723 Z0.000000
G00 Z5.000000

(End cutting path id: path930)


(Start cutting path id: path930)
(Change tool to Cylindrical cutter)

G00 Z5.000000
G00 X21.214108 Y76.231346

G01 Z0.000000 F1000.0(Penetrate)
G01 X21.020676 Y76.464417 Z0.000000 F1100.000000
G01 X21.157827 Y76.596240 Z0.000000
G02 X21.316526 Y76.682687 Z0.000000 I0.237500 J-0.247110
G02 X22.163864 Y76.833913 Z0.000000 I1.787692 J-7.567164
G01 X23.032750 Y76.939768 Z0.000000
G01 X23.032750 Y76.799068 Z0.000000
G02 X22.738792 Y76.292247 Z0.000000 I-0.583890 J-0.000000
G02 X21.632906 Y75.998281 Z0.000000 I-1.105888 J1.933166
G02 X21.432021 Y76.050413 Z0.000000 I-0.000000 J0.413107
G02 X21.214108 Y76.231346 Z0.000000 I0.374138 J0.672297
G01 X21.214108 Y76.231346 Z0.000000
G00 Z5.000000

(End cutting path id: path930)


(Start cutting path id: path930)
(Change tool to Cylindrical cutter)

G00 Z5.000000
G00 X23.206710 Y80.686535

G01 Z0.000000 F1000.0(Penetrate)
G01 X23.758448 Y80.839782 Z0.000000 F1100.000000
G01 X23.681663 Y81.133411 Z0.000000
G03 X23.547887 Y81.389090 Z0.000000 I-0.622202 J-0.162710
G03 X23.100780 Y81.811530 Z0.000000 I-2.219341 J-1.901101
G01 X22.596684 Y82.196028 Z0.000000
G01 X22.550273 Y82.837139 Z0.000000
G03 X22.335885 Y83.026003 Z0.000000 I-0.203352 J-0.014721
G03 X22.096356 Y82.812534 Z0.000000 I0.013917 J-0.256735
G01 X21.982708 Y82.146808 Z0.000000
G01 X21.412176 Y81.623625 Z0.000000
G01 X20.841645 Y81.100442 Z0.000000
G01 X21.521642 Y80.824465 Z0.000000
G03 X22.416494 Y80.611538 Z0.000000 I1.142761 J2.815765
G03 X23.206711 Y80.686540 Z0.000000 I0.184607 J2.255324
G01 X23.206710 Y80.686535 Z0.000000
G00 Z5.000000

(End cutting path id: path930)


(Start cutting path id: path930)
(Change tool to Cylindrical cutter)

G00 Z5.000000
G00 X19.491406 Y81.173819

G01 Z0.000000 F1000.0(Penetrate)
G03 X19.433323 Y81.362145 Z0.000000 I-10.060472 J-2.999684 F1100.000000
G03 X19.334874 Y81.664925 Z0.000000 I-26.052730 J-8.303651
G01 X19.234661 Y81.967150 Z0.000000
G01 X19.093472 Y81.715692 Z0.000000
G03 X19.012711 Y81.459840 Z0.000000 I0.572251 J-0.321308
G03 X19.044247 Y81.224580 Z0.000000 I0.511100 J-0.051231
G03 X19.341354 Y80.994608 Z0.000000 I0.337932 J0.129677
G03 X19.491408 Y81.173831 Z0.000000 I0.015801 J0.139198
G01 X19.491406 Y81.173819 Z0.000000
G00 Z5.000000

(End cutting path id: path930)


(Start cutting path id: path930)
(Change tool to Cylindrical cutter)

G00 Z5.000000
G00 X28.713915 Y78.592294

G01 Z0.000000 F1000.0(Penetrate)
G02 X28.506087 Y78.947151 Z0.000000 I2.076811 J1.454608 F1100.000000
G02 X28.472738 Y79.093322 Z0.000000 I0.303658 J0.146171
G03 X28.423508 Y79.222721 Z0.000000 I-0.194679 J-0.000000
G03 X28.159056 Y79.445914 Z0.000000 I-0.908732 J-0.808454
G01 X27.845374 Y79.641810 Z0.000000
G01 X22.832404 Y79.684679 Z0.000000
G01 X17.819435 Y79.727491 Z0.000000
G01 X16.912771 Y79.973052 Z0.000000
G03 X16.004919 Y80.210908 Z0.000000 I-14.856253 J-54.852035
G03 X15.930551 Y80.221741 Z0.000000 I-0.089419 J-0.353163
G03 X15.872697 Y80.192437 Z0.000000 I-0.002735 J-0.066363
G03 X15.326109 Y79.322714 Z0.000000 I13.822850 J-9.293751
G01 X14.797223 Y78.420560 Z0.000000
G01 X14.390587 Y78.418276 Z0.000000
G02 X14.031453 Y78.626650 Z0.000000 I-0.002279 J0.409744
G02 X13.716947 Y79.612049 Z0.000000 I2.214741 J1.249761
G03 X13.567188 Y80.472013 Z0.000000 I-6.363424 J-0.665143
G03 X13.491254 Y80.531563 Z0.000000 I-0.075934 J-0.018638
G02 X13.086737 Y81.038825 Z0.000000 I-0.000000 J0.414922
G02 X14.000280 Y82.761574 Z0.000000 I3.654170 J-0.834149
G02 X15.198641 Y83.700966 Z0.000000 I3.601133 J-3.359827
G02 X15.585144 Y83.647335 Z0.000000 I0.157795 J-0.282338
G02 X15.589070 Y83.568933 Z0.000000 I-0.041389 J-0.041372
G02 X14.928281 Y82.843459 Z0.000000 I-7.084149 J5.788842
G03 X14.262641 Y82.073892 Z0.000000 I4.508115 J-4.571964
G03 X14.006579 Y81.589340 Z0.000000 I1.500979 J-1.103129
G01 X13.820381 Y81.060454 Z0.000000
G01 X14.459911 Y81.784438 Z0.000000
G01 X15.099441 Y82.508421 Z0.000000
G01 X15.703884 Y82.599320 Z0.000000
G03 X16.293372 Y82.737427 Z0.000000 I-0.557730 J3.707709
G03 X16.884365 Y82.978737 Z0.000000 I-1.274617 J3.966008
G01 X17.460404 Y83.267262 Z0.000000
G01 X18.093250 Y83.172882 Z0.000000
G01 X18.726097 Y83.078497 Z0.000000
G01 X19.116527 Y83.505027 Z0.000000
G03 X19.479177 Y83.951774 Z0.000000 I-3.576316 J3.273664
G03 X19.828643 Y84.497269 Z0.000000 I-4.993328 J3.583613
G01 X20.150329 Y85.062981 Z0.000000
G01 X19.720771 Y85.285115 Z0.000000
G02 X19.307939 Y85.532317 Z0.000000 I1.775100 J3.432764
G02 X18.819766 Y85.903939 Z0.000000 I3.558036 J5.180391
G01 X18.348319 Y86.300641 Z0.000000
G01 X18.348318 Y86.950464 Z0.000000
G01 X18.348318 Y87.600286 Z0.000000
G01 X18.645511 Y87.957028 Z0.000000
G02 X18.891248 Y88.165156 Z0.000000 I0.716693 J-0.597064
G01 X18.947733 Y88.133797 Z0.000000
G02 X18.910661 Y87.976529 Z0.000000 I-0.315116 J-0.008723
G02 X18.801650 Y87.860435 Z0.000000 I-0.269868 J0.144177
G03 X18.638581 Y87.519231 Z0.000000 I0.183816 J-0.297419
G03 X18.961080 Y86.597369 Z0.000000 I2.313582 J0.292029
G01 X19.270491 Y86.089857 Z0.000000
G01 X19.527180 Y86.321027 Z0.000000
G01 X19.783870 Y86.552192 Z0.000000
G01 X20.841645 Y86.577253 Z0.000000
G02 X21.897063 Y86.564784 Z0.000000 I0.351948 J-14.882498
G02 X22.627437 Y86.492790 Z0.000000 I-0.340284 J-7.192970
G01 X23.355454 Y86.383288 Z0.000000
G01 X23.962397 Y86.583598 Z0.000000
G01 X24.569339 Y86.783907 Z0.000000
G01 X24.856768 Y86.604406 Z0.000000
G03 X25.159829 Y86.479446 Z0.000000 I0.521833 J0.835604
G03 X25.644913 Y86.424905 Z0.000000 I0.485082 J2.129856
G02 X26.120162 Y86.363421 Z0.000000 I0.000001 J-1.867484
G02 X26.324443 Y86.246089 Z0.000000 I-0.114856 J-0.436468
G03 X26.518421 Y86.283469 Z0.000000 I0.084338 J0.084340
G03 X26.587059 Y86.859245 Z0.000000 I-0.944624 J0.404587
G01 X26.484707 Y87.465054 Z0.000000
G01 X26.129326 Y87.820434 Z0.000000
G03 X25.753296 Y88.147986 Z0.000000 I-2.564916 J-2.564912
G03 X25.383808 Y88.384610 Z0.000000 I-1.694477 J-2.239135
G01 X24.993669 Y88.593406 Z0.000000
G01 X24.806539 Y88.337111 Z0.000000
G01 X24.619410 Y88.080817 Z0.000000
G01 X24.619409 Y89.481743 Z0.000000
G03 X24.571216 Y90.879380 Z0.000000 I-20.290553 J-0.000012
G03 X24.424516 Y92.304416 Z0.000000 I-21.241533 J-1.466638
G01 X24.229623 Y93.726162 Z0.000000
G01 X24.613403 Y94.510582 Z0.000000
G01 X24.997183 Y95.295000 Z0.000000
G01 X24.997182 Y95.895831 Z0.000000
G01 X24.997182 Y96.496649 Z0.000000
G01 X25.374958 Y96.851552 Z0.000000
G01 X25.752735 Y97.206455 Z0.000000
G01 X25.752735 Y97.556943 Z0.000000
G01 X25.752735 Y97.907432 Z0.000000
G01 X26.394955 Y98.380649 Z0.000000
G02 X27.057222 Y98.819197 Z0.000000 I4.701299 J-6.380281
G02 X27.641617 Y99.119091 Z0.000000 I2.762087 J-4.663048
G01 X28.246059 Y99.384315 Z0.000000
G01 X29.784667 Y99.470984 Z0.000000
G01 X31.323274 Y99.557652 Z0.000000
G01 X31.384533 Y99.375711 Z0.000000
G01 X31.445792 Y99.193771 Z0.000000
G01 X31.673157 Y99.381347 Z0.000000
G02 X31.897773 Y99.511454 Z0.000000 I0.503495 J-0.610290
G02 X31.974570 Y99.494877 Z0.000000 I0.025547 J-0.067825
G03 X32.062015 Y99.449334 Z0.000000 I0.115996 J0.115996
G03 X32.783100 Y99.351980 Z0.000000 I1.554838 J8.797309
G01 X33.517582 Y99.283130 Z0.000000
G01 X33.935694 Y98.974007 Z0.000000
G03 X34.375609 Y98.731055 Z0.000000 I1.134501 J1.534491
G03 X34.726732 Y98.664886 Z0.000000 I0.351122 J0.898522
G01 X35.099660 Y98.664886 Z0.000000
G01 X35.412913 Y98.266649 Z0.000000
G02 X35.680108 Y97.844503 Z0.000000 I-1.923949 J-1.513391
G02 X35.899697 Y97.289224 Z0.000000 I-3.130155 J-1.558896
G01 X36.073225 Y96.710037 Z0.000000
G01 X35.883766 Y96.481753 Z0.000000
G01 X35.694305 Y96.253467 Z0.000000
G01 X35.370172 Y96.419534 Z0.000000
G02 X35.063625 Y96.610871 Z0.000000 I0.975884 J1.904727
G02 X34.592709 Y97.001448 Z0.000000 I3.675930 J4.911217
G01 X34.139377 Y97.417297 Z0.000000
G01 X33.534934 Y97.540304 Z0.000000
G03 X30.388236 Y97.679128 Z0.000000 I-2.012746 J-9.890350
G03 X29.046930 Y97.032869 Z0.000000 I0.253373 J-2.240940
G01 X28.865615 Y96.851554 Z0.000000
G01 X29.570167 Y96.851554 Z0.000000
G02 X30.262343 Y96.783161 Z0.000000 I0.000002 J-3.536762
G02 X31.080118 Y96.550216 Z0.000000 I-1.034443 J-5.183414
G02 X32.667548 Y95.677804 Z0.000000 I-2.204079 J-5.890957
G02 X34.028749 Y94.322528 Z0.000000 I-4.263717 J-5.643571
G01 X34.401577 Y93.833493 Z0.000000
G01 X34.135461 Y93.731375 Z0.000000
G01 X33.869344 Y93.629256 Z0.000000
G01 X33.475474 Y94.089087 Z0.000000
G03 X32.333401 Y95.117898 Z0.000000 I-4.529199 J-3.879515
G03 X30.660724 Y96.031484 Z0.000000 I-5.207296 J-7.545957
G03 X30.131679 Y96.182414 Z0.000000 I-0.901784 J-2.158280
G03 X29.324857 Y96.247111 Z0.000000 I-0.806818 J-4.998442
G01 X28.505062 Y96.247111 Z0.000000
G01 X28.413340 Y96.008086 Z0.000000
G03 X28.342965 Y95.765106 Z0.000000 I1.399324 J-0.536969
G03 X28.321617 Y95.549549 Z0.000000 I1.077597 J-0.215556
G01 X28.321617 Y95.330037 Z0.000000
G01 X29.056514 Y95.427525 Z0.000000
G01 X29.791411 Y95.525013 Z0.000000
G01 X30.661137 Y95.272178 Z0.000000
G02 X31.507868 Y94.968261 Z0.000000 I-2.036379 J-7.004950
G02 X32.134584 Y94.638230 Z0.000000 I-1.787261 J-4.154018
G02 X33.851720 Y93.303421 Z0.000000 I-5.952322 J-9.429121
G02 X34.063824 Y92.810255 Z0.000000 I-0.467281 J-0.493167
G01 X34.063824 Y92.585210 Z0.000000
G01 X33.723825 Y92.676325 Z0.000000
G03 X33.378889 Y92.730135 Z0.000000 I-0.422734 J-1.577365
G03 X31.770181 Y92.769505 Z0.000000 I-1.653058 J-34.659442
G01 X30.156535 Y92.771559 Z0.000000
G01 X29.929868 Y92.998225 Z0.000000
G03 X29.686897 Y93.185529 Z0.000000 I-0.845350 J-0.845351
G03 X29.541297 Y93.224891 Z0.000000 I-0.145599 J-0.249600
G02 X29.397122 Y93.267695 Z0.000000 I-0.000000 J0.264215
G02 X29.077172 Y93.527112 Z0.000000 I1.081495 J1.660864
G01 X28.774950 Y93.829333 Z0.000000
G01 X28.774950 Y94.282665 Z0.000000
G01 X28.774949 Y94.735997 Z0.000000
G01 X28.420594 Y94.735997 Z0.000000
G03 X27.694709 Y94.446052 Z0.000000 I0.000001 J-1.053608
G03 X27.635736 Y93.989965 Z0.000000 I0.251270 J-0.264346
G01 X27.735011 Y93.829332 Z0.000000
G01 X27.102425 Y93.829332 Z0.000000
G01 X26.469838 Y93.829332 Z0.000000
G01 X26.543201 Y94.592834 Z0.000000
G01 X26.616563 Y95.356335 Z0.000000
G01 X26.373538 Y95.257376 Z0.000000
G02 X26.129351 Y95.161442 Z0.000000 I-4.009095 J9.845815
G02 X25.714958 Y95.007978 Z0.000000 I-10.669498 J28.174247
G01 X25.299404 Y94.857541 Z0.000000
G01 X25.304714 Y93.550104 Z0.000000
G03 X25.370090 Y92.249322 Z0.000000 I14.110308 J0.057137
G03 X25.526073 Y91.260450 Z0.000000 I8.299804 J0.802458
G02 X25.708215 Y90.274362 Z0.000000 I-14.464119 J-3.181554
G02 X25.747432 Y89.783745 Z0.000000 I-3.528525 J-0.528924
G01 X25.752741 Y89.289258 Z0.000000
G01 X26.350039 Y88.641268 Z0.000000
G02 X27.144573 Y87.458725 Z0.000000 I-3.434388 J-3.165707
G02 X27.183659 Y86.863641 Z0.000000 I-0.741003 J-0.347495
G01 X27.095772 Y86.586734 Z0.000000
G01 X27.404414 Y86.165821 Z0.000000
G02 X27.661528 Y85.722316 Z0.000000 I-1.929440 J-1.414842
G02 X27.809563 Y85.253802 Z0.000000 I-2.008697 J-0.892328
G01 X27.906071 Y84.762696 Z0.000000
G01 X27.752479 Y84.762696 Z0.000000
G02 X27.366066 Y85.015996 Z0.000000 I-0.000000 J0.421388
G02 X27.112748 Y86.233399 Z0.000000 I2.798657 J1.217405
G01 X27.112748 Y86.489105 Z0.000000
G01 X26.394972 Y85.793767 Z0.000000
G02 X25.634411 Y85.167743 Z0.000000 I-4.243344 J4.380255
G02 X25.110532 Y84.900203 Z0.000000 I-1.241956 J1.785233
G03 X24.599886 Y84.662226 Z0.000000 I0.935373 J-2.673963
G03 X24.543867 Y84.563829 Z0.000000 I0.058409 J-0.098397
G03 X24.586705 Y84.444167 Z0.000000 I0.188550 J0.000000
G03 X25.046347 Y83.951963 Z0.000000 I4.090622 J3.359288
G02 X25.512837 Y83.449255 Z0.000000 I-3.523192 J-3.737150
G02 X25.889781 Y82.911587 Z0.000000 I-3.657473 J-2.965120
G03 X26.374780 Y82.493069 Z0.000000 I0.879953 J0.529454
G03 X27.259203 Y82.341041 Z0.000000 I0.775055 J1.860295
G01 X27.934544 Y82.377747 Z0.000000
G01 X28.132169 Y82.625781 Z0.000000
G01 X28.329793 Y82.873809 Z0.000000
G01 X28.567515 Y82.538776 Z0.000000
G01 X28.805237 Y82.203744 Z0.000000
G01 X29.446754 Y82.291674 Z0.000000
G01 X30.088272 Y82.379604 Z0.000000
G01 X30.331918 Y81.770672 Z0.000000
G03 X30.610755 Y81.191323 Z0.000000 I4.395642 J1.758814
G03 X30.733040 Y81.064420 Z0.000000 I0.309279 J0.175657
G02 X30.901016 Y80.684911 Z0.000000 I-0.193066 J-0.312382
G02 X30.395160 Y79.247158 Z0.000000 I-4.869300 J0.905340
G01 X29.908300 Y78.340494 Z0.000000
G01 X29.431706 Y78.294197 Z0.000000
G01 X28.955113 Y78.247900 Z0.000000
G01 X28.713930 Y78.592237 Z0.000000
G01 X28.713915 Y78.592294 Z0.000000
G00 Z5.000000

(End cutting path id: path930)


(Start cutting path id: path930)
(Change tool to Cylindrical cutter)

G00 Z5.000000
G00 X29.980094 Y91.407847

G01 Z0.000000 F1000.0(Penetrate)
G02 X29.159754 Y91.562171 Z0.000000 I0.928478 J7.193047 F1100.000000
G02 X28.771209 Y91.708203 Z0.000000 I0.432432 J1.740470
G02 X26.128394 Y93.259859 Z0.000000 I12.669525 J24.605495
G02 X26.106604 Y93.478032 Z0.000000 I0.078377 J0.118003
G02 X26.299651 Y93.518211 Z0.000000 I0.127173 J-0.127173
G02 X28.456608 Y92.553013 Z0.000000 I-9.460673 J-24.034754
G01 X29.561990 Y91.996352 Z0.000000
G01 X30.792905 Y91.779724 Z0.000000
G03 X32.024098 Y91.566174 Z0.000000 I43.933221 J249.635489
G03 X32.061598 Y91.562890 Z0.000000 I0.038751 J0.226734
G01 X32.082824 Y91.546218 Z0.000000
G02 X32.099378 Y91.411572 Z0.000000 I-0.539310 J-0.134646
G01 X32.099378 Y91.260461 Z0.000000
G01 X31.457158 Y91.280275 Z0.000000
G02 X30.816351 Y91.317804 Z0.000000 I0.357913 J11.601021
G02 X29.980097 Y91.407848 Z0.000000 I1.714551 J19.851597
G01 X29.980094 Y91.407847 Z0.000000
G00 Z5.000000

(End cutting path id: path930)


(Start cutting path id: path930)
(Change tool to Cylindrical cutter)

G00 Z5.000000
G00 X31.932020 Y93.314455

G01 Z0.000000 F1000.0(Penetrate)
G03 X31.954682 Y93.629331 Z0.000000 I-0.154952 J0.169405 F1100.000000
G03 X31.514208 Y93.824594 Z0.000000 I-0.413734 J-0.338860
G03 X31.436059 Y93.788959 Z0.000000 I0.005858 J-0.116354
G03 X31.135623 Y93.430569 Z0.000000 I2.489327 J-2.391910
G01 X30.851869 Y93.041292 Z0.000000
G01 X31.362289 Y93.150748 Z0.000000
G03 X31.864288 Y93.276538 Z0.000000 I-1.583106 J7.382386
G03 X31.932020 Y93.314455 Z0.000000 I-0.046906 J0.163243
G01 X31.932020 Y93.314455 Z0.000000
G00 Z5.000000

(End cutting path id: path930)


(Start cutting path id: path930)
(Change tool to Cylindrical cutter)

G00 Z5.000000
G00 X28.516536 Y104.001110

G01 Z0.000000 F1000.0(Penetrate)
G03 X28.604402 Y104.805414 Z0.000000 I-1.482579 J0.568915 F1100.000000
G03 X28.365090 Y105.011529 Z0.000000 I-0.239312 J-0.035870
G03 X28.298306 Y104.993495 Z0.000000 I0.000000 J-0.132673
G03 X27.891596 Y104.735692 Z0.000000 I3.235628 J-5.554226
G02 X27.476894 Y104.485273 Z0.000000 I-2.320607 J3.374420
G02 X26.976551 Y104.254569 Z0.000000 I-2.465375 J4.688897
G01 X26.462607 Y104.049283 Z0.000000
G01 X26.749885 Y103.936585 Z0.000000
G03 X27.044601 Y103.861657 Z0.000000 I0.445755 J1.136238
G03 X27.738770 Y103.813266 Z0.000000 I0.790886 J6.342054
G01 X28.440378 Y103.802642 Z0.000000
G01 X28.516536 Y104.001108 Z0.000000
G01 X28.516536 Y104.001110 Z0.000000
G00 Z5.000000

(End cutting path id: path930)


(Start cutting path id: path930)
(Change tool to Cylindrical cutter)

G00 Z5.000000
G00 X26.855777 Y104.658111

G01 Z0.000000 F1000.0(Penetrate)
G01 X27.339382 Y104.909136 Z0.000000 F1100.000000
G01 X27.151944 Y104.972441 Z0.000000
G03 X26.976584 Y104.965566 Z0.000000 I-0.078681 J-0.232971
G03 X26.564901 Y104.721416 Z0.000000 I0.719107 J-1.681710
G03 X26.587668 Y104.622446 Z0.000000 I0.034705 J-0.044120
G03 X26.855777 Y104.658111 Z0.000000 I0.084673 J0.389057
G01 X26.855777 Y104.658111 Z0.000000
G00 Z5.000000

(End cutting path id: path930)


(Start cutting path id: path930)
(Change tool to Cylindrical cutter)

G00 Z5.000000
G00 X30.265844 Y110.451514

G01 Z0.000000 F1000.0(Penetrate)
G03 X30.216072 Y111.278013 Z0.000000 I-9.991059 J-0.186916 F1100.000000
G03 X30.134925 Y111.735955 Z0.000000 I-3.137987 J-0.319886
G01 X30.019572 Y112.189287 Z0.000000
G01 X30.004011 Y110.678180 Z0.000000
G01 X29.988450 Y109.167074 Z0.000000
G01 X30.134932 Y109.393740 Z0.000000
G03 X30.223286 Y109.636965 Z0.000000 I-0.486440 J0.314364
G03 X30.265850 Y110.451514 Z0.000000 I-5.710886 J0.706804
G01 X30.265844 Y110.451514 Z0.000000
G00 Z5.000000

(End cutting path id: path930)


(Start cutting path id: path930)
(Change tool to Cylindrical cutter)

G00 Z5.000000
G00 X22.268784 Y111.358174

G01 Z0.000000 F1000.0(Penetrate)
G02 X22.485631 Y113.037526 Z0.000000 I7.744900 J-0.146385 F1100.000000
G02 X23.048705 Y114.574033 Z0.000000 I7.031063 J-1.705205
G03 X23.242439 Y115.040651 Z0.000000 I-3.180198 J1.593902
G01 X23.211203 Y115.060386 Z0.000000
G03 X22.682128 Y114.313991 Z0.000000 I1.698594 J-1.764744
G03 X22.137568 Y112.711782 Z0.000000 I7.621361 J-3.484004
G03 X22.029478 Y112.032979 Z0.000000 I4.886872 J-1.126172
G03 X21.989264 Y111.055953 Z0.000000 I10.109429 J-0.905440
G01 X21.996184 Y110.073733 Z0.000000
G01 X22.126053 Y110.375954 Z0.000000
G03 X22.213907 Y110.687236 Z0.000000 I-1.139360 J0.489603
G03 X22.268776 Y111.358174 Z0.000000 I-5.316155 J0.772470
G01 X22.268784 Y111.358174 Z0.000000
G00 Z5.000000

(End cutting path id: path930)


(Start cutting path id: path930)
(Change tool to Cylindrical cutter)

G00 Z5.000000
G00 X22.201612 Y116.425890

G01 Z0.000000 F1000.0(Penetrate)
G02 X22.828707 Y116.871827 Z0.000000 I4.499992 J-5.664183 F1100.000000
G02 X23.863829 Y117.479486 Z0.000000 I9.423666 J-14.867348
G03 X25.833807 Y118.798875 Z0.000000 I-6.057688 J11.175106
G03 X26.054933 Y119.264182 Z0.000000 I-0.379001 J0.465307
G01 X26.005393 Y119.290688 Z0.000000
G03 X25.471250 Y118.874886 Z0.000000 I2.566023 J-3.847319
G02 X24.853886 Y118.395739 Z0.000000 I-3.509565 J3.884644
G02 X23.846811 Y117.798252 Z0.000000 I-6.493660 J9.797719
G03 X22.848987 Y117.188116 Z0.000000 I4.324146 J-8.192758
G03 X21.974946 Y116.484458 Z0.000000 I4.898539 J-6.979328
G03 X22.000321 Y116.383144 Z0.000000 I0.040247 J-0.043754
G03 X22.201612 Y116.425890 Z0.000000 I0.057735 J0.223443
G01 X22.201612 Y116.425890 Z0.000000
G00 Z5.000000

(End cutting path id: path930)


(Start cutting path id: path930)
(Change tool to Cylindrical cutter)

G00 Z5.000000
G00 X19.712058 Y116.422292

G01 Z0.000000 F1000.0(Penetrate)
G03 X20.733841 Y116.972928 Z0.000000 I-9.403442 J18.672771 F1100.000000
G03 X20.766060 Y117.028634 Z0.000000 I-0.032046 J0.055706
G03 X20.424952 Y117.243499 Z0.000000 I-0.238226 J-0.000000
G03 X18.511993 Y115.949345 Z0.000000 I3.376796 J-7.052323
G01 X18.543455 Y115.899075 Z0.000000
G03 X19.712058 Y116.422291 Z0.000000 I-5.155860 J13.082244
G01 X19.712058 Y116.422292 Z0.000000
G00 Z5.000000

(End cutting path id: path930)


(Start cutting path id: path930)
(Change tool to Cylindrical cutter)

G00 Z5.000000
G00 X18.197180 Y115.740381

G01 Z0.000000 F1000.0(Penetrate)
G03 X18.295761 Y115.849078 Z0.000000 I-0.154660 J0.239319 F1100.000000
G01 X18.272736 Y115.886863 Z0.000000
G03 X18.129528 Y115.860071 Z0.000000 I0.000000 J-0.396124
G03 X17.894959 Y115.740381 Z0.000000 I0.467871 J-1.206638
G03 X17.796377 Y115.631683 Z0.000000 I0.154659 J-0.239317
G01 X17.819404 Y115.593898 Z0.000000
G03 X17.962610 Y115.620690 Z0.000000 I-0.000000 J0.396119
G03 X18.197180 Y115.740381 Z0.000000 I-0.467881 J1.206655
G01 X18.197180 Y115.740381 Z0.000000
G00 Z5.000000

(End cutting path id: path930)


(Start cutting path id: path930)
(Change tool to Cylindrical cutter)

G00 Z5.000000
G00 X15.746071 Y118.128013

G01 Z0.000000 F1000.0(Penetrate)
G01 X18.256367 Y118.059319 Z0.000000 F1100.000000
G01 X17.466397 Y118.327838 Z0.000000
G03 X16.665839 Y118.552428 Z0.000000 I-2.472198 J-7.273126
G03 X15.472363 Y118.772414 Z0.000000 I-3.561106 J-15.972429
G02 X14.324835 Y118.997339 Z0.000000 I1.749718 J11.966467
G02 X14.268301 Y119.069518 Z0.000000 I0.017810 J0.072180
G02 X14.309651 Y119.172340 Z0.000000 I0.148512 J0.000000
G02 X15.212742 Y120.053820 Z0.000000 I13.894969 J-13.332268
G03 X15.147022 Y120.150256 Z0.000000 I-0.039769 J0.043509
G03 X14.419411 Y119.664835 Z0.000000 I1.457790 J-2.973153
G02 X13.416973 Y118.831582 Z0.000000 I-15.759384 J17.939581
G02 X13.098757 Y118.626697 Z0.000000 I-1.243955 J1.582479
G03 X12.808894 Y118.402870 Z0.000000 I0.471280 J-0.909928
G03 X12.517528 Y117.981897 Z0.000000 I1.487536 J-1.340876
G01 X12.274733 Y117.512383 Z0.000000
G01 X12.755254 Y117.854545 Z0.000000
G01 X13.235776 Y118.196707 Z0.000000
G01 X15.746071 Y118.128013 Z0.000000
G00 Z5.000000

(End cutting path id: path930)


(Start cutting path id: path930)
(Change tool to Cylindrical cutter)

G00 Z5.000000
G00 X10.541098 Y118.508789

G01 Z0.000000 F1000.0(Penetrate)
G02 X12.155490 Y120.335520 Z0.000000 I9.559137 J-6.821252 F1100.000000
G02 X14.120884 Y121.797474 Z0.000000 I8.020775 J-8.730743
G03 X14.848432 Y122.322958 Z0.000000 I-2.565612 J4.318558
G01 X14.806626 Y122.392837 Z0.000000
G03 X12.852001 Y121.351534 Z0.000000 I3.127282 J-8.225369
G03 X11.219385 Y119.855273 Z0.000000 I5.081243 J-7.183127
G03 X9.682308 Y117.744861 Z0.000000 I13.604908 J-11.523821
G03 X9.788556 Y117.553704 Z0.000000 I0.106248 J-0.066052
G03 X9.845368 Y117.581268 Z0.000000 I-0.000000 J0.072328
G03 X10.541098 Y118.508789 Z0.000000 I-19.152405 J15.090839
G01 X10.541098 Y118.508789 Z0.000000
G00 Z5.000000

(End cutting path id: path930)


(Start cutting path id: path930)
(Change tool to Cylindrical cutter)

G00 Z5.000000
G00 X22.584698 Y123.056980

G01 Z0.000000 F1000.0(Penetrate)
G03 X22.896771 Y123.241454 Z0.000000 I-0.580401 J1.338063 F1100.000000
G01 X22.881606 Y123.286683 Z0.000000
G03 X22.069181 Y123.074971 Z0.000000 I-0.018349 J-1.594246
G03 X20.917168 Y122.158431 Z0.000000 I2.441949 J-4.251581
G01 X20.388281 Y121.588483 Z0.000000
G01 X21.224702 Y122.209178 Z0.000000
G02 X22.082272 Y122.793266 Z0.000000 I7.637755 J-10.292303
G02 X22.584698 Y123.056980 Z0.000000 I2.027807 J-3.252893
G01 X22.584698 Y123.056980 Z0.000000
G00 Z5.000000

(End cutting path id: path930)


(Start cutting path id: path930)
(Change tool to Cylindrical cutter)

G00 Z5.000000
G00 X27.418391 Y121.173898

G01 Z0.000000 F1000.0(Penetrate)
G03 X27.228442 Y121.438569 Z0.000000 I-1.098649 J-0.587983 F1100.000000
G03 X27.009044 Y121.610151 Z0.000000 I-0.664193 J-0.623227
G01 X26.757978 Y121.750655 Z0.000000
G01 X27.350897 Y122.063277 Z0.000000
G03 X27.352954 Y122.213314 Z0.000000 I-0.039850 J0.075579
G03 X27.013665 Y122.253078 Z0.000000 I-0.217204 J-0.385921
G01 X26.538840 Y122.116900 Z0.000000
G01 X26.361748 Y122.290855 Z0.000000
G01 X26.184655 Y122.464810 Z0.000000
G01 X26.285100 Y122.057967 Z0.000000
G01 X26.385543 Y121.651125 Z0.000000
G01 X25.653572 Y121.413520 Z0.000000
G01 X24.921601 Y121.175915 Z0.000000
G01 X25.911218 Y121.254794 Z0.000000
G01 X26.900836 Y121.333672 Z0.000000
G01 X27.195659 Y121.110717 Z0.000000
G03 X27.377107 Y121.076659 Z0.000000 I0.124927 J0.165196
G03 X27.418391 Y121.173898 Z0.000000 I-0.018506 J0.065240
G01 X27.418391 Y121.173898 Z0.000000
G00 Z5.000000

(End cutting path id: path930)


(Start cutting path id: path930)
(Change tool to Cylindrical cutter)

G00 Z5.000000
G00 X32.328899 Y119.210264

G01 Z0.000000 F1000.0(Penetrate)
G01 X31.948904 Y119.960147 Z0.000000 F1100.000000
G01 X31.384611 Y120.343593 Z0.000000
G03 X31.022618 Y120.459105 Z0.000000 I-0.375991 J-0.553322
G03 X30.984207 Y120.351973 Z0.000000 I-0.001256 J-0.060002
G02 X31.422607 Y119.947675 Z0.000000 I-2.388708 J-3.030032
G02 X32.035257 Y119.220320 Z0.000000 I-7.189398 J-6.677299
G03 X32.623698 Y118.478369 Z0.000000 I19.821269 J15.115926
G01 X32.661844 Y118.460381 Z0.000000
G01 X32.675272 Y118.481035 Z0.000000
G03 X32.328899 Y119.210264 Z0.000000 I-14.419653 J-6.402236
G01 X32.328899 Y119.210264 Z0.000000
G00 Z5.000000

(End cutting path id: path930)


(Start cutting path id: path930)
(Change tool to Cylindrical cutter)

G00 Z5.000000
G00 X34.295643 Y120.991486

G01 Z0.000000 F1000.0(Penetrate)
G03 X33.943578 Y121.652094 Z0.000000 I-1.489478 J-0.369685 F1100.000000
G03 X33.016161 Y122.403994 Z0.000000 I-2.893400 J-2.620904
G01 X32.477134 Y122.718190 Z0.000000
G01 X33.261913 Y121.944146 Z0.000000
G02 X33.996444 Y121.139309 Z0.000000 I-7.286967 J-7.388030
G02 X34.140983 Y120.873017 Z0.000000 I-0.620248 J-0.509033
G03 X34.242909 Y120.840939 Z0.000000 I0.062226 J0.019750
G03 X34.295643 Y120.991486 Z0.000000 I-0.088472 J0.115500
G01 X34.295643 Y120.991486 Z0.000000
G00 Z5.000000

(End cutting path id: path930)


(Start cutting path id: path930)
(Change tool to Cylindrical cutter)

G00 Z5.000000
G00 X40.615060 Y116.684848

G01 Z0.000000 F1000.0(Penetrate)
G03 X38.942509 Y118.994941 Z0.000000 I-15.602248 J-9.535801 F1100.000000
G03 X38.640162 Y119.007143 Z0.000000 I-0.156802 J-0.133345
G03 X38.626965 Y118.822366 Z0.000000 I0.100004 J-0.100003
G03 X40.096387 Y117.062624 Z0.000000 I17.337337 J12.983675
G03 X40.569474 Y116.642808 Z0.000000 I2.409355 J2.238613
G01 X40.615060 Y116.684848 Z0.000000
G01 X40.615060 Y116.684848 Z0.000000
G00 Z5.000000

(End cutting path id: path930)


(Start cutting path id: path930)
(Change tool to Cylindrical cutter)

G00 Z5.000000
G00 X67.157037 Y113.053982

G01 Z0.000000 F1000.0(Penetrate)
G02 X67.342890 Y113.520912 Z0.000000 I0.679475 J0.000000 F1100.000000
G02 X69.273235 Y115.291167 Z0.000000 I13.407912 J-12.682848
G03 X70.233954 Y116.094427 Z0.000000 I-15.438394 J19.440866
G03 X71.216553 Y117.001085 Z0.000000 I-18.690789 J21.242099
G02 X71.963542 Y117.641173 Z0.000000 I5.668906 J-5.859747
G01 X72.010221 Y117.602077 Z0.000000
G02 X71.797665 Y117.306975 Z0.000000 I-1.066920 J0.544380
G02 X70.599664 Y116.166525 Z0.000000 I-17.670004 J17.362226
G03 X69.365946 Y115.050898 Z0.000000 I71.151236 J-79.922780
G03 X68.257115 Y114.014878 Z0.000000 I60.258057 J-65.604323
G02 X67.187436 Y113.040172 Z0.000000 I-23.732111 J24.970203
G01 X67.157037 Y113.053982 Z0.000000
G01 X67.157037 Y113.053982 Z0.000000
G00 Z5.000000

(End cutting path id: path930)


(Start cutting path id: path930)
(Change tool to Cylindrical cutter)

G00 Z5.000000
G00 X69.558383 Y110.839507

G01 Z0.000000 F1000.0(Penetrate)
G02 X70.593842 Y113.249795 Z0.000000 I10.376472 J-3.030171 F1100.000000
G02 X71.902981 Y114.865084 Z0.000000 I5.868052 J-3.417712
G02 X72.071021 Y114.846675 Z0.000000 I0.075854 J-0.083743
G02 X72.059060 Y114.644861 Z0.000000 I-0.131852 J-0.093447
G03 X70.844523 Y113.064944 Z0.000000 I9.299436 J-8.405585
G03 X70.023468 Y111.509313 Z0.000000 I8.191551 J-5.317952
G02 X69.636162 Y110.802364 Z0.000000 I-3.524238 J1.471205
G01 X69.558383 Y110.839507 Z0.000000
G01 X69.558383 Y110.839507 Z0.000000
G00 Z5.000000

(End cutting path id: path930)


(Start cutting path id: path930)
(Change tool to Cylindrical cutter)

G00 Z5.000000
G00 X77.411393 Y100.440461

G01 Z0.000000 F1000.0(Penetrate)
G02 X76.758077 Y101.187993 Z0.000000 I7.571307 J7.276301 F1100.000000
G02 X75.941978 Y102.291566 Z0.000000 I15.718447 J12.477424
G03 X75.138325 Y103.406277 Z0.000000 I-25.622580 J-17.625616
G03 X74.578647 Y104.097091 Z0.000000 I-10.385565 J-7.841954
G01 X73.994924 Y104.769287 Z0.000000
G01 X73.820378 Y103.945980 Z0.000000
G02 X73.624527 Y103.128152 Z0.000000 I-15.740364 J3.337098
G02 X73.262928 Y101.860434 Z0.000000 I-38.198517 J10.210161
G03 X72.910813 Y100.610675 Z0.000000 I31.231172 J-9.473753
G01 X72.927422 Y100.571940 Z0.000000
G03 X73.917134 Y100.211837 Z0.000000 I1.632429 J2.946469
G03 X76.525908 Y99.872483 Z0.000000 I4.010211 J20.631252
G02 X77.959149 Y99.766110 Z0.000000 I-6.515677 J-97.499185
G02 X78.031337 Y99.749615 Z0.000000 I-0.021104 J-0.258579
G01 X78.040558 Y99.762988 Z0.000000
G03 X77.411393 Y100.440461 Z0.000000 I-20.126928 J-18.060867
G01 X77.411393 Y100.440461 Z0.000000
G00 Z5.000000

(End cutting path id: path930)


(Start cutting path id: path930)
(Change tool to Cylindrical cutter)

G00 Z5.000000
G00 X79.073351 Y101.196016

G01 Z0.000000 F1000.0(Penetrate)
G02 X79.001161 Y102.065411 Z0.000000 I7.633744 J1.071566 F1100.000000
G02 X79.032705 Y102.744900 Z0.000000 I4.685929 J0.122938
G01 X79.114029 Y103.424898 Z0.000000
G01 X78.348282 Y104.465284 Z0.000000
G02 X77.627338 Y105.532717 Z0.000000 I12.818546 J9.434819
G02 X77.134259 Y106.429722 Z0.000000 I8.550384 J5.284125
G02 X76.164006 Y108.879000 Z0.000000 I15.924074 J7.724952
G02 X75.908464 Y110.355114 Z0.000000 I5.462735 J1.705875
G01 X75.867672 Y110.359898 Z0.000000
G03 X75.536315 Y109.029272 Z0.000000 I22.309504 J-6.262158
G02 X75.106873 Y107.405305 Z0.000000 I-18.635864 J4.059306
G02 X74.771037 Y106.577688 Z0.000000 I-5.147426 J1.606808
G01 X74.364938 Y105.775039 Z0.000000
G01 X74.763582 Y105.172641 Z0.000000
G03 X78.193255 Y100.742198 Z0.000000 I31.535048 J20.869057
G03 X79.125351 Y100.327129 Z0.000000 I0.932096 J0.839041
G01 X79.156848 Y100.360568 Z0.000000
G03 X79.073346 Y101.196016 Z0.000000 I-10.523675 J-0.629938
G01 X79.073351 Y101.196016 Z0.000000
G00 Z5.000000

(End cutting path id: path930)


(Start cutting path id: path930)
(Change tool to Cylindrical cutter)

G00 Z5.000000
G00 X81.512559 Y102.651884

G01 Z0.000000 F1000.0(Penetrate)
G01 X80.832561 Y103.155818 Z0.000000 F1100.000000
G01 X80.347380 Y103.970355 Z0.000000
G02 X79.007601 Y106.682400 Z0.000000 I16.596093 J9.885598
G02 X78.794739 Y107.852381 Z0.000000 I2.772032 J1.108690
G01 X78.818767 Y107.858029 Z0.000000
G02 X79.528564 Y106.447112 Z0.000000 I-46.093345 J-24.072390
G03 X80.519890 Y104.701740 Z0.000000 I13.776229 J6.670330
G03 X82.040161 Y102.631569 Z0.000000 I20.932420 J13.778830
G02 X81.970111 Y102.490995 Z0.000000 I-0.066735 J-0.054485
G02 X81.512559 Y102.651886 Z0.000000 I0.031613 J0.820957
G01 X81.512559 Y102.651884 Z0.000000
G00 Z5.000000

(End cutting path id: path930)


(Start cutting path id: path930)
(Change tool to Cylindrical cutter)

G00 Z5.000000
G00 X84.036246 Y100.667131

G01 Z0.000000 F1000.0(Penetrate)
G01 X84.188352 Y101.007131 Z0.000000 F1100.000000
G01 X83.368069 Y101.913794 Z0.000000
G02 X81.581340 Y104.154663 Z0.000000 I17.066633 J15.440622
G02 X80.167723 Y106.484889 Z0.000000 I17.049943 J11.937130
G01 X79.990813 Y106.824888 Z0.000000
G01 X80.239177 Y106.824888 Z0.000000
G01 X80.487542 Y106.824889 Z0.000000
G01 X80.379797 Y107.240443 Z0.000000
G02 X79.953120 Y109.281494 Z0.000000 I21.199741 J5.496878
G02 X79.866683 Y110.451544 Z0.000000 I6.846012 J1.093969
G01 X79.872505 Y110.980432 Z0.000000
G01 X80.225441 Y109.695991 Z0.000000
G03 X81.973299 Y105.153960 Z0.000000 I23.694558 J6.510789
G03 X84.025427 Y102.150672 Z0.000000 I12.259769 J6.174277
G03 X84.736477 Y101.435540 Z0.000000 I7.467793 J6.714101
G03 X84.867402 Y101.384907 Z0.000000 I0.130924 J0.143955
G01 X85.020895 Y101.384907 Z0.000000
G01 X84.920275 Y101.800462 Z0.000000
G03 X84.773653 Y102.196034 Z0.000000 I-1.748871 J-0.423275
G03 X84.317827 Y102.979342 Z0.000000 I-7.398612 J-3.781140
G02 X83.583910 Y104.272958 Z0.000000 I9.490815 J6.239499
G02 X82.430747 Y106.880545 Z0.000000 I37.575443 J18.175902
G02 X81.793662 Y108.549735 Z0.000000 I47.078566 J18.924793
G02 X81.722394 Y108.813757 Z0.000000 I1.544500 J0.558544
G01 X81.752742 Y108.824200 Z0.000000
G02 X82.274233 Y107.739198 Z0.000000 I-15.450764 J-8.094030
G01 X82.796075 Y106.550003 Z0.000000
G01 X82.899281 Y106.716994 Z0.000000
G01 X83.002487 Y106.883983 Z0.000000
G01 X83.256161 Y106.249994 Z0.000000
G01 X83.509835 Y105.616006 Z0.000000
G01 X83.736261 Y105.616006 Z0.000000
G01 X83.962687 Y105.616006 Z0.000000
G01 X83.857866 Y105.880449 Z0.000000
G02 X82.763577 Y108.872659 Z0.000000 I55.331179 J21.931511
G02 X82.763295 Y109.141488 Z0.000000 I0.401715 J0.134836
G01 X82.815418 Y109.144678 Z0.000000
G02 X83.333386 Y107.942884 Z0.000000 I-15.961406 J-7.591816
G01 X83.854794 Y106.598225 Z0.000000
G01 X83.931323 Y107.127112 Z0.000000
G02 X84.083847 Y107.171098 Z0.000000 I0.086202 J-0.012474
G02 X84.381567 Y106.598225 Z0.000000 I-1.097081 J-0.933949
G03 X85.086322 Y104.517808 Z0.000000 I14.515000 J3.757470
G03 X85.996176 Y102.778683 Z0.000000 I11.026434 J4.661110
G01 X86.500595 Y101.981353 Z0.000000
G01 X86.900580 Y101.829278 Z0.000000
G03 X87.301194 Y101.712273 Z0.000000 I0.937849 J2.466776
G03 X87.426412 Y101.719945 Z0.000000 I0.048541 J0.233451
G03 X87.457008 Y101.795805 Z0.000000 I-0.017355 J0.051100
G03 X86.819158 Y102.896015 Z0.000000 I-11.591456 J-5.985187
G02 X86.123525 Y104.051173 Z0.000000 I17.623468 J11.399833
G02 X84.706502 Y106.673781 Z0.000000 I89.523602 J50.064696
G01 X83.326946 Y109.318217 Z0.000000
G01 X83.037410 Y110.527102 Z0.000000
G02 X82.590337 Y112.660675 Z0.000000 I37.168824 J8.902053
G01 X82.648070 Y112.690858 Z0.000000
G02 X82.708717 Y112.597237 Z0.000000 I-0.188743 J-0.188719
G02 X83.392948 Y110.737438 Z0.000000 I-78.688118 J-30.005593
G03 X84.100264 Y108.882819 Z0.000000 I39.669750 J14.067088
G03 X84.768982 Y107.370114 Z0.000000 I27.050240 J11.053877
G01 X85.480995 Y105.875343 Z0.000000
G01 X85.621963 Y106.127230 Z0.000000
G01 X85.762926 Y106.379118 Z0.000000
G01 X85.514287 Y107.234411 Z0.000000
G03 X84.724355 Y109.529557 Z0.000000 I-24.007498 J-6.979271
G03 X83.615823 Y111.987017 Z0.000000 I-28.640486 J-11.440640
G02 X83.205232 Y112.891844 Z0.000000 I10.693497 J5.398052
G02 X83.220096 Y112.964988 Z0.000000 I0.062651 J0.025351
G02 X83.578706 Y112.960673 Z0.000000 I0.177199 J-0.177193
G02 X85.185703 Y110.902353 Z0.000000 I-9.617906 J-9.165482
G03 X85.477603 Y110.463302 Z0.000000 I9.990838 J6.325798
G01 X85.500133 Y110.451548 Z0.000000
G01 X85.513202 Y110.465836 Z0.000000
G03 X85.348277 Y112.151542 Z0.000000 I-99.957414 J-8.928645
G02 X85.191747 Y113.843172 Z0.000000 I61.592211 J6.552336
G02 X85.210921 Y113.896536 Z0.000000 I0.068777 J0.005414
G02 X85.340400 Y113.868169 Z0.000000 I0.055991 J-0.054115
G02 X86.518966 Y110.163214 Z0.000000 I-63.220238 J-22.150632
G01 X86.934131 Y108.713776 Z0.000000
G01 X86.933560 Y109.318219 Z0.000000
G03 X86.903005 Y109.920503 Z0.000000 I-6.116948 J-0.008407
G03 X86.736372 Y111.282657 Z0.000000 I-31.430751 J-3.153671
G02 X86.558897 Y112.637456 Z0.000000 I51.223487 J7.399165
G02 X86.571792 Y112.682193 Z0.000000 I0.059696 J0.007020
G01 X86.599915 Y112.680016 Z0.000000
G02 X87.532158 Y111.019976 Z0.000000 I-67.454910 J-38.973007
G03 X88.388356 Y109.598914 Z0.000000 I17.022932 J9.287950
G01 X88.459226 Y109.620441 Z0.000000
G03 X88.438771 Y109.921061 Z0.000000 I-2.337346 J-0.008029
G03 X88.248257 Y111.207103 Z0.000000 I-44.035293 J-5.866248
G02 X88.062846 Y112.484010 Z0.000000 I36.337828 J5.928286
G02 X88.079305 Y112.533646 Z0.000000 I0.060022 J0.007644
G01 X88.110436 Y112.528117 Z0.000000
G02 X88.612695 Y111.324761 Z0.000000 I-29.632511 J-13.074567
G03 X89.136761 Y110.094199 Z0.000000 I22.758089 J8.965238
G03 X89.255657 Y109.922663 Z0.000000 I0.541338 J0.248240
G01 X89.405816 Y109.771552 Z0.000000
G01 X89.301999 Y110.498282 Z0.000000
G03 X89.176056 Y111.220568 Z0.000000 I-11.807272 J-1.686674
G03 X88.977069 Y112.073927 Z0.000000 I-16.688507 J-3.441554
G01 X88.755957 Y112.922838 Z0.000000
G01 X88.221734 Y113.666435 Z0.000000
G02 X87.739562 Y114.405796 Z0.000000 I7.949065 J5.710856
G02 X87.747747 Y114.470267 Z0.000000 I0.045708 J0.026952
G01 X87.807555 Y114.471401 Z0.000000
G02 X88.967016 Y113.339489 Z0.000000 I-21.494009 J-23.176929
G03 X90.078267 Y112.266097 Z0.000000 I17.899548 J17.418953
G01 X90.126053 Y112.287255 Z0.000000
G03 X90.098618 Y112.419345 Z0.000000 I-0.331710 J-0.000000
G03 X89.756397 Y113.138788 Z0.000000 I-10.613441 J-4.607440
G03 X88.587585 Y115.125467 Z0.000000 I-19.186799 J-9.950901
G03 X88.464480 Y115.088739 Z0.000000 I-0.055968 J-0.037081
G01 X88.418204 Y115.065266 Z0.000000
G02 X87.462305 Y115.815600 Z0.000000 I9.378818 J12.932330
G03 X83.980321 Y118.506131 Z0.000000 I-31.172255 J-36.743566
G03 X83.779416 Y118.401716 Z0.000000 I-0.073319 J-0.104415
G03 X83.790768 Y118.337319 Z0.000000 I0.188335 J0.000000
G03 X84.299614 Y116.972065 Z0.000000 I87.846858 J31.964082
G02 X84.976248 Y114.772445 Z0.000000 I-16.267736 J-6.208062
G02 X84.912720 Y114.380386 Z0.000000 I-0.504708 J-0.119396
G01 X84.807185 Y114.209627 Z0.000000
G01 X84.496243 Y114.483914 Z0.000000
G01 X84.185301 Y114.758201 Z0.000000
G01 X84.288450 Y114.380424 Z0.000000
G02 X84.373017 Y113.999007 Z0.000000 I-3.894234 J-1.063513
G02 X84.482766 Y113.247094 Z0.000000 I-15.073070 J-2.584015
G01 X84.573927 Y112.491541 Z0.000000
G01 X84.430475 Y112.642652 Z0.000000
G02 X84.295902 Y112.801167 Z0.000000 I1.358884 J1.290021
G02 X83.514574 Y113.851536 Z0.000000 I59.192959 J44.847097
G03 X82.705216 Y114.869143 Z0.000000 I-12.760531 J-9.318476
G03 X82.441874 Y115.091854 Z0.000000 I-0.840887 J-0.727249
G01 X82.141618 Y115.274397 Z0.000000
G01 X82.044087 Y114.638522 Z0.000000
G02 X81.937719 Y114.004173 Z0.000000 I-22.888889 J3.511938
