%
(Header)
(Generated by gcodetools from Inkscape.)
(Using default header. To add your own header create file "header" in the output dir.)
M3
(Header end.)
G21 (All units in mm)

(Start cutting path id: path4529)
(Change tool to Cylindrical cutter)

G00 Z5.000000
G00 X44.544124 Y0.292750

G01 Z-0.125000 F100.0(Penetrate)
G02 X41.266234 Y1.410025 Z-0.125000 I3.529482 J15.721898 F1100.000000
G02 X38.212796 Y3.243850 Z-0.125000 I7.201038 J15.449198
G01 X37.262248 Y3.959760 Z-0.125000
G01 X37.378761 Y5.617240 Z-0.125000
G02 X38.247433 Y11.214495 Z-0.125000 I33.756308 J-2.372814
G02 X41.454553 Y22.435560 Z-0.125000 I139.610103 J-33.833451
G03 X46.398752 Y41.220545 Z-0.125000 I-149.664200 J49.434695
G03 X46.143521 Y46.088450 Z-0.125000 I-9.736390 J1.930151
G03 X43.472146 Y50.171004 Z-0.125000 I-8.462623 J-2.622157
G03 X37.399151 Y53.641480 Z-0.125000 I-11.903345 J-13.780878
G03 X32.779560 Y54.968470 Z-0.125000 I-16.664482 J-49.308831
G03 X30.165968 Y55.362050 Z-0.125000 I-3.642171 J-15.311415
G03 X28.773459 Y55.315240 Z-0.125000 I-0.460538 J-7.035573
G03 X27.444676 Y54.999160 Z-0.125000 I0.895640 J-6.716322
G02 X25.255436 Y54.649004 Z-0.125000 I-2.079504 J5.982605
G02 X24.218614 Y55.055060 Z-0.125000 I0.027680 J1.597418
G02 X23.685430 Y56.630598 Z-0.125000 I1.124508 J1.258537
G02 X24.766760 Y57.921470 Z-0.125000 I1.699044 J-0.324909
G01 X25.189385 Y58.083040 Z-0.125000
G01 X24.770770 Y58.528630 Z-0.125000
G02 X24.324160 Y59.660007 Z-0.125000 I1.200376 J1.127686
G02 X24.775870 Y60.796800 Z-0.125000 I1.665700 J-0.003733
G02 X25.255836 Y61.117688 Z-0.125000 I0.933727 J-0.877219
G02 X25.966632 Y61.247780 Z-0.125000 I0.710796 J-1.876778
G02 X26.672925 Y61.092163 Z-0.125000 I-0.000000 J-1.680624
G02 X27.508338 Y60.533750 Z-0.125000 I-1.363417 J-2.943853
G02 X28.198581 Y59.754771 Z-0.125000 I-3.497086 J-3.794020
G02 X29.000936 Y58.460830 Z-0.125000 I-8.961558 J-6.452672
G03 X29.786516 Y57.161152 Z-0.125000 I11.659821 J6.160428
G03 X30.137403 Y56.804260 Z-0.125000 I1.181053 J0.810243
G03 X30.588257 Y56.574141 Z-0.125000 I1.006030 J1.414316
G03 X33.360075 Y55.716250 Z-0.125000 I18.243536 J54.037486
G03 X37.431326 Y54.667474 Z-0.125000 I25.245301 J89.573456
G03 X37.581545 Y54.729900 Z-0.125000 I0.031700 J0.135672
G03 X37.569865 Y54.874379 Z-0.125000 I-0.104086 J0.064297
G03 X35.813334 Y56.767760 Z-0.125000 I-29.354953 J-25.471758
G02 X33.604742 Y59.476566 Z-0.125000 I12.795817 J12.687693
G02 X31.907192 Y62.641100 Z-0.125000 I15.840095 J10.534671
G02 X31.127743 Y65.079351 Z-0.125000 I13.360613 J5.614769
G02 X31.308661 Y65.305420 Z-0.125000 I0.180918 J0.040643
G02 X31.558746 Y65.159500 Z-0.125000 I0.000000 J-0.287265
G02 X32.749880 Y62.755420 Z-0.125000 I-21.473286 J-12.136349
G03 X34.752953 Y59.893904 Z-0.125000 I7.878306 J3.383009
G03 X42.515341 Y53.567480 Z-0.125000 I48.289166 J51.324426
G02 X46.192680 Y50.926596 Z-0.125000 I-129.053785 J-183.583605
G02 X47.833740 Y49.666160 Z-0.125000 I-27.731508 J-37.804354
G03 X49.469406 Y48.431875 Z-0.125000 I20.984568 J26.107671
G03 X49.666502 Y48.369190 Z-0.125000 I0.197096 J0.278516
G03 X50.361641 Y48.621607 Z-0.125000 I0.000000 J1.083390
G03 X53.237940 Y51.356810 Z-0.125000 I-20.024625 J23.937542
G03 X55.667805 Y54.988491 Z-0.125000 I-10.238493 J9.479034
G03 X56.360518 Y58.121920 Z-0.125000 I-6.832796 J3.153824
G03 X55.781180 Y60.830408 Z-0.125000 I-6.538586 J0.017619
G03 X52.774649 Y66.063160 Z-0.125000 I-28.289918 J-12.774170
G02 X50.299653 Y69.770008 Z-0.125000 I60.185164 J42.864228
G02 X49.319958 Y71.591390 Z-0.125000 I13.491445 J8.431029
G03 X48.497351 Y72.696374 Z-0.125000 I-2.984640 J-1.363233
G03 X46.925819 Y73.688530 Z-0.125000 I-3.935224 J-4.492524
G02 X45.222660 Y74.772756 Z-0.125000 I2.508013 J5.819535
G02 X44.542187 Y75.808340 Z-0.125000 I1.586228 J1.783656
G02 X44.862992 Y77.082462 Z-0.125000 I1.164370 J0.384277
G02 X46.162509 Y77.344390 Z-0.125000 I0.858736 J-0.905848
G03 X46.467112 Y77.373149 Z-0.125000 I0.122914 J0.325636
G03 X46.552997 Y77.583370 Z-0.125000 I-0.100090 J0.163546
G02 X46.758492 Y78.473650 Z-0.125000 I0.973114 J0.244242
G02 X47.652432 Y78.889700 Z-0.125000 I0.893940 J-0.752352
G02 X48.772105 Y78.516409 Z-0.125000 I0.000000 J-1.865853
G02 X49.691935 Y77.359730 Z-0.125000 I-1.755446 J-2.340070
G02 X49.903229 Y76.565051 Z-0.125000 I-2.410724 J-1.066408
G02 X49.996655 Y74.419400 Z-0.125000 I-17.887093 J-1.853699
G01 X49.961395 Y72.247660 Z-0.125000
G01 X50.603725 Y71.025890 Z-0.125000
G03 X52.431732 Y68.167984 Z-0.125000 I17.679400 J9.294725
G03 X53.281276 Y67.533400 Z-0.125000 I1.548648 J1.187287
G03 X53.580656 Y67.662746 Z-0.125000 I0.083555 J0.217747
G03 X54.055929 Y69.424670 Z-0.125000 I-6.757758 J2.767944
G03 X54.271122 Y72.773909 Z-0.125000 I-22.469323 J3.125216
G03 X53.993519 Y75.744540 Z-0.125000 I-17.927762 J-0.177048
G03 X53.494885 Y77.736924 Z-0.125000 I-14.716711 J-2.624564
G03 X51.339512 Y83.917640 Z-0.125000 I-144.414091 J-46.894691
G02 X50.811365 Y88.125831 Z-0.125000 I8.632313 J3.220631
G02 X52.001826 Y90.061150 Z-0.125000 I2.629125 J-0.283438
G02 X53.603523 Y90.335757 Z-0.125000 I1.120718 J-1.728398
G02 X54.751220 Y89.400940 Z-0.125000 I-0.399064 J-1.661876
G03 X55.153932 Y88.628682 Z-0.125000 I9.551259 J4.489592
G03 X55.216049 Y88.592750 Z-0.125000 I0.062117 J0.035727
G03 X55.288391 Y88.621499 Z-0.125000 I-0.000000 J0.105395
G03 X55.876718 Y89.216330 Z-0.125000 I-8.354523 J8.851524
G02 X57.125255 Y89.908463 Z-0.125000 I1.671765 J-1.543511
G02 X58.176119 Y89.651620 Z-0.125000 I0.243039 J-1.283822
G02 X58.926101 Y88.639917 Z-0.125000 I-1.478992 J-1.880221
G02 X59.249843 Y86.896010 Z-0.125000 I-4.421427 J-1.722805
G02 X58.667226 Y84.730960 Z-0.125000 I-4.386874 J0.019595
G02 X56.438185 Y81.999960 Z-0.125000 I-9.403999 J5.400370
G03 X54.914550 Y80.568743 Z-0.125000 I22.209738 J-25.170504
G03 X54.534177 Y80.096440 Z-0.125000 I1.997631 J-1.998129
G03 X54.333477 Y79.320966 Z-0.125000 I1.080729 J-0.693411
G03 X54.780925 Y76.243410 Z-0.125000 I19.315153 J1.236938
G02 X55.038500 Y74.551925 Z-0.125000 I-11.327580 J-2.590287
G02 X55.256011 Y70.119810 Z-0.125000 I-77.927183 J-6.045764
G01 X55.347851 Y65.672200 Z-0.125000
G01 X56.517621 Y64.629710 Z-0.125000
G02 X59.249161 Y61.981793 Z-0.125000 I-30.195383 J-33.881832
G02 X59.892201 Y61.072200 Z-0.125000 I-2.822905 J-2.677759
G02 X60.383535 Y59.588371 Z-0.125000 I-4.598208 J-2.345845
G02 X60.870494 Y55.296130 Z-0.125000 I-38.873083 J-6.583935
G01 X60.996183 Y53.137470 Z-0.125000
G01 X61.872528 Y53.620140 Z-0.125000
G03 X64.355310 Y55.879873 Z-0.125000 I-3.478519 J6.315659
G03 X66.342011 Y60.189270 Z-0.125000 I-11.910327 J8.103500
G02 X67.262529 Y63.154534 Z-0.125000 I43.442389 J-11.860477
G02 X67.434544 Y63.322770 Z-0.125000 I0.255354 J-0.089032
G02 X67.705483 Y63.102301 Z-0.125000 I0.064122 J-0.197915
G02 X66.958494 Y58.957450 Z-0.125000 I-30.065965 J3.278783
G03 X66.305190 Y56.236603 Z-0.125000 I109.898504 J-27.826650
G03 X66.325009 Y56.167950 Z-0.125000 I0.072099 J-0.016373
G03 X66.390546 Y56.156069 Z-0.125000 I0.041357 J0.041435
G03 X68.134317 Y56.988630 Z-0.125000 I-20.303367 J44.767138
G02 X74.285522 Y59.766938 Z-0.125000 I37.051824 J-73.834588
G02 X74.775270 Y59.667150 Z-0.125000 I0.169442 J-0.420104
G02 X74.746305 Y59.429693 Z-0.125000 I-0.107396 J-0.107395
G02 X70.565983 Y57.128870 Z-0.125000 I-31.205396 J51.748506
G03 X64.787285 Y53.830425 Z-0.125000 I27.060356 J-54.119489
G03 X62.081699 Y51.646580 Z-0.125000 I8.967221 J-13.877486
G03 X60.781699 Y50.129741 Z-0.125000 I9.089368 J-9.105501
G03 X59.824865 Y48.556820 Z-0.125000 I8.823998 J-6.445275
G03 X59.154622 Y46.946070 Z-0.125000 I11.515341 J-5.736427
G03 X59.223566 Y46.780820 Z-0.125000 I0.128354 J-0.043457
G03 X60.854447 Y46.465121 Z-0.125000 I1.402646 J2.875621
G03 X65.247681 Y47.211640 Z-0.125000 I-1.642486 J22.966227
G03 X69.490837 Y49.054688 Z-0.125000 I-4.209942 J15.498260
G03 X74.099838 Y52.691460 Z-0.125000 I-13.614718 J21.993338
G03 X76.756533 Y55.716482 Z-0.125000 I-20.761012 J20.912271
G03 X78.371708 Y58.284130 Z-0.125000 I-13.293923 J10.154355
G03 X78.904224 Y60.603395 Z-0.125000 I-4.371387 J2.224461
G03 X78.274468 Y63.314180 Z-0.125000 I-6.707323 J-0.129668
G02 X77.602139 Y66.325618 Z-0.125000 I6.475690 J3.026523
G02 X78.265768 Y67.436130 Z-0.125000 I1.256538 J0.002652
G02 X79.384398 Y67.541624 Z-0.125000 I0.684985 J-1.279819
G02 X79.830675 Y66.946300 Z-0.125000 I-0.190162 J-0.607487
G03 X79.858611 Y66.812604 Z-0.125000 I0.365399 J0.006584
G03 X79.996463 Y66.547150 Z-0.125000 I1.626352 J0.676055
G03 X80.169933 Y66.491707 Z-0.125000 I0.119816 J0.075783
G03 X80.535820 Y66.767670 Z-0.125000 I-0.339786 J0.831047
G02 X81.168058 Y67.154959 Z-0.125000 I0.839001 J-0.659946
G02 X81.980817 Y67.052980 Z-0.125000 I0.252385 J-1.278306
G02 X83.368094 Y65.696087 Z-0.125000 I-1.288765 J-2.705242
G02 X83.607963 Y63.823580 Z-0.125000 I-2.532518 J-1.276033
G02 X83.169600 Y62.815399 Z-0.125000 I-2.728725 J0.587074
G02 X81.282092 Y60.484260 Z-0.125000 I-17.049187 J11.874892
G03 X79.679652 Y58.567099 Z-0.125000 I16.102983 J-15.087795
G03 X78.708845 Y57.025020 Z-0.125000 I9.416662 J-7.004826
G03 X77.935273 Y55.412450 Z-0.125000 I21.477912 J-11.295088
G03 X77.957098 Y55.297420 Z-0.125000 I0.095356 J-0.041493
G03 X78.533143 Y55.129539 Z-0.125000 I0.441010 J0.441001
G03 X83.788786 Y56.590710 Z-0.125000 I-11.162268 J50.331741
G03 X84.979968 Y57.077281 Z-0.125000 I-3.218965 J9.581760
G03 X86.346872 Y57.831090 Z-0.125000 I-6.490801 J13.386188
G02 X89.219114 Y59.292931 Z-0.125000 I9.946629 J-15.990625
G02 X89.433680 Y59.082340 Z-0.125000 I0.061564 J-0.151878
G02 X88.803149 Y58.304279 Z-0.125000 I-1.510648 J0.579692
G02 X84.746059 Y56.043770 Z-0.125000 I-18.927247 J29.199004
G02 X83.368953 Y55.498352 Z-0.125000 I-4.913644 J10.395073
G02 X80.602810 Y54.704450 Z-0.125000 I-13.350941 J41.301936
G03 X77.833014 Y53.934568 Z-0.125000 I14.148878 J-56.270609
G03 X77.360706 Y53.716130 Z-0.125000 I0.554298 J-1.818341
G03 X76.949079 Y53.391980 Z-0.125000 I1.467320 J-2.286730
G03 X74.447193 Y50.926770 Z-0.125000 I84.436693 J-88.195050
G02 X71.055966 Y48.038436 Z-0.125000 I-18.269375 J18.015281
G02 X66.949380 Y45.590200 Z-0.125000 I-17.138852 J24.079875
G03 X61.611135 Y42.633453 Z-0.125000 I27.363414 J-55.700477
G03 X59.627986 Y41.050870 Z-0.125000 I5.653217 J-9.117940
G03 X55.901570 Y35.226215 Z-0.125000 I11.827973 J-11.671480
G03 X53.194260 Y23.935150 Z-0.125000 I43.858826 J-16.486333
G03 X52.915614 Y13.824839 Z-0.125000 I60.221106 J-6.718725
G03 X54.251967 Y5.067590 Z-0.125000 I46.411655 J2.601814
G02 X54.682613 Y3.139925 Z-0.125000 I-35.385076 J-8.917074
G02 X54.665102 Y2.950560 Z-0.125000 I-0.332004 J-0.064790
G02 X53.993306 Y2.146908 Z-0.125000 I-1.552049 J0.614790
G02 X51.071660 Y0.720530 Z-0.125000 I-8.481202 J13.666634
G02 X49.545170 Y0.305531 Z-0.125000 I-3.129067 J8.494693
G02 X47.631487 Y0.101750 Z-0.125000 I-2.371915 J13.186911
G02 X45.699585 Y0.128426 Z-0.125000 I-0.688059 J20.138732
G02 X44.544156 Y0.292770 Z-0.125000 I0.453434 J7.331706
G01 X44.544124 Y0.292750 Z-0.125000
G00 Z5.000000

(End cutting path id: path4529)


(Start cutting path id: path4529)
(Change tool to Cylindrical cutter)

G00 Z5.000000
G00 X56.962469 Y24.517690

G01 Z-0.125000 F100.0(Penetrate)
G02 X54.563951 Y25.062485 Z-0.125000 I6.714288 J35.112610 F1100.000000
G02 X54.487857 Y25.170060 Z-0.125000 I0.026151 J0.099199
G02 X54.555399 Y25.315504 Z-0.125000 I0.230857 J-0.018802
G02 X55.020092 Y25.699320 Z-0.125000 I2.308211 J-2.321379
G03 X55.829055 Y26.592894 Z-0.125000 I-1.446128 J2.122165
G03 X56.632041 Y28.658070 Z-0.125000 I-7.620553 J4.151737
G02 X57.516038 Y31.100849 Z-0.125000 I12.098378 J-2.996840
G02 X58.422180 Y32.348640 Z-0.125000 I3.951709 J-1.916806
G02 X59.580007 Y33.143165 Z-0.125000 I2.967593 J-3.083657
G02 X60.618508 Y33.373550 Z-0.125000 I1.038501 J-2.225423
G02 X62.528787 Y32.239582 Z-0.125000 I-0.000000 J-2.176009
G02 X62.551549 Y29.829880 Z-0.125000 I-2.247865 J-1.226192
G03 X62.390123 Y29.297117 Z-0.125000 I1.332702 J-0.694643
G03 X62.486009 Y29.224960 Z-0.125000 I0.069432 J-0.007523
G02 X63.748538 Y29.488967 Z-0.125000 I1.347250 J-3.291970
G02 X64.650603 Y29.276560 Z-0.125000 I0.043741 J-1.835919
G02 X65.558018 Y28.417379 Z-0.125000 I-1.088154 J-2.058010
G02 X65.887932 Y27.216920 Z-0.125000 I-1.980732 J-1.189916
G02 X65.446399 Y25.849116 Z-0.125000 I-2.372835 J0.010795
G02 X64.054450 Y24.648340 Z-0.125000 I-3.159412 J2.255248
G02 X61.862427 Y24.098939 Z-0.125000 I-2.284425 J4.466883
G02 X56.962467 Y24.517710 Z-0.125000 I-0.437596 J23.755918
G01 X56.962469 Y24.517690 Z-0.125000
G00 Z5.000000

(End cutting path id: path4529)


(Start cutting path id: path4529)
(Change tool to Cylindrical cutter)

G00 Z5.000000
G00 X68.091631 Y30.267690

G01 Z-0.125000 F100.0(Penetrate)
G02 X67.412307 Y30.554379 Z-0.125000 I1.153373 J3.681170 F1100.000000
G02 X66.152905 Y31.314400 Z-0.125000 I7.295445 J13.512463
G03 X64.877952 Y31.986338 Z-0.125000 I-3.799330 J-5.663420
G03 X64.084424 Y32.138610 Z-0.125000 I-0.793528 J-1.991495
G02 X63.318531 Y32.212589 Z-0.125000 I-0.000000 J4.001556
G02 X63.244550 Y32.302390 Z-0.125000 I0.017511 J0.089801
G02 X63.965620 Y34.047802 Z-0.125000 I2.472997 J-0.000000
G02 X67.641934 Y36.716220 Z-0.125000 I10.137233 J-10.099537
G02 X69.064337 Y37.118853 Z-0.125000 I1.743542 J-3.445685
G02 X70.192811 Y36.929080 Z-0.125000 I0.192422 J-2.305861
G02 X70.852703 Y36.463565 Z-0.125000 I-0.830845 J-1.878240
G02 X71.196207 Y35.870270 Z-0.125000 I-1.074303 J-1.018084
G02 X71.251191 Y35.180481 Z-0.125000 I-1.578415 J-0.472903
G02 X71.013055 Y34.490930 Z-0.125000 I-1.815411 J0.241055
G03 X70.810816 Y33.871517 Z-0.125000 I1.300590 J-0.767366
G03 X70.929395 Y33.641140 Z-0.125000 I0.237628 J-0.023394
G02 X72.109090 Y32.191567 Z-0.125000 I-1.302689 J-2.264974
G02 X71.821508 Y30.925220 Z-0.125000 I-1.198457 J-0.393663
G02 X70.320876 Y30.123538 Z-0.125000 I-1.975626 J1.892761
G02 X68.091630 Y30.267690 Z-0.125000 I-0.818901 J4.645279
G01 X68.091631 Y30.267690 Z-0.125000
G00 Z5.000000

(End cutting path id: path4529)


(Start cutting path id: path4529)
(Change tool to Cylindrical cutter)

G00 Z5.000000
G00 X74.800000 Y25.785640

G01 Z-0.125000 F100.0(Penetrate)
G02 X73.809681 Y26.577378 Z-0.125000 I1.333104 J2.682691 F1100.000000
G02 X72.753574 Y28.300090 Z-0.125000 I5.901312 J4.802873
G03 X72.459376 Y28.697997 Z-0.125000 I-1.037357 J-0.459270
G03 X71.949621 Y28.997100 Z-0.125000 I-1.060045 J-1.222680
G02 X71.442109 Y29.268110 Z-0.125000 I0.684058 J1.891721
G02 X71.359828 Y29.430730 Z-0.125000 I0.119561 J0.162620
G02 X71.979919 Y30.283571 Z-0.125000 I0.896522 J0.000000
G02 X75.904210 Y30.903680 Z-0.125000 I3.924291 J-12.107159
G02 X77.624449 Y29.903700 Z-0.125000 I0.000000 J-1.979630
G02 X77.349631 Y28.365560 Z-0.125000 I-1.060772 J-0.604094
G01 X76.811927 Y27.913120 Z-0.125000
G01 X77.184129 Y27.409690 Z-0.125000
G02 X77.392338 Y26.446730 Z-0.125000 I-0.963450 J-0.712304
G02 X76.816911 Y25.693160 Z-0.125000 I-1.085168 J0.232152
G02 X75.917589 Y25.496100 Z-0.125000 I-0.817763 J1.581373
G02 X74.800000 Y25.785660 Z-0.125000 I0.128246 J2.796487
G01 X74.800000 Y25.785640 Z-0.125000
G00 Z5.000000

(End cutting path id: path4529)


(Start cutting path id: path4529)
(Change tool to Cylindrical cutter)

G00 Z5.000000
G00 X80.657835 Y31.074370

G01 Z-0.125000 F100.0(Penetrate)
G02 X76.884865 Y33.010715 Z-0.125000 I7.605825 J19.463948 F1100.000000
G02 X75.385002 Y34.497480 Z-0.125000 I2.821709 J4.346489
G02 X75.430291 Y34.770536 Z-0.125000 I0.169514 J0.112169
G02 X75.852894 Y34.858760 Z-0.125000 I0.302224 J-0.391419
G03 X76.494562 Y34.956527 Z-0.125000 I0.204276 J0.813881
G03 X78.328384 Y36.370750 Z-0.125000 I-5.567877 J9.115930
G02 X80.649396 Y38.066327 Z-0.125000 I7.420423 J-7.721177
G02 X82.481575 Y38.619810 Z-0.125000 I2.260975 J-4.175196
G02 X84.760352 Y37.690934 Z-0.125000 I0.241790 J-2.666484
G02 X84.853218 Y35.839560 Z-0.125000 I-1.155877 J-0.985996
G01 X84.350690 Y35.114410 Z-0.125000
G01 X85.123725 Y34.448620 Z-0.125000
G02 X85.745243 Y33.713357 Z-0.125000 I-1.996092 J-2.317613
G02 X85.896761 Y33.169820 Z-0.125000 I-0.899149 J-0.543537
G02 X84.488385 Y31.089653 Z-0.125000 I-2.240389 J-0.000000
G02 X80.657835 Y31.074370 Z-0.125000 I-1.934603 J4.836819
G01 X80.657835 Y31.074370 Z-0.125000
G00 Z5.000000

(End cutting path id: path4529)


(Start cutting path id: path4529)
(Change tool to Cylindrical cutter)

G00 Z5.000000
G00 X71.933191 Y37.914090

G01 Z-0.125000 F100.0(Penetrate)
G02 X71.058069 Y38.026508 Z-0.125000 I0.530659 J7.593352 F1100.000000
G02 X71.006990 Y38.088080 Z-0.125000 I0.011570 J0.061572
G02 X71.037185 Y38.185565 Z-0.125000 I0.172463 J-0.000000
G02 X71.315723 Y38.538510 Z-0.125000 I2.754564 J-1.887471
G03 X71.496778 Y38.928929 Z-0.125000 I-0.537834 J0.486610
G03 X71.624457 Y40.845860 Z-0.125000 I-14.326297 J1.916931
G02 X71.797889 Y42.764030 Z-0.125000 I10.694277 J0.000000
G02 X72.139914 Y43.673060 Z-0.125000 I2.675468 J-0.487794
G02 X73.497492 Y45.129880 Z-0.125000 I4.083581 J-2.444438
G02 X74.821004 Y45.546470 Z-0.125000 I1.323512 J-1.894115
G02 X75.351573 Y45.440032 Z-0.125000 I0.000000 J-1.375603
G02 X75.952561 Y45.073430 Z-0.125000 I-0.897942 J-2.147954
G02 X76.337382 Y44.527970 Z-0.125000 I-0.845808 J-1.005193
G02 X76.435868 Y43.779700 Z-0.125000 I-1.573070 J-0.587660
G01 X76.357008 Y42.958980 Z-0.125000
G01 X77.128925 Y42.958980 Z-0.125000
G02 X78.734078 Y41.228127 Z-0.125000 I0.000000 J-1.609717
G02 X76.778538 Y38.316000 Z-0.125000 I-3.544425 J0.267486
G02 X75.424039 Y37.936632 Z-0.125000 I-1.661815 J3.325616
G02 X71.933191 Y37.914090 Z-0.125000 I-1.892858 J22.820212
G01 X71.933191 Y37.914090 Z-0.125000
G00 Z5.000000

(End cutting path id: path4529)


(Start cutting path id: path4529)
(Change tool to Cylindrical cutter)

G00 Z5.000000
G00 X64.773516 Y39.136570

G01 Z-0.125000 F100.0(Penetrate)
G02 X64.696324 Y39.270932 Z-0.125000 I0.210155 J0.210090 F1100.000000
G02 X64.655901 Y39.582940 Z-0.125000 I1.183910 J0.312008
G03 X64.605750 Y39.901560 Z-0.125000 I-1.037217 J-0.000000
G03 X64.200585 Y40.993480 Z-0.125000 I-12.869768 J-4.154300
G02 X63.932188 Y42.690407 Z-0.125000 I3.310183 J1.393250
G02 X64.421625 Y43.598210 Z-0.125000 I1.289587 J-0.109434
G02 X65.221849 Y43.864192 Z-0.125000 I0.769455 J-0.978199
G02 X65.894109 Y43.561810 Z-0.125000 I-0.023513 J-0.950752
G03 X66.315749 Y43.283899 Z-0.125000 I0.783723 J0.730240
G03 X66.999304 Y43.164870 Z-0.125000 I0.683555 J1.903229
G02 X67.643177 Y43.019020 Z-0.125000 I-0.000000 J-1.494156
G02 X67.955364 Y42.708350 Z-0.125000 I-0.286630 J-0.600220
G02 X67.867397 Y41.267410 Z-0.125000 I-1.327999 J-0.642083
G02 X65.852596 Y39.444320 Z-0.125000 I-4.392990 J2.830063
G02 X64.952983 Y39.090073 Z-0.125000 I-2.263393 J4.428496
G02 X64.773516 Y39.136630 Z-0.125000 I-0.050149 J0.175870
G01 X64.773516 Y39.136570 Z-0.125000
G00 Z5.000000

(End cutting path id: path4529)


(Start cutting path id: path4529)
(Change tool to Cylindrical cutter)

G00 Z5.000000
G00 X51.797001 Y52.706720

G01 Z-0.125000 F100.0(Penetrate)
G03 X51.353523 Y53.099768 Z-0.125000 I-1.726026 J-1.500772 F1100.000000
G03 X50.601379 Y53.516420 Z-0.125000 I-2.699981 J-3.986812
G03 X49.777634 Y53.728326 Z-0.125000 I-1.049415 J-2.372377
G03 X47.978501 Y53.745460 Z-0.125000 I-1.009775 J-11.563573
G02 X44.052562 Y54.348343 Z-0.125000 I-0.617673 J9.061941
G02 X42.233506 Y55.992270 Z-0.125000 I1.260593 J3.223269
G02 X42.422630 Y58.612271 Z-0.125000 I2.250932 J1.154344
G02 X44.924270 Y59.777500 Z-0.125000 I2.275697 J-1.617702
G01 X45.921881 Y59.696500 Z-0.125000
G01 X45.589717 Y60.428040 Z-0.125000
G02 X46.150894 Y63.552796 Z-0.125000 I2.545143 J1.155685
G02 X49.209489 Y64.075190 Z-0.125000 I1.895164 J-1.880935
G02 X50.990018 Y62.032908 Z-0.125000 I-1.505403 J-3.109763
G02 X52.549461 Y53.794060 Z-0.125000 I-31.471153 J-10.223846
G02 X52.252443 Y52.731876 Z-0.125000 I-1.685546 J-0.101292
G02 X51.797001 Y52.706720 Z-0.125000 I-0.237493 J0.164351
G01 X51.797001 Y52.706720 Z-0.125000
G00 Z5.000000

(End cutting path id: path4529)


(Start cutting path id: path4529)
(Change tool to Cylindrical cutter)

G00 Z5.000000
G00 X41.135237 Y60.773050

G01 Z-0.125000 F100.0(Penetrate)
G03 X40.388807 Y61.053866 Z-0.125000 I-0.826802 J-1.065261 F1100.000000
G03 X37.487359 Y60.990860 Z-0.125000 I-1.064326 J-17.825274
G02 X35.339251 Y61.148931 Z-0.125000 I-0.630954 J6.100538
G02 X33.950661 Y61.893740 Z-0.125000 I0.812095 J3.180853
G02 X33.317577 Y64.090854 Z-0.125000 I1.453161 J1.608486
G02 X34.912521 Y65.302800 Z-0.125000 I1.601225 J-0.451781
G03 X35.297238 Y65.439633 Z-0.125000 I-0.001879 J0.614529
G03 X35.311667 Y65.625600 Z-0.125000 I-0.080776 J0.099811
G02 X35.065187 Y65.971468 Z-0.125000 I1.355578 J1.226802
G02 X34.824965 Y66.510700 Z-0.125000 I3.095434 J1.702106
G02 X34.919226 Y67.423529 Z-0.125000 I1.020861 J0.355865
G02 X35.793648 Y68.122260 Z-0.125000 I1.378485 J-0.828586
G02 X37.488953 Y67.883043 Z-0.125000 I0.605601 J-1.835001
G02 X40.047883 Y65.217200 Z-0.125000 I-5.076211 J-7.433704
G02 X42.103169 Y61.023799 Z-0.125000 I-19.357544 J-12.087967
G02 X41.809627 Y60.438710 Z-0.125000 I-0.420709 J-0.155109
G02 X41.645712 Y60.452898 Z-0.125000 I-0.063878 J0.215962
G02 X41.135237 Y60.773050 Z-0.125000 I1.342004 J2.706843
G01 X41.135237 Y60.773050 Z-0.125000
G00 Z5.000000

(End cutting path id: path4529)


(Start cutting path id: path4529)
(Change tool to Cylindrical cutter)

G00 Z5.000000
G00 X40.486484 Y69.389080

G01 Z-0.125000 F100.0(Penetrate)
G03 X40.018491 Y69.715067 Z-0.125000 I-2.129624 J-2.558407 F1100.000000
G03 X38.511402 Y70.526870 Z-0.125000 I-14.966743 J-25.980486
G02 X36.251452 Y71.994896 Z-0.125000 I5.483168 J10.914605
G02 X35.340799 Y73.125730 Z-0.125000 I2.247601 J2.742066
G02 X35.526096 Y75.456975 Z-0.125000 I1.989308 J1.014868
G02 X37.344975 Y75.872340 Z-0.125000 I1.148196 J-0.837833
G03 X37.759934 Y75.933465 Z-0.125000 I0.166230 J0.310595
G03 X38.013915 Y76.539320 Z-0.125000 I-0.610112 J0.611929
G02 X38.385486 Y77.288420 Z-0.125000 I0.954262 J-0.006633
G02 X39.460524 Y77.654740 Z-0.125000 I1.075038 J-1.394292
G02 X41.429974 Y76.232828 Z-0.125000 I-0.000000 J-2.074870
G02 X41.349307 Y71.957800 Z-0.125000 I-6.102164 J-2.023131
G03 X41.100806 Y70.896755 Z-0.125000 I4.003956 J-1.497364
G03 X41.161861 Y70.130890 Z-0.125000 I2.113636 J-0.216868
G02 X41.350081 Y69.355550 Z-0.125000 I-16.622142 J-4.445670
G02 X41.368581 Y69.184090 Z-0.125000 I-0.785297 J-0.171460
G02 X41.187805 Y69.040506 Z-0.125000 I-0.147410 J0.000000
G02 X40.486484 Y69.389080 Z-0.125000 I0.383980 J1.652365
G01 X40.486484 Y69.389080 Z-0.125000
G00 Z5.000000

(End cutting path id: path4529)


(Start cutting path id: path4529)
(Change tool to Cylindrical cutter)

G00 Z5.000000
G00 X40.949950 Y78.082080

G01 Z-0.125000 F100.0(Penetrate)
G02 X39.389180 Y80.634416 Z-0.125000 I11.593823 J8.843076 F1100.000000
G02 X39.077613 Y81.997320 Z-0.125000 I2.872730 J1.373786
G02 X39.865101 Y83.415749 Z-0.125000 I1.660998 J0.005656
G02 X41.164782 Y83.287800 Z-0.125000 I0.566016 J-0.915447
G01 X41.556773 Y82.922600 Z-0.125000
G01 X42.062715 Y83.464210 Z-0.125000
G02 X42.594908 Y83.945378 Z-0.125000 I3.111346 J-2.906391
G02 X42.774103 Y84.005830 Z-0.125000 I0.179195 J-0.235361
G02 X43.701694 Y83.516235 Z-0.125000 I-0.000000 J-1.123507
G02 X44.191286 Y81.932100 Z-0.125000 I-2.318032 J-1.584135
G02 X43.852155 Y80.618293 Z-0.125000 I-2.714437 J0.000000
G02 X42.743698 Y79.314920 Z-0.125000 I-3.776902 J2.089045
G03 X42.088417 Y78.556994 Z-0.125000 I1.628284 J-2.069998
G03 X41.897837 Y77.842760 Z-0.125000 I1.243071 J-0.714234
G02 X41.629460 Y77.633721 Z-0.125000 I-0.215599 J0.000000
G02 X40.949950 Y78.082080 Z-0.125000 I0.302271 J1.197201
G01 X40.949950 Y78.082080 Z-0.125000
G00 Z5.000000

(End cutting path id: path4529)


(Start cutting path id: path4529)
(Change tool to Cylindrical cutter)

G00 Z5.000000
G00 X35.483971 Y80.089510

G01 Z-0.125000 F100.0(Penetrate)
G02 X35.407009 Y80.390188 Z-0.125000 I11.607948 J3.131365 F1100.000000
G02 X35.304515 Y80.830290 Z-0.125000 I24.774689 J6.001704
G03 X35.086954 Y81.187613 Z-0.125000 I-0.635627 J-0.142116
G03 X33.450701 Y82.382070 Z-0.125000 I-9.804138 J-11.712458
G02 X30.821806 Y84.406666 Z-0.125000 I9.651435 J15.251265
G02 X30.072875 Y85.518220 Z-0.125000 I2.003708 J2.158116
G02 X29.957113 Y85.979660 Z-0.125000 I1.896296 J0.720968
G02 X29.901339 Y86.848040 Z-0.125000 I6.732334 J0.868380
G02 X30.037263 Y87.670366 Z-0.125000 I2.555463 J0.000000
G02 X30.353706 Y88.179040 Z-0.125000 I1.249941 J-0.424816
G02 X30.866972 Y88.458900 Z-0.125000 I0.732133 J-0.732143
G02 X31.902472 Y88.513990 Z-0.125000 I0.688611 J-3.184024
G01 X32.998867 Y88.396580 Z-0.125000
G01 X33.230134 Y89.036130 Z-0.125000
G02 X33.548639 Y89.605261 Z-0.125000 I1.886960 J-0.682319
G02 X34.018924 Y90.024740 Z-0.125000 I1.464478 J-1.168488
G02 X35.594887 Y90.111036 Z-0.125000 I0.866094 J-1.383371
G02 X37.250294 Y88.463970 Z-0.125000 I-1.553995 J-3.217293
G02 X37.557253 Y87.497053 Z-0.125000 I-3.097794 J-1.515614
G02 X37.621050 Y86.163370 Z-0.125000 I-5.897989 J-0.950497
G02 X37.439764 Y84.817522 Z-0.125000 I-9.727986 J0.625225
G02 X36.993473 Y83.123740 Z-0.125000 I-15.883192 J3.279345
G03 X36.467943 Y81.443558 Z-0.125000 I98.385853 J-31.695574
G03 X36.262861 Y80.716110 Z-0.125000 I18.229849 J-5.531983
G02 X35.792535 Y79.988985 Z-0.125000 I-1.335234 J0.347996
G02 X35.483971 Y80.089510 Z-0.125000 I-0.121467 J0.150989
G01 X35.483971 Y80.089510 Z-0.125000
G00 Z5.000000

(End cutting path id: path4529)


(Start cutting path id: path4529)
(Change tool to Cylindrical cutter)

G00 Z5.000000
G00 X27.872520 Y75.047530

G01 Z-0.125000 F100.0(Penetrate)
G02 X26.329602 Y76.110109 Z-0.125000 I1.206832 J3.403867 F1100.000000
G02 X25.843698 Y77.430300 Z-0.125000 I1.550512 J1.320191
G02 X26.168528 Y78.308211 Z-0.125000 I1.348771 J0.000000
G02 X27.099835 Y78.895390 Z-0.125000 I1.416451 J-1.214442
G03 X27.628382 Y79.173756 Z-0.125000 I-0.353114 J1.311448
G03 X27.674233 Y79.385600 Z-0.125000 I-0.116072 J0.136006
G02 X27.483557 Y80.489356 Z-0.125000 I1.922502 J0.900464
G02 X27.863129 Y81.349170 Z-0.125000 I1.487849 J-0.143134
G02 X29.536860 Y81.959831 Z-0.125000 I1.415714 J-1.281207
G02 X31.869459 Y80.802780 Z-0.125000 I-0.551088 J-4.040756
G02 X32.794267 Y79.483729 Z-0.125000 I-3.291418 J-3.291391
G02 X33.424630 Y77.478320 Z-0.125000 I-7.179277 J-3.358448
G03 X33.649724 Y76.338035 Z-0.125000 I24.528436 J4.249599
G03 X33.808724 Y75.746410 Z-0.125000 I6.752031 J1.497434
G02 X33.715362 Y75.284949 Z-0.125000 I-0.462608 J-0.146581
G02 X33.373424 Y75.235950 Z-0.125000 I-0.198769 J0.169503
G03 X32.928565 Y75.359673 Z-0.125000 I-0.416374 J-0.635486
G03 X31.659765 Y75.171650 Z-0.125000 I0.219796 J-5.858211
G02 X29.294439 Y74.826854 Z-0.125000 I-2.715531 J10.343189
G02 X27.872520 Y75.047550 Z-0.125000 I-0.126913 J3.873292
G01 X27.872520 Y75.047530 Z-0.125000
G00 Z5.000000

(End cutting path id: path4529)


(Start cutting path id: path4529)
(Change tool to Cylindrical cutter)

G00 Z5.000000
G00 X21.433221 Y75.555120

G01 Z-0.125000 F100.0(Penetrate)
G02 X16.608043 Y78.436171 Z-0.125000 I6.939851 J17.103972 F1100.000000
G02 X15.752526 Y80.254120 Z-0.125000 I1.503786 J1.817949
G02 X16.179923 Y81.179666 Z-0.125000 I1.215853 J-0.000000
G02 X17.326200 Y81.594710 Z-0.125000 I1.127510 J-1.323551
G02 X18.166013 Y81.560443 Z-0.125000 I-0.151033 J-14.009731
G02 X18.426355 Y81.516710 Z-0.125000 I-0.097744 J-1.378639
G03 X18.590195 Y81.588848 Z-0.125000 I0.037025 J0.138034
G03 X18.794804 Y82.225800 Z-0.125000 I-1.770939 J0.920221
G02 X19.801866 Y83.368726 Z-0.125000 I1.376024 J-0.197314
G02 X21.793755 Y83.051400 Z-0.125000 I0.646882 J-2.349771
G02 X22.768547 Y81.661187 Z-0.125000 I-1.280208 J-1.934519
G02 X22.910446 Y78.425060 Z-0.125000 I-8.207286 J-1.981050
G03 X22.797831 Y76.496846 Z-0.125000 I10.524285 J-1.582052
G03 X22.994396 Y75.845420 Z-0.125000 I1.320083 J0.042960
G02 X23.348222 Y75.224200 Z-0.125000 I-8.490588 J-5.247328
G02 X23.373835 Y75.119970 Z-0.125000 I-0.199272 J-0.104230
G02 X23.219730 Y74.996594 Z-0.125000 I-0.126440 J0.000000
G02 X21.433225 Y75.555150 Z-0.125000 I2.486735 J11.089951
G01 X21.433221 Y75.555120 Z-0.125000
G00 Z5.000000

(End cutting path id: path4529)


(Start cutting path id: path4529)
(Change tool to Cylindrical cutter)

G00 Z5.000000
G00 X13.231326 Y74.363800

G01 Z-0.125000 F100.0(Penetrate)
G03 X12.507233 Y74.871437 Z-0.125000 I-0.998798 J-0.654444 F1100.000000
G03 X8.995674 Y75.365060 Z-0.125000 I-4.417149 J-18.685773
G02 X3.748969 Y76.178481 Z-0.125000 I1.176376 J24.915605
G02 X1.563022 Y77.345810 Z-0.125000 I1.399264 J5.250645
G02 X0.408893 Y78.777017 Z-0.125000 I3.551239 J4.044677
G02 X0.088233 Y80.001050 Z-0.125000 I2.228700 J1.237871
G02 X0.715712 Y81.254531 Z-0.125000 I1.548949 J0.008408
G02 X2.638920 Y81.888800 Z-0.125000 I1.923208 J-2.598605
G03 X3.136192 Y82.209225 Z-0.125000 I-0.000000 J0.546074
G03 X3.199296 Y83.123740 Z-0.125000 I-1.194047 J0.541827
G02 X3.833115 Y85.193476 Z-0.125000 I1.878093 J0.556784
G02 X6.518477 Y85.853490 Z-0.125000 I2.030663 J-2.469146
G02 X9.233931 Y84.515686 Z-0.125000 I-1.245539 J-5.952967
G02 X11.583999 Y81.505970 Z-0.125000 I-6.302870 J-7.343810
G02 X13.640357 Y76.544668 Z-0.125000 I-33.644608 J-16.851808
G02 X14.023619 Y74.181050 Z-0.125000 I-7.096706 J-2.363618
G02 X13.776069 Y73.984100 Z-0.125000 I-0.202122 J0.000000
G02 X13.231326 Y74.363800 Z-0.125000 I0.200161 J0.867776
G01 X13.231326 Y74.363800 Z-0.125000
G00 Z5.000000

(End cutting path id: path4529)


(Start cutting path id: path4529)
(Change tool to Cylindrical cutter)

G00 Z5.000000
G00 X21.173582 Y64.964290

G01 Z-0.125000 F100.0(Penetrate)
G02 X19.285944 Y65.552587 Z-0.125000 I1.198166 J7.167022 F1100.000000
G02 X18.191051 Y66.363260 Z-0.125000 I1.465079 J3.123450
G02 X17.597972 Y68.810037 Z-0.125000 I1.959407 J1.770212
G02 X19.207828 Y70.199270 Z-0.125000 I1.820842 J-0.482634
G03 X19.743996 Y70.535113 Z-0.125000 I-0.081905 J0.726673
G03 X19.739907 Y71.040720 Z-0.125000 I-0.394769 J0.249627
G02 X19.505485 Y72.594650 Z-0.125000 I1.575524 J1.032326
G02 X20.568132 Y73.914640 Z-0.125000 I2.104525 J-0.606498
G02 X21.890107 Y74.188195 Z-0.125000 I1.116493 J-2.064489
G02 X23.845218 Y73.626620 Z-0.125000 I-0.466532 J-5.308350
G02 X25.427211 Y72.209926 Z-0.125000 I-1.886971 J-3.698780
G02 X27.230334 Y68.480950 Z-0.125000 I-13.197026 J-8.681769
G03 X28.116220 Y66.643796 Z-0.125000 I7.447428 J2.459026
G03 X29.099417 Y65.626310 Z-0.125000 I3.157694 J2.067505
G02 X29.780971 Y65.049861 Z-0.125000 I-2.924302 J-4.148632
G02 X29.795350 Y64.923800 Z-0.125000 I-0.072839 J-0.072159
G02 X28.708120 Y64.320968 Z-0.125000 I-1.081263 J0.668253
G02 X21.173582 Y64.964300 Z-0.125000 I0.220795 J47.028867
G01 X21.173582 Y64.964290 Z-0.125000
G00 Z5.000000

(End cutting path id: path4529)


(Start cutting path id: path4529)
(Change tool to Cylindrical cutter)

G00 Z5.000000
G00 X30.565152 Y67.522160

G01 Z-0.125000 F100.0(Penetrate)
G02 X30.009860 Y68.267870 Z-0.125000 I0.527717 J0.972568 F1100.000000
G02 X30.238478 Y69.081700 Z-0.125000 I0.895266 J0.187531
G03 X30.435085 Y69.475106 Z-0.125000 I-0.559104 J0.525247
G03 X30.348263 Y69.711010 Z-0.125000 I-0.246874 J0.043069
G02 X30.161236 Y69.974707 Z-0.125000 I0.399765 J0.481706
G02 X30.077758 Y70.439090 Z-0.125000 I1.249928 J0.464383
G02 X30.485570 Y71.190055 Z-0.125000 I0.895338 J-0.000000
G02 X31.593870 Y71.423350 Z-0.125000 I0.856378 J-1.319129
G02 X32.890871 Y70.893686 Z-0.125000 I-0.498907 J-3.074518
G02 X34.306320 Y69.509170 Z-0.125000 I-3.587132 J-5.083070
G01 X34.682894 Y68.999830 Z-0.125000
G01 X34.084029 Y68.749600 Z-0.125000
G03 X33.515610 Y68.449256 Z-0.125000 I1.373852 J-3.288151
G03 X32.735073 Y67.872700 Z-0.125000 I4.425820 J-6.808263
G02 X31.586221 Y67.348475 Z-0.125000 I-1.529226 J1.830357
G02 X30.565152 Y67.522160 Z-0.125000 I-0.255879 J1.583931
G01 X30.565152 Y67.522160 Z-0.125000
G00 Z5.000000

(End cutting path id: path4529)


(Start cutting path id: path4529)
(Change tool to Cylindrical cutter)

G00 Z5.000000
G00 X24.508201 Y84.202240

G01 Z-0.125000 F100.0(Penetrate)
G03 X23.802653 Y84.721283 Z-0.125000 I-0.996988 J-0.616175 F1100.000000
G03 X20.462916 Y85.240770 Z-0.125000 I-4.339553 J-16.903426
G02 X18.168180 Y85.483913 Z-0.125000 I1.371465 J23.893781
G02 X17.352701 Y85.722950 Z-0.125000 I0.496972 J3.205964
G02 X15.191679 Y87.905411 Z-0.125000 I1.700996 J3.845414
G02 X15.693834 Y89.575470 Z-0.125000 I1.245122 J0.536139
G02 X16.173372 Y89.758723 Z-0.125000 I0.659305 J-1.006219
G02 X17.116265 Y89.790450 Z-0.125000 I0.607161 J-4.017417
G01 X18.087663 Y89.709950 Z-0.125000
G01 X17.743375 Y90.077570 Z-0.125000
G02 X17.255572 Y91.628947 Z-0.125000 I1.370139 J1.283195
G02 X18.127162 Y92.736420 Z-0.125000 I1.395302 J-0.201403
G02 X20.495934 Y92.469870 Z-0.125000 I0.936119 J-2.339568
G02 X23.612373 Y88.945630 Z-0.125000 I-5.580371 J-8.074682
G02 X25.318243 Y84.537878 Z-0.125000 I-18.602964 J-9.733618
G02 X24.907785 Y84.005900 Z-0.125000 I-0.410458 J-0.107640
G02 X24.661498 Y84.063163 Z-0.125000 I0.000000 J0.558263
G02 X24.508201 Y84.202300 Z-0.125000 I0.165178 J0.336007
G01 X24.508201 Y84.202240 Z-0.125000
G00 Z5.000000

(End cutting path id: path4529)


(Start cutting path id: path4529)
(Change tool to Cylindrical cutter)

G00 Z5.000000
G00 X28.445880 Y89.488950

G01 Z-0.125000 F100.0(Penetrate)
G02 X28.256547 Y89.737702 Z-0.125000 I0.205518 J0.352856 F1100.000000
G02 X28.133329 Y90.674410 Z-0.125000 I3.606544 J0.950877
G03 X27.941095 Y91.559345 Z-0.125000 I-2.171538 J-0.008374
G03 X27.559968 Y91.944690 Z-0.125000 I-0.708813 J-0.319905
G02 X27.122394 Y92.302690 Z-0.125000 I0.480018 J1.033132
G02 X26.934210 Y92.795170 Z-0.125000 I0.797945 J0.587100
G02 X28.003077 Y94.228259 Z-0.125000 I1.324720 J0.127111
G02 X31.978194 Y93.783330 Z-0.125000 I1.280737 J-6.537400
G01 X32.942333 Y93.356940 Z-0.125000
G01 X32.310114 Y92.657150 Z-0.125000
G03 X31.730338 Y91.921335 Z-0.125000 I5.163309 J-4.664686
G03 X31.239335 Y91.091910 Z-0.125000 I6.079186 J-4.158799
G02 X29.713641 Y89.484856 Z-0.125000 I-3.451485 J1.748994
G02 X28.445880 Y89.488950 Z-0.125000 I-0.630340 J1.098484
G01 X28.445880 Y89.488950 Z-0.125000
G00 Z5.000000

(End cutting path id: path4529)


(Start cutting path id: path4529)
(Change tool to Cylindrical cutter)

G00 Z5.000000
G00 X20.432953 Y96.551540

G01 Z-0.125000 F100.0(Penetrate)
G02 X18.812094 Y97.410505 Z-0.125000 I0.816691 J3.499844 F1100.000000
G02 X18.142783 Y98.665380 Z-0.125000 I1.465207 J1.587427
G02 X18.199722 Y99.254292 Z-0.125000 I1.177098 J0.183400
G02 X18.602739 Y99.935970 Z-0.125000 I2.006868 J-0.726513
G02 X19.199629 Y100.514024 Z-0.125000 I3.863380 J-3.392075
G02 X19.511084 Y100.683320 Z-0.125000 I0.594499 J-0.722561
G03 X19.603491 Y100.863890 Z-0.125000 I-0.043169 J0.136021
G03 X19.253962 Y101.465820 Z-0.125000 I-1.596441 J-0.524574
G02 X18.573634 Y102.690291 Z-0.125000 I2.303555 J2.081111
G02 X18.615508 Y103.689720 Z-0.125000 I1.521618 J0.436840
G02 X20.736987 Y105.273771 Z-0.125000 I2.307065 J-0.877147
G02 X24.849249 Y104.159780 Z-0.125000 I0.480566 J-6.373146
G02 X25.472008 Y103.626723 Z-0.125000 I-2.252482 J-3.261831
G02 X26.641322 Y102.271520 Z-0.125000 I-13.708961 J-13.010611
G03 X27.780424 Y100.879829 Z-0.125000 I33.071571 J25.907131
G03 X28.291071 Y100.341740 Z-0.125000 I5.433603 J4.645145
G02 X28.744461 Y99.818471 Z-0.125000 I-2.458056 J-2.587857
G02 X28.748307 Y99.696950 Z-0.125000 I-0.089776 J-0.063663
G02 X28.635336 Y99.629944 Z-0.125000 I-0.120584 J0.074567
G02 X27.983831 Y99.655850 Z-0.125000 I-0.187569 J3.488170
G03 X27.368935 Y99.532975 Z-0.125000 I-0.128382 J-0.957529
G03 X25.852940 Y98.413690 Z-0.125000 I4.392354 J-7.535438
G02 X23.820973 Y97.010750 Z-0.125000 I-5.996419 J6.512009
G02 X21.962478 Y96.465030 Z-0.125000 I-2.439486 J4.870385
G02 X21.172602 Y96.445110 Z-0.125000 I-0.516784 J4.821521
G02 X20.432953 Y96.551530 Z-0.125000 I0.243421 J4.315439
G01 X20.432953 Y96.551540 Z-0.125000
G00 Z5.000000

(End cutting path id: path4529)


(Start cutting path id: path4529)
(Change tool to Cylindrical cutter)

G00 Z5.000000
G00 X15.539132 Y102.851850

G01 Z-0.125000 F100.0(Penetrate)
G03 X14.776034 Y103.796780 Z-0.125000 I-2.687521 J-1.389772 F1100.000000
G03 X12.235875 Y105.574630 Z-0.125000 I-12.540680 J-15.214296
G02 X8.687482 Y108.431240 Z-0.125000 I7.948226 J13.505198
G02 X8.025369 Y110.120450 Z-0.125000 I1.823735 J1.689210
G02 X8.611573 Y111.423799 Z-0.125000 I1.742016 J0.000000
G02 X9.787767 Y111.683350 Z-0.125000 I0.821041 J-0.925845
G02 X10.449458 Y111.409594 Z-0.125000 I-1.017220 J-3.395270
G02 X10.784367 Y111.147320 Z-0.125000 I-0.592414 J-1.101446
G03 X11.112819 Y111.013370 Z-0.125000 I0.303589 J0.274749
G03 X11.201811 Y111.172720 Z-0.125000 I-0.006583 J0.108201
G02 X11.066899 Y111.538242 Z-0.125000 I1.250295 J0.669135
G02 X10.990902 Y112.134970 Z-0.125000 I3.301928 J0.723724
G02 X12.510065 Y113.308644 Z-0.125000 I1.178725 J0.044311
G02 X15.470604 Y110.784600 Z-0.125000 I-1.398162 J-4.638234
G02 X15.865825 Y109.831591 Z-0.125000 I-7.939359 J-3.850977
G02 X16.120194 Y108.916370 Z-0.125000 I-7.065221 J-2.456606
G02 X16.585178 Y104.741485 Z-0.125000 I-21.302096 J-4.485890
G02 X16.209984 Y102.632500 Z-0.125000 I-5.660350 J-0.080874
G02 X15.945203 Y102.506490 Z-0.125000 I-0.198653 J0.076231
G02 X15.539132 Y102.851850 Z-0.125000 I0.218536 J0.668360
G01 X15.539132 Y102.851850 Z-0.125000
G00 Z5.000000

(End cutting path id: path4529)


(Start cutting path id: path4529)
(Change tool to Cylindrical cutter)

G00 Z5.000000
G00 X27.367848 Y106.835580

G01 Z-0.125000 F100.0(Penetrate)
G03 X26.694232 Y107.280425 Z-0.125000 I-0.974600 J-0.743366 F1100.000000
G03 X22.884827 Y107.971170 Z-0.125000 I-6.923131 J-27.330879
G02 X19.293710 Y109.157101 Z-0.125000 I1.009852 J9.088026
G02 X17.534845 Y111.086190 Z-0.125000 I2.192280 J3.765207
G02 X17.273543 Y112.281411 Z-0.125000 I2.544493 J1.182456
G02 X17.544645 Y113.238360 Z-0.125000 I1.854274 J-0.008436
G02 X18.391447 Y113.952473 Z-0.125000 I1.491348 J-0.909325
G02 X19.815928 Y114.140130 Z-0.125000 I1.084424 J-2.731372
G03 X20.107304 Y114.295548 Z-0.125000 I0.033533 J0.287975
G03 X20.331938 Y115.143830 Z-0.125000 I-1.820716 J0.936029
G02 X21.042798 Y117.074441 Z-0.125000 I3.369671 J-0.144552
G02 X22.328468 Y117.701900 Z-0.125000 I1.285670 J-1.003447
G02 X24.891331 Y116.744575 Z-0.125000 I0.000000 J-3.909193
G02 X26.965549 Y113.675900 Z-0.125000 I-4.697575 J-5.410598
G02 X28.485917 Y107.770723 Z-0.125000 I-35.625766 J-12.320644
G02 X28.221365 Y106.404580 Z-0.125000 I-1.934413 J-0.334090
G02 X27.971306 Y106.334079 Z-0.125000 I-0.163447 J0.101012
G02 X27.367880 Y106.835580 Z-0.125000 I0.789925 J1.564251
G01 X27.367848 Y106.835580 Z-0.125000
G00 Z5.000000

(End cutting path id: path4529)


(Start cutting path id: path4529)
(Change tool to Cylindrical cutter)

G00 Z5.000000
G00 X34.333569 Y107.512510

G01 Z-0.125000 F100.0(Penetrate)
G02 X32.721222 Y108.494027 Z-0.125000 I12.023068 J21.565483 F1100.000000
G02 X31.882491 Y109.136180 Z-0.125000 I4.269930 J6.445869
G02 X30.448673 Y111.382555 Z-0.125000 I3.175677 J3.607749
G02 X30.805169 Y112.783900 Z-0.125000 I1.357046 J0.400792
G02 X31.230745 Y113.011586 Z-0.125000 I0.588598 J-0.588596
G02 X32.124673 Y113.047420 Z-0.125000 I0.560105 J-2.804555
G03 X32.928005 Y113.137729 Z-0.125000 I0.207889 J1.768868
G03 X33.182438 Y113.422630 Z-0.125000 I-0.132954 J0.374797
G02 X33.726337 Y114.392102 Z-0.125000 I1.937263 J-0.449548
G02 X34.486164 Y114.702780 Z-0.125000 I0.759827 J-0.773818
G02 X35.133153 Y114.574085 Z-0.125000 I-0.000000 J-1.690651
G02 X35.802780 Y114.157410 Z-0.125000 I-0.924779 J-2.232596
G02 X36.679652 Y112.433304 Z-0.125000 I-1.721384 J-1.960526
G02 X36.221636 Y109.554160 Z-0.125000 I-5.902303 J-0.537061
G03 X36.004873 Y108.552349 Z-0.125000 I2.452402 J-1.054986
G03 X36.172196 Y107.072650 Z-0.125000 I5.633845 J-0.112239
G02 X36.210051 Y106.653292 Z-0.125000 I-1.322078 J-0.330730
G02 X36.140676 Y106.588870 Z-0.125000 I-0.068760 J0.004481
G02 X35.996774 Y106.624253 Z-0.125000 I0.003151 J0.323129
G02 X34.333566 Y107.512510 Z-0.125000 I23.734720 J46.443104
G01 X34.333569 Y107.512510 Z-0.125000
G00 Z5.000000

(End cutting path id: path4529)


(Start cutting path id: path4529)
(Change tool to Cylindrical cutter)

G00 Z5.000000
G00 X41.897837 Y111.174400

G01 Z-0.125000 F100.0(Penetrate)
G03 X41.611998 Y111.273832 Z-0.125000 I-0.346809 J-0.536411 F1100.000000
G03 X40.086950 Y111.348120 Z-0.125000 I-1.553564 J-16.201909
G02 X38.615489 Y111.541549 Z-0.125000 I0.007680 J5.752018
G02 X37.919703 Y111.924170 Z-0.125000 I0.424821 J1.596470
G02 X37.338793 Y113.651404 Z-0.125000 I1.287340 J1.394267
G02 X38.383474 Y114.526360 Z-0.125000 I1.044681 J-0.186187
G03 X38.730678 Y114.684013 Z-0.125000 I-0.000000 J0.461155
G03 X38.817649 Y115.023090 Z-0.125000 I-0.292554 J0.255730
G02 X39.042466 Y116.031609 Z-0.125000 I1.196038 J0.262699
G02 X39.925927 Y116.466310 Z-0.125000 I0.881903 J-0.677232
G02 X41.282056 Y115.808243 Z-0.125000 I-0.002966 J-1.732485
G02 X42.424467 Y113.305280 Z-0.125000 I-4.525955 J-3.577945
G02 X42.371144 Y111.362014 Z-0.125000 I-4.479164 J-0.849456
G02 X41.897837 Y111.174400 Z-0.125000 I-0.303577 J0.075027
G01 X41.897837 Y111.174400 Z-0.125000
G00 Z5.000000

(End cutting path id: path4529)


(Start cutting path id: path4529)
(Change tool to Cylindrical cutter)

G00 Z5.000000
G00 X46.158232 Y118.389230

G01 Z-0.125000 F100.0(Penetrate)
G03 X45.756590 Y118.903822 Z-0.125000 I-0.860969 J-0.257954 F1100.000000
G03 X43.593225 Y119.914290 Z-0.125000 I-6.145538 J-10.336241
G02 X41.157907 Y121.496186 Z-0.125000 I2.034966 J5.798341
G02 X39.942632 Y123.784650 Z-0.125000 I3.558984 J3.356892
G02 X39.939437 Y125.489072 Z-0.125000 I3.840272 J0.859412
G02 X40.570967 Y126.642590 Z-0.125000 I2.288086 J-0.503050
G02 X41.729277 Y127.193784 Z-0.125000 I1.355172 J-1.355168
G02 X42.828071 Y126.875670 Z-0.125000 I0.156549 J-1.515987
G03 X43.442886 Y126.709820 Z-0.125000 I0.501893 J0.638041
G03 X43.770042 Y127.007980 Z-0.125000 I-0.054563 J0.388435
G02 X45.487088 Y128.632819 Z-0.125000 I2.096489 J-0.495799
G02 X47.945633 Y127.755120 Z-0.125000 I0.462720 J-2.586059
G02 X48.659901 Y126.467460 Z-0.125000 I-2.794714 J-2.392169
G02 X48.954602 Y124.549670 Z-0.125000 I-6.092745 J-1.917790
G02 X48.687753 Y122.555953 Z-0.125000 I-7.581295 J-0.000000
G02 X47.872080 Y120.578180 Z-0.125000 I-8.273909 J2.255240
G03 X47.395450 Y119.641868 Z-0.125000 I10.077760 J-5.719559
G03 X47.037229 Y118.736020 Z-0.125000 I9.069961 J-4.110504
G02 X46.671985 Y117.861562 Z-0.125000 I-6.602906 J2.244396
G02 X46.544883 Y117.751330 Z-0.125000 I-0.196609 J0.098305
G02 X46.421428 Y117.796680 Z-0.125000 I-0.033332 J0.099976
G02 X46.158232 Y118.389230 Z-0.125000 I2.190365 J1.327633
G01 X46.158232 Y118.389230 Z-0.125000
G00 Z5.000000

(End cutting path id: path4529)


(Start cutting path id: path4529)
(Change tool to Cylindrical cutter)

G00 Z5.000000
G00 X52.130145 Y121.345370

G01 Z-0.125000 F100.0(Penetrate)
G02 X52.165399 Y121.493509 Z-0.125000 I0.328873 J0.000000 F1100.000000
G02 X52.417242 Y121.914470 Z-0.125000 I3.049337 J-1.538476
G03 X52.610176 Y122.760588 Z-0.125000 I-0.942114 J0.659880
G03 X51.762418 Y125.905360 Z-0.125000 I-15.987592 J-2.623234
G02 X50.974928 Y130.613472 Z-0.125000 I11.322912 J4.313812
G02 X51.997781 Y133.134290 Z-0.125000 I3.933313 J-0.128064
G02 X52.819341 Y133.820883 Z-0.125000 I2.914456 J-2.652540
G02 X53.461908 Y134.051970 Z-0.125000 I0.851285 J-1.358191
G02 X54.132231 Y133.995418 Z-0.125000 I0.205517 J-1.564980
G02 X54.764936 Y133.650410 Z-0.125000 I-0.533270 J-1.730614
G02 X55.286970 Y133.106032 Z-0.125000 I-2.276820 J-2.705861
G02 X55.596674 Y132.573420 Z-0.125000 I-1.867728 J-1.442399
G03 X56.039504 Y132.240529 Z-0.125000 I0.505229 J0.211098
G03 X56.822037 Y132.432870 Z-0.125000 I0.132016 J1.150921
G02 X58.810349 Y132.845333 Z-0.125000 I1.493466 J-2.200732
G02 X60.265816 Y131.780740 Z-0.125000 I-0.390228 J-2.060727
G02 X60.566113 Y130.385186 Z-0.125000 I-2.249693 J-1.214179
G02 X60.012428 Y128.218340 Z-0.125000 I-6.259088 J0.445196
G02 X57.670848 Y124.720773 Z-0.125000 I-11.964798 J5.477680
G02 X54.146250 Y121.928660 Z-0.125000 I-10.982578 J10.243075
G02 X52.360444 Y121.172255 Z-0.125000 I-4.055298 J7.087939
G02 X52.130145 Y121.345370 Z-0.125000 I-0.050085 J0.173115
G01 X52.130145 Y121.345370 Z-0.125000
G00 Z5.000000

(End cutting path id: path4529)


(Start cutting path id: path4529)
(Change tool to Cylindrical cutter)

G00 Z5.000000
G00 X56.238678 Y116.158200

G01 Z-0.125000 F100.0(Penetrate)
G02 X57.139435 Y120.363850 Z-0.125000 I13.263295 J-0.641418 F1100.000000
G02 X58.361162 Y121.571630 Z-0.125000 I1.972341 J-0.773310
G02 X59.761863 Y121.396581 Z-0.125000 I0.534868 J-1.411674
G02 X60.421844 Y120.128820 Z-0.125000 I-0.887633 J-1.267761
G03 X60.576217 Y119.809457 Z-0.125000 I0.407532 J0.000000
G03 X60.906997 Y119.744240 Z-0.125000 I0.228702 J0.288511
G02 X62.125468 Y119.825465 Z-0.125000 I0.795777 J-2.757709
G02 X62.747407 Y119.470220 Z-0.125000 I-0.145411 J-0.976622
G02 X63.115792 Y118.377064 Z-0.125000 I-1.287461 J-1.042513
G02 X62.671187 Y116.978180 Z-0.125000 I-2.680983 J0.081996
G02 X61.448884 Y115.910677 Z-0.125000 I-2.554765 J1.691710
G02 X59.156164 Y115.280720 Z-0.125000 I-2.860379 J5.923166
G03 X57.484849 Y114.878848 Z-0.125000 I0.497650 J-5.745930
G03 X56.849056 Y114.344360 Z-0.125000 I0.506454 J-1.247838
G02 X56.593486 Y114.066841 Z-0.125000 I-0.865175 J0.540312
G02 X56.383166 Y113.997080 Z-0.125000 I-0.210320 J0.282160
G02 X56.257516 Y114.114610 Z-0.125000 I0.000000 J0.125931
G02 X56.238678 Y116.158200 Z-0.125000 I17.728812 J1.185307
G01 X56.238678 Y116.158200 Z-0.125000
G00 Z5.000000

(End cutting path id: path4529)


(Start cutting path id: path4529)
(Change tool to Cylindrical cutter)

G00 Z5.000000
G00 X61.656777 Y125.433570

G01 Z-0.125000 F100.0(Penetrate)
G02 X61.700853 Y125.560143 Z-0.125000 I0.203777 J0.000000 F1100.000000
G02 X62.108836 Y126.003910 Z-0.125000 I3.229036 J-2.559230
G03 X62.872624 Y127.065067 Z-0.125000 I-2.336881 J2.487469
G03 X63.692876 Y129.447470 Z-0.125000 I-11.515494 J5.297145
G02 X64.620300 Y132.253082 Z-0.125000 I16.506026 J-3.900147
G02 X65.474015 Y133.585350 Z-0.125000 I4.467113 J-1.922854
G02 X67.694002 Y134.898394 Z-0.125000 I3.207133 J-2.889150
G02 X68.977950 Y134.408460 Z-0.125000 I0.280239 J-1.192951
G02 X69.297850 Y133.401502 Z-0.125000 I-1.448235 J-1.014382
G02 X68.987550 Y132.124140 Z-0.125000 I-2.736997 J-0.011493
G03 X69.060599 Y131.895185 Z-0.125000 I0.150030 J-0.078263
G03 X69.419224 Y131.903620 Z-0.125000 I0.171515 J0.335742
G02 X70.956087 Y132.025899 Z-0.125000 I0.898329 J-1.571472
G02 X71.816590 Y130.999830 Z-0.125000 I-0.481753 J-1.277878
G02 X71.457427 Y129.123795 Z-0.125000 I-2.565371 J-0.481264
G02 X69.281048 Y126.989190 Z-0.125000 I-5.619445 J3.552631
G02 X67.546337 Y126.229257 Z-0.125000 I-3.740391 J6.178356
G02 X64.314285 Y125.553430 Z-0.125000 I-6.096786 J21.090726
G02 X61.766454 Y125.328730 Z-0.125000 I-3.891566 J29.568637
G02 X61.656779 Y125.433570 Z-0.125000 I-0.004728 J0.104840
G01 X61.656777 Y125.433570 Z-0.125000
G00 Z5.000000

(End cutting path id: path4529)


(Start cutting path id: path4529)
(Change tool to Cylindrical cutter)

G00 Z5.000000
G00 X70.819841 Y116.860310

G01 Z-0.125000 F100.0(Penetrate)
G03 X70.442263 Y117.301690 Z-0.125000 I-0.920115 J-0.404921 F1100.000000
G03 X69.214122 Y117.889690 Z-0.125000 I-2.981564 J-4.650926
G02 X67.901465 Y118.416035 Z-0.125000 I3.846522 J11.492883
G02 X67.234499 Y118.820990 Z-0.125000 I1.570598 J3.338519
G02 X65.325216 Y121.805947 Z-0.125000 I3.132268 J4.106609
G02 X66.060672 Y124.097060 Z-0.125000 I2.324990 J0.517267
G02 X66.956383 Y124.475536 Z-0.125000 I0.998767 J-1.114563
G02 X67.968025 Y124.228720 Z-0.125000 I0.118185 J-1.712236
G03 X68.599206 Y123.977797 Z-0.125000 I1.050320 J1.722703
G03 X68.713541 Y124.070400 Z-0.125000 I0.019666 J0.092603
G02 X69.027206 Y125.052309 Z-0.125000 I1.693734 J-0.000000
G02 X69.919187 Y125.764930 Z-0.125000 I1.692996 J-1.204554
G02 X71.130627 Y125.850982 Z-0.125000 I0.733471 J-1.755457
G02 X72.411883 Y125.117940 Z-0.125000 I-0.706085 J-2.720391
G02 X73.266365 Y123.598327 Z-0.125000 I-2.284830 J-2.284810
G02 X73.315396 Y121.411160 Z-0.125000 I-4.943468 J-1.204954
G02 X72.012705 Y117.057880 Z-0.125000 I-23.135870 J4.551711
G02 X71.247578 Y116.341310 Z-0.125000 I-1.161956 J0.473921
G02 X71.116179 Y116.379116 Z-0.125000 I-0.038143 J0.114680
G02 X70.819841 Y116.860310 Z-0.125000 I1.591694 J1.312071
G01 X70.819841 Y116.860310 Z-0.125000
G00 Z5.000000

(End cutting path id: path4529)


(Start cutting path id: path4529)
(Change tool to Cylindrical cutter)

G00 Z5.000000
G00 X76.123143 Y119.394740

G01 Z-0.125000 F100.0(Penetrate)
G02 X76.146051 Y119.493570 Z-0.125000 I0.224643 J0.000000 F1100.000000
G02 X76.424813 Y120.010520 Z-0.125000 I6.761253 J-3.312331
G03 X76.548277 Y120.743602 Z-0.125000 I-0.892600 J0.527268
G03 X75.641710 Y123.876540 Z-0.125000 I-19.556618 J-3.961396
G02 X74.972723 Y127.115572 Z-0.125000 I9.712771 J3.694670
G02 X75.417468 Y128.985870 Z-0.125000 I3.507600 J0.153943
G02 X76.512783 Y130.236161 Z-0.125000 I3.500177 J-1.961402
G02 X77.547051 Y130.580470 Z-0.125000 I1.034268 J-1.381265
G02 X78.492149 Y130.248320 Z-0.125000 I0.000000 J-1.510664
G02 X79.294563 Y129.179070 Z-0.125000 I-1.683097 J-2.098782
G01 X79.512621 Y128.652630 Z-0.125000
G01 X80.152284 Y129.087290 Z-0.125000
G02 X81.521071 Y129.574767 Z-0.125000 I1.620509 J-2.384779
G02 X82.496008 Y129.292700 Z-0.125000 I0.122818 J-1.401410
G02 X83.469877 Y127.651036 Z-0.125000 I-1.540485 J-2.023540
G02 X83.117862 Y125.198250 Z-0.125000 I-4.237222 J-0.643542
G02 X80.963785 Y122.130113 Z-0.125000 I-9.687726 J4.511321
G02 X77.521846 Y119.636030 Z-0.125000 I-9.685632 J9.744527
G02 X76.313960 Y119.234023 Z-0.125000 I-1.929825 J3.782792
G02 X76.123143 Y119.394740 Z-0.125000 I-0.027726 J0.160717
G01 X76.123143 Y119.394740 Z-0.125000
G00 Z5.000000

(End cutting path id: path4529)


(Start cutting path id: path4529)
(Change tool to Cylindrical cutter)

G00 Z5.000000
G00 X79.652129 Y113.247320

G01 Z-0.125000 F100.0(Penetrate)
G02 X79.664842 Y113.555490 Z-0.125000 I3.894208 J-0.006307 F1100.000000
G02 X79.841410 Y115.584870 Z-0.125000 I170.787352 J-13.837099
G02 X80.870761 Y118.930158 Z-0.125000 I8.528133 J-0.793110
G02 X82.101739 Y119.680600 Z-0.125000 I1.272282 J-0.702142
G02 X82.832112 Y119.418704 Z-0.125000 I0.030364 J-1.064698
G02 X83.383436 Y118.563070 Z-0.125000 I-1.204855 J-1.381782
G03 X83.600334 Y117.894097 Z-0.125000 I15.025255 J4.501911
G01 X83.622554 Y117.878320 Z-0.125000
G03 X83.655671 Y117.883621 Z-0.125000 I-0.000000 J0.106093
G03 X84.215117 Y118.073050 Z-0.125000 I-10.210759 J31.076585
G02 X85.498219 Y117.619158 Z-0.125000 I0.358275 J-1.027735
G02 X85.596097 Y115.847410 Z-0.125000 I-1.572027 J-0.975422
G02 X84.660580 Y114.833303 Z-0.125000 I-2.106104 J1.004326
G02 X82.544240 Y114.077490 Z-0.125000 I-3.105497 J5.354782
G03 X81.062813 Y113.704295 Z-0.125000 I1.416146 J-8.748414
G03 X80.537293 Y113.383160 Z-0.125000 I0.470950 J-1.361246
G02 X79.874330 Y113.056238 Z-0.125000 I-0.849143 J0.886302
G02 X79.652129 Y113.247320 Z-0.125000 I-0.029265 J0.190704
G01 X79.652129 Y113.247320 Z-0.125000
G00 Z5.000000

(End cutting path id: path4529)


(Start cutting path id: path4529)
(Change tool to Cylindrical cutter)

G00 Z5.000000
G00 X72.864668 Y107.425500

G01 Z-0.125000 F100.0(Penetrate)
G02 X71.310344 Y112.675745 Z-0.125000 I23.138661 J9.705350 F1100.000000
G02 X71.592024 Y114.479270 Z-0.125000 I2.744360 J0.495137
G02 X72.349079 Y115.302616 Z-0.125000 I1.957040 J-1.039746
G02 X73.308563 Y115.584870 Z-0.125000 I0.959484 J-1.489692
G02 X74.221357 Y115.313929 Z-0.125000 I-0.000000 J-1.673062
G02 X74.912645 Y114.540600 Z-0.125000 I-1.083274 J-1.663991
G03 X75.144540 Y114.087256 Z-0.125000 I29.716280 J14.914509
G03 X75.185174 Y114.017730 Z-0.125000 I0.737622 J0.384463
G01 X75.237146 Y114.008010 Z-0.125000
G03 X75.858728 Y114.502880 Z-0.125000 I-4.825232 J6.698542
G02 X77.931299 Y114.686802 Z-0.125000 I1.161878 J-1.323308
G02 X78.849721 Y112.695670 Z-0.125000 I-1.011392 J-1.673890
G02 X77.876795 Y110.347242 Z-0.125000 I-5.505250 J0.905011
G02 X75.646226 Y108.232930 Z-0.125000 I-6.625329 J4.755861
G03 X74.713956 Y107.368029 Z-0.125000 I1.926280 J-3.011217
G03 X74.112740 Y106.190560 Z-0.125000 I3.089505 J-2.319726
G02 X73.758439 Y106.101875 Z-0.125000 I-0.204058 J0.063155
G02 X72.864668 Y107.425500 Z-0.125000 I2.873059 J2.903589
G01 X72.864668 Y107.425500 Z-0.125000
G00 Z5.000000

(End cutting path id: path4529)


(Start cutting path id: path4529)
(Change tool to Cylindrical cutter)

G00 Z5.000000
G00 X66.887110 Y110.413350

G01 Z-0.125000 F100.0(Penetrate)
G03 X66.743555 Y110.480781 Z-0.125000 I-0.165181 J-0.165132 F1100.000000
G03 X65.464838 Y110.545660 Z-0.125000 I-1.410701 J-15.170260
G02 X63.968014 Y110.919339 Z-0.125000 I0.028375 J3.298371
G02 X63.123922 Y111.766340 Z-0.125000 I0.916486 J1.757436
G02 X63.089118 Y112.694398 Z-0.125000 I0.968864 J0.501017
G02 X63.782837 Y113.314980 Z-0.125000 I1.008170 J-0.428957
G03 X64.348422 Y113.599660 Z-0.125000 I-0.521272 J1.739807
G03 X64.399226 Y113.775380 Z-0.125000 I-0.090695 J0.121426
G02 X64.412661 Y114.336492 Z-0.125000 I0.688547 J0.264231
G02 X64.902835 Y114.920600 Z-0.125000 I1.246083 J-0.547965
G02 X65.555196 Y115.107415 Z-0.125000 I0.617936 J-0.925408
G02 X66.431115 Y114.873300 Z-0.125000 I-0.061456 J-1.985572
G02 X67.033221 Y114.231830 Z-0.125000 I-0.648785 J-1.212287
G02 X67.646410 Y112.210110 Z-0.125000 I-7.213440 J-3.291690
G02 X67.682829 Y110.526078 Z-0.125000 I-5.990017 J-0.971952
G02 X67.419802 Y110.292300 Z-0.125000 I-0.263027 J0.031079
G02 X67.026426 Y110.336450 Z-0.125000 I-0.000000 J1.774557
G02 X66.887110 Y110.413350 Z-0.125000 I0.063638 J0.279936
G01 X66.887110 Y110.413350 Z-0.125000
G00 Z5.000000

(End cutting path id: path4529)


(Start cutting path id: path4529)
(Change tool to Cylindrical cutter)

G00 Z5.000000
G00 X49.094918 Y106.272260

G01 Z-0.125000 F100.0(Penetrate)
G02 X48.324883 Y107.817580 Z-0.125000 I6.421696 J4.164454 F1100.000000
G02 X46.748212 Y112.715950 Z-0.125000 I63.883866 J23.265659
G02 X46.643013 Y114.746824 Z-0.125000 I4.450280 J1.248685
G02 X47.337334 Y116.147020 Z-0.125000 I2.690696 J-0.462001
G02 X49.207774 Y116.860210 Z-0.125000 I1.662479 J-1.550741
G02 X50.670231 Y115.840870 Z-0.125000 I-0.164922 J-1.795384
G03 X50.988655 Y115.276553 Z-0.125000 I4.255975 J2.029500
G03 X51.071299 Y115.232030 Z-0.125000 I0.082644 J0.054441
G03 X51.166941 Y115.267376 Z-0.125000 I0.000000 J0.147072
G03 X51.686992 Y115.759100 Z-0.125000 I-4.711066 J5.503321
G02 X53.816942 Y116.078240 Z-0.125000 I1.271393 J-1.218071
G02 X55.125396 Y113.838700 Z-0.125000 I-1.245228 J-2.229529
G02 X54.461674 Y111.568171 Z-0.125000 I-4.273130 J0.016849
G02 X52.155772 Y109.152820 Z-0.125000 I-7.192131 J4.557846
G03 X50.406465 Y107.619717 Z-0.125000 I6.168151 J-8.802560
G03 X49.919620 Y106.717320 Z-0.125000 I1.538413 J-1.412503
G02 X49.493872 Y106.170260 Z-0.125000 I-0.834393 J0.210165
G02 X49.094918 Y106.272260 Z-0.125000 I-0.144200 J0.267205
G01 X49.094918 Y106.272260 Z-0.125000
G00 Z5.000000

(End cutting path id: path4529)


(Start cutting path id: path4529)
(Change tool to Cylindrical cutter)

G00 Z5.000000
G00 X56.279602 Y95.290840

G01 Z-0.125000 F100.0(Penetrate)
G02 X56.262644 Y95.446766 Z-0.125000 I0.154820 J0.095723 F1100.000000
G02 X56.553950 Y96.073530 Z-0.125000 I3.333741 J-1.168372
G03 X56.771421 Y96.725989 Z-0.125000 I-1.412015 J0.833110
G03 X56.726589 Y97.630750 Z-0.125000 I-2.826999 J0.313412
G03 X56.487673 Y98.548827 Z-0.125000 I-10.280790 J-2.185301
G03 X55.785020 Y100.677460 Z-0.125000 I-56.065411 J-17.326667
G02 X55.214799 Y102.824130 Z-0.125000 I13.394568 J4.707073
G02 X55.041061 Y104.735110 Z-0.125000 I10.422747 J1.910980
G02 X55.199249 Y106.636549 Z-0.125000 I11.506850 J-0.000000
G02 X55.517541 Y107.578930 Z-0.125000 I3.084171 J-0.516745
G02 X56.720544 Y109.017319 Z-0.125000 I3.957826 J-2.087884
G02 X57.861621 Y109.410200 Z-0.125000 I1.141077 J-1.460619
G02 X58.557036 Y109.261444 Z-0.125000 I-0.000000 J-1.699867
G02 X59.089550 Y108.859650 Z-0.125000 I-0.611813 J-1.364639
G02 X59.508589 Y108.282122 Z-0.125000 I-3.804648 J-3.201339
G02 X59.801904 Y107.712930 Z-0.125000 I-3.401183 J-2.112861
G03 X60.226746 Y107.295643 Z-0.125000 I0.707860 J0.295765
G03 X60.607915 Y107.393020 Z-0.125000 I0.123520 J0.311203
G02 X61.353416 Y107.970234 Z-0.125000 I1.668130 J-1.384441
G02 X62.271150 Y108.175280 Z-0.125000 I0.917734 J-1.951248
G02 X64.259195 Y106.582085 Z-0.125000 I0.000000 J-2.036973
G02 X63.734598 Y101.619310 Z-0.125000 I-7.628114 J-1.702775
G02 X62.530647 Y99.828342 Z-0.125000 I-6.095243 J2.797282
G02 X60.006366 Y97.644840 Z-0.125000 I-11.699908 J10.975037
G03 X58.583450 Y96.624232 Z-0.125000 I37.675924 J-54.029367
G03 X57.775558 Y95.999400 Z-0.125000 I13.294342 J-18.023976
G02 X56.531431 Y95.216394 Z-0.125000 I-3.885725 J4.794165
G02 X56.279602 Y95.290840 Z-0.125000 I-0.084302 J0.177985
G01 X56.279602 Y95.290840 Z-0.125000
G00 Z5.000000

(End cutting path id: path4529)


(Start cutting path id: path4529)
(Change tool to Cylindrical cutter)

G00 Z5.000000
G00 X50.432090 Y91.724160

G01 Z-0.125000 F100.0(Penetrate)
G03 X49.860116 Y92.774402 Z-0.125000 I-3.049553 J-0.979949 F1100.000000
G03 X49.161492 Y93.274750 Z-0.125000 I-1.279203 J-1.048212
G02 X45.144679 Y96.028053 Z-0.125000 I3.564387 J9.506839
G02 X43.972314 Y99.099880 Z-0.125000 I3.455840 J3.078555
G02 X45.100830 Y101.340583 Z-0.125000 I2.780891 J0.003959
G02 X47.057713 Y101.379150 Z-0.125000 I1.005650 J-1.361303
G01 X47.712595 Y100.934140 Z-0.125000
G01 X47.913531 Y101.732130 Z-0.125000
G02 X48.221814 Y102.464537 Z-0.125000 I2.548996 J-0.641833
G02 X48.739528 Y103.078930 Z-0.125000 I2.290593 J-1.404831
G02 X49.418554 Y103.460653 Z-0.125000 I1.242011 J-1.414546
G02 X50.226360 Y103.544940 Z-0.125000 I0.612064 J-1.952860
G02 X51.032680 Y103.340479 Z-0.125000 I-0.261710 J-2.724238
G02 X51.625586 Y102.951880 Z-0.125000 I-0.775759 J-1.830229
G02 X52.579197 Y101.670547 Z-0.125000 I-3.220904 J-3.392627
G02 X53.099922 Y100.036770 Z-0.125000 I-4.811291 J-2.433349
G02 X53.078885 Y97.988073 Z-0.125000 I-6.393784 J-0.958801
G02 X52.278592 Y95.234400 Z-0.125000 I-12.484063 J2.135080
G03 X51.770797 Y93.965945 Z-0.125000 I40.681820 J-17.021847
G03 X51.307173 Y92.694470 Z-0.125000 I40.406092 J-15.453726
G02 X50.699574 Y91.666740 Z-0.125000 I-2.839881 J0.985478
G02 X50.432090 Y91.724160 Z-0.125000 I-0.117213 J0.105709
G01 X50.432090 Y91.724160 Z-0.125000
G00 Z5.000000

(End cutting path id: path4529)


(Start cutting path id: path4529)
(Change tool to Cylindrical cutter)

G00 Z5.000000
G00 X45.955478 Y84.182240

G01 Z-0.125000 F100.0(Penetrate)
G03 X45.669828 Y84.282327 Z-0.125000 I-0.350088 J-0.541487 F1100.000000
G03 X44.226629 Y84.355950 Z-0.125000 I-1.470236 J-14.638437
G02 X42.784796 Y84.450394 Z-0.125000 I0.025072 J11.435928
G02 X42.279780 Y84.608230 Z-0.125000 I0.195688 J1.512974
G02 X41.205130 Y86.453323 Z-0.125000 I0.914282 J1.768016
G02 X42.401329 Y87.744770 Z-0.125000 I1.351797 J-0.052386
G03 X42.719222 Y87.941479 Z-0.125000 I-0.050553 J0.436918
G03 X42.922146 Y88.543590 Z-0.125000 I-1.064522 J0.694017
G02 X43.396990 Y89.607396 Z-0.125000 I1.706200 J-0.123705
G02 X44.330601 Y90.004060 Z-0.125000 I0.933611 J-0.900368
G02 X45.327246 Y89.567045 Z-0.125000 I0.000000 J-1.354967
G02 X46.291605 Y87.874940 Z-0.125000 I-3.192178 J-2.940132
G02 X46.880356 Y84.998543 Z-0.125000 I-15.679458 J-4.707780
G02 X46.712266 Y84.138130 Z-0.125000 I-1.450392 J-0.163277
G02 X46.481952 Y84.010113 Z-0.125000 I-0.216008 J0.117432
G02 X45.955478 Y84.182230 Z-0.125000 I0.063217 J1.084623
G01 X45.955478 Y84.182240 Z-0.125000
G00 Z5.000000

(End cutting path id: path4529)


(Start cutting path id: path4529)
(Change tool to Cylindrical cutter)

G00 Z5.000000
G00 X60.364813 Y87.313700

G01 Z-0.125000 F100.0(Penetrate)
G02 X60.094715 Y88.458330 Z-0.125000 I1.714189 J1.008679 F1100.000000
G02 X60.789841 Y93.517270 Z-0.125000 I37.410063 J-2.563119
G02 X61.116704 Y94.433322 Z-0.125000 I3.460272 J-0.718344
G02 X61.602690 Y95.075630 Z-0.125000 I2.148778 J-1.120809
G02 X63.489980 Y95.495424 Z-0.125000 I1.295984 J-1.374134
G02 X64.479482 Y94.127400 Z-0.125000 I-0.450922 J-1.368024
G01 X64.479482 Y93.507080 Z-0.125000
G01 X65.438848 Y93.626940 Z-0.125000
G02 X66.340545 Y93.578729 Z-0.125000 I0.316645 J-2.534152
G02 X66.850199 Y93.294820 Z-0.125000 I-0.244259 J-1.037879
G02 X67.021534 Y90.472956 Z-0.125000 I-1.507674 J-1.507675
G02 X63.169017 Y88.591750 Z-0.125000 I-3.861414 J3.022397
G03 X61.695387 Y88.299504 Z-0.125000 I0.007686 J-3.900214
G03 X61.007338 Y87.704020 Z-0.125000 I0.543072 J-1.322733
G02 X60.570644 Y87.261904 Z-0.125000 I-1.100001 J0.649782
G02 X60.364813 Y87.313700 Z-0.125000 I-0.077379 J0.127377
G01 X60.364813 Y87.313700 Z-0.125000
G00 Z5.000000

(End cutting path id: path4529)


(Start cutting path id: path4529)
(Change tool to Cylindrical cutter)

G00 Z5.000000
G00 X69.242798 Y84.005830

G01 Z-0.125000 F100.0(Penetrate)
G03 X68.959086 Y84.112584 Z-0.125000 I-0.387410 J-0.599213 F1100.000000
G03 X68.060653 Y84.179550 Z-0.125000 I-0.917065 J-6.243289
G02 X65.807132 Y84.504810 Z-0.125000 I0.025971 J8.149173
G02 X64.703044 Y85.158330 Z-0.125000 I0.722612 J2.480226
G02 X64.218255 Y85.772682 Z-0.125000 I2.363553 J2.363546
G02 X64.126644 Y86.096920 Z-0.125000 I0.527981 J0.324238
G02 X64.598649 Y87.238619 Z-0.125000 I1.616788 J-0.000000
G02 X65.736015 Y87.710630 Z-0.125000 I1.137366 J-1.134301
G03 X65.959856 Y87.832696 Z-0.125000 I-0.000000 J0.266270
G03 X66.048561 Y88.195780 Z-0.125000 I-0.481047 J0.309902
G02 X66.437516 Y89.264946 Z-0.125000 I1.324193 J0.123601
G02 X67.546011 Y89.676880 Z-0.125000 I1.010422 J-1.021579
G02 X68.843397 Y88.898931 Z-0.125000 I-0.113679 J-1.660382
G02 X69.977661 Y85.788460 Z-0.125000 I-6.758742 J-4.226689
G02 X69.774112 Y84.171948 Z-0.125000 I-3.071282 J-0.434339
G02 X69.242798 Y84.005830 Z-0.125000 I-0.334774 J0.138005
G01 X69.242798 Y84.005830 Z-0.125000
G00 Z5.000000

(End cutting path id: path4529)


(Start cutting path id: path4529)
(Change tool to Cylindrical cutter)

G00 Z5.000000
G00 X76.854301 Y79.192030

G01 Z-0.125000 F100.0(Penetrate)
G02 X75.605150 Y82.185794 Z-0.125000 I20.074807 J10.133720 F1100.000000
G02 X74.624962 Y85.850100 Z-0.125000 I29.155884 J9.762340
G02 X74.456338 Y87.251253 Z-0.125000 I8.666970 J1.753766
G02 X74.536452 Y88.067970 Z-0.125000 I2.987560 J0.119228
G02 X76.360242 Y90.177551 Z-0.125000 I2.950778 J-0.707879
G02 X78.481975 Y89.646190 Z-0.125000 I0.693321 J-1.733296
G02 X78.880070 Y89.101087 Z-0.125000 I-3.760731 J-3.164423
G02 X79.033754 Y88.770090 Z-0.125000 I-1.215456 J-0.765521
G03 X79.301475 Y88.579004 Z-0.125000 I0.261235 J0.082914
G03 X79.756080 Y88.787190 Z-0.125000 I-0.014990 J0.633173
G02 X81.165430 Y89.571497 Z-0.125000 I1.859289 J-1.682615
G02 X82.597983 Y89.305530 Z-0.125000 I0.367191 J-2.013231
G02 X83.393203 Y88.421073 Z-0.125000 I-1.079300 J-1.770127
G02 X83.734364 Y86.900400 Z-0.125000 I-3.218506 J-1.520673
G02 X82.973870 Y84.451382 Z-0.125000 I-4.323533 J0.000000
G02 X79.957612 Y81.405670 Z-0.125000 I-9.955452 J6.842776
G03 X78.534680 Y80.085166 Z-0.125000 I4.106917 J-5.852387
G03 X77.978702 Y78.990980 Z-0.125000 I2.210403 J-1.811494
G02 X77.736924 Y78.356923 Z-0.125000 I-2.975972 J0.771670
G02 X77.587126 Y78.229340 Z-0.125000 I-0.229899 J0.118198
G02 X77.424908 Y78.279930 Z-0.125000 I-0.045520 J0.139413
G02 X76.854299 Y79.192020 Z-0.125000 I4.681893 J3.563554
G01 X76.854301 Y79.192030 Z-0.125000
G00 Z5.000000

(End cutting path id: path4529)


(Start cutting path id: path4529)
(Change tool to Cylindrical cutter)

G00 Z5.000000
G00 X81.796313 Y69.010400

G01 Z-0.125000 F100.0(Penetrate)
G03 X81.333714 Y69.453384 Z-0.125000 I-1.518512 J-1.122717 F1100.000000
G03 X80.076635 Y70.170150 Z-0.125000 I-5.389619 J-7.991697
G02 X78.406355 Y71.735495 Z-0.125000 I1.609021 J3.390680
G02 X78.316757 Y73.331860 Z-0.125000 I1.599804 J0.890488
G02 X78.940473 Y73.934596 Z-0.125000 I1.011508 J-0.422634
G02 X80.045165 Y73.985550 Z-0.125000 I0.630405 J-1.666870
G03 X80.592281 Y74.014044 Z-0.125000 I0.230773 J0.835762
G03 X81.130283 Y74.410780 Z-0.125000 I-0.470939 J1.201780
G02 X82.076445 Y75.027756 Z-0.125000 I1.405573 J-1.121533
G02 X82.987582 Y74.901580 Z-0.125000 I0.304653 J-1.152873
G02 X83.788229 Y73.690733 Z-0.125000 I-0.843455 J-1.427845
G02 X83.535679 Y70.748870 Z-0.125000 I-6.802338 J-0.897813
G02 X82.676254 Y68.687153 Z-0.125000 I-11.548847 J3.604143
G02 X82.333579 Y68.480950 Z-0.125000 I-0.342675 J0.181633
G02 X82.212728 Y68.530491 Z-0.125000 I0.000000 J0.172174
G02 X81.796313 Y69.010400 Z-0.125000 I2.860217 J2.902412
G01 X81.796313 Y69.010400 Z-0.125000
G00 Z5.000000

(End cutting path id: path4529)


(Start cutting path id: path4529)
(Change tool to Cylindrical cutter)

G00 Z5.000000
G00 X89.792919 Y73.581100

G01 Z-0.125000 F100.0(Penetrate)
G03 X89.630691 Y74.576980 Z-0.125000 I-1.540320 J0.260237 F1100.000000
G03 X88.371761 Y76.243380 Z-0.125000 I-5.904119 J-3.151692
G02 X86.846834 Y78.397332 Z-0.125000 I4.910624 J5.093336
G02 X86.357313 Y80.653870 Z-0.125000 I4.926317 J2.250053
G02 X86.780907 Y82.831651 Z-0.125000 I5.840137 J-0.005861
G02 X87.833196 Y84.315850 Z-0.125000 I3.645995 J-1.469857
G02 X89.609398 Y84.754907 Z-0.125000 I1.311640 J-1.493896
G02 X91.026000 Y83.548480 Z-0.125000 I-0.480450 J-1.999061
G03 X91.471120 Y83.179765 Z-0.125000 I0.573906 J0.239794
G03 X91.911060 Y83.361170 Z-0.125000 I0.087295 J0.412465
G02 X93.298793 Y84.230641 Z-0.125000 I1.639148 J-1.073996
G02 X95.184882 Y83.784710 Z-0.125000 I0.352152 J-2.722176
G02 X96.104541 Y82.701321 Z-0.125000 I-1.467713 J-2.177932
G02 X96.473220 Y80.974650 Z-0.125000 I-3.685203 J-1.689561
G02 X95.992481 Y78.797477 Z-0.125000 I-5.393840 J0.049346
G02 X94.527260 Y76.680610 Z-0.125000 I-6.550716 J2.968653
G02 X90.616835 Y73.184075 Z-0.125000 I-33.243192 J33.243317
G02 X89.781255 Y72.891430 Z-0.125000 I-0.835580 J1.046580
G01 X89.733664 Y72.939831 Z-0.125000
G02 X89.792935 Y73.581100 Z-0.125000 I4.280217 J-0.072237
G01 X89.792919 Y73.581100 Z-0.125000
G00 Z5.000000

(End cutting path id: path4529)


(Start cutting path id: path4529)
(Change tool to Cylindrical cutter)

G00 Z5.000000
G00 X97.117021 Y73.416160

G01 Z-0.125000 F100.0(Penetrate)
G02 X97.179635 Y73.549878 Z-0.125000 I0.174090 J-0.000000 F1100.000000
G02 X97.660177 Y73.868920 Z-0.125000 I1.700242 J-2.039490
G03 X98.250152 Y74.532277 Z-0.125000 I-0.568771 J1.099886
G03 X99.067195 Y77.603800 Z-0.125000 I-14.852162 J5.595193
G02 X100.258139 Y82.292741 Z-0.125000 I26.855989 J-4.325438
G02 X101.290330 Y83.933320 Z-0.125000 I4.119719 J-1.446976
G02 X102.718507 Y84.912581 Z-0.125000 I3.339870 J-3.339870
G02 X104.235530 Y85.236890 Z-0.125000 I1.534184 J-3.466218
G02 X105.026283 Y85.083022 Z-0.125000 I0.008370 J-2.065827
G02 X105.690990 Y84.640940 Z-0.125000 I-0.766619 J-1.873435
G02 X106.159734 Y83.820875 Z-0.125000 I-1.269864 J-1.269843
G02 X106.301930 Y82.279340 Z-0.125000 I-4.669841 J-1.208088
G01 X106.261730 Y81.699580 Z-0.125000
G01 X107.378880 Y81.802540 Z-0.125000
G02 X108.849558 Y81.588696 Z-0.125000 I0.291307 J-3.160686
G02 X109.769760 Y80.845730 Z-0.125000 I-0.747035 J-1.866584
G02 X110.145993 Y78.664093 Z-0.125000 I-2.240026 J-1.509562
G02 X108.503460 Y75.916240 Z-0.125000 I-5.470866 J1.405377
G02 X106.311361 Y74.614047 Z-0.125000 I-4.170571 J4.524524
G02 X101.415530 Y73.509520 Z-0.125000 I-7.665899 J22.576518
G02 X97.311739 Y73.225559 Z-0.125000 I-5.047390 J43.148752
G02 X97.116993 Y73.416120 Z-0.125000 I-0.004140 J0.190561
G01 X97.117021 Y73.416160 Z-0.125000
G00 Z5.000000

(End cutting path id: path4529)


(Start cutting path id: path4529)
(Change tool to Cylindrical cutter)

G00 Z5.000000
G00 X101.262870 Y63.836980

G01 Z-0.125000 F100.0(Penetrate)
G03 X99.072731 Y64.339933 Z-0.125000 I-2.974318 J-7.931831 F1100.000000
G03 X97.690382 Y64.169110 Z-0.125000 I-0.301276 J-3.240589
G02 X97.462064 Y64.353622 Z-0.125000 I-0.057279 J0.162640
G02 X97.834122 Y65.293180 Z-0.125000 I2.026884 J-0.259186
G03 X98.352313 Y66.054324 Z-0.125000 I-12.782271 J9.259207
G03 X99.165334 Y67.376700 Z-0.125000 I-37.787555 J24.143598
G02 X100.594131 Y69.408922 Z-0.125000 I13.574275 J-8.025299
G02 X101.503370 Y70.200130 Z-0.125000 I2.859139 J-2.367617
G02 X103.117173 Y70.528340 Z-0.125000 I1.253161 J-2.030145
G02 X104.482520 Y69.744560 Z-0.125000 I-0.329582 J-2.155242
G02 X104.717510 Y69.086709 Z-0.125000 I-0.820701 J-0.664057
G02 X104.492620 Y68.035570 Z-0.125000 I-2.500268 J-0.014697
G03 X104.563906 Y67.528259 Z-0.125000 I0.433891 J-0.197695
G03 X105.164470 Y67.248710 Z-0.125000 I0.606335 J0.517728
G02 X105.512098 Y67.172852 Z-0.125000 I-0.008512 J-0.873464
G02 X106.022200 Y66.864840 Z-0.125000 I-0.987869 J-2.212416
G02 X106.341783 Y66.414665 Z-0.125000 I-0.602991 J-0.766593
G02 X106.419270 Y65.707130 Z-0.125000 I-1.533518 J-0.525957
G02 X105.957949 Y64.605683 Z-0.125000 I-2.114629 J0.238343
G02 X104.791320 Y63.698230 Z-0.125000 I-2.532708 J2.052428
G02 X103.361929 Y63.413612 Z-0.125000 I-1.306849 J2.831575
G02 X101.262930 Y63.836980 Z-0.125000 I0.264508 J6.726357
G01 X101.262870 Y63.836980 Z-0.125000
G00 Z5.000000

(End cutting path id: path4529)


(Start cutting path id: path4529)
(Change tool to Cylindrical cutter)

G00 Z5.000000
G00 X98.528369 Y56.343400

G01 Z-0.125000 F100.0(Penetrate)
G02 X97.355023 Y57.486900 Z-0.125000 I1.260895 J2.467539 F1100.000000
G02 X97.326922 Y58.552250 Z-0.125000 I1.029950 J0.560213
G02 X97.651431 Y58.939051 Z-0.125000 I0.911452 J-0.435145
G02 X98.384057 Y59.307150 Z-0.125000 I1.547903 J-2.167661
G01 X99.207121 Y59.571780 Z-0.125000
G01 X98.779535 Y60.066770 Z-0.125000
G02 X99.061888 Y61.779521 Z-0.125000 I0.855128 J0.738678
G02 X101.649350 Y61.754280 Z-0.125000 I1.272740 J-2.164446
G02 X103.103229 Y60.470896 Z-0.125000 I-2.964376 J-4.823392
G02 X104.770220 Y57.859130 Z-0.125000 I-11.277984 J-9.036180
G02 X105.557872 Y56.210722 Z-0.125000 I-54.844839 J-27.218674
G02 X105.585130 Y56.086150 Z-0.125000 I-0.271027 J-0.124572
G02 X105.436440 Y55.958556 Z-0.125000 I-0.129090 J0.000000
G02 X104.519430 Y56.249850 Z-0.125000 I0.472642 J3.076957
G03 X103.909339 Y56.403648 Z-0.125000 I-0.655863 J-1.314738
G03 X102.684020 Y56.307050 Z-0.125000 I-0.174671 J-5.604079
G02 X99.753371 Y56.042910 Z-0.125000 I-2.799824 J14.674264
G02 X98.528369 Y56.343450 Z-0.125000 I0.024038 J2.744802
G01 X98.528369 Y56.343400 Z-0.125000
G00 Z5.000000

(End cutting path id: path4529)


(Start cutting path id: path4529)
(Change tool to Cylindrical cutter)

G00 Z5.000000
G00 X96.675966 Y46.507990

G01 Z-0.125000 F100.0(Penetrate)
G02 X92.925733 Y47.583219 Z-0.125000 I16.934593 J66.143004 F1100.000000
G02 X92.414453 Y47.862710 Z-0.125000 I0.461422 J1.451483
G02 X92.356154 Y48.169961 Z-0.125000 I0.156764 J0.188901
G02 X92.693161 Y48.369170 Z-0.125000 I0.337007 J-0.185456
G03 X93.343493 Y48.652635 Z-0.125000 I-0.000000 J0.887737
G03 X94.909204 Y50.754130 Z-0.125000 I-8.874311 J8.245781
G02 X96.496744 Y52.881491 Z-0.125000 I10.499799 J-6.179428
G02 X97.720440 Y53.770270 Z-0.125000 I2.893209 J-2.696653
G02 X99.912069 Y54.149462 Z-0.125000 I1.795927 J-3.856867
G02 X100.917090 Y53.471660 Z-0.125000 I-0.117540 J-1.258290
G02 X101.134634 Y52.568666 Z-0.125000 I-1.729446 J-0.894349
G02 X100.909090 Y51.656860 Z-0.125000 I-1.991603 J0.008844
G03 X100.884964 Y51.203611 Z-0.125000 I0.485293 J-0.253099
G03 X101.186260 Y50.951420 Z-0.125000 I0.381730 J0.149981
G02 X102.343769 Y50.292822 Z-0.125000 I-0.415248 J-2.076293
G02 X102.762570 Y49.202710 Z-0.125000 I-1.209344 J-1.090112
G02 X102.138029 Y47.635399 Z-0.125000 I-2.278887 J0.000000
G02 X100.137040 Y46.431390 Z-0.125000 I-3.169504 J3.002757
G02 X98.618224 Y46.241461 Z-0.125000 I-1.402841 J5.050424
G02 X96.676119 Y46.507990 Z-0.125000 I0.190219 J8.595063
G01 X96.675966 Y46.507990 Z-0.125000
G00 Z5.000000

(End cutting path id: path4529)


(Start cutting path id: path4529)
(Change tool to Cylindrical cutter)

G00 Z5.000000
G00 X93.931168 Y39.553870

G01 Z-0.125000 F100.0(Penetrate)
G02 X93.047488 Y39.944241 Z-0.125000 I0.835458 J3.086601 F1100.000000
G02 X91.795221 Y40.915770 Z-0.125000 I4.627212 J7.257139
G03 X90.897085 Y41.580777 Z-0.125000 I-3.335850 J-3.566286
G03 X90.372936 Y41.735170 Z-0.125000 I-0.582779 J-1.011566
G02 X89.881940 Y41.846277 Z-0.125000 I0.073336 J1.464524
G02 X89.795622 Y41.975790 Z-0.125000 I0.054003 J0.129513
G02 X90.075297 Y42.526820 Z-0.125000 I0.682672 J-0.000000
G02 X92.614781 Y44.037580 Z-0.125000 I9.214689 J-12.599532
G02 X95.306953 Y44.585891 Z-0.125000 I2.461760 J-5.203734
G02 X96.156138 Y43.895720 Z-0.125000 I-0.036551 J-0.912476
G02 X96.070922 Y42.735926 Z-0.125000 I-1.796878 J-0.451002
G02 X95.524711 Y42.370920 Z-0.125000 I-0.546211 J0.226184
G03 X95.444091 Y42.224311 Z-0.125000 I0.000000 J-0.095471
G03 X95.883196 Y41.805760 Z-0.125000 I1.059826 J0.672261
G02 X96.152804 Y40.231705 Z-0.125000 I-0.510758 J-0.897601
G02 X93.931168 Y39.553870 Z-0.125000 I-1.650835 J1.431012
G01 X93.931168 Y39.553870 Z-0.125000
G00 Z5.000000

(End cutting path id: path4529)


(Start cutting path id: path4529)
(Change tool to Cylindrical cutter)

G00 Z5.000000
G00 X85.208730 Y41.938030

G01 Z-0.125000 F100.0(Penetrate)
G03 X82.921737 Y42.395503 Z-0.125000 I-4.082441 J-14.463603 F1100.000000
G03 X82.218606 Y42.297840 Z-0.125000 I-0.166341 J-1.382375
G02 X81.560246 Y42.091199 Z-0.125000 I-1.453414 J3.478506
G02 X81.393749 Y42.119870 Z-0.125000 I-0.047670 J0.220952
G02 X81.350515 Y42.249165 Z-0.125000 I0.056006 J0.090603
G02 X81.857581 Y43.309530 Z-0.125000 I7.376013 J-2.875779
G03 X82.471743 Y44.405540 Z-0.125000 I-56.837436 J32.569602
G03 X83.199264 Y45.758640 Z-0.125000 I-85.855442 J47.034013
G02 X84.000746 Y47.052488 Z-0.125000 I9.744851 J-5.141341
G02 X84.690846 Y47.831560 Z-0.125000 I4.181569 J-3.008843
G02 X85.528044 Y48.385388 Z-0.125000 I2.131545 J-2.312472
G02 X86.272064 Y48.545590 Z-0.125000 I0.744020 J-1.647614
G02 X88.039955 Y47.777047 Z-0.125000 I-0.000000 J-2.417626
G02 X88.221748 Y46.455430 Z-0.125000 I-0.846674 J-0.789774
G03 X87.958537 Y45.913111 Z-0.125000 I10.538393 J-5.449775
G03 X87.943227 Y45.842400 Z-0.125000 I0.155639 J-0.070711
G01 X87.977732 Y45.797457 Z-0.125000
G03 X88.636126 Y45.657180 Z-0.125000 I1.693767 J6.334525
G02 X89.657080 Y45.085620 Z-0.125000 I-0.268106 J-1.676533
G02 X90.060249 Y43.995800 Z-0.125000 I-1.271383 J-1.089820
G02 X89.230186 Y42.443879 Z-0.125000 I-1.865801 J0.000000
G02 X86.586066 Y41.677150 Z-0.125000 I-2.534399 J3.797475
G02 X86.096831 Y41.729283 Z-0.125000 I0.078625 J3.059483
G02 X85.208730 Y41.938030 Z-0.125000 I1.914130 J10.137116
G01 X85.208730 Y41.938030 Z-0.125000
G00 Z5.000000

(End cutting path id: path4529)


(Start cutting path id: path4529)
(Change tool to Cylindrical cutter)

G00 Z5.000000
G00 X87.237545 Y50.034740

G01 Z-0.125000 F100.0(Penetrate)
G02 X87.289368 Y50.260063 Z-0.125000 I0.515755 J0.000000 F1100.000000
G02 X87.413966 Y50.397990 Z-0.125000 I0.299852 J-0.145632
G03 X87.568090 Y50.721925 Z-0.125000 I-0.173894 J0.281369
G03 X87.129768 Y52.588090 Z-0.125000 I-9.366676 J-1.215472
G02 X86.787086 Y53.935330 Z-0.125000 I7.899208 J2.726433
G02 X86.767493 Y54.753010 Z-0.125000 I2.853125 J0.477440
G02 X88.925936 Y57.660658 Z-0.125000 I3.614323 J-0.428065
G02 X91.037738 Y56.616760 Z-0.125000 I0.616113 J-1.411639
G03 X91.312235 Y56.324089 Z-0.125000 I0.397466 J0.097723
G03 X91.926138 Y56.336930 Z-0.125000 I0.287963 J0.914206
G02 X93.020874 Y56.304955 Z-0.125000 I0.506893 J-1.401769
G02 X93.840887 Y55.515310 Z-0.125000 I-0.635262 J-1.480289
G02 X93.997462 Y53.840402 Z-0.125000 I-2.216966 J-1.052020
G02 X92.886286 Y51.877790 Z-0.125000 I-4.266329 J1.119612
G02 X91.203846 Y50.667599 Z-0.125000 I-4.293303 J4.194085
G02 X89.640627 Y50.309780 Z-0.125000 I-1.563219 J3.235737
G03 X89.240296 Y50.268884 Z-0.125000 I0.000000 J-1.979863
G03 X88.368208 Y50.047060 Z-0.125000 I2.001387 J-9.693532
G02 X87.379016 Y49.894820 Z-0.125000 I-1.027702 J3.387783
G02 X87.237545 Y50.034760 Z-0.125000 I-0.001522 J0.139940
G01 X87.237545 Y50.034740 Z-0.125000
G00 Z5.000000

(End cutting path id: path4529)


(Start cutting path id: path4529)
(Change tool to Cylindrical cutter)

G00 Z5.000000
G00 X80.874287 Y49.376480

G01 Z-0.125000 F100.0(Penetrate)
G03 X80.631286 Y49.832088 Z-0.125000 I-1.863542 J-0.701324 F1100.000000
G03 X80.062244 Y50.513940 Z-0.125000 I-4.794331 J-3.422751
G02 X79.332251 Y51.977060 Z-0.125000 I1.933564 J1.878379
G02 X79.647125 Y53.176590 Z-0.125000 I1.532238 J0.238882
G02 X80.377041 Y53.592351 Z-0.125000 I0.878032 J-0.692880
G02 X81.093091 Y53.369770 Z-0.125000 I0.118022 J-0.883389
G03 X81.415716 Y53.245459 Z-0.125000 I0.322625 J0.356502
G03 X81.738336 Y53.369770 Z-0.125000 I0.000000 J0.480798
G02 X82.323847 Y53.576949 Z-0.125000 I0.540899 J-0.597694
G02 X83.067906 Y53.296070 Z-0.125000 I-0.073148 J-1.319734
G02 X83.464611 Y52.123159 Z-0.125000 I-0.700433 J-0.890445
G02 X82.147528 Y49.721200 Z-0.125000 I-5.370195 J1.382594
G02 X81.253026 Y49.182522 Z-0.125000 I-1.392393 J1.300116
G02 X80.874287 Y49.376440 Z-0.125000 I-0.082677 J0.305340
G01 X80.874287 Y49.376480 Z-0.125000
G00 Z5.000000

(End cutting path id: path4529)


(Start cutting path id: path4529)
(Change tool to Cylindrical cutter)

G00 Z5.000000
G00 X86.357272 Y60.497980

G01 Z-0.125000 F100.0(Penetrate)
G02 X86.494820 Y63.426170 Z-0.125000 I33.294522 J-0.096644 F1100.000000
G02 X86.908947 Y66.540340 Z-0.125000 I37.951573 J-3.462235
G02 X88.026036 Y69.635995 Z-0.125000 I9.422190 J-1.650682
G02 X89.424444 Y70.941930 Z-0.125000 I2.807222 J-1.604318
G02 X91.517848 Y70.859195 Z-0.125000 I0.969210 J-2.002118
G02 X92.797941 Y68.966100 Z-0.125000 I-1.337672 J-2.283862
G03 X92.967404 Y68.181619 Z-0.125000 I6.145143 J0.916925
G03 X93.035302 Y68.132320 Z-0.125000 I0.065358 J0.018609
G03 X93.146351 Y68.145411 Z-0.125000 I-0.021327 J0.658486
G03 X93.817845 Y68.292120 Z-0.125000 I-5.395416 J26.305097
G02 X95.129016 Y68.246230 Z-0.125000 I0.570389 J-2.457162
G02 X96.135367 Y67.580160 Z-0.125000 I-0.626820 J-2.040321
G02 X96.450201 Y66.992573 Z-0.125000 I-1.237149 J-1.041013
G02 X96.584860 Y66.041650 Z-0.125000 I-3.221488 J-0.941188
G02 X95.370562 Y63.703278 Z-0.125000 I-2.875762 J0.008887
G02 X90.413090 Y61.673430 Z-0.125000 I-6.866016 J9.700071
G03 X88.163956 Y61.063058 Z-0.125000 I1.807796 J-11.110521
G03 X87.226102 Y60.442070 Z-0.125000 I0.945041 J-2.445956
G02 X86.620262 Y59.880846 Z-0.125000 I-5.511078 J5.341582
G02 X86.497263 Y59.836410 Z-0.125000 I-0.122999 J0.148013
G02 X86.419030 Y59.899821 Z-0.125000 I0.000000 J0.079965
G02 X86.357272 Y60.497980 Z-0.125000 I2.789585 J0.590283
G01 X86.357272 Y60.497980 Z-0.125000
G00 Z5.000000

(End cutting path id: path4529)


(Start cutting path id: path4529)
(Change tool to Cylindrical cutter)

G00 Z5.000000
G00 X70.793761 Y63.539170

G01 Z-0.125000 F100.0(Penetrate)
G02 X70.336354 Y63.724909 Z-0.125000 I0.766621 J2.543982 F1100.000000
G02 X69.777468 Y64.066620 Z-0.125000 I2.157210 J4.156133
G03 X69.207054 Y64.335959 Z-0.125000 I-1.035432 J-1.454178
G03 X68.542753 Y64.399740 Z-0.125000 I-0.520399 J-1.928780
G02 X67.866748 Y64.402791 Z-0.125000 I-0.318159 J4.398541
G02 X67.729265 Y64.466740 Z-0.125000 I0.017740 J0.217900
G02 X67.703810 Y64.907051 Z-0.125000 I0.234433 J0.234445
G02 X70.121330 Y67.486490 Z-0.125000 I16.696967 J-13.226250
G02 X71.471713 Y68.068298 Z-0.125000 I1.530336 J-1.693895
G02 X72.532545 Y67.677160 Z-0.125000 I0.106402 J-1.345566
G02 X72.870308 Y67.198534 Z-0.125000 I-1.218059 J-1.218068
G02 X72.888896 Y66.927380 Z-0.125000 I-0.334906 J-0.159172
G03 X72.780794 Y66.008454 Z-0.125000 I2.339112 J-0.740994
G03 X72.970496 Y65.805070 Z-0.125000 I0.221114 J0.016077
G02 X73.316123 Y65.658412 Z-0.125000 I-0.103694 J-0.724970
G02 X73.589633 Y65.324050 Z-0.125000 I-0.594886 J-0.765668
G02 X73.186127 Y63.870726 Z-0.125000 I-1.010790 J-0.502038
G02 X70.793761 Y63.539220 Z-0.125000 I-1.557149 J2.439211
G01 X70.793761 Y63.539170 Z-0.125000
G00 Z5.000000

(End cutting path id: path4529)


(Start cutting path id: path4529)
(Change tool to Cylindrical cutter)

G00 Z5.000000
G00 X69.463324 Y70.016380

G01 Z-0.125000 F100.0(Penetrate)
G02 X68.468658 Y70.186957 Z-0.125000 I0.295653 J4.709339 F1100.000000
G02 X68.360703 Y70.329880 Z-0.125000 I0.040631 J0.142923
G02 X68.437964 Y70.517656 Z-0.125000 I0.266818 J0.000000
G02 X68.713728 Y70.686250 Z-0.125000 I0.480299 J-0.475785
G03 X69.080438 Y71.004253 Z-0.125000 I-0.185435 J0.584277
G03 X69.857474 Y73.057920 Z-0.125000 I-11.298854 J5.448928
G02 X71.371468 Y76.297150 Z-0.125000 I10.596699 J-2.979395
G02 X72.779087 Y77.325110 Z-0.125000 I2.158322 J-1.477731
G02 X73.899090 Y77.375685 Z-0.125000 I0.660724 J-2.205244
G02 X74.733698 Y76.927160 Z-0.125000 I-0.328030 J-1.611167
G02 X74.960626 Y76.515643 Z-0.125000 I-0.598206 J-0.598204
G02 X74.986657 Y75.809120 Z-0.125000 I-1.867632 J-0.422551
G01 X74.873847 Y75.056840 Z-0.125000
G01 X75.604044 Y74.958840 Z-0.125000
G02 X76.760583 Y74.378584 Z-0.125000 I-0.264083 J-1.969067
G02 X77.180999 Y73.345780 Z-0.125000 I-1.055078 J-1.031452
G02 X75.704142 Y71.102506 Z-0.125000 I-2.445610 J0.002284
G02 X69.463324 Y70.016330 Z-0.125000 I-5.389041 J12.491741
G01 X69.463324 Y70.016380 Z-0.125000
G00 Z5.000000

(End cutting path id: path4529)


(Start cutting path id: path4529)
(Change tool to Cylindrical cutter)

G00 Z5.000000
G00 X63.549845 Y70.704320

G01 Z-0.125000 F100.0(Penetrate)
G02 X63.507032 Y70.824288 Z-0.125000 I0.105175 J0.105157 F1100.000000
G02 X63.602305 Y71.228380 Z-0.125000 I1.571833 J-0.157315
G03 X63.604712 Y71.623356 Z-0.125000 I-0.527921 J0.200713
G03 X63.161595 Y72.431500 Z-0.125000 I-2.887549 J-1.057730
G02 X62.589657 Y73.234396 Z-0.125000 I11.870466 J9.061020
G02 X62.286116 Y73.750560 Z-0.125000 I4.592025 J3.047764
G02 X61.859304 Y75.455301 Z-0.125000 I3.395660 J1.755964
G02 X62.241686 Y77.065800 Z-0.125000 I3.391298 J0.045445
G02 X63.904460 Y78.237528 Z-0.125000 I1.964190 J-1.021673
G02 X65.162600 Y77.467190 Z-0.125000 I0.158535 J-1.153661
G01 X65.353578 Y76.919340 Z-0.125000
G01 X65.869962 Y77.287040 Z-0.125000
G02 X67.939331 Y76.823690 Z-0.125000 I0.826626 J-1.160886
G02 X67.909855 Y73.652730 Z-0.125000 I-2.778940 J-1.559785
G02 X67.185278 Y72.815464 Z-0.125000 I-2.620339 J1.535505
G02 X65.024927 Y71.347760 Z-0.125000 I-10.547966 J13.202025
G02 X63.690521 Y70.677699 Z-0.125000 I-6.860900 J11.999525
G02 X63.549840 Y70.704320 Z-0.125000 I-0.050815 J0.116494
G01 X63.549845 Y70.704320 Z-0.125000
G00 Z5.000000

(End cutting path id: path4529)


(Start cutting path id: path4529)
(Change tool to Cylindrical cutter)

G00 Z5.000000
G00 X57.309338 Y69.435440

G01 Z-0.125000 F100.0(Penetrate)
G02 X56.446046 Y70.365460 Z-0.125000 I10.535261 J10.645062 F1100.000000
G02 X56.191718 Y70.746720 Z-0.125000 I1.487077 J1.267443
G02 X56.322600 Y71.950687 Z-0.125000 I0.986270 J0.501881
G02 X57.381579 Y72.196400 Z-0.125000 I0.689262 J-0.565733
G03 X57.798982 Y72.152606 Z-0.125000 I0.274124 J0.601645
G03 X58.243918 Y72.387830 Z-0.125000 I-0.206036 J0.928145
G02 X59.105713 Y72.572124 Z-0.125000 I0.583405 J-0.621010
G02 X59.785532 Y71.854900 Z-0.125000 I-0.350045 J-1.012585
G02 X59.674373 Y69.231354 Z-0.125000 I-3.992291 J-1.144975
G02 X58.510949 Y68.509240 Z-0.125000 I-1.055360 J0.402054
G02 X58.251380 Y68.611821 Z-0.125000 I0.048386 J0.502131
G02 X57.309338 Y69.435440 Z-0.125000 I6.186725 J8.026829
G01 X57.309338 Y69.435440 Z-0.125000
G00 Z5.000000

(End cutting path id: path4529)


(Start cutting path id: path4529)
(Change tool to Cylindrical cutter)

G00 Z5.000000
G00 X60.330545 Y63.232480

G01 Z-0.125000 F100.0(Penetrate)
G02 X61.598268 Y67.823234 Z-0.125000 I20.373568 J-3.155683 F1100.000000
G02 X62.745742 Y69.189350 Z-0.125000 I2.681143 J-1.087065
G02 X64.424133 Y69.299509 Z-0.125000 I0.941673 J-1.506277
G02 X65.220443 Y68.061460 Z-0.125000 I-0.564262 J-1.238049
G03 X65.423873 Y67.625880 Z-0.125000 I0.568043 J-0.000000
G03 X65.983882 Y67.422430 Z-0.125000 I0.560009 J0.669007
G02 X67.082071 Y66.932582 Z-0.125000 I-0.000000 J-1.475938
G02 X67.427256 Y65.814970 Z-0.125000 I-1.039127 J-0.933057
G02 X66.415245 Y64.261811 Z-0.125000 I-2.134595 J0.284581
G02 X63.244550 Y63.259960 Z-0.125000 I-3.611980 J5.913036
G03 X61.607937 Y63.040848 Z-0.125000 I0.759669 J-11.895920
G03 X61.090559 Y62.817850 Z-0.125000 I0.278787 J-1.358498
G02 X60.550351 Y62.787548 Z-0.125000 I-0.294516 J0.420055
G02 X60.330545 Y63.232480 Z-0.125000 I0.206694 J0.378872
G01 X60.330545 Y63.232480 Z-0.125000
G00 Z5.000000

(End cutting path id: path4529)


(Start cutting path id: path4529)
(Change tool to Cylindrical cutter)

G00 Z5.000000
G00 X59.268733 Y77.698850

G01 Z-0.125000 F100.0(Penetrate)
G03 X59.126193 Y78.584650 Z-0.125000 I-2.949536 J-0.020262 F1100.000000
G03 X58.672800 Y79.545130 Z-0.125000 I-3.934392 J-1.269970
G02 X57.910027 Y81.985158 Z-0.125000 I4.081280 J2.615081
G02 X58.530438 Y83.484550 Z-0.125000 I1.951603 J0.070527
G02 X59.930922 Y83.914957 Z-0.125000 I1.143646 J-1.227570
G02 X60.957370 Y83.108590 Z-0.125000 I-0.203859 J-1.315978
G03 X61.297832 Y82.858034 Z-0.125000 I0.377504 J0.156369
G03 X61.760438 Y83.035490 Z-0.125000 I0.050889 J0.559046
G02 X63.109339 Y83.448841 Z-0.125000 I1.030412 J-0.954943
G02 X64.291304 Y82.446410 Z-0.125000 I-0.384345 J-1.651222
G02 X64.299316 Y81.304021 Z-0.125000 I-1.402800 J-0.581061
G02 X63.058864 Y79.348860 Z-0.125000 I-5.795585 J2.305927
G02 X60.509942 Y77.092901 Z-0.125000 I-13.209071 J12.356480
G02 X59.527448 Y76.772610 Z-0.125000 I-0.982494 J1.346757
G02 X59.383570 Y76.881806 Z-0.125000 I-0.000000 J0.149386
G02 X59.268733 Y77.698820 Z-0.125000 I3.001792 J0.838499
G01 X59.268733 Y77.698850 Z-0.125000
G00 Z5.000000

(End cutting path id: path4529)


(Start cutting path id: path4529)
(Change tool to Cylindrical cutter)

G00 Z5.000000
G00 X74.009995 Y91.753860

G01 Z-0.125000 F100.0(Penetrate)
G03 X73.542904 Y92.404682 Z-0.125000 I-1.099470 J-0.296057 F1100.000000
G03 X71.740392 Y93.269630 Z-0.125000 I-3.938878 J-5.897793
G02 X68.243696 Y95.546619 Z-0.125000 I2.345782 J7.425713
G02 X67.125768 Y98.506040 Z-0.125000 I3.358182 J2.959421
G02 X67.813956 Y100.694923 Z-0.125000 I3.825127 J0.000000
G02 X69.133319 Y101.383110 Z-0.125000 I1.319363 J-0.920621
G02 X69.831174 Y101.274151 Z-0.125000 I0.000000 J-2.289264
G02 X70.373524 Y100.986160 Z-0.125000 I-0.527509 J-1.648095
G03 X70.889797 Y100.622862 Z-0.125000 I3.662794 J4.656619
G03 X71.006813 Y100.589220 Z-0.125000 I0.117016 J0.186685
G03 X71.098139 Y100.643457 Z-0.125000 I0.000000 J0.104008
G03 X71.436744 Y101.378090 Z-0.125000 I-5.297755 J2.887175
G02 X72.948157 Y102.868284 Z-0.125000 I2.390444 J-0.912917
G02 X75.040611 Y102.696350 Z-0.125000 I0.860086 J-2.351320
G02 X76.880893 Y99.892761 Z-0.125000 I-1.803718 J-3.189742
G02 X75.918222 Y94.414550 Z-0.125000 I-10.023865 J-1.062223
G03 X75.221873 Y92.900808 Z-0.125000 I33.543166 J-16.347509
G03 X74.890626 Y92.042640 Z-0.125000 I10.435868 J-4.521187
G02 X74.539357 Y91.225119 Z-0.125000 I-5.412483 J1.841388
G02 X74.398060 Y91.105040 Z-0.125000 I-0.219808 J0.115476
G02 X74.264033 Y91.154721 Z-0.125000 I-0.036092 J0.108257
G02 X74.009995 Y91.753860 Z-0.125000 I2.029954 J1.214139
G01 X74.009995 Y91.753860 Z-0.125000
G00 Z5.000000

(End cutting path id: path4529)


(Start cutting path id: path4529)
(Change tool to Cylindrical cutter)

G00 Z5.000000
G00 X80.533621 Y95.169180

G01 Z-0.125000 F100.0(Penetrate)
G02 X80.579057 Y95.380226 Z-0.125000 I0.512858 J0.000000 F1100.000000
G02 X80.819942 Y95.803340 Z-0.125000 I2.377914 J-1.073652
G03 X80.991437 Y96.585141 Z-0.125000 I-0.851655 J0.596528
G03 X80.079158 Y99.894230 Z-0.125000 I-18.817775 J-3.407553
G02 X79.055219 Y103.625488 Z-0.125000 I19.922822 J7.473382
G02 X79.082875 Y105.470980 Z-0.125000 I4.766463 J0.851525
G02 X80.393821 Y108.026216 Z-0.125000 I5.321313 J-1.116159
G02 X82.116498 Y108.784690 Z-0.125000 I1.722677 J-1.577069
G02 X83.180470 Y108.436473 Z-0.125000 I0.000000 J-1.799582
G02 X84.149684 Y107.294200 Z-0.125000 I-1.905187 J-2.598868
G01 X84.592928 Y106.419490 Z-0.125000
G01 X85.400367 Y106.988630 Z-0.125000
G02 X87.426542 Y107.387121 Z-0.125000 I1.459507 J-2.070628
G02 X89.142387 Y106.129830 Z-0.125000 I-0.601317 J-2.620093
G02 X89.404210 Y105.405084 Z-0.125000 I-1.805751 J-1.062014
G02 X89.485018 Y104.029390 Z-0.125000 I-6.612413 J-1.078633
G02 X88.367061 Y101.035232 Z-0.125000 I-5.184788 J0.230104
G02 X83.687048 Y96.716290 Z-0.125000 I-16.146450 J12.801214
G02 X80.759903 Y95.028148 Z-0.125000 I-14.039706 J20.962251
G02 X80.533621 Y95.169180 Z-0.125000 I-0.069192 J0.141032
G01 X80.533621 Y95.169180 Z-0.125000
G00 Z5.000000

(End cutting path id: path4529)


(Start cutting path id: path4529)
(Change tool to Cylindrical cutter)

G00 Z5.000000
G00 X84.827015 Y87.281200

G01 Z-0.125000 F100.0(Penetrate)
G02 X84.601426 Y88.958667 Z-0.125000 I3.425711 J1.314598 F1100.000000
G02 X85.393351 Y92.979840 Z-0.125000 I21.408476 J-2.127590
G02 X86.396740 Y94.758094 Z-0.125000 I4.406608 J-1.314241
G02 X87.600147 Y95.408370 Z-0.125000 I1.527378 J-1.387924
G02 X88.831457 Y95.074411 Z-0.125000 I0.244225 J-1.536449
G02 X89.354575 Y93.968210 Z-0.125000 I-0.908045 J-1.106201
G03 X89.656690 Y93.480121 Z-0.125000 I0.545330 J0.000000
G03 X90.505879 Y93.394510 Z-0.125000 I0.537695 J1.079057
G02 X91.262638 Y93.391192 Z-0.125000 I0.372284 J-1.391943
G02 X91.861570 Y93.019150 Z-0.125000 I-0.333744 J-1.205393
G02 X92.229700 Y92.369764 Z-0.125000 I-1.313666 J-1.173741
G02 X92.312125 Y91.574070 Z-0.125000 I-1.931450 J-0.602193
G02 X91.243307 Y89.644527 Z-0.125000 I-2.753800 J0.264601
G02 X88.296060 Y88.489960 Z-0.125000 I-3.469771 J4.518254
G03 X86.334184 Y88.049613 Z-0.125000 I0.717142 J-7.785612
G03 X85.640735 Y87.521480 Z-0.125000 I0.503462 J-1.380379
G02 X85.108796 Y87.142070 Z-0.125000 I-0.815439 J0.580659
G02 X84.827015 Y87.281200 Z-0.125000 I-0.065581 J0.222089
G01 X84.827015 Y87.281200 Z-0.125000
G00 Z5.000000

(End cutting path id: path4529)


(Start cutting path id: path4529)
(Change tool to Cylindrical cutter)

G00 Z5.000000
G00 X92.061506 Y94.942800

G01 Z-0.125000 F100.0(Penetrate)
G02 X89.946844 Y95.909135 Z-0.125000 I1.079020 J5.158215 F1100.000000
G02 X88.736462 Y97.476060 Z-0.125000 I2.316151 J3.040074
G02 X88.843542 Y99.000624 Z-0.125000 I1.569868 J0.655780
G02 X90.275206 Y100.066920 Z-0.125000 I1.995732 J-1.185311
G03 X90.829214 Y100.403000 Z-0.125000 I-0.266596 J1.064132
G03 X90.873324 Y100.741070 Z-0.125000 I-0.227176 J0.201554
G02 X90.541579 Y102.542201 Z-0.125000 I2.918728 J1.468709
G02 X91.198917 Y103.924860 Z-0.125000 I2.271446 J-0.232298
G02 X94.240258 Y104.218644 Z-0.125000 I1.699072 J-1.699970
G02 X98.431325 Y99.055730 Z-0.125000 I-6.357713 J-9.443498
G02 X99.320900 Y96.204422 Z-0.125000 I-16.677936 J-6.767747
G02 X99.177169 Y95.710220 Z-0.125000 I-0.521637 J-0.116292
G02 X99.057919 Y95.675383 Z-0.125000 I-0.091402 J0.091354
G02 X98.358516 Y95.890910 Z-0.125000 I0.965991 J4.377284
G03 X97.597481 Y95.963418 Z-0.125000 I-0.503985 J-1.259641
G03 X95.418593 Y95.323620 Z-0.125000 I2.268093 J-11.754282
G02 X93.618469 Y94.870148 Z-0.125000 I-2.584195 J6.458684
G02 X92.061506 Y94.942800 Z-0.125000 I-0.552782 J4.873178
G01 X92.061506 Y94.942800 Z-0.125000
G00 Z5.000000

(End cutting path id: path4529)


(Start cutting path id: path4529)
(Change tool to Cylindrical cutter)

G00 Z5.000000
G00 X95.395584 Y85.670980

G01 Z-0.125000 F100.0(Penetrate)
G02 X94.588992 Y86.398180 Z-0.125000 I0.733782 J1.624818 F1100.000000
G02 X94.583922 Y87.063850 Z-0.125000 I0.578765 J0.337262
G02 X94.714318 Y87.259020 Z-0.125000 I1.334530 J-0.750474
G02 X95.058098 Y87.667700 Z-0.125000 I6.246016 J-4.905192
G01 X95.416567 Y88.065830 Z-0.125000
G01 X94.943648 Y88.559450 Z-0.125000
G02 X94.808735 Y89.837214 Z-0.125000 I0.757794 J0.726016
G02 X96.214727 Y90.616010 Z-0.125000 I1.396929 J-0.863389
G02 X97.508912 Y90.308467 Z-0.125000 I-0.018330 J-2.953967
G02 X99.542777 Y88.964530 Z-0.125000 I-4.396083 J-8.863826
G02 X100.199861 Y87.907948 Z-0.125000 I-1.337809 J-1.564587
G02 X99.923561 Y87.469220 Z-0.125000 I-0.346402 J-0.088212
G03 X99.437245 Y87.254737 Z-0.125000 I0.241123 J-1.205296
G03 X98.540351 Y86.453670 Z-0.125000 I3.723192 J-5.071198
G02 X97.618641 Y85.720286 Z-0.125000 I-2.844288 J2.628784
G02 X96.836426 Y85.479320 Z-0.125000 I-0.928341 J1.623466
G02 X95.986170 Y85.502295 Z-0.125000 I-0.316356 J4.036886
G02 X95.395584 Y85.670980 Z-0.125000 I0.278368 J2.092795
G01 X95.395584 Y85.670980 Z-0.125000
G00 Z5.000000

(End cutting path id: path4529)


(Start cutting path id: path4529)
(Change tool to Cylindrical cutter)

G00 Z5.000000
G00 X105.803560 Y90.071110

G01 Z-0.125000 F100.0(Penetrate)
G02 X101.518500 Y93.068355 Z-0.125000 I8.378859 J16.540699 F1100.000000
G02 X100.781110 Y94.767390 Z-0.125000 I1.588697 J1.699035
G02 X101.086094 Y96.207860 Z-0.125000 I3.554231 J-0.000000
G02 X101.724540 Y96.895460 Z-0.125000 I1.319491 J-0.584963
G02 X102.616297 Y97.100237 Z-0.125000 I0.822165 J-1.536253
G02 X103.857660 Y96.810160 Z-0.125000 I-0.135073 J-3.379233
G03 X104.073002 Y96.844333 Z-0.125000 I0.081392 J0.182682
G03 X104.264490 Y97.177090 Z-0.125000 I-0.415347 J0.460490
G02 X104.885552 Y98.759406 Z-0.125000 I5.015811 J-1.055674
G02 X105.566810 Y99.346690 Z-0.125000 I1.230495 J-0.738617
G02 X107.570822 Y99.327269 Z-0.125000 I0.979190 J-2.364047
G02 X109.049290 Y97.824510 Z-0.125000 I-1.133944 J-2.594279
G02 X109.355310 Y96.278903 Z-0.125000 I-3.653152 J-1.526398
G02 X109.025390 Y92.886390 Z-0.125000 I-18.531821 J0.089910
G03 X108.818136 Y90.348940 Z-0.125000 I11.645273 J-2.228354
G03 X109.118090 Y89.331880 Z-0.125000 I2.056065 J0.053619
G02 X109.335097 Y88.604379 Z-0.125000 I-1.272109 J-0.775574
G02 X109.147290 Y88.427690 Z-0.125000 I-0.171800 J-0.005546
G02 X109.031382 Y88.461049 Z-0.125000 I0.035680 J0.342018
G02 X105.803640 Y90.071090 Z-0.125000 I128.602861 J261.857986
G01 X105.803560 Y90.071110 Z-0.125000
G00 Z5.000000

(End cutting path id: path4529)


(Start cutting path id: path4529)
(Change tool to Cylindrical cutter)

G00 Z5.000000
G00 X100.821820 Y102.714700

G01 Z-0.125000 F100.0(Penetrate)
G03 X100.513898 Y103.375042 Z-0.125000 I-0.862017 J0.000000 F1100.000000
G03 X97.797227 Y105.252650 Z-0.125000 I-11.382976 J-13.565637
G02 X93.845035 Y108.433468 Z-0.125000 I7.499373 J13.363759
G02 X93.002124 Y110.645140 Z-0.125000 I2.492547 J2.216418
G02 X94.075558 Y112.786256 Z-0.125000 I2.664163 J0.003978
G02 X96.151148 Y112.989150 Z-0.125000 I1.206110 J-1.620404
G03 X96.741310 Y112.838384 Z-0.125000 I0.677035 J1.419741
G03 X96.948319 Y112.945050 Z-0.125000 I0.012698 J0.229563
G03 X97.067928 Y113.216147 Z-0.125000 I-0.846353 J0.535348
G03 X97.115477 Y113.556060 Z-0.125000 I-1.296283 J0.354615
G02 X97.348013 Y114.328174 Z-0.125000 I1.451789 J-0.016158
G02 X98.158808 Y115.169610 Z-0.125000 I2.558950 J-1.654414
G02 X99.292341 Y115.500344 Z-0.125000 I1.054118 J-1.504946
G02 X100.729070 Y115.058420 Z-0.125000 I-0.128698 J-2.974826
G02 X102.581506 Y112.299034 Z-0.125000 I-2.114132 J-3.420746
G02 X102.314410 Y105.550130 Z-0.125000 I-16.381855 J-2.731405
G02 X101.667619 Y103.052411 Z-0.125000 I-138.126243 J34.435555
G02 X101.524890 Y102.611220 Z-0.125000 I-4.441677 J1.193238
G02 X101.117590 Y102.372209 Z-0.125000 I-0.352400 J0.133980
G02 X100.821820 Y102.714700 Z-0.125000 I0.050411 J0.342491
G01 X100.821820 Y102.714700 Z-0.125000
G00 Z5.000000

(End cutting path id: path4529)


(Start cutting path id: path4529)
(Change tool to Cylindrical cutter)

G00 Z5.000000
G00 X89.703953 Y111.571340

G01 Z-0.125000 F100.0(Penetrate)
G02 X89.701672 Y111.615552 Z-0.125000 I1.554328 J0.102343 F1100.000000
G02 X89.643593 Y113.203220 Z-0.125000 I1042.307899 J38.924154
G03 X89.461332 Y114.763042 Z-0.125000 I-9.754235 J-0.349196
G03 X89.098265 Y115.937710 Z-0.125000 I-5.868552 J-1.170414
G02 X88.562394 Y120.705510 Z-0.125000 I7.698644 J3.279293
G02 X90.176955 Y121.905080 Z-0.125000 I1.447275 J-0.261616
G02 X90.579645 Y121.708774 Z-0.125000 I-0.076433 J-0.667968
G02 X91.118750 Y120.948400 Z-0.125000 I-2.074243 J-2.041940
G01 X91.559797 Y120.049060 Z-0.125000
G01 X91.916289 Y120.595570 Z-0.125000
G02 X92.348662 Y121.001966 Z-0.125000 I1.052418 J-0.686485
G02 X92.879565 Y121.142080 Z-0.125000 I0.530903 J-0.935761
G02 X93.408774 Y120.995315 Z-0.125000 I0.000000 J-1.027499
G02 X93.907189 Y120.524610 Z-0.125000 I-0.824661 J-1.372438
G02 X94.175004 Y119.864568 Z-0.125000 I-1.393685 J-0.949849
G02 X94.252434 Y118.545270 Z-0.125000 I-5.719308 J-0.997588
G02 X93.594667 Y116.102051 Z-0.125000 I-6.130238 J0.340239
G02 X91.462418 Y113.059930 Z-0.125000 I-11.796967 J6.000280
G02 X89.838868 Y111.515089 Z-0.125000 I-14.093882 J13.186400
G02 X89.703939 Y111.571340 Z-0.125000 I-0.053059 J0.062679
G01 X89.703953 Y111.571340 Z-0.125000
G00 Z5.000000

(End cutting path id: path4529)


(Start cutting path id: path4529)
(Change tool to Cylindrical cutter)

G00 Z5.000000
G00 X35.954377 Y97.253950

G01 Z-0.125000 F100.0(Penetrate)
G02 X33.055048 Y97.705614 Z-0.125000 I1.987669 J22.290802 F1100.000000
G02 X31.644826 Y98.218300 Z-0.125000 I1.278025 J5.711271
G02 X30.407859 Y99.509012 Z-0.125000 I1.269314 J2.454546
G02 X30.269388 Y101.180270 Z-0.125000 I2.205344 J1.024088
G02 X30.854065 Y102.058867 Z-0.125000 I1.627927 J-0.449492
G02 X31.985159 Y102.528050 Z-0.125000 I1.404532 J-1.788012
G03 X32.669413 Y102.725757 Z-0.125000 I-0.267774 J2.209690
G03 X32.745359 Y102.887790 Z-0.125000 I-0.060082 J0.126976
G02 X32.693119 Y103.149959 Z-0.125000 I2.330495 J0.600665
G02 X32.593021 Y103.960130 Z-0.125000 I22.218661 J3.156424
G02 X32.667633 Y104.721261 Z-0.125000 I1.891294 J0.198824
G02 X33.023230 Y105.350040 Z-0.125000 I1.620790 J-0.501674
G02 X33.609374 Y105.787942 Z-0.125000 I1.373471 J-1.227194
G02 X34.423498 Y106.012150 Z-0.125000 I1.048774 J-2.218021
G02 X36.623060 Y105.082414 Z-0.125000 I0.240101 J-2.498693
G02 X38.624401 Y100.765670 Z-0.125000 I-7.779342 J-6.228986
G03 X39.293977 Y98.612074 Z-0.125000 I10.233165 J2.000713
G03 X39.890933 Y97.850000 Z-0.125000 I1.762021 J0.765401
G02 X40.382344 Y97.370243 Z-0.125000 I-1.713773 J-2.246956
G02 X40.391168 Y97.225790 Z-0.125000 I-0.097928 J-0.078478
G02 X40.086092 Y97.056965 Z-0.125000 I-0.302816 J0.187149
G02 X35.954377 Y97.253990 Z-0.125000 I0.318043 J50.090166
G01 X35.954377 Y97.253950 Z-0.125000
G00 Z5.000000

(End cutting path id: path4529)


(Start cutting path id: path4529)
(Change tool to Cylindrical cutter)

G00 Z5.000000
G00 X30.363776 Y115.550240

G01 Z-0.125000 F100.0(Penetrate)
G02 X30.328757 Y115.700846 Z-0.125000 I0.205869 J0.127243 F1100.000000
G02 X30.453696 Y116.476440 Z-0.125000 I6.206588 J-0.601947
G03 X30.488317 Y117.793690 Z-0.125000 I-3.293870 J0.745653
G03 X29.682772 Y120.965620 Z-0.125000 I-20.530396 J-3.525658
G02 X28.882473 Y125.778976 Z-0.125000 I14.272721 J4.846282
G02 X29.667532 Y127.938670 Z-0.125000 I3.343095 J0.007303
G02 X30.171895 Y128.328544 Z-0.125000 I1.152552 J-0.969834
G02 X30.768348 Y128.463440 Z-0.125000 I0.596453 J-1.251181
G02 X31.680814 Y128.087603 Z-0.125000 I-0.000000 J-1.295572
G02 X32.548122 Y126.697730 Z-0.125000 I-2.514789 J-2.534823
G01 X32.851360 Y125.801990 Z-0.125000
G01 X33.075206 Y126.342400 Z-0.125000
G02 X33.958885 Y127.489913 Z-0.125000 I2.568369 J-1.063845
G02 X34.824885 Y127.675370 Z-0.125000 I0.629934 J-0.826864
G02 X36.420842 Y126.164442 Z-0.125000 I-0.494533 J-2.120713
G02 X36.282538 Y122.678190 Z-0.125000 I-5.268703 J-1.536853
G02 X32.774963 Y116.488882 Z-0.125000 I-21.893679 J8.318929
G02 X30.546073 Y115.408430 Z-0.125000 I-2.228890 J1.758788
G02 X30.466609 Y115.435693 Z-0.125000 I0.000000 J0.129439
G02 X30.363759 Y115.550240 Z-0.125000 I0.266669 J0.342885
G01 X30.363776 Y115.550240 Z-0.125000
G00 Z5.000000

(End cutting path id: path4529)


(Start cutting path id: path4529)
(Change tool to Cylindrical cutter)

G00 Z5.000000
G00 X18.610516 Y119.233290

G01 Z-0.125000 F100.0(Penetrate)
G02 X18.660812 Y119.375621 Z-0.125000 I0.226534 J-0.000000 F1100.000000
G02 X19.218332 Y119.985970 Z-0.125000 I5.289253 J-4.271626
G03 X19.731218 Y120.638940 Z-0.125000 I-2.143589 J2.211629
G03 X20.401611 Y122.002670 Z-0.125000 I-8.897832 J5.220711
G02 X22.056323 Y124.741696 Z-0.125000 I9.299085 J-3.748466
G02 X23.207397 Y125.308800 Z-0.125000 I1.229168 J-1.043149
G02 X24.029374 Y125.232054 Z-0.125000 I0.141632 J-2.923270
G02 X24.415392 Y125.020050 Z-0.125000 I-0.193571 J-0.809891
G02 X24.755327 Y124.236808 Z-0.125000 I-0.778877 J-0.803429
G02 X24.443452 Y123.464250 Z-0.125000 I-1.065197 J-0.019219
G03 X24.471021 Y123.240718 Z-0.125000 I0.101007 J-0.101008
