%
(Header)
(Generated by gcodetools from Inkscape.)
(Using default header. To add your own header create file "header" in the output dir.)
M3
(Header end.)
G21 (All units in mm)

(Start cutting path id: path4900)
(Change tool to Cylindrical cutter)

G00 Z5.000000
G00 X26.166253 Y1.168092

G01 Z-0.125000 F800.0(Penetrate)
G02 X26.188130 Y1.280724 Z-0.125000 I0.300881 J0.000000 F1000.000000
G01 X26.211722 Y1.280724 Z-0.125000
G02 X26.233599 Y1.168106 Z-0.125000 I-0.278926 J-0.112618
G02 X26.211722 Y1.055460 Z-0.125000 I-0.300950 J0.000000
G01 X26.188135 Y1.055459 Z-0.125000
G02 X26.166253 Y1.168092 Z-0.125000 I0.278931 J0.112633
G01 X26.166253 Y1.168092 Z-0.125000
G00 Z5.000000

(End cutting path id: path4900)


(Start cutting path id: path4900)
(Change tool to Cylindrical cutter)

G00 Z5.000000
G00 X26.256361 Y1.889000

G01 Z-0.125000 F800.0(Penetrate)
G02 X26.278238 Y2.001633 Z-0.125000 I0.300876 J0.000000 F1000.000000
G01 X26.301830 Y2.001632 Z-0.125000
G02 X26.323706 Y1.889013 Z-0.125000 I-0.278942 J-0.112619
G02 X26.301830 Y1.776365 Z-0.125000 I-0.300966 J0.000000
G01 X26.278233 Y1.776367 Z-0.125000
G02 X26.256361 Y1.889000 Z-0.125000 I0.279067 J0.112633
G01 X26.256361 Y1.889000 Z-0.125000
G00 Z5.000000

(End cutting path id: path4900)


(Start cutting path id: path4900)
(Change tool to Cylindrical cutter)

G00 Z5.000000
G00 X26.339354 Y2.662419

G01 Z-0.125000 F800.0(Penetrate)
G02 X26.365700 Y2.722586 Z-0.125000 I0.089817 J-0.003477 F1000.000000
G01 X26.393772 Y2.716798 Z-0.125000
G02 X26.413042 Y2.604268 Z-0.125000 I-0.253419 J-0.101310
G02 X26.386632 Y2.544092 Z-0.125000 I-0.090220 J0.003712
G01 X26.358576 Y2.549852 Z-0.125000
G02 X26.339337 Y2.662360 Z-0.125000 I0.253303 J0.101213
G01 X26.339354 Y2.662419 Z-0.125000
G00 Z5.000000

(End cutting path id: path4900)


(Start cutting path id: path4900)
(Change tool to Cylindrical cutter)

G00 Z5.000000
G00 X26.436577 Y3.330662

G01 Z-0.125000 F800.0(Penetrate)
G02 X26.458453 Y3.443302 Z-0.125000 I0.300928 J-0.000000 F1000.000000
G01 X26.482046 Y3.443303 Z-0.125000
G02 X26.503923 Y3.330678 Z-0.125000 I-0.278955 J-0.112624
G02 X26.482046 Y3.218030 Z-0.125000 I-0.300955 J-0.000000
G01 X26.458459 Y3.218029 Z-0.125000
G02 X26.436577 Y3.330662 Z-0.125000 I0.278931 J0.112633
G01 X26.436577 Y3.330662 Z-0.125000
G00 Z5.000000

(End cutting path id: path4900)


(Start cutting path id: path4900)
(Change tool to Cylindrical cutter)

G00 Z5.000000
G00 X26.526685 Y4.051522

G01 Z-0.125000 F800.0(Penetrate)
G02 X26.548562 Y4.164155 Z-0.125000 I0.300876 J-0.000000 F1000.000000
G01 X26.572153 Y4.164155 Z-0.125000
G02 X26.594030 Y4.051535 Z-0.125000 I-0.278942 J-0.112619
G02 X26.572153 Y3.938888 Z-0.125000 I-0.300966 J0.000000
G01 X26.548567 Y3.938887 Z-0.125000
G02 X26.526685 Y4.051522 Z-0.125000 I0.278939 J0.112635
G01 X26.526685 Y4.051522 Z-0.125000
G00 Z5.000000

(End cutting path id: path4900)


(Start cutting path id: path4900)
(Change tool to Cylindrical cutter)

G00 Z5.000000
G00 X26.616787 Y4.772397

G01 Z-0.125000 F800.0(Penetrate)
G02 X26.638664 Y4.885032 Z-0.125000 I0.300892 J0.000000 F1000.000000
G01 X26.662256 Y4.885032 Z-0.125000
G02 X26.684132 Y4.772413 Z-0.125000 I-0.278942 J-0.112619
G02 X26.662256 Y4.659765 Z-0.125000 I-0.300966 J-0.000000
G01 X26.638669 Y4.659764 Z-0.125000
G02 X26.616787 Y4.772397 Z-0.125000 I0.278931 J0.112633
G01 X26.616787 Y4.772397 Z-0.125000
G00 Z5.000000

(End cutting path id: path4900)


(Start cutting path id: path4900)
(Change tool to Cylindrical cutter)

G00 Z5.000000
G00 X26.706895 Y5.493218

G01 Z-0.125000 F800.0(Penetrate)
G02 X26.728773 Y5.605850 Z-0.125000 I0.300863 J0.000000 F1000.000000
G01 X26.752364 Y5.605850 Z-0.125000
G02 X26.774241 Y5.493224 Z-0.125000 I-0.278960 J-0.112626
G02 X26.752364 Y5.380583 Z-0.125000 I-0.300911 J0.000000
G01 X26.728778 Y5.380583 Z-0.125000
G02 X26.706895 Y5.493218 Z-0.125000 I0.278939 J0.112635
G01 X26.706895 Y5.493218 Z-0.125000
G00 Z5.000000

(End cutting path id: path4900)


(Start cutting path id: path4900)
(Change tool to Cylindrical cutter)

G00 Z5.000000
G00 X26.789885 Y6.266273

G01 Z-0.125000 F800.0(Penetrate)
G02 X26.816239 Y6.326509 Z-0.125000 I0.089979 J-0.003483 F1000.000000
G01 X26.844306 Y6.320736 Z-0.125000
G02 X26.863576 Y6.208206 Z-0.125000 I-0.253419 J-0.101310
G02 X26.837166 Y6.148030 Z-0.125000 I-0.090220 J0.003712
G01 X26.809106 Y6.153789 Z-0.125000
G02 X26.789862 Y6.266290 Z-0.125000 I0.253279 J0.101221
G01 X26.789885 Y6.266273 Z-0.125000
G00 Z5.000000

(End cutting path id: path4900)


(Start cutting path id: path4900)
(Change tool to Cylindrical cutter)

G00 Z5.000000
G00 X26.977219 Y7.655009

G01 Z-0.125000 F800.0(Penetrate)
G02 X26.999095 Y7.767641 Z-0.125000 I0.300879 J-0.000000 F1000.000000
G01 X27.022687 Y7.767641 Z-0.125000
G02 X27.044565 Y7.655015 Z-0.125000 I-0.278960 J-0.112626
G02 X27.022687 Y7.542374 Z-0.125000 I-0.300911 J-0.000000
G01 X26.999101 Y7.542374 Z-0.125000
G02 X26.977219 Y7.655009 Z-0.125000 I0.278939 J0.112635
G01 X26.977219 Y7.655009 Z-0.125000
G00 Z5.000000

(End cutting path id: path4900)


(Start cutting path id: path4900)
(Change tool to Cylindrical cutter)

G00 Z5.000000
G00 X28.240725 Y8.264031

G01 Z-0.125000 F800.0(Penetrate)
G03 X28.236866 Y8.691895 Z-0.125000 I-12.287928 J0.103127 F1000.000000
G03 X28.204338 Y9.638157 Z-0.125000 I-59.658248 J-1.577103
G02 X28.192327 Y10.581192 Z-0.125000 I15.863006 J0.673630
G02 X28.224206 Y10.809554 Z-0.125000 I0.949251 J-0.016109
G01 X28.289862 Y10.837597 Z-0.125000
G02 X28.387909 Y10.719437 Z-0.125000 I-0.101096 J-0.183647
G02 X28.546533 Y9.713397 Z-0.125000 I-3.009917 J-0.990104
G02 X28.382519 Y9.548675 Z-0.125000 I-0.165559 J0.000833
G03 X28.152895 Y9.307231 Z-0.125000 I0.003892 J-0.233615
G03 X28.405012 Y8.872248 Z-0.125000 I0.532082 J0.017840
G02 X28.456672 Y8.795144 Z-0.125000 I-0.058974 J-0.095371
G02 X28.495120 Y8.326286 Z-0.125000 I-2.839588 J-0.468858
G02 X28.438987 Y7.892117 Z-0.125000 I-1.707140 J-0.000000
G02 X28.366232 Y7.836021 Z-0.125000 I-0.072755 J0.019133
G02 X28.292823 Y7.891032 Z-0.125000 I0.000000 J0.076485
G02 X28.241032 Y8.264031 Z-0.125000 I1.237057 J0.361860
G01 X28.240725 Y8.264031 Z-0.125000
G00 Z5.000000

(End cutting path id: path4900)


(Start cutting path id: path4900)
(Change tool to Cylindrical cutter)

G00 Z5.000000
G00 X29.262685 Y8.013053

G01 Z-0.125000 F800.0(Penetrate)
G02 X28.603706 Y10.409385 Z-0.125000 I3.756942 J2.321914 F1000.000000
G02 X29.324893 Y11.677376 Z-0.125000 I1.520331 J-0.025621
G03 X29.418637 Y11.916722 Z-0.125000 I-0.112551 J0.182114
G03 X29.215667 Y12.071048 Z-0.125000 I-0.202969 J-0.056310
G02 X29.069901 Y12.105444 Z-0.125000 I-0.000000 J0.326068
G02 X29.035460 Y12.161158 Z-0.125000 I0.027844 J0.055715
G02 X29.066860 Y12.219841 Z-0.125000 I0.070536 J0.000000
G02 X29.170619 Y12.251266 Z-0.125000 I0.103759 J-0.155584
G03 X29.332551 Y12.452569 Z-0.125000 I0.000000 J0.165782
G03 X29.035107 Y12.869051 Z-0.125000 I-0.635490 J-0.139401
G02 X28.893733 Y13.045927 Z-0.125000 I0.171514 J0.282026
G02 X28.929567 Y13.183105 Z-0.125000 I0.122670 J0.041225
G02 X29.106694 Y13.301401 Z-0.125000 I0.488778 J-0.540103
G02 X29.245295 Y13.332547 Z-0.125000 I0.138600 J-0.292810
G03 X29.344327 Y13.384129 Z-0.125000 I-0.000000 J0.120856
G03 X29.395886 Y13.547787 Z-0.125000 I-0.233959 J0.163658
G03 X29.323477 Y13.704449 Z-0.125000 I-0.205679 J0.000000
G03 X29.057984 Y13.835224 Z-0.125000 I-0.391853 J-0.460635
G01 X28.720085 Y13.907451 Z-0.125000
G01 X29.079636 Y13.957926 Z-0.125000
G03 X29.390688 Y14.059308 Z-0.125000 I-0.130137 J0.927142
G03 X29.469202 Y14.166073 Z-0.125000 I-0.072386 J0.135483
G03 X29.443378 Y14.277553 Z-0.125000 I-0.139257 J0.026473
G03 X29.351004 Y14.323762 Z-0.125000 I-0.092374 J-0.069225
G01 X29.304595 Y14.365918 Z-0.125000
G02 X29.337994 Y14.458919 Z-0.125000 I0.115277 J0.011099
G02 X29.479256 Y14.579381 Z-0.125000 I0.825414 J-0.824881
G02 X29.524650 Y14.594083 Z-0.125000 I0.045394 J-0.062724
G01 X29.555147 Y14.573066 Z-0.125000
G02 X29.576155 Y14.458919 Z-0.125000 I-0.299610 J-0.114148
G03 X29.661429 Y14.363348 Z-0.125000 I0.096192 J0.000000
G03 X29.942502 Y14.417076 Z-0.125000 I0.054493 J0.476987
G03 X30.045462 Y14.776414 Z-0.125000 I-0.122891 J0.229631
G03 X29.582076 Y15.044657 Z-0.125000 I-0.463386 J-0.266126
G02 X29.466404 Y15.115102 Z-0.125000 I0.000000 J0.130191
G02 X29.395939 Y15.405077 Z-0.125000 I0.561420 J0.289975
G02 X29.413778 Y15.747634 Z-0.125000 I3.297982 J0.000000
G01 X29.433613 Y15.765506 Z-0.125000
G03 X29.470311 Y15.770948 Z-0.125000 I-0.000000 J0.126457
G03 X29.613829 Y15.820217 Z-0.125000 I-0.607358 J2.002841
G02 X29.698510 Y15.790336 Z-0.125000 I0.024793 J-0.064667
G02 X29.757737 Y15.572421 Z-0.125000 I-0.378596 J-0.219904
G03 X29.900100 Y15.170406 Z-0.125000 I0.647473 J0.003071
G03 X30.168777 Y15.059973 Z-0.125000 I0.234251 J0.187863
G03 X30.545852 Y15.301155 Z-0.125000 I-0.058572 J0.506934
G03 X30.622232 Y15.803372 Z-0.125000 I-0.561038 J0.342242
G03 X30.495559 Y15.963725 Z-0.125000 I-0.241623 J-0.060663
G03 X30.205248 Y16.020237 Z-0.125000 I-0.240770 J-0.462933
G02 X29.956247 Y16.035606 Z-0.125000 I-0.075810 J0.796534
G01 X29.943631 Y16.078682 Z-0.125000
G02 X30.049921 Y16.137404 Z-0.125000 I0.155382 J-0.155693
G02 X30.346735 Y16.170949 Z-0.125000 I0.296813 J-1.296373
G02 X30.597411 Y16.110966 Z-0.125000 I-0.000000 J-0.553793
G02 X30.657402 Y16.013255 Z-0.125000 I-0.049612 J-0.097732
G03 X30.692988 Y15.891116 Z-0.125000 I0.227499 J0.000030
G03 X30.757760 Y15.855566 Z-0.125000 I0.064773 J0.041233
G01 X30.806624 Y15.811233 Z-0.125000
G02 X30.797272 Y15.450091 Z-0.125000 I-1.464779 J-0.142757
G03 X30.947901 Y15.240153 Z-0.125000 I0.183304 J-0.027487
G03 X31.300446 Y15.359981 Z-0.125000 I0.067854 J0.378891
G02 X31.603262 Y15.639533 Z-0.125000 I1.753511 J-1.595650
G02 X31.708110 Y15.675356 Z-0.125000 I0.104848 J-0.135529
G03 X31.787673 Y15.716472 Z-0.125000 I0.000000 J0.097538
G03 X31.828794 Y15.845547 Z-0.125000 I-0.182017 J0.129075
G03 X31.767871 Y15.965178 Z-0.125000 I-0.147918 J-0.000000
G03 X31.513419 Y16.074898 Z-0.125000 I-0.370683 J-0.509742
G02 X31.250297 Y16.177419 Z-0.125000 I0.140863 J0.750436
G02 X31.198044 Y16.271578 Z-0.125000 I0.058710 J0.094159
G01 X31.239101 Y16.309915 Z-0.125000
G02 X31.345632 Y16.261446 Z-0.125000 I-0.011416 J-0.166400
G03 X31.512934 Y16.166771 Z-0.125000 I0.254455 J0.254492
G03 X31.837387 Y16.138711 Z-0.125000 I0.250096 J1.001984
G02 X32.170974 Y16.134658 Z-0.125000 I0.142822 J-1.975041
G02 X32.245453 Y16.099691 Z-0.125000 I-0.011802 J-0.121939
G03 X32.430942 Y16.082092 Z-0.125000 I0.103390 J0.103391
G03 X32.549651 Y16.306103 Z-0.125000 I-0.152006 J0.224011
G03 X32.484111 Y16.510872 Z-0.125000 I-0.352655 J-0.000000
G03 X32.356846 Y16.576423 Z-0.125000 I-0.127265 J-0.090766
G02 X32.062802 Y16.711920 Z-0.125000 I0.000000 J0.386804
G02 X31.921769 Y17.085493 Z-0.125000 I0.447268 J0.382263
G03 X31.878823 Y17.266548 Z-0.125000 I-0.426970 J-0.005656
G03 X31.593491 Y17.761288 Z-0.125000 I-3.641096 J-1.770282
G02 X31.284602 Y18.252006 Z-0.125000 I7.531896 J5.083631
G02 X31.186402 Y18.456238 Z-0.125000 I1.197968 J0.701736
G03 X31.070935 Y18.603260 Z-0.125000 I-0.296047 J-0.113654
G03 X30.940968 Y18.626237 Z-0.125000 I-0.089978 J-0.129888
G02 X30.846956 Y18.658051 Z-0.125000 I-0.022807 J0.087415
G02 X30.815989 Y18.786269 Z-0.125000 I0.125799 J0.098232
G03 X30.756319 Y19.228171 Z-0.125000 I-0.689717 J0.131848
G03 X30.528858 Y19.369746 Z-0.125000 I-0.227461 J-0.111936
G02 X30.437747 Y19.415699 Z-0.125000 I-0.000000 J0.113300
G02 X30.262438 Y19.730169 Z-0.125000 I1.134257 J0.838420
G03 X29.988593 Y20.004393 Z-0.125000 I-0.457558 J-0.183080
G03 X29.717715 Y19.949007 Z-0.125000 I-0.093508 J-0.232764
G02 X29.617592 Y19.907534 Z-0.125000 I-0.100123 J0.100121
G01 X29.576119 Y19.949007 Z-0.125000
G03 X29.444417 Y20.056358 Z-0.125000 I-0.109602 J0.000000
G03 X28.809005 Y19.791087 Z-0.125000 I0.362946 J-1.763020
G02 X28.352244 Y19.506144 Z-0.125000 I-4.943768 J7.416245
G02 X28.182203 Y19.425891 Z-0.125000 I-0.547264 J0.939286
G01 X28.164081 Y19.455490 Z-0.125000
G02 X28.639242 Y19.846860 Z-0.125000 I3.769721 J-4.092675
G02 X29.205460 Y20.178751 Z-0.125000 I1.880792 J-2.559750
G02 X29.427684 Y20.205299 Z-0.125000 I0.152868 J-0.336261
G03 X29.588208 Y20.254030 Z-0.125000 I0.033871 J0.177180
G03 X29.666227 Y20.440525 Z-0.125000 I-0.183888 J0.186495
G02 X29.707687 Y20.679859 Z-0.125000 I0.711515 J-0.000000
G02 X29.766562 Y20.721348 Z-0.125000 I0.058875 J-0.021029
G03 X29.818669 Y20.763019 Z-0.125000 I0.000000 J0.053414
G03 X29.827347 Y20.990980 Z-0.125000 I-0.609452 J0.137347
G01 X29.879958 Y21.012574 Z-0.125000
G02 X30.197939 Y20.486014 Z-0.125000 I-2.762559 J-2.027554
G03 X30.576156 Y19.793625 Z-0.125000 I7.619740 J3.712782
G03 X31.411819 Y18.490559 Z-0.125000 I27.876614 J16.957930
G02 X32.265434 Y17.201641 Z-0.125000 I-71.125808 J-48.031803
G02 X32.279356 Y17.154640 Z-0.125000 I-0.072377 J-0.047001
G03 X32.293999 Y17.108304 Z-0.125000 I0.080635 J-0.000000
G03 X32.690105 Y16.569582 Z-0.125000 I12.531004 J8.798696
G02 X33.030990 Y16.070178 Z-0.125000 I-4.212629 J-3.241515
G01 X33.011553 Y16.035784 Z-0.125000
G03 X32.945184 Y16.004427 Z-0.125000 I0.000000 J-0.085915
G03 X32.866085 Y15.858825 Z-0.125000 I0.338225 J-0.278031
G02 X32.768729 Y15.751707 Z-0.125000 I-0.165332 J0.052462
G02 X32.565459 Y15.730770 Z-0.125000 I-0.135470 J0.318030
G03 X32.335379 Y15.711269 Z-0.125000 I-0.081415 J-0.406480
G03 X31.872166 Y15.464482 Z-0.125000 I0.768685 J-2.000914
G02 X31.421786 Y15.151563 Z-0.125000 I-31.626305 J45.038689
G02 X30.792590 Y14.722353 Z-0.125000 I-60.110022 J87.442028
G03 X29.593142 Y13.601356 Z-0.125000 I2.951212 J-4.359939
G03 X29.571242 Y13.157217 Z-0.125000 I0.304513 J-0.237625
G02 X29.608291 Y13.025224 Z-0.125000 I-0.202306 J-0.127982
G02 X29.566500 Y12.863384 Z-0.125000 I-0.357469 J0.005990
G03 X29.518383 Y12.689679 Z-0.125000 I0.362534 J-0.193941
G03 X29.442585 Y10.347996 Z-0.125000 I69.321694 J-3.415947
G02 X29.386578 Y8.004469 Z-0.125000 I-139.807854 J2.168793
G02 X29.365186 Y7.955144 Z-0.125000 I-0.072997 J0.002357
G01 X29.328399 Y7.950137 Z-0.125000
G02 X29.263069 Y8.013093 Z-0.125000 I0.089555 J0.158305
G01 X29.262685 Y8.013053 Z-0.125000
G00 Z5.000000

(End cutting path id: path4900)


(Start cutting path id: path4900)
(Change tool to Cylindrical cutter)

G00 Z5.000000
G00 X29.264571 Y7.288764

G01 Z-0.125000 F800.0(Penetrate)
G02 X29.254204 Y7.362881 Z-0.125000 I0.078992 J0.048832 F1000.000000
G02 X29.304279 Y7.429251 Z-0.125000 I0.110443 J-0.031251
G01 X29.361302 Y7.423880 Z-0.125000
G02 X29.395858 Y7.345366 Z-0.125000 I-0.071919 J-0.078514
G02 X29.342469 Y7.264209 Z-0.125000 I-0.088379 J-0.000000
G02 X29.264548 Y7.288747 Z-0.125000 I-0.024748 J0.057401
G01 X29.264571 Y7.288764 Z-0.125000
G00 Z5.000000

(End cutting path id: path4900)


(Start cutting path id: path4900)
(Change tool to Cylindrical cutter)

G00 Z5.000000
G00 X30.052402 Y6.619457

G01 Z-0.125000 F800.0(Penetrate)
G02 X30.071962 Y6.821353 Z-0.125000 I1.077096 J-0.002453 F1000.000000
G01 X30.091296 Y6.820961 Z-0.125000
G02 X30.109632 Y6.572324 Z-0.125000 I-1.608668 J-0.243632
G02 X30.089884 Y6.370430 Z-0.125000 I-1.075752 J0.003309
G01 X30.070536 Y6.370826 Z-0.125000
G02 X30.052208 Y6.619457 Z-0.125000 I1.616284 J0.244135
G01 X30.052402 Y6.619457 Z-0.125000
G00 Z5.000000

(End cutting path id: path4900)


(Start cutting path id: path4900)
(Change tool to Cylindrical cutter)

G00 Z5.000000
G00 X30.145578 Y4.952593

G01 Z-0.125000 F800.0(Penetrate)
G02 X30.163668 Y5.245444 Z-0.125000 I2.379419 J0.000000 F1000.000000
G01 X30.181900 Y5.245444 Z-0.125000
G02 X30.199995 Y4.952584 Z-0.125000 I-2.360830 J-0.292860
G02 X30.181900 Y4.659740 Z-0.125000 I-2.378678 J-0.000000
G01 X30.163669 Y4.659740 Z-0.125000
G02 X30.145578 Y4.952593 Z-0.125000 I2.361244 J0.292853
G01 X30.145578 Y4.952593 Z-0.125000
G00 Z5.000000

(End cutting path id: path4900)


(Start cutting path id: path4900)
(Change tool to Cylindrical cutter)

G00 Z5.000000
G00 X29.273224 Y4.997664

G01 Z-0.125000 F800.0(Penetrate)
G02 X29.254320 Y5.132495 Z-0.125000 I0.282046 J0.108285 F1000.000000
G02 X29.302902 Y5.335572 Z-0.125000 I0.710809 J-0.062699
G01 X29.347759 Y5.339876 Z-0.125000
G02 X29.390137 Y5.200506 Z-0.125000 I-0.222708 J-0.143846
G02 X29.336403 Y4.992703 Z-0.125000 I-0.402329 J-0.006813
G01 X29.273195 Y4.997664 Z-0.125000
G01 X29.273224 Y4.997664 Z-0.125000
G00 Z5.000000

(End cutting path id: path4900)


(Start cutting path id: path4900)
(Change tool to Cylindrical cutter)

G00 Z5.000000
G00 X29.215664 Y4.076237

G01 Z-0.125000 F800.0(Penetrate)
G02 X29.253056 Y4.380498 Z-0.125000 I1.256599 J-0.000000 F1000.000000
G02 X29.311518 Y4.460558 Z-0.125000 I0.127687 J-0.031865
G01 X29.353243 Y4.440343 Z-0.125000
G02 X29.344660 Y4.173030 Z-0.125000 I-0.908144 J-0.104634
G02 X29.268600 Y4.049799 Z-0.125000 I-0.195047 J0.035298
G01 X29.215701 Y4.076237 Z-0.125000
G01 X29.215664 Y4.076237 Z-0.125000
G00 Z5.000000

(End cutting path id: path4900)


(Start cutting path id: path4900)
(Change tool to Cylindrical cutter)

G00 Z5.000000
G00 X30.233843 Y3.510881

G01 Z-0.125000 F800.0(Penetrate)
G02 X30.252502 Y3.758668 Z-0.125000 I1.654631 J-0.000000 F1000.000000
G01 X30.271384 Y3.758669 Z-0.125000
G02 X30.290083 Y3.510881 Z-0.125000 I-1.632428 J-0.247788
G02 X30.271384 Y3.263092 Z-0.125000 I-1.651127 J0.000000
G01 X30.252506 Y3.263093 Z-0.125000
G02 X30.233843 Y3.510881 Z-0.125000 I1.635610 J0.247788
G01 X30.233843 Y3.510881 Z-0.125000
G00 Z5.000000

(End cutting path id: path4900)


(Start cutting path id: path4900)
(Change tool to Cylindrical cutter)

G00 Z5.000000
G00 X30.321493 Y2.069211

G01 Z-0.125000 F800.0(Penetrate)
G02 X30.340829 Y2.271960 Z-0.125000 I1.072622 J-0.000000 F1000.000000
G01 X30.360527 Y2.271962 Z-0.125000
G02 X30.379874 Y2.069211 Z-0.125000 I-1.052703 J-0.202750
G02 X30.360527 Y1.866476 Z-0.125000 I-1.071892 J0.000000
G01 X30.340829 Y1.866477 Z-0.125000
G02 X30.321493 Y2.069211 Z-0.125000 I1.053144 J0.202733
G01 X30.321493 Y2.069211 Z-0.125000
G00 Z5.000000

(End cutting path id: path4900)


(Start cutting path id: path4900)
(Change tool to Cylindrical cutter)

G00 Z5.000000
G00 X28.379516 Y1.648584

G01 Z-0.125000 F800.0(Penetrate)
G02 X28.330368 Y1.816479 Z-0.125000 I0.904898 J0.356034 F1000.000000
G02 X28.317309 Y1.963950 Z-0.125000 I0.683989 J0.134883
G01 X28.351397 Y1.993989 Z-0.125000
G02 X28.413482 Y1.953818 Z-0.125000 I-0.008579 J-0.081320
G02 X28.475984 Y1.788172 Z-0.125000 I-0.462920 J-0.269286
G02 X28.475621 Y1.638443 Z-0.125000 I-0.374939 J-0.073957
G01 X28.433463 Y1.607485 Z-0.125000
G02 X28.379457 Y1.648575 Z-0.125000 I0.006853 J0.065043
G01 X28.379516 Y1.648584 Z-0.125000
G00 Z5.000000

(End cutting path id: path4900)


(Start cutting path id: path4900)
(Change tool to Cylindrical cutter)

G00 Z5.000000
G00 X28.411819 Y2.752530

G01 Z-0.125000 F800.0(Penetrate)
G02 X28.438164 Y2.812695 Z-0.125000 I0.089816 J-0.003477 F1000.000000
G01 X28.466237 Y2.806906 Z-0.125000
G02 X28.485507 Y2.694382 Z-0.125000 I-0.253395 J-0.101305
G02 X28.459097 Y2.634191 Z-0.125000 I-0.090260 J0.003714
G01 X28.431038 Y2.639952 Z-0.125000
G02 X28.411791 Y2.752462 Z-0.125000 I0.253335 J0.101238
G01 X28.411819 Y2.752530 Z-0.125000
G00 Z5.000000

(End cutting path id: path4900)


(Start cutting path id: path4900)
(Change tool to Cylindrical cutter)

G00 Z5.000000
G00 X28.242054 Y6.709299

G01 Z-0.125000 F800.0(Penetrate)
G02 X28.264657 Y6.821659 Z-0.125000 I0.311119 J-0.004134 F1000.000000
G01 X28.286916 Y6.820224 Z-0.125000
G02 X28.306153 Y6.662280 Z-0.125000 I-0.578099 J-0.150554
G02 X28.283501 Y6.549903 Z-0.125000 I-0.309045 J0.003823
G01 X28.261223 Y6.551344 Z-0.125000
G02 X28.241958 Y6.709299 Z-0.125000 I0.577801 J0.150624
G01 X28.242054 Y6.709299 Z-0.125000
G00 Z5.000000

(End cutting path id: path4900)


(Start cutting path id: path4900)
(Change tool to Cylindrical cutter)

G00 Z5.000000
G00 X25.887694 Y8.714559

G01 Z-0.125000 F800.0(Penetrate)
G02 X25.987590 Y9.055705 Z-0.125000 I0.726277 J-0.027473 F1000.000000
G02 X26.782779 Y10.235638 Z-0.125000 I10.041625 J-5.909407
G03 X27.173605 Y10.773784 Z-0.125000 I-10.157713 J7.787977
G03 X27.314610 Y11.009463 Z-0.125000 I-1.798177 J1.235856
G02 X27.460423 Y11.239745 Z-0.125000 I1.374228 J-0.708847
G02 X27.657256 Y11.457646 Z-0.125000 I1.425353 J-1.089690
G02 X27.861402 Y11.567221 Z-0.125000 I0.306733 J-0.326509
G02 X27.956541 Y11.528046 Z-0.125000 I0.020228 J-0.085988
G02 X27.971762 Y11.423702 Z-0.125000 I-0.111247 J-0.069510
G02 X27.912226 Y11.367163 Z-0.125000 I-0.076670 J0.021118
G03 X27.811077 Y11.303717 Z-0.125000 I0.038190 J-0.173237
G03 X27.519382 Y10.868595 Z-0.125000 I2.682174 J-2.113399
G02 X27.234269 Y10.414476 Z-0.125000 I-4.988715 J2.815538
G02 X27.108429 Y10.277421 Z-0.125000 I-0.566283 J0.393645
G03 X26.986063 Y10.145892 Z-0.125000 I0.447866 J-0.539350
G03 X26.963003 Y10.074006 Z-0.125000 I0.100513 J-0.071885
G02 X26.921281 Y9.936029 Z-0.125000 I-0.249010 J-0.000000
G02 X26.348145 Y9.150296 Z-0.125000 I-9.434933 J6.280207
G03 X26.190868 Y8.876660 Z-0.125000 I0.817997 J-0.652177
G03 X26.182024 Y8.722278 Z-0.125000 I0.234077 J-0.090854
G02 X26.158676 Y8.608382 Z-0.125000 I-0.127266 J-0.033253
G02 X26.053500 Y8.556870 Z-0.125000 I-0.105177 J0.081619
G02 X25.932089 Y8.605401 Z-0.125000 I-0.000000 J0.176133
G02 X25.887711 Y8.714559 Z-0.125000 I0.098689 J0.103723
G01 X25.887694 Y8.714559 Z-0.125000
G00 Z5.000000

(End cutting path id: path4900)


(Start cutting path id: path4900)
(Change tool to Cylindrical cutter)

G00 Z5.000000
G00 X24.824659 Y8.709310

G01 Z-0.125000 F800.0(Penetrate)
G02 X24.982624 Y8.728554 Z-0.125000 I0.150613 J-0.578363 F1000.000000
G02 X25.094985 Y8.705979 Z-0.125000 I-0.003812 J-0.309899
G01 X25.093540 Y8.683713 Z-0.125000
G02 X24.935578 Y8.664470 Z-0.125000 I-0.150622 J0.578475
G02 X24.823208 Y8.687018 Z-0.125000 I0.003517 J0.308808
G01 X24.824659 Y8.709301 Z-0.125000
G01 X24.824659 Y8.709310 Z-0.125000
G00 Z5.000000

(End cutting path id: path4900)


(Start cutting path id: path4900)
(Change tool to Cylindrical cutter)

G00 Z5.000000
G00 X23.483684 Y8.801952

G01 Z-0.125000 F800.0(Penetrate)
G02 X23.559124 Y8.838029 Z-0.125000 I0.088862 J-0.088903 F1000.000000
G02 X23.847918 Y8.841057 Z-0.125000 I0.160036 J-1.490191
G03 X24.116596 Y8.885993 Z-0.125000 I0.046929 J0.545092
G03 X24.338678 Y9.058625 Z-0.125000 I-0.236482 J0.533387
G03 X24.502946 Y9.311374 Z-0.125000 I-1.315238 J1.034563
G03 X24.530103 Y9.420891 Z-0.125000 I-0.207249 J0.109517
G02 X24.559908 Y9.528089 Z-0.125000 I0.207678 J-0.000000
G02 X24.732844 Y9.757328 Z-0.125000 I1.185350 J-0.714370
G03 X24.922053 Y9.985708 Z-0.125000 I-1.860451 J1.733912
G03 X25.566328 Y10.892056 Z-0.125000 I-28.807490 J21.159894
G02 X26.214944 Y11.793956 Z-0.125000 I21.748751 J-14.956791
G02 X26.399467 Y12.000551 Z-0.125000 I1.311723 J-0.985881
G02 X26.497749 Y11.959224 Z-0.125000 I0.040024 J-0.042345
G02 X26.404858 Y11.690333 Z-0.125000 I-0.414659 J-0.007243
G03 X26.107322 Y11.294306 Z-0.125000 I5.036380 J-4.093623
G03 X25.852913 Y10.894124 Z-0.125000 I4.887221 J-3.387936
G02 X25.592726 Y10.500170 Z-0.125000 I-3.564091 J2.071006
G02 X25.387418 Y10.270190 Z-0.125000 I-1.409056 J1.051261
G03 X25.187377 Y10.045692 Z-0.125000 I1.161394 J-1.236247
G03 X25.160721 Y9.965134 Z-0.125000 I0.108402 J-0.080559
G02 X25.009319 Y9.461186 Z-0.125000 I-0.914408 J0.000000
G02 X24.597553 Y9.112473 Z-0.125000 I-0.802298 J0.529899
G03 X24.555311 Y9.065953 Z-0.125000 I0.031548 J-0.071085
G03 X24.529991 Y8.909738 Z-0.125000 I0.469236 J-0.156215
G02 X24.456747 Y8.810273 Z-0.125000 I-0.104159 J0.000000
G02 X23.974332 Y8.737032 Z-0.125000 I-0.482415 J1.552147
G02 X23.494885 Y8.768612 Z-0.125000 I-0.000000 J3.655359
G01 X23.483580 Y8.801952 Z-0.125000
G01 X23.483684 Y8.801952 Z-0.125000
G00 Z5.000000

(End cutting path id: path4900)


(Start cutting path id: path4900)
(Change tool to Cylindrical cutter)

G00 Z5.000000
G00 X22.299952 Y8.889266

G01 Z-0.125000 F800.0(Penetrate)
G02 X22.457640 Y8.909528 Z-0.125000 I0.157688 J-0.603453 F1000.000000
G02 X22.615327 Y8.889266 Z-0.125000 I0.000000 J-0.623712
G01 X22.615325 Y8.868334 Z-0.125000
G02 X22.457636 Y8.848087 Z-0.125000 I-0.157689 J0.603921
G02 X22.299954 Y8.868331 Z-0.125000 I-0.000000 J0.624198
G01 X22.299952 Y8.889266 Z-0.125000
G01 X22.299952 Y8.889266 Z-0.125000
G00 Z5.000000

(End cutting path id: path4900)


(Start cutting path id: path4900)
(Change tool to Cylindrical cutter)

G00 Z5.000000
G00 X21.174661 Y8.980994

G01 Z-0.125000 F800.0(Penetrate)
G02 X21.377793 Y8.999823 Z-0.125000 I0.198190 J-1.032955 F1000.000000
G02 X21.535094 Y8.979300 Z-0.125000 I-0.002988 J-0.635985
G01 X21.534419 Y8.958951 Z-0.125000
G02 X21.331302 Y8.940114 Z-0.125000 I-0.197855 J1.028921
G02 X21.174018 Y8.960865 Z-0.125000 I0.005539 J0.648436
G01 X21.174661 Y8.981126 Z-0.125000
G01 X21.174661 Y8.980994 Z-0.125000
G00 Z5.000000

(End cutting path id: path4900)


(Start cutting path id: path4900)
(Change tool to Cylindrical cutter)

G00 Z5.000000
G00 X21.060978 Y9.554187

G01 Z-0.125000 F800.0(Penetrate)
G02 X20.743237 Y9.599966 Z-0.125000 I0.123633 J1.983663 F1000.000000
G01 X20.745602 Y9.625998 Z-0.125000
G02 X23.398708 Y9.703816 Z-0.125000 I4.192169 J-97.660826
G01 X23.403761 Y9.667841 Z-0.125000
G03 X23.230401 Y9.605896 Z-0.125000 I0.300666 J-1.115006
G03 X23.131940 Y9.545345 Z-0.125000 I0.185292 J-0.411631
G02 X22.975546 Y9.490443 Z-0.125000 I-0.155344 J0.192309
G02 X21.060978 Y9.554150 Z-0.125000 I0.140181 J33.013384
G01 X21.060978 Y9.554187 Z-0.125000
G00 Z5.000000

(End cutting path id: path4900)


(Start cutting path id: path4900)
(Change tool to Cylindrical cutter)

G00 Z5.000000
G00 X20.002219 Y9.067023

G01 Z-0.125000 F800.0(Penetrate)
G02 X20.114849 Y9.088877 Z-0.125000 I0.112630 J-0.279317 F1000.000000
G02 X20.227486 Y9.067023 Z-0.125000 I-0.000000 J-0.301207
G01 X20.227496 Y9.043431 Z-0.125000
G02 X20.114853 Y9.021529 Z-0.125000 I-0.112643 J0.278712
G02 X20.002209 Y9.043432 Z-0.125000 I0.000000 J0.300603
G01 X20.002219 Y9.067023 Z-0.125000
G01 X20.002219 Y9.067023 Z-0.125000
G00 Z5.000000

(End cutting path id: path4900)


(Start cutting path id: path4900)
(Change tool to Cylindrical cutter)

G00 Z5.000000
G00 X19.664319 Y9.752603

G01 Z-0.125000 F800.0(Penetrate)
G03 X19.627729 Y9.842787 Z-0.125000 I-0.129435 J-0.000000 F1000.000000
G03 X19.467405 Y9.955346 Z-0.125000 I-0.376268 J-0.365482
G02 X19.326894 Y10.147229 Z-0.125000 I0.099483 J0.220238
G02 X19.424169 Y10.321290 Z-0.125000 I0.168701 J0.019931
G02 X19.592717 Y10.304472 Z-0.125000 I0.070031 J-0.151159
G02 X19.823513 Y10.028436 Z-0.125000 I-0.444536 J-0.606182
G02 X19.904704 Y9.707029 Z-0.125000 I-0.723623 J-0.353754
G02 X19.839170 Y9.638809 Z-0.125000 I-0.065534 J-0.002634
G02 X19.704326 Y9.678830 Z-0.125000 I-0.000000 J0.247176
G02 X19.664322 Y9.752603 Z-0.125000 I0.048022 J0.073774
G01 X19.664319 Y9.752603 Z-0.125000
G00 Z5.000000

(End cutting path id: path4900)


(Start cutting path id: path4900)
(Change tool to Cylindrical cutter)

G00 Z5.000000
G00 X19.130792 Y10.502262

G01 Z-0.125000 F800.0(Penetrate)
G02 X19.157139 Y10.562430 Z-0.125000 I0.089823 J-0.003480 F1000.000000
G01 X19.185211 Y10.556640 Z-0.125000
G02 X19.204482 Y10.444123 Z-0.125000 I-0.253451 J-0.101316
G02 X19.178071 Y10.383943 Z-0.125000 I-0.090212 J0.003705
G01 X19.150028 Y10.389696 Z-0.125000
G02 X19.130766 Y10.502205 Z-0.125000 I0.253181 J0.101248
G01 X19.130792 Y10.502262 Z-0.125000
G00 Z5.000000

(End cutting path id: path4900)


(Start cutting path id: path4900)
(Change tool to Cylindrical cutter)

G00 Z5.000000
G00 X19.033568 Y11.055115

G01 Z-0.125000 F800.0(Penetrate)
G03 X19.007161 Y11.233592 Z-0.125000 I-0.616343 J-0.000000 F1000.000000
G03 X18.899528 Y11.498134 Z-0.125000 I-1.477655 J-0.447044
G02 X18.903142 Y11.725159 Z-0.125000 I0.212123 J0.110165
G02 X19.037127 Y11.743664 Z-0.125000 I0.073998 J-0.041473
G02 X19.236336 Y11.308686 Z-0.125000 I-0.485433 J-0.485422
G02 X19.096826 Y10.933435 Z-0.125000 I-0.479415 J-0.035323
G01 X19.062030 Y10.938793 Z-0.125000
G02 X19.033598 Y11.055115 Z-0.125000 I0.223736 J0.116322
G01 X19.033568 Y11.055115 Z-0.125000
G00 Z5.000000

(End cutting path id: path4900)


(Start cutting path id: path4900)
(Change tool to Cylindrical cutter)

G00 Z5.000000
G00 X18.504474 Y12.152909

G01 Z-0.125000 F800.0(Penetrate)
G02 X18.420849 Y12.245476 Z-0.125000 I0.124614 J0.196633 F1000.000000
G02 X18.414664 Y12.332639 Z-0.125000 I0.102151 J0.051050
G01 X18.458462 Y12.349938 Z-0.125000
G02 X18.561567 Y12.252940 Z-0.125000 I-0.132411 J-0.244044
G02 X18.563250 Y12.167525 Z-0.125000 I-0.070639 J-0.044116
G01 X18.504441 Y12.152903 Z-0.125000
G01 X18.504474 Y12.152909 Z-0.125000
G00 Z5.000000

(End cutting path id: path4900)


(Start cutting path id: path4900)
(Change tool to Cylindrical cutter)

G00 Z5.000000
G00 X18.138830 Y12.893920

G01 Z-0.125000 F800.0(Penetrate)
G03 X18.102193 Y13.025551 Z-0.125000 I-0.300288 J-0.012666 F1000.000000
G03 X17.997342 Y13.152740 Z-0.125000 I-0.385518 J-0.210995
G02 X17.913404 Y13.288185 Z-0.125000 I0.160127 J0.192965
G02 X17.872633 Y13.681893 Z-0.125000 I1.505933 J0.354914
G01 X17.917231 Y13.694624 Z-0.125000
G02 X17.994293 Y13.496685 Z-0.125000 I-0.425986 J-0.279815
G03 X18.087441 Y13.201228 Z-0.125000 I1.063857 J0.172987
G03 X18.168200 Y13.136253 Z-0.125000 I0.108734 J0.052473
G02 X18.227803 Y13.076358 Z-0.125000 I-0.018497 J-0.078009
G02 X18.216650 Y12.927476 Z-0.125000 I-0.243958 J-0.056585
G02 X18.166959 Y12.876297 Z-0.125000 I-0.086543 J0.034314
G01 X18.138844 Y12.893937 Z-0.125000
G01 X18.138830 Y12.893920 Z-0.125000
G00 Z5.000000

(End cutting path id: path4900)


(Start cutting path id: path4900)
(Change tool to Cylindrical cutter)

G00 Z5.000000
G00 X17.862177 Y14.599443

G01 Z-0.125000 F800.0(Penetrate)
G01 X17.890831 Y14.643406 Z-0.125000 F1000.000000
G02 X17.952285 Y14.639126 Z-0.125000 I0.026667 J-0.060435
G02 X18.029446 Y14.576246 Z-0.125000 I-0.202060 J-0.326735
G01 X18.042393 Y14.543695 Z-0.125000
G01 X18.026669 Y14.519621 Z-0.125000
G02 X17.952285 Y14.504012 Z-0.125000 I-0.074384 J0.169438
G02 X17.889339 Y14.531137 Z-0.125000 I-0.000000 J0.086599
G02 X17.862177 Y14.599434 Z-0.125000 I0.072284 J0.068297
G01 X17.862177 Y14.599443 Z-0.125000
G00 Z5.000000

(End cutting path id: path4900)


(Start cutting path id: path4900)
(Change tool to Cylindrical cutter)

G00 Z5.000000
G00 X17.425142 Y16.040673

G01 Z-0.125000 F800.0(Penetrate)
G03 X17.380302 Y16.259712 Z-0.125000 I-0.782713 J-0.046123 F1000.000000
G03 X17.279351 Y16.446158 Z-0.125000 I-0.662052 J-0.237916
G02 X17.174333 Y16.629744 Z-0.125000 I0.661188 J0.500054
G02 X17.151301 Y16.756227 Z-0.125000 I0.282928 J0.116858
G01 X17.173911 Y16.778085 Z-0.125000
G01 X17.205239 Y16.756227 Z-0.125000
G03 X17.267986 Y16.628831 Z-0.125000 I0.632989 J0.232619
G03 X17.385089 Y16.471346 Z-0.125000 I1.089377 J0.687765
G02 X17.467972 Y16.307860 Z-0.125000 I-0.283507 J-0.246482
G02 X17.476946 Y16.065861 Z-0.125000 I-0.639590 J-0.144882
G02 X17.448410 Y16.026990 Z-0.125000 I-0.051189 J0.007669
G01 X17.425108 Y16.040630 Z-0.125000
G01 X17.425142 Y16.040673 Z-0.125000
G00 Z5.000000

(End cutting path id: path4900)


(Start cutting path id: path4900)
(Change tool to Cylindrical cutter)

G00 Z5.000000
G00 X16.959300 Y17.254561

G01 Z-0.125000 F800.0(Penetrate)
G02 X16.876329 Y17.390468 Z-0.125000 I0.425595 J0.353103 F1000.000000
G01 X16.884100 Y17.430673 Z-0.125000
G01 X16.918546 Y17.431359 Z-0.125000
G02 X17.032867 Y17.293333 Z-0.125000 I-0.456020 J-0.494057
G01 X17.019178 Y17.242641 Z-0.125000
G01 X16.959303 Y17.254561 Z-0.125000
G01 X16.959300 Y17.254561 Z-0.125000
G00 Z5.000000

(End cutting path id: path4900)


(Start cutting path id: path4900)
(Change tool to Cylindrical cutter)

G00 Z5.000000
G00 X18.639843 Y17.851391

G01 Z-0.125000 F800.0(Penetrate)
G03 X18.462774 Y17.908183 Z-0.125000 I-0.218135 J-0.375675 F1000.000000
G03 X18.076676 Y17.904773 Z-0.125000 I-0.176634 J-1.860135
G02 X17.750077 Y17.936480 Z-0.125000 I-0.088640 J0.784869
G02 X17.681967 Y18.029428 Z-0.125000 I0.029366 J0.092947
G03 X17.526681 Y18.217908 Z-0.125000 I-0.192029 J0.000000
G03 X17.276484 Y18.108461 Z-0.125000 I-0.045942 J-0.235675
G02 X17.207274 Y18.042966 Z-0.125000 I-0.158023 J0.097670
G02 X17.113480 Y18.019739 Z-0.125000 I-0.091318 J0.167769
G01 X17.094340 Y18.046145 Z-0.125000
G02 X17.141333 Y18.107273 Z-0.125000 I0.107804 J-0.034249
G03 X17.192931 Y18.332785 Z-0.125000 I-0.088563 J0.138922
G03 X16.871253 Y18.544455 Z-0.125000 I-0.388351 J-0.239918
G03 X16.755578 Y18.485508 Z-0.125000 I-0.016404 J-0.110781
G03 X16.717431 Y18.249586 Z-0.125000 I0.335810 J-0.175342
G02 X16.632095 Y18.199871 Z-0.125000 I-0.052214 J-0.008473
G02 X16.353462 Y18.541898 Z-0.125000 I0.660911 J0.822920
G01 X16.083883 Y19.068618 Z-0.125000
G01 X16.635137 Y18.866962 Z-0.125000
G02 X17.180883 Y18.652895 Z-0.125000 I-4.358826 J-11.915188
G02 X17.456708 Y18.522597 Z-0.125000 I-1.328072 J-3.168458
G03 X17.734809 Y18.411155 Z-0.125000 I0.670745 J1.271115
G03 X17.961380 Y18.379338 Z-0.125000 I0.228512 J0.804624
G02 X18.587833 Y18.255843 Z-0.125000 I-0.002640 J-1.664049
G02 X18.855271 Y18.014797 Z-0.125000 I-0.200755 J-0.491619
G02 X18.821997 Y17.862568 Z-0.125000 I-0.105801 J-0.056625
G02 X18.639858 Y17.851382 Z-0.125000 I-0.099466 J0.131116
G01 X18.639843 Y17.851391 Z-0.125000
G00 Z5.000000

(End cutting path id: path4900)


(Start cutting path id: path4900)
(Change tool to Cylindrical cutter)

G00 Z5.000000
G00 X19.348944 Y18.574641

G01 Z-0.125000 F800.0(Penetrate)
G03 X19.220398 Y18.731902 Z-0.125000 I-0.339345 J-0.146214 F1000.000000
G03 X19.006368 Y18.812625 Z-0.125000 I-0.267460 J-0.385045
G02 X18.725594 Y18.988324 Z-0.125000 I0.043836 J0.382244
G02 X18.583035 Y19.477930 Z-0.125000 I0.769470 J0.489606
G03 X18.542642 Y19.644815 Z-0.125000 I-0.364941 J-0.000000
G03 X18.425351 Y19.784570 Z-0.125000 I-0.366395 J-0.188402
G02 X18.384940 Y19.865981 Z-0.125000 I0.061799 J0.081411
G01 X18.425351 Y19.907134 Z-0.125000
G03 X18.609156 Y20.063768 Z-0.125000 I-0.003798 J0.190618
G03 X18.498616 Y20.311970 Z-0.125000 I-0.237372 J0.043000
G02 X18.411107 Y20.407534 Z-0.125000 I0.125016 J0.202328
G02 X17.772594 Y21.757194 Z-0.125000 I28.218929 J14.176014
G03 X17.551347 Y22.194207 Z-0.125000 I-4.442377 J-1.974531
G03 X17.412243 Y22.387943 Z-0.125000 I-1.000694 J-0.571700
G02 X17.273468 Y22.580107 Z-0.125000 I0.879869 J0.781606
G02 X17.190655 Y22.770896 Z-0.125000 I0.783986 J0.453656
G03 X17.093040 Y22.924939 Z-0.125000 I-0.326756 J-0.099112
G03 X16.966643 Y22.973648 Z-0.125000 I-0.126398 J-0.139644
G02 X16.861419 Y23.039063 Z-0.125000 I-0.000000 J0.117336
G02 X16.744343 Y23.424170 Z-0.125000 I1.110496 J0.547950
G03 X16.650164 Y23.835427 Z-0.125000 I-2.245751 J-0.297875
G03 X16.595855 Y23.874710 Z-0.125000 I-0.054308 J-0.017899
G01 X16.553577 Y23.910943 Z-0.125000
G02 X16.561975 Y24.093302 Z-0.125000 I0.454687 J0.070434
G03 X16.560744 Y24.305715 Z-0.125000 I-0.413607 J0.103814
G03 X16.380450 Y24.782540 Z-0.125000 I-2.374386 J-0.625290
G02 X16.173756 Y25.255322 Z-0.125000 I4.327328 J2.173430
G02 X16.172227 Y25.337685 Z-0.125000 I0.115546 J0.043340
G01 X16.205288 Y25.340770 Z-0.125000
G02 X16.618960 Y24.535813 Z-0.125000 I-11.793895 J-6.569706
G02 X17.084282 Y23.536513 Z-0.125000 I-92.487101 J-43.674435
G02 X17.956696 Y21.622038 Z-0.125000 I-338.636021 J-155.470267
G03 X18.274638 Y20.952508 Z-0.125000 I18.164540 J8.215605
G03 X18.495027 Y20.540757 Z-0.125000 I7.084173 J3.526937
G02 X18.711755 Y20.127520 Z-0.125000 I-5.338843 J-3.063486
G02 X18.939123 Y19.609816 Z-0.125000 I-8.155975 J-3.890755
G03 X19.196139 Y19.130843 Z-0.125000 I2.297410 J0.924342
G03 X19.353612 Y19.007150 Z-0.125000 I0.276913 J0.190451
G02 X19.622517 Y18.818960 Z-0.125000 I-0.238246 J-0.626647
G01 X19.585770 Y18.738615 Z-0.125000
G03 X19.525192 Y18.705245 Z-0.125000 I0.000000 J-0.071670
G03 X19.467818 Y18.552112 Z-0.125000 I0.339008 J-0.214330
G01 X19.419575 Y18.518003 Z-0.125000
G02 X19.348915 Y18.574605 Z-0.125000 I0.017927 J0.094785
G01 X19.348944 Y18.574641 Z-0.125000
G00 Z5.000000

(End cutting path id: path4900)


(Start cutting path id: path4900)
(Change tool to Cylindrical cutter)

G00 Z5.000000
G00 X20.752718 Y19.511670

G01 Z-0.125000 F800.0(Penetrate)
G02 X20.779071 Y19.571904 Z-0.125000 I0.089981 J-0.003486 F1000.000000
G01 X20.807137 Y19.566130 Z-0.125000
G02 X20.826408 Y19.453609 Z-0.125000 I-0.253470 J-0.101320
G02 X20.799997 Y19.393433 Z-0.125000 I-0.090201 J0.003705
G01 X20.771938 Y19.399193 Z-0.125000
G02 X20.752701 Y19.511693 Z-0.125000 I0.253262 J0.101203
G01 X20.752718 Y19.511670 Z-0.125000
G00 Z5.000000

(End cutting path id: path4900)


(Start cutting path id: path4900)
(Change tool to Cylindrical cutter)

G00 Z5.000000
G00 X21.376353 Y18.378260

G01 Z-0.125000 F800.0(Penetrate)
G02 X21.310943 Y18.539861 Z-0.125000 I0.720324 J0.385597 F1000.000000
G01 X21.324988 Y18.558470 Z-0.125000
G01 X21.359912 Y18.541484 Z-0.125000
G02 X21.466491 Y18.378260 Z-0.125000 I-0.882727 J-0.692790
G02 X21.531901 Y18.216648 Z-0.125000 I-0.720344 J-0.385595
G01 X21.517855 Y18.198038 Z-0.125000
G01 X21.482942 Y18.215019 Z-0.125000
G02 X21.376353 Y18.378260 Z-0.125000 I0.882416 J0.692594
G01 X21.376353 Y18.378260 Z-0.125000
G00 Z5.000000

(End cutting path id: path4900)


(Start cutting path id: path4900)
(Change tool to Cylindrical cutter)

G00 Z5.000000
G00 X22.391362 Y20.008325

G01 Z-0.125000 F800.0(Penetrate)
G03 X22.293621 Y20.119934 Z-0.125000 I-0.160482 J-0.041938 F1000.000000
G03 X22.064710 Y20.141805 Z-0.125000 I-0.150749 J-0.368932
G02 X21.884659 Y20.135992 Z-0.125000 I-0.107467 J0.537326
G01 X21.874756 Y20.167205 Z-0.125000
G02 X21.973319 Y20.225383 Z-0.125000 I0.183831 J-0.198855
G02 X22.299952 Y20.308138 Z-0.125000 I0.735580 J-2.217355
G02 X22.546765 Y20.259464 Z-0.125000 I0.060786 J-0.341870
G02 X22.637853 Y20.093796 Z-0.125000 I-0.105113 J-0.165668
G02 X22.525885 Y19.936455 Z-0.125000 I-0.166534 J0.000000
G02 X22.391362 Y20.008311 Z-0.125000 I-0.034034 J0.098135
G01 X22.391362 Y20.008325 Z-0.125000
G00 Z5.000000

(End cutting path id: path4900)


(Start cutting path id: path4900)
(Change tool to Cylindrical cutter)

G00 Z5.000000
G00 X23.141724 Y20.766179

G01 Z-0.125000 F800.0(Penetrate)
G02 X23.060629 Y20.955513 Z-0.125000 I0.493785 J0.323531 F1000.000000
G01 X23.089140 Y20.991446 Z-0.125000
G02 X23.162527 Y20.960422 Z-0.125000 I-0.000000 J-0.102312
G02 X23.242331 Y20.833757 Z-0.125000 I-0.259182 J-0.251766
G03 X23.317428 Y20.689254 Z-0.125000 I0.608224 J0.224325
G03 X23.397188 Y20.609870 Z-0.125000 I0.254892 J0.176339
G01 X23.417820 Y20.566655 Z-0.125000
G01 X23.391792 Y20.542292 Z-0.125000
G02 X23.307135 Y20.574150 Z-0.125000 I-0.001255 J0.125075
G02 X23.141920 Y20.766179 Z-0.125000 I0.649370 J0.725783
G01 X23.141724 Y20.766179 Z-0.125000
G00 Z5.000000

(End cutting path id: path4900)


(Start cutting path id: path4900)
(Change tool to Cylindrical cutter)

G00 Z5.000000
G00 X23.629028 Y21.263136

G01 Z-0.125000 F800.0(Penetrate)
G03 X23.567866 Y21.395459 Z-0.125000 I-0.173721 J0.000000 F1000.000000
G03 X23.348600 Y21.501684 Z-0.125000 I-0.314450 J-0.369666
G02 X23.209044 Y21.579974 Z-0.125000 I0.050770 J0.254028
G01 X23.218910 Y21.642137 Z-0.125000
G02 X23.469606 Y21.644180 Z-0.125000 I0.127208 J-0.227296
G02 X23.747375 Y21.357621 Z-0.125000 I-0.313007 J-0.581308
G02 X23.805219 Y21.130364 Z-0.125000 I-0.495153 J-0.247023
G01 X23.757272 Y21.080673 Z-0.125000
G02 X23.672866 Y21.124514 Z-0.125000 I0.000000 J0.103174
G02 X23.629018 Y21.263136 Z-0.125000 I0.197199 J0.138622
G01 X23.629028 Y21.263136 Z-0.125000
G00 Z5.000000

(End cutting path id: path4900)


(Start cutting path id: path4900)
(Change tool to Cylindrical cutter)

G00 Z5.000000
G00 X23.906468 Y20.863266

G01 Z-0.125000 F800.0(Penetrate)
G02 X23.932815 Y20.923432 Z-0.125000 I0.089815 J-0.003480 F1000.000000
G01 X23.960887 Y20.917642 Z-0.125000
G02 X23.980157 Y20.805127 Z-0.125000 I-0.253446 J-0.101315
G02 X23.953747 Y20.744936 Z-0.125000 I-0.090241 J0.003706
G01 X23.925688 Y20.750696 Z-0.125000
G02 X23.906442 Y20.863198 Z-0.125000 I0.253297 J0.101227
G01 X23.906468 Y20.863266 Z-0.125000
G00 Z5.000000

(End cutting path id: path4900)


(Start cutting path id: path4900)
(Change tool to Cylindrical cutter)

G00 Z5.000000
G00 X23.720519 Y19.932096

G01 Z-0.125000 F800.0(Penetrate)
G02 X23.755852 Y20.016427 Z-0.125000 I0.120866 J-0.001074 F1000.000000
G01 X23.799985 Y20.011548 Z-0.125000
G03 X23.889531 Y19.899687 Z-0.125000 I0.549144 J0.347825
G03 X24.001344 Y19.810191 Z-0.125000 I0.459904 J0.459992
G01 X24.006237 Y19.766009 Z-0.125000
G02 X23.921878 Y19.730742 Z-0.125000 I-0.085163 J0.085182
G02 X23.779141 Y19.789451 Z-0.125000 I-0.000752 J0.201043
G02 X23.720519 Y19.932105 Z-0.125000 I0.140947 J0.141293
G01 X23.720519 Y19.932096 Z-0.125000
G00 Z5.000000

(End cutting path id: path4900)


(Start cutting path id: path4900)
(Change tool to Cylindrical cutter)

G00 Z5.000000
G00 X24.277343 Y19.323961

G01 Z-0.125000 F800.0(Penetrate)
G02 X24.299954 Y19.436319 Z-0.125000 I0.311323 J-0.004196 F1000.000000
G01 X24.322207 Y19.434883 Z-0.125000
G02 X24.341450 Y19.276937 Z-0.125000 I-0.578064 J-0.150573
G02 X24.318804 Y19.164562 Z-0.125000 I-0.309060 J0.003815
G01 X24.296526 Y19.166003 Z-0.125000
G02 X24.277261 Y19.323961 Z-0.125000 I0.577805 J0.150625
G01 X24.277343 Y19.323961 Z-0.125000
G00 Z5.000000

(End cutting path id: path4900)


(Start cutting path id: path4900)
(Change tool to Cylindrical cutter)

G00 Z5.000000
G00 X24.575153 Y19.639172

G01 Z-0.125000 F800.0(Penetrate)
G02 X24.646647 Y19.700637 Z-0.125000 I0.132661 J-0.081995 F1000.000000
G02 X24.783214 Y19.727897 Z-0.125000 I0.133506 J-0.313121
G01 X24.823882 Y19.694197 Z-0.125000
G02 X24.800424 Y19.639172 Z-0.125000 I-0.052454 J-0.010150
G02 X24.606974 Y19.582106 Z-0.125000 I-0.193450 J0.299354
G01 X24.575157 Y19.639172 Z-0.125000
G01 X24.575153 Y19.639172 Z-0.125000
G00 Z5.000000

(End cutting path id: path4900)


(Start cutting path id: path4900)
(Change tool to Cylindrical cutter)

G00 Z5.000000
G00 X25.002600 Y20.240057

G01 Z-0.125000 F800.0(Penetrate)
G02 X24.935575 Y20.300834 Z-0.125000 I0.048719 J0.121074 F1000.000000
G02 X24.937886 Y20.364165 Z-0.125000 I0.056879 J0.029631
G02 X25.126546 Y20.432797 Z-0.125000 I0.137803 J-0.085183
G02 X25.250936 Y20.260657 Z-0.125000 I-0.056916 J-0.172140
G02 X25.203918 Y20.209578 Z-0.125000 I-0.051254 J0.000000
G02 X25.002580 Y20.240055 Z-0.125000 I-0.036453 J0.439470
G01 X25.002600 Y20.240057 Z-0.125000
G00 Z5.000000

(End cutting path id: path4900)


(Start cutting path id: path4900)
(Change tool to Cylindrical cutter)

G00 Z5.000000
G00 X26.422347 Y20.636337

G01 Z-0.125000 F800.0(Penetrate)
G01 X26.451001 Y20.680300 Z-0.125000 F1000.000000
G02 X26.512455 Y20.676020 Z-0.125000 I0.026667 J-0.060436
G02 X26.589615 Y20.613141 Z-0.125000 I-0.202096 J-0.326780
G01 X26.602563 Y20.580590 Z-0.125000
G01 X26.586839 Y20.556514 Z-0.125000
G02 X26.512455 Y20.540906 Z-0.125000 I-0.074384 J0.169443
G02 X26.449509 Y20.568031 Z-0.125000 I-0.000000 J0.086599
G02 X26.422347 Y20.636328 Z-0.125000 I0.072284 J0.068297
G01 X26.422347 Y20.636337 Z-0.125000
G00 Z5.000000

(End cutting path id: path4900)


(Start cutting path id: path4900)
(Change tool to Cylindrical cutter)

G00 Z5.000000
G00 X26.782779 Y21.351951

G01 Z-0.125000 F800.0(Penetrate)
G02 X26.735571 Y21.413963 Z-0.125000 I0.062262 J0.096373 F1000.000000
G01 X26.754923 Y21.440676 Z-0.125000
G02 X26.848726 Y21.417342 Z-0.125000 I0.001844 J-0.192800
G02 X26.917926 Y21.351951 Z-0.125000 I-0.088341 J-0.162799
G01 X26.898836 Y21.317711 Z-0.125000
G02 X26.782767 Y21.351951 Z-0.125000 I-0.000000 J0.213849
G01 X26.782779 Y21.351951 Z-0.125000
G00 Z5.000000

(End cutting path id: path4900)


(Start cutting path id: path4900)
(Change tool to Cylindrical cutter)

G00 Z5.000000
G00 X26.197918 Y21.803851

G01 Z-0.125000 F800.0(Penetrate)
G02 X26.271716 Y21.858599 Z-0.125000 I0.105593 J-0.065223 F1000.000000
G02 X26.532789 Y21.892607 Z-0.125000 I0.261073 J-0.985097
G01 X26.556955 Y21.843716 Z-0.125000
G02 X26.440398 Y21.771748 Z-0.125000 I-0.152453 J0.116538
G02 X26.216162 Y21.765412 Z-0.125000 I-0.131762 J0.692109
G01 X26.197918 Y21.803876 Z-0.125000
G01 X26.197918 Y21.803851 Z-0.125000
G00 Z5.000000

(End cutting path id: path4900)


(Start cutting path id: path4900)
(Change tool to Cylindrical cutter)

G00 Z5.000000
G00 X26.399820 Y23.123748

G01 Z-0.125000 F800.0(Penetrate)
G02 X26.512451 Y23.145601 Z-0.125000 I0.112631 J-0.279325 F1000.000000
G02 X26.625087 Y23.123748 Z-0.125000 I0.000000 J-0.301203
G01 X26.625097 Y23.100157 Z-0.125000
G02 X26.512455 Y23.078253 Z-0.125000 I-0.112642 J0.278691
G02 X26.399829 Y23.100129 Z-0.125000 I0.000000 J0.300863
G01 X26.399820 Y23.123748 Z-0.125000
G01 X26.399820 Y23.123748 Z-0.125000
G00 Z5.000000

(End cutting path id: path4900)


(Start cutting path id: path4900)
(Change tool to Cylindrical cutter)

G00 Z5.000000
G00 X25.700668 Y23.468595

G01 Z-0.125000 F800.0(Penetrate)
G02 X25.819394 Y23.557778 Z-0.125000 I0.246629 J-0.204709 F1000.000000
G02 X25.893386 Y23.552477 Z-0.125000 I0.031930 J-0.073368
G02 X25.916977 Y23.427853 Z-0.125000 I-0.045160 J-0.073093
G02 X25.730194 Y23.334426 Z-0.125000 I-0.186783 J0.140000
G02 X25.678239 Y23.376185 Z-0.125000 I0.000000 J0.053200
G02 X25.700646 Y23.468595 Z-0.125000 I0.105731 J0.023285
G01 X25.700668 Y23.468595 Z-0.125000
G00 Z5.000000

(End cutting path id: path4900)


(Start cutting path id: path4900)
(Change tool to Cylindrical cutter)

G00 Z5.000000
G00 X24.679492 Y22.843154

G01 Z-0.125000 F800.0(Penetrate)
G02 X24.809728 Y22.957084 Z-0.125000 I0.173031 J-0.066392 F1000.000000
G02 X24.890529 Y22.893214 Z-0.125000 I0.015158 J-0.063870
G02 X24.864591 Y22.830589 Z-0.125000 I-0.088570 J0.000000
G02 X24.759957 Y22.762641 Z-0.125000 I-0.212097 J0.212076
G02 X24.693549 Y22.776787 Z-0.125000 I-0.022313 J0.058201
G02 X24.679494 Y22.843089 Z-0.125000 I0.044009 J0.043970
G01 X24.679492 Y22.843154 Z-0.125000
G00 Z5.000000

(End cutting path id: path4900)


(Start cutting path id: path4900)
(Change tool to Cylindrical cutter)

G00 Z5.000000
G00 X23.223545 Y22.523467

G01 Z-0.125000 F800.0(Penetrate)
G01 X23.241344 Y22.572585 Z-0.125000 F1000.000000
G02 X23.493869 Y22.613566 Z-0.125000 I0.252525 J-0.757543
G02 X23.746376 Y22.572600 Z-0.125000 I0.000000 J-0.798680
G01 X23.764187 Y22.523467 Z-0.125000
G02 X23.690684 Y22.465296 Z-0.125000 I-0.117001 J0.072316
G02 X23.493869 Y22.433356 Z-0.125000 I-0.196815 J0.590418
G02 X23.297064 Y22.465274 Z-0.125000 I0.000000 J0.622706
G02 X23.223545 Y22.523467 Z-0.125000 I0.043449 J0.130429
G01 X23.223545 Y22.523467 Z-0.125000
G00 Z5.000000

(End cutting path id: path4900)


(Start cutting path id: path4900)
(Change tool to Cylindrical cutter)

G00 Z5.000000
G00 X22.778805 Y22.046418

G01 Z-0.125000 F800.0(Penetrate)
G01 X22.789577 Y22.096748 Z-0.125000 F1000.000000
G01 X22.829223 Y22.096811 Z-0.125000
G02 X22.901534 Y21.985600 Z-0.125000 I-0.221037 J-0.222834
G01 X22.890758 Y21.935236 Z-0.125000
G01 X22.851089 Y21.935139 Z-0.125000
G02 X22.778795 Y22.046367 Z-0.125000 I0.221793 J0.223267
G01 X22.778805 Y22.046418 Z-0.125000
G00 Z5.000000

(End cutting path id: path4900)


(Start cutting path id: path4900)
(Change tool to Cylindrical cutter)

G00 Z5.000000
G00 X22.170425 Y22.855326

G01 Z-0.125000 F800.0(Penetrate)
G02 X22.282805 Y22.874561 Z-0.125000 I0.100931 J-0.251790 F1000.000000
G02 X22.343125 Y22.847847 Z-0.125000 I-0.003804 J-0.090050
G01 X22.337363 Y22.819800 Z-0.125000
G02 X22.224861 Y22.800527 Z-0.125000 I-0.101304 J0.253344
G02 X22.164676 Y22.826870 Z-0.125000 I0.003559 J0.090052
G01 X22.170441 Y22.854906 Z-0.125000
G01 X22.170425 Y22.855326 Z-0.125000
G00 Z5.000000

(End cutting path id: path4900)


(Start cutting path id: path4900)
(Change tool to Cylindrical cutter)

G00 Z5.000000
G00 X21.171666 Y23.499064

G01 Z-0.125000 F800.0(Penetrate)
G01 X21.185647 Y23.558615 Z-0.125000 F1000.000000
G02 X21.375126 Y23.589166 Z-0.125000 I0.152858 J-0.345178
G02 X21.651632 Y23.526929 Z-0.125000 I-0.110593 J-1.136690
G02 X21.707313 Y23.469574 Z-0.125000 I-0.030865 J-0.085671
G02 X21.574258 Y23.296300 Z-0.125000 I-0.125778 J-0.041139
G02 X21.171666 Y23.499047 Z-0.125000 I0.030982 J0.562607
G01 X21.171666 Y23.499064 Z-0.125000
G00 Z5.000000

(End cutting path id: path4900)


(Start cutting path id: path4900)
(Change tool to Cylindrical cutter)

G00 Z5.000000
G00 X20.441958 Y22.684421

G01 Z-0.125000 F800.0(Penetrate)
G02 X20.203277 Y23.184273 Z-0.125000 I2.183739 J1.349653 F1000.000000
G01 X20.245647 Y23.244039 Z-0.125000
G02 X20.596939 Y23.020653 Z-0.125000 I0.000000 J-0.387911
G02 X20.529749 Y22.637721 Z-0.125000 I-0.306553 J-0.143572
G01 X20.496790 Y22.632921 Z-0.125000
G02 X20.441958 Y22.684378 Z-0.125000 I0.070642 J0.130219
G01 X20.441958 Y22.684421 Z-0.125000
G00 Z5.000000

(End cutting path id: path4900)


(Start cutting path id: path4900)
(Change tool to Cylindrical cutter)

G00 Z5.000000
G00 X20.786953 Y22.078845

G01 Z-0.125000 F800.0(Penetrate)
G02 X20.754532 Y22.171833 Z-0.125000 I0.193897 J0.119750 F1000.000000
G02 X20.770482 Y22.217888 Z-0.125000 I0.055510 J0.006564
G01 X20.804275 Y22.217933 Z-0.125000
G02 X20.866785 Y22.121783 Z-0.125000 I-0.194035 J-0.194540
G01 X20.845057 Y22.063277 Z-0.125000
G01 X20.786928 Y22.078862 Z-0.125000
G01 X20.786953 Y22.078845 Z-0.125000
G00 Z5.000000

(End cutting path id: path4900)


(Start cutting path id: path4900)
(Change tool to Cylindrical cutter)

G00 Z5.000000
G00 X21.637149 Y20.794023

G01 Z-0.125000 F800.0(Penetrate)
G02 X21.324845 Y21.451228 Z-0.125000 I1.745583 J1.232310 F1000.000000
G02 X21.433750 Y21.521849 Z-0.125000 I0.065483 J0.018300
G02 X21.523740 Y21.404515 Z-0.125000 I-0.212400 J-0.256077
G02 X21.556569 Y21.254243 Z-0.125000 I-0.327516 J-0.150272
G03 X21.594962 Y21.105287 Z-0.125000 I0.308148 J-0.000000
G03 X21.744971 Y20.913050 Z-0.125000 I0.677852 J0.374304
G02 X21.887292 Y20.723234 Z-0.125000 I-0.458182 J-0.491801
G02 X21.902655 Y20.599484 Z-0.125000 I-0.165887 J-0.083422
G01 X21.848376 Y20.579054 Z-0.125000
G02 X21.637149 Y20.794023 Z-0.125000 I0.552409 J0.754052
G01 X21.637149 Y20.794023 Z-0.125000
G00 Z5.000000

(End cutting path id: path4900)


(Start cutting path id: path4900)
(Change tool to Cylindrical cutter)

G00 Z5.000000
G00 X19.231804 Y21.640289

G01 Z-0.125000 F800.0(Penetrate)
G02 X19.158177 Y21.762777 Z-0.125000 I0.209203 J0.209122 F1000.000000
G02 X19.123677 Y21.993205 Z-0.125000 I0.752265 J0.230428
G03 X19.082574 Y22.209041 Z-0.125000 I-0.587241 J-0.000000
G03 X19.011044 Y22.278218 Z-0.125000 I-0.112037 J-0.044278
G02 X18.951910 Y22.331577 Z-0.125000 I0.035298 J0.098564
G01 X18.960019 Y22.384859 Z-0.125000
G02 X19.108947 Y22.391259 Z-0.125000 I0.077698 J-0.072054
G02 X19.213809 Y22.154422 Z-0.125000 I-0.215027 J-0.236838
G03 X19.243607 Y21.985252 Z-0.125000 I0.495113 J0.000000
G03 X19.359329 Y21.754259 Z-0.125000 I1.051398 J0.382244
G02 X19.343937 Y21.637146 Z-0.125000 I-0.075724 J-0.049615
G02 X19.231829 Y21.640289 Z-0.125000 I-0.054392 J0.060853
G01 X19.231804 Y21.640289 Z-0.125000
G00 Z5.000000

(End cutting path id: path4900)


(Start cutting path id: path4900)
(Change tool to Cylindrical cutter)

G00 Z5.000000
G00 X18.498809 Y23.101856

G01 Z-0.125000 F800.0(Penetrate)
G01 X18.501202 Y23.160737 Z-0.125000 F1000.000000
G02 X18.576872 Y23.181722 Z-0.125000 I0.055897 J-0.054636
G02 X18.704442 Y23.110773 Z-0.125000 I-0.074347 J-0.283845
G01 X18.711861 Y23.053646 Z-0.125000
G02 X18.632009 Y23.020115 Z-0.125000 I-0.063418 J0.039177
G02 X18.498805 Y23.101796 Z-0.125000 I0.053501 J0.236700
G01 X18.498809 Y23.101856 Z-0.125000
G00 Z5.000000

(End cutting path id: path4900)


(Start cutting path id: path4900)
(Change tool to Cylindrical cutter)

G00 Z5.000000
G00 X18.278794 Y23.653278

G01 Z-0.125000 F800.0(Penetrate)
G02 X18.281145 Y23.753257 Z-0.125000 I0.122817 J0.047129 F1000.000000
G01 X18.323724 Y23.755674 Z-0.125000
G02 X18.389723 Y23.595079 Z-0.125000 I-0.550617 J-0.320142
G01 X18.377189 Y23.549045 Z-0.125000
G01 X18.344087 Y23.549522 Z-0.125000
G02 X18.278827 Y23.653278 Z-0.125000 I0.229622 J0.216828
G01 X18.278794 Y23.653278 Z-0.125000
G00 Z5.000000

(End cutting path id: path4900)


(Start cutting path id: path4900)
(Change tool to Cylindrical cutter)

G00 Z5.000000
G00 X17.807530 Y24.415501

G01 Z-0.125000 F800.0(Penetrate)
G02 X17.870390 Y24.630544 Z-0.125000 I0.455744 J-0.016513 F1000.000000
G02 X17.966984 Y24.685822 Z-0.125000 I0.096745 J-0.057019
G02 X18.034686 Y24.629137 Z-0.125000 I0.000096 J-0.068659
G02 X18.014828 Y24.415707 Z-0.125000 I-0.398436 J-0.070567
G02 X17.890492 Y24.329659 Z-0.125000 I-0.124454 J0.046976
G02 X17.807546 Y24.415527 Z-0.125000 I-0.000074 J0.082925
G01 X17.807530 Y24.415501 Z-0.125000
G00 Z5.000000

(End cutting path id: path4900)


(Start cutting path id: path4900)
(Change tool to Cylindrical cutter)

G00 Z5.000000
G00 X19.012704 Y24.881374

G01 Z-0.125000 F800.0(Penetrate)
G02 X19.116379 Y24.940798 Z-0.125000 I0.161348 J-0.161347 F1000.000000
G02 X19.226104 Y24.937164 Z-0.125000 I0.048742 J-0.186583
G01 X19.234552 Y24.901383 Z-0.125000
G02 X19.130901 Y24.841956 Z-0.125000 I-0.161405 J0.161412
G02 X19.021148 Y24.845558 Z-0.125000 I-0.048808 J0.186692
G01 X19.012704 Y24.881309 Z-0.125000
G01 X19.012704 Y24.881374 Z-0.125000
G00 Z5.000000

(End cutting path id: path4900)


(Start cutting path id: path4900)
(Change tool to Cylindrical cutter)

G00 Z5.000000
G00 X19.568572 Y24.246032

G01 Z-0.125000 F800.0(Penetrate)
G02 X19.574257 Y24.356880 Z-0.125000 I0.094756 J0.050710 F1000.000000
G02 X19.672769 Y24.400366 Z-0.125000 I0.083841 J-0.056606
G02 X19.862937 Y24.258243 Z-0.125000 I-0.036133 J-0.246636
G02 X19.804661 Y24.114796 Z-0.125000 I-0.096259 J-0.044456
G02 X19.689731 Y24.122894 Z-0.125000 I-0.048808 J0.126934
G02 X19.568572 Y24.246032 Z-0.125000 I0.148993 J0.267771
G01 X19.568572 Y24.246032 Z-0.125000
G00 Z5.000000

(End cutting path id: path4900)


(Start cutting path id: path4900)
(Change tool to Cylindrical cutter)

G00 Z5.000000
G00 X20.678027 Y25.204180

G01 Z-0.125000 F800.0(Penetrate)
G02 X20.586001 Y25.256618 Z-0.125000 I0.086314 J0.258444 F1000.000000
G02 X20.565325 Y25.301803 Z-0.125000 I0.039170 J0.045247
G02 X20.981433 Y25.695978 Z-0.125000 I0.394365 J0.000410
G02 X22.044827 Y25.219200 Z-0.125000 I-0.089694 J-1.624325
G02 X21.956778 Y25.003861 Z-0.125000 I-0.089412 J-0.089111
G02 X20.678027 Y25.204185 Z-0.125000 I-0.042226 J3.912004
G01 X20.678027 Y25.204180 Z-0.125000
G00 Z5.000000

(End cutting path id: path4900)


(Start cutting path id: path4900)
(Change tool to Cylindrical cutter)

G00 Z5.000000
G00 X19.619268 Y27.029057

G01 Z-0.125000 F800.0(Penetrate)
G02 X19.615012 Y27.090496 Z-0.125000 I0.056244 J0.034763 F1000.000000
G01 X19.658976 Y27.119159 Z-0.125000
G02 X19.727231 Y27.092046 Z-0.125000 I-0.000000 J-0.099469
G02 X19.754404 Y27.029057 Z-0.125000 I-0.059419 J-0.062989
G02 X19.738717 Y26.954609 Z-0.125000 I-0.184499 J-0.000000
G01 X19.714696 Y26.938949 Z-0.125000
G01 X19.682145 Y26.951892 Z-0.125000
G02 X19.619275 Y27.029057 Z-0.125000 I0.263117 J0.278567
G01 X19.619268 Y27.029057 Z-0.125000
G00 Z5.000000

(End cutting path id: path4900)


(Start cutting path id: path4900)
(Change tool to Cylindrical cutter)

G00 Z5.000000
G00 X20.520336 Y28.831032

G01 Z-0.125000 F800.0(Penetrate)
G02 X20.588353 Y28.899045 Z-0.125000 I0.178065 J-0.110058 F1000.000000
G02 X20.666133 Y28.921140 Z-0.125000 I0.077781 J-0.125858
G01 X20.706439 Y28.893401 Z-0.125000
G02 X20.700562 Y28.831032 Z-0.125000 I-0.066001 J-0.025242
G02 X20.632545 Y28.763017 Z-0.125000 I-0.178076 J0.110064
G02 X20.554764 Y28.740921 Z-0.125000 I-0.077781 J0.125852
G01 X20.514458 Y28.768660 Z-0.125000
G02 X20.520336 Y28.831032 Z-0.125000 I0.066005 J0.025242
G01 X20.520336 Y28.831032 Z-0.125000
G00 Z5.000000

(End cutting path id: path4900)


(Start cutting path id: path4900)
(Change tool to Cylindrical cutter)

G00 Z5.000000
G00 X19.913731 Y31.149515

G01 Z-0.125000 F800.0(Penetrate)
G02 X20.207875 Y31.167398 Z-0.125000 I0.289433 J-2.332737 F1000.000000
G02 X20.454373 Y31.147822 Z-0.125000 I-0.003211 J-1.602187
G01 X20.454116 Y31.129237 Z-0.125000
G02 X20.159910 Y31.111376 Z-0.125000 I-0.289619 J2.338569
G02 X19.913476 Y31.130230 Z-0.125000 I0.003153 J1.661194
G01 X19.913731 Y31.148818 Z-0.125000
G01 X19.913731 Y31.149515 Z-0.125000
G00 Z5.000000

(End cutting path id: path4900)


(Start cutting path id: path4900)
(Change tool to Cylindrical cutter)

G00 Z5.000000
G00 X18.746357 Y31.055651

G01 Z-0.125000 F800.0(Penetrate)
G02 X18.858737 Y31.074886 Z-0.125000 I0.100931 J-0.251790 F1000.000000
G02 X18.919059 Y31.048172 Z-0.125000 I-0.003804 J-0.090054
G01 X18.913296 Y31.020126 Z-0.125000
G02 X18.800794 Y31.000852 Z-0.125000 I-0.101304 J0.253344
G02 X18.740609 Y31.027195 Z-0.125000 I0.003559 J0.090054
G01 X18.746374 Y31.055228 Z-0.125000
G01 X18.746357 Y31.055651 Z-0.125000
G00 Z5.000000

(End cutting path id: path4900)


(Start cutting path id: path4900)
(Change tool to Cylindrical cutter)

G00 Z5.000000
G00 X18.652996 Y31.690030

G01 Z-0.125000 F800.0(Penetrate)
G02 X19.038202 Y31.707131 Z-0.125000 I0.381861 J-4.254636 F1000.000000
G02 X19.373855 Y31.689466 Z-0.125000 I-0.002542 J-3.245967
G01 X19.373726 Y31.671966 Z-0.125000
G02 X18.988518 Y31.654846 Z-0.125000 I-0.381629 J4.244370
G02 X18.652863 Y31.672546 Z-0.125000 I0.002303 J3.235066
G01 X18.652996 Y31.690047 Z-0.125000
G01 X18.652996 Y31.690030 Z-0.125000
G00 Z5.000000

(End cutting path id: path4900)


(Start cutting path id: path4900)
(Change tool to Cylindrical cutter)

G00 Z5.000000
G00 X19.078626 Y32.344013

G01 Z-0.125000 F800.0(Penetrate)
G01 X19.089642 Y32.396930 Z-0.125000 F1000.000000
G02 X19.208465 Y32.434123 Z-0.125000 I0.118823 J-0.171207
G02 X19.359286 Y32.399452 Z-0.125000 I0.000000 J-0.345374
G02 X19.394001 Y32.344013 Z-0.125000 I-0.026911 J-0.055439
G02 X19.363053 Y32.284860 Z-0.125000 I-0.072004 J0.000000
G02 X19.264155 Y32.253902 Z-0.125000 I-0.098898 J0.142488
G02 X19.149087 Y32.280354 Z-0.125000 I0.000000 J0.263500
G02 X19.078626 Y32.344013 Z-0.125000 I0.074300 J0.153064
G01 X19.078626 Y32.344013 Z-0.125000
G00 Z5.000000

(End cutting path id: path4900)


(Start cutting path id: path4900)
(Change tool to Cylindrical cutter)

G00 Z5.000000
G00 X18.222609 Y33.100882

G01 Z-0.125000 F800.0(Penetrate)
G02 X18.441083 Y33.334659 Z-0.125000 I0.234313 J0.000000 F1000.000000
G02 X18.817586 Y33.141146 Z-0.125000 I0.027718 J-0.409093
G01 X18.801728 Y33.100819 Z-0.125000
G02 X18.543297 Y33.066095 Z-0.125000 I-0.258430 J0.944302
G02 X18.239098 Y33.082585 Z-0.125000 I0.000000 J2.814088
G01 X18.222609 Y33.100964 Z-0.125000
G01 X18.222609 Y33.100882 Z-0.125000
G00 Z5.000000

(End cutting path id: path4900)


(Start cutting path id: path4900)
(Change tool to Cylindrical cutter)

G00 Z5.000000
G00 X17.681967 Y33.876857

G01 Z-0.125000 F800.0(Penetrate)
G01 X17.683411 Y33.924246 Z-0.125000 F1000.000000
G02 X17.839651 Y33.965580 Z-0.125000 I0.157752 J-0.280341
G02 X18.094209 Y33.928426 Z-0.125000 I0.003048 J-0.869738
G02 X18.132501 Y33.876857 Z-0.125000 I-0.015578 J-0.051568
G02 X18.029864 Y33.774221 Z-0.125000 I-0.102637 J0.000000
G02 X17.681967 Y33.876857 Z-0.125000 I0.000000 J0.640932
G01 X17.681967 Y33.876857 Z-0.125000
G00 Z5.000000

(End cutting path id: path4900)


(Start cutting path id: path4900)
(Change tool to Cylindrical cutter)

G00 Z5.000000
G00 X17.366593 Y32.349826

G01 Z-0.125000 F800.0(Penetrate)
G02 X18.140595 Y32.426550 Z-0.125000 I0.750440 J-3.628065 F1000.000000
G02 X18.222609 Y32.344013 Z-0.125000 I-0.000525 J-0.082538
G01 X18.180876 Y32.296442 Z-0.125000
G02 X17.614385 Y32.264231 Z-0.125000 I-0.501259 J3.818117
G02 X17.364003 Y32.308140 Z-0.125000 I0.013929 J0.815254
G01 X17.366593 Y32.349152 Z-0.125000
G01 X17.366593 Y32.349826 Z-0.125000
G00 Z5.000000

(End cutting path id: path4900)


(Start cutting path id: path4900)
(Change tool to Cylindrical cutter)

G00 Z5.000000
G00 X16.690785 Y31.633459

G01 Z-0.125000 F800.0(Penetrate)
G01 X16.689310 Y31.665559 Z-0.125000 F1000.000000
G02 X16.938584 Y31.702115 Z-0.125000 I0.270514 J-0.976448
G02 X17.485128 Y31.696453 Z-0.125000 I0.184184 J-8.601923
G01 X17.501751 Y31.679114 Z-0.125000
G02 X17.416699 Y31.589125 Z-0.125000 I-0.090133 J0.000000
G02 X16.690785 Y31.633369 Z-0.125000 I-0.175170 J3.103154
G01 X16.690785 Y31.633459 Z-0.125000
G00 Z5.000000

(End cutting path id: path4900)


(Start cutting path id: path4900)
(Change tool to Cylindrical cutter)

G00 Z5.000000
G00 X17.163851 Y31.060647

G01 Z-0.125000 F800.0(Penetrate)
G02 X17.591859 Y31.077528 Z-0.125000 I0.428007 J-5.417366 F1000.000000
G02 X18.019868 Y31.060647 Z-0.125000 I-0.000000 J-5.434300
G01 X18.019865 Y31.043750 Z-0.125000
G02 X17.591859 Y31.026941 Z-0.125000 I-0.428006 J5.440657
G02 X17.163850 Y31.043772 Z-0.125000 I-0.000000 J5.450279
G01 X17.163851 Y31.060647 Z-0.125000
G01 X17.163851 Y31.060647 Z-0.125000
G00 Z5.000000

(End cutting path id: path4900)


(Start cutting path id: path4900)
(Change tool to Cylindrical cutter)

G00 Z5.000000
G00 X16.690785 Y29.922904

G01 Z-0.125000 F800.0(Penetrate)
G02 X16.421345 Y29.983704 Z-0.125000 I0.509761 J2.886476 F1000.000000
G01 X16.420468 Y29.997456 Z-0.125000
G02 X16.467411 Y30.007555 Z-0.125000 I0.050496 J-0.120572
G02 X18.808302 Y30.062376 Z-0.125000 I8.448672 J-310.757497
G02 X21.042953 Y30.062225 Z-0.125000 I1.113491 J-56.695055
G01 X21.060978 Y30.017711 Z-0.125000
G02 X20.210401 Y29.652793 Z-0.125000 I-0.877414 J0.871386
G02 X16.690785 Y29.922845 Z-0.125000 I-0.390369 J17.983030
G01 X16.690785 Y29.922904 Z-0.125000
G00 Z5.000000

(End cutting path id: path4900)


(Start cutting path id: path4900)
(Change tool to Cylindrical cutter)

G00 Z5.000000
G00 X15.584970 Y31.058953

G01 Z-0.125000 F800.0(Penetrate)
G02 X15.875981 Y31.077174 Z-0.125000 I0.293714 J-2.357987 F1000.000000
G02 X16.215713 Y31.059518 Z-0.125000 I0.003648 J-3.207111
G01 X16.215892 Y31.041535 Z-0.125000
G02 X15.924876 Y31.023323 Z-0.125000 I-0.293861 J2.361418
G02 X15.585146 Y31.040831 Z-0.125000 I-0.002647 J3.253488
G01 X15.584970 Y31.058773 Z-0.125000
G01 X15.584970 Y31.058953 Z-0.125000
G00 Z5.000000

(End cutting path id: path4900)


(Start cutting path id: path4900)
(Change tool to Cylindrical cutter)

G00 Z5.000000
G00 X15.096779 Y32.312469

G01 Z-0.125000 F800.0(Penetrate)
G02 X15.924867 Y32.650183 Z-0.125000 I0.815401 J-0.815284 F1000.000000
G02 X16.771955 Y32.293447 Z-0.125000 I-0.013379 J-1.215862
G01 X16.764334 Y32.273790 Z-0.125000
G02 X15.924876 Y32.254511 Z-0.125000 I-0.839458 J18.267167
G02 X15.107766 Y32.283066 Z-0.125000 I0.000000 J11.705235
G01 X15.096779 Y32.312460 Z-0.125000
G01 X15.096779 Y32.312469 Z-0.125000
G00 Z5.000000

(End cutting path id: path4900)


(Start cutting path id: path4900)
(Change tool to Cylindrical cutter)

G00 Z5.000000
G00 X16.150143 Y33.061475

G01 Z-0.125000 F800.0(Penetrate)
G02 X17.625918 Y33.077480 Z-0.125000 I1.095950 J-33.008857 F1000.000000
G02 X17.722511 Y33.043300 Z-0.125000 I-0.001826 J-0.158739
G01 X17.711561 Y33.009923 Z-0.125000
G02 X16.235745 Y32.993903 Z-0.125000 I-1.094352 J32.827800
G01 X14.663376 Y33.012078 Z-0.125000
G01 X16.150143 Y33.061475 Z-0.125000
G00 Z5.000000

(End cutting path id: path4900)


(Start cutting path id: path4900)
(Change tool to Cylindrical cutter)

G00 Z5.000000
G00 X14.798542 Y33.780380

G01 Z-0.125000 F800.0(Penetrate)
G01 X14.834523 Y33.827827 Z-0.125000 F1000.000000
G02 X15.091385 Y33.862320 Z-0.125000 I0.251104 J-0.896279
G03 X15.384189 Y33.864167 Z-0.125000 I0.091507 J8.704275
G03 X15.789717 Y33.876093 Z-0.125000 I-0.747910 J32.333445
G02 X16.195210 Y33.883360 Z-0.125000 I0.377548 J-9.749845
G02 X16.735842 Y33.872762 Z-0.125000 I-0.046273 J-16.156200
G01 X17.276484 Y33.854079 Z-0.125000
G01 X16.871001 Y33.781935 Z-0.125000
G02 X14.966062 Y33.612878 Z-0.125000 I-1.915182 J10.763356
G02 X14.798542 Y33.780241 Z-0.125000 I-0.000157 J0.167363
G01 X14.798542 Y33.780380 Z-0.125000
G00 Z5.000000

(End cutting path id: path4900)


(Start cutting path id: path4900)
(Change tool to Cylindrical cutter)

G00 Z5.000000
G00 X14.469342 Y34.709811

G01 Z-0.125000 F800.0(Penetrate)
G01 X14.487391 Y34.743783 Z-0.125000 F1000.000000
G02 X15.806923 Y34.764023 Z-0.125000 I1.061527 J-26.182693
G02 X16.918057 Y34.738067 Z-0.125000 I-0.402441 J-41.024190
G01 X16.921075 Y34.724743 Z-0.125000
G02 X16.868370 Y34.710510 Z-0.125000 I-0.058377 J0.111473
G02 X15.623522 Y34.667935 Z-0.125000 I-2.574585 J57.057311
G02 X14.528797 Y34.675368 Z-0.125000 I-0.424042 J18.165993
G02 X14.469342 Y34.709777 Z-0.125000 I0.002705 J0.073245
G01 X14.469342 Y34.709811 Z-0.125000
G00 Z5.000000

(End cutting path id: path4900)


(Start cutting path id: path4900)
(Change tool to Cylindrical cutter)

G00 Z5.000000
G00 X13.672200 Y35.494671

G01 Z-0.125000 F800.0(Penetrate)
G01 X13.672401 Y35.530679 Z-0.125000 F1000.000000
G02 X14.888650 Y35.593107 Z-0.125000 I1.667543 J-20.608601
G02 X16.724737 Y35.600170 Z-0.125000 I1.114701 J-51.117564
G02 X16.821444 Y35.565873 Z-0.125000 I-0.002256 J-0.159847
G01 X16.810851 Y35.531684 Z-0.125000
G02 X15.785211 Y35.497050 Z-0.125000 I-1.042594 J15.671373
G03 X14.664413 Y35.483197 Z-0.125000 I0.044800 J-48.971596
G03 X14.483166 Y35.466251 Z-0.125000 I0.031231 J-1.311771
G02 X14.302307 Y35.454714 Z-0.125000 I-0.148428 J0.903466
G02 X13.672200 Y35.494809 Z-0.125000 I0.397771 J11.222403
G01 X13.672200 Y35.494671 Z-0.125000
G00 Z5.000000

(End cutting path id: path4900)


(Start cutting path id: path4900)
(Change tool to Cylindrical cutter)

G00 Z5.000000
G00 X13.823250 Y36.500680

G01 Z-0.125000 F800.0(Penetrate)
G02 X13.951699 Y36.544164 Z-0.125000 I0.153570 J-0.242180 F1000.000000
G02 X14.618325 Y36.570584 Z-0.125000 I0.607735 J-6.910971
G01 X14.629449 Y36.523397 Z-0.125000
G02 X14.408949 Y36.464011 Z-0.125000 I-0.250968 J0.492793
G02 X13.832033 Y36.466281 Z-0.125000 I-0.269287 J4.873279
G01 X13.823250 Y36.500706 Z-0.125000
G01 X13.823250 Y36.500680 Z-0.125000
G00 Z5.000000

(End cutting path id: path4900)


(Start cutting path id: path4900)
(Change tool to Cylindrical cutter)

G00 Z5.000000
G00 X13.176616 Y36.488968

G01 Z-0.125000 F800.0(Penetrate)
G01 X12.951343 Y36.561110 Z-0.125000 F1000.000000
G01 X13.199141 Y36.570169 Z-0.125000
G02 X13.409643 Y36.540514 Z-0.125000 I0.022162 J-0.604618
G02 X13.446934 Y36.489058 Z-0.125000 I-0.016855 J-0.051455
G02 X13.436698 Y36.414002 Z-0.125000 I-0.280302 J-0.000000
G01 X13.424435 Y36.407948 Z-0.125000
G03 X13.401610 Y36.416271 Z-0.125000 I-0.136693 J-0.339417
G03 X13.176636 Y36.489058 Z-0.125000 I-10.396506 J-31.749638
G01 X13.176616 Y36.488968 Z-0.125000
G00 Z5.000000

(End cutting path id: path4900)


(Start cutting path id: path4900)
(Change tool to Cylindrical cutter)

G00 Z5.000000
G00 X13.020165 Y37.094820

G01 Z-0.125000 F800.0(Penetrate)
G02 X13.268764 Y37.113166 Z-0.125000 I0.243759 J-1.609544 F1000.000000
G02 X13.470699 Y37.093127 Z-0.125000 I-0.003149 J-1.059175
G01 X13.470304 Y37.073796 Z-0.125000
G02 X13.221666 Y37.055436 Z-0.125000 I-0.244246 J1.614925
G02 X13.019771 Y37.075018 Z-0.125000 I0.002451 J1.075839
G01 X13.020165 Y37.094371 Z-0.125000
G01 X13.020165 Y37.094820 Z-0.125000
G00 Z5.000000

(End cutting path id: path4900)


(Start cutting path id: path4900)
(Change tool to Cylindrical cutter)

G00 Z5.000000
G00 X12.258648 Y36.550600

G01 Z-0.125000 F800.0(Penetrate)
G02 X12.371016 Y36.569811 Z-0.125000 I0.101075 J-0.252970 F1000.000000
G02 X12.431355 Y36.543121 Z-0.125000 I-0.003734 J-0.089992
G01 X12.425593 Y36.515074 Z-0.125000
G02 X12.313091 Y36.495801 Z-0.125000 I-0.101304 J0.253344
G02 X12.252900 Y36.522170 Z-0.125000 I0.003557 J0.089999
G01 X12.258671 Y36.550261 Z-0.125000
G01 X12.258648 Y36.550600 Z-0.125000
G00 Z5.000000

(End cutting path id: path4900)


(Start cutting path id: path4900)
(Change tool to Cylindrical cutter)

G00 Z5.000000
G00 X11.825008 Y37.065015

G01 Z-0.125000 F800.0(Penetrate)
G02 X12.043469 Y37.298791 Z-0.125000 I0.234314 J0.000000 F1000.000000
G02 X12.419991 Y37.105279 Z-0.125000 I0.027740 J-0.409086
G01 X12.404133 Y37.064953 Z-0.125000
G02 X12.145703 Y37.030231 Z-0.125000 I-0.258431 J0.944370
G02 X11.841496 Y37.046720 Z-0.125000 I0.000000 J2.814281
G01 X11.825008 Y37.065099 Z-0.125000
G01 X11.825008 Y37.065015 Z-0.125000
G00 Z5.000000

(End cutting path id: path4900)


(Start cutting path id: path4900)
(Change tool to Cylindrical cutter)

G00 Z5.000000
G00 X11.261840 Y37.089935

G01 Z-0.125000 F800.0(Penetrate)
G02 X11.374465 Y37.111787 Z-0.125000 I0.112625 J-0.279304 F1000.000000
G02 X11.487107 Y37.089935 Z-0.125000 I0.000000 J-0.301249
G01 X11.487117 Y37.066343 Z-0.125000
G02 X11.374474 Y37.044441 Z-0.125000 I-0.112643 J0.278712
G02 X11.261830 Y37.066343 Z-0.125000 I0.000000 J0.300613
G01 X11.261840 Y37.089935 Z-0.125000
G01 X11.261840 Y37.089935 Z-0.125000
G00 Z5.000000

(End cutting path id: path4900)


(Start cutting path id: path4900)
(Change tool to Cylindrical cutter)

G00 Z5.000000
G00 X11.393055 Y38.899027

G01 Z-0.125000 F800.0(Penetrate)
G02 X11.997374 Y38.914805 Z-0.125000 I0.607637 J-11.692474 F1000.000000
G02 X12.654556 Y38.899301 Z-0.125000 I0.003903 J-13.770503
G01 X12.654591 Y38.883618 Z-0.125000
G02 X12.050275 Y38.867839 Z-0.125000 I-0.607072 J11.669722
G02 X11.393091 Y38.883320 Z-0.125000 I-0.003483 J13.809107
G01 X11.393055 Y38.898971 Z-0.125000
G01 X11.393055 Y38.899027 Z-0.125000
G00 Z5.000000

(End cutting path id: path4900)


(Start cutting path id: path4900)
(Change tool to Cylindrical cutter)

G00 Z5.000000
G00 X11.036574 Y39.439675

G01 Z-0.125000 F800.0(Penetrate)
G02 X11.644789 Y39.455443 Z-0.125000 I0.608215 J-11.722255 F1000.000000
G02 X12.253017 Y39.439675 Z-0.125000 I0.000000 J-11.738537
G01 X12.253016 Y39.423890 Z-0.125000
G02 X11.644792 Y39.408128 Z-0.125000 I-0.608225 J11.727533
G02 X11.036574 Y39.423891 Z-0.125000 I0.000000 J11.742190
G01 X11.036574 Y39.439675 Z-0.125000
G01 X11.036574 Y39.439675 Z-0.125000
G00 Z5.000000

(End cutting path id: path4900)


(Start cutting path id: path4900)
(Change tool to Cylindrical cutter)

G00 Z5.000000
G00 X13.065033 Y39.526675

G01 Z-0.125000 F800.0(Penetrate)
G02 X13.268160 Y39.545505 Z-0.125000 I0.198186 J-1.032929 F1000.000000
G02 X13.425458 Y39.524982 Z-0.125000 I-0.002988 J-0.635973
G01 X13.424783 Y39.504634 Z-0.125000
G02 X13.221666 Y39.485798 Z-0.125000 I-0.197855 J1.029026
G02 X13.064390 Y39.506549 Z-0.125000 I0.005538 J0.648381
G01 X13.065033 Y39.526811 Z-0.125000
G01 X13.065033 Y39.526675 Z-0.125000
G00 Z5.000000

(End cutting path id: path4900)


(Start cutting path id: path4900)
(Change tool to Cylindrical cutter)

G00 Z5.000000
G00 X13.585928 Y41.344232

G01 Z-0.125000 F800.0(Penetrate)
G03 X13.488301 Y41.476669 Z-0.125000 I-0.243343 J-0.077180 F1000.000000
G03 X13.284940 Y41.553491 Z-0.125000 I-0.254482 J-0.366080
G02 X13.113867 Y41.651716 Z-0.125000 I0.028564 J0.247835
G02 X13.013734 Y41.915348 Z-0.125000 I0.408109 J0.305840
G03 X12.915237 Y42.205705 Z-0.125000 I-0.631680 J-0.052399
G03 X12.676057 Y42.440671 Z-0.125000 I-0.637769 J-0.409989
G03 X12.356065 Y42.573309 Z-0.125000 I-0.569334 J-0.921218
G03 X12.106981 Y42.575322 Z-0.125000 I-0.128955 J-0.545034
G02 X11.881144 Y42.580171 Z-0.125000 I-0.102904 J0.468743
G02 X11.794208 Y42.658258 Z-0.125000 I0.032868 J0.124031
G02 X11.789502 Y42.764387 Z-0.125000 I0.156780 J0.060120
G01 X11.834124 Y42.798071 Z-0.125000
G03 X11.978004 Y42.987910 Z-0.125000 I0.000000 J0.149443
G03 X11.712396 Y43.231768 Z-0.125000 I-0.329746 J-0.092578
G03 X11.606409 Y43.199328 Z-0.125000 I-0.022259 J-0.116635
G03 X11.554706 Y43.074993 Z-0.125000 I0.123645 J-0.124335
G02 X11.463933 Y42.991275 Z-0.125000 I-0.083993 J0.000000
G02 X11.357907 Y43.090939 Z-0.125000 I0.009414 J0.116244
G02 X11.478037 Y43.327780 Z-0.125000 I0.228774 J0.032848
G02 X11.789839 Y43.320970 Z-0.125000 I0.149831 J-0.281325
G02 X12.007871 Y43.123347 Z-0.125000 I-0.370291 J-0.627619
G02 X12.033708 Y42.987313 Z-0.125000 I-0.130270 J-0.095212
G03 X12.058536 Y42.862339 Z-0.125000 I0.141165 J-0.036908
G03 X12.200717 Y42.766671 Z-0.125000 I0.210486 J0.159335
G03 X12.802570 Y42.704779 Z-0.125000 I0.493717 J1.843802
G03 X13.422607 Y42.836075 Z-0.125000 I-0.118575 J2.089658
G02 X14.422417 Y43.091960 Z-0.125000 I1.658390 J-4.398572
G02 X15.821555 Y43.175527 Z-0.125000 I1.214892 J-8.586142
G03 X16.074721 Y43.192596 Z-0.125000 I0.032918 J1.397700
G03 X16.286951 Y43.249249 Z-0.125000 I-0.168829 J1.058313
G02 X16.465600 Y43.262129 Z-0.125000 I0.110808 J-0.291515
G02 X16.547984 Y43.191052 Z-0.125000 I-0.025027 J-0.112290
G02 X16.502908 Y43.032366 Z-0.125000 I-0.128402 J-0.049271
G02 X16.284118 Y42.990118 Z-0.125000 I-0.152019 J0.199611
G03 X15.909451 Y42.969428 Z-0.125000 I-0.156587 J-0.567115
G03 X15.789740 Y42.792757 Z-0.125000 I0.070510 J-0.176671
G02 X15.724740 Y42.682863 Z-0.125000 I-0.125398 J0.000000
G02 X15.471538 Y42.617867 Z-0.125000 I-0.253202 J0.460694
G02 X15.187839 Y42.668045 Z-0.125000 I0.000000 J0.827079
G02 X15.101470 Y42.753023 Z-0.125000 I0.050160 J0.137361
G03 X14.452444 Y43.145522 Z-0.125000 I-0.577124 J-0.221461
G03 X13.829899 Y42.604120 Z-0.125000 I0.085075 J-0.726451
G02 X13.740962 Y42.496451 Z-0.125000 I-0.160429 J0.041953
G02 X13.481502 Y42.437648 Z-0.125000 I-0.259459 J0.543011
G03 X13.295630 Y42.272164 Z-0.125000 I0.000000 J-0.187129
G03 X13.412596 Y41.845941 Z-0.125000 I0.586276 J-0.068272
G03 X13.677939 Y41.595945 Z-0.125000 I0.889996 J0.678818
G03 X13.872596 Y41.536577 Z-0.125000 I0.194658 J0.289442
G03 X14.007216 Y41.617857 Z-0.125000 I0.000000 J0.152123
G03 X14.062259 Y41.897006 Z-0.125000 I-0.440640 J0.231887
G02 X14.081696 Y42.208389 Z-0.125000 I0.990823 J0.094450
G02 X14.142896 Y42.257429 Z-0.125000 I0.061200 J-0.013667
G02 X14.229068 Y42.228637 Z-0.125000 I0.000000 J-0.143344
G02 X14.257915 Y42.170838 Z-0.125000 I-0.043479 J-0.057799
G03 X14.414666 Y41.873543 Z-0.125000 I0.360302 J0.000000
G03 X14.921085 Y41.716788 Z-0.125000 I0.506418 J0.739649
G03 X15.173570 Y41.758985 Z-0.125000 I0.000000 J0.776470
G03 X15.354629 Y41.865917 Z-0.125000 I-0.170171 J0.494888
G02 X15.484927 Y41.937313 Z-0.125000 I0.214707 J-0.237242
G01 X15.519409 Y41.910996 Z-0.125000
G03 X15.813530 Y41.620177 Z-0.125000 I0.290837 J0.000000
G03 X16.277816 Y41.919547 Z-0.125000 I-0.005858 J0.518795
G02 X16.330371 Y41.953028 Z-0.125000 I0.052555 J-0.024508
G02 X16.382934 Y41.919547 Z-0.125000 I0.000000 J-0.058001
G03 X16.458297 Y41.842704 Z-0.125000 I0.146768 J0.068562
G03 X16.612416 Y41.806904 Z-0.125000 I0.154119 J0.313845
G03 X16.710514 Y41.879123 Z-0.125000 I0.000000 J0.102735
G03 X16.750455 Y42.250628 Z-0.125000 I-0.923039 J0.287136
G02 X16.773316 Y42.612411 Z-0.125000 I1.203710 J0.105550
G01 X16.836354 Y42.646476 Z-0.125000
G02 X16.919639 Y42.570040 Z-0.125000 I-0.055322 J-0.143871
G02 X16.961124 Y42.389944 Z-0.125000 I-0.370170 J-0.180096
G03 X17.027313 Y42.229165 Z-0.125000 I0.228369 J0.000000
G03 X17.268530 Y42.079858 Z-0.125000 I0.431746 J0.428016
G02 X17.548960 Y41.950113 Z-0.125000 I-0.423299 J-1.282847
G02 X17.619096 Y41.865931 Z-0.125000 I-0.088537 J-0.145073
G01 X17.583014 Y41.802339 Z-0.125000
G02 X16.046768 Y41.592697 Z-0.125000 I-3.644142 J20.970547
G03 X14.275172 Y41.359906 Z-0.125000 I2.811386 J-28.252856
G03 X13.792988 Y41.224073 Z-0.125000 I0.360259 J-2.202602
G02 X13.675847 Y41.232221 Z-0.125000 I-0.050271 J0.123387
G02 X13.585944 Y41.344285 Z-0.125000 I0.099987 J0.172309
G01 X13.585928 Y41.344232 Z-0.125000
G00 Z5.000000

(End cutting path id: path4900)


(Start cutting path id: path4900)
(Change tool to Cylindrical cutter)

G00 Z5.000000
G00 X12.613442 Y43.306907

G01 Z-0.125000 F800.0(Penetrate)
G02 X12.726072 Y43.328760 Z-0.125000 I0.112630 J-0.279318 F1000.000000
G02 X12.838709 Y43.306907 Z-0.125000 I0.000000 J-0.301206
G01 X12.838718 Y43.283314 Z-0.125000
G02 X12.726075 Y43.261412 Z-0.125000 I-0.112643 J0.278712
G02 X12.613432 Y43.283316 Z-0.125000 I-0.000000 J0.300603
G01 X12.613442 Y43.306907 Z-0.125000
G01 X12.613442 Y43.306907 Z-0.125000
G00 Z5.000000

(End cutting path id: path4900)


(Start cutting path id: path4900)
(Change tool to Cylindrical cutter)

G00 Z5.000000
G00 X12.861241 Y45.142395

G01 Z-0.125000 F800.0(Penetrate)
G02 X14.501032 Y45.335485 Z-0.125000 I2.184116 J-11.488949 F1000.000000
G02 X14.547842 Y45.220932 Z-0.125000 I0.003056 J-0.065591
G02 X14.472970 Y45.188120 Z-0.125000 I-0.087556 J0.097961
G02 X13.491984 Y45.118485 Z-0.125000 I-1.838643 J18.957290
G02 X12.863203 Y45.116212 Z-0.125000 I-0.341927 J7.615879
G01 X12.861241 Y45.142305 Z-0.125000
G01 X12.861241 Y45.142395 Z-0.125000
G00 Z5.000000

(End cutting path id: path4900)


(Start cutting path id: path4900)
(Change tool to Cylindrical cutter)

G00 Z5.000000
G00 X12.906292 Y45.772716

G01 Z-0.125000 F800.0(Penetrate)
G02 X14.291287 Y45.922329 Z-0.125000 I1.685096 J-9.113887 F1000.000000
G02 X14.336041 Y45.819043 Z-0.125000 I0.001960 J-0.060490
G02 X14.285839 Y45.795663 Z-0.125000 I-0.057224 J0.057287
G02 X13.397431 Y45.737351 Z-0.125000 I-1.813272 J20.829003
G02 X12.907876 Y45.744100 Z-0.125000 I-0.186577 J4.224666
G01 X12.906292 Y45.772634 Z-0.125000
G01 X12.906292 Y45.772716 Z-0.125000
G00 Z5.000000

(End cutting path id: path4900)


(Start cutting path id: path4900)
(Change tool to Cylindrical cutter)

G00 Z5.000000
G00 X13.334300 Y46.461812

G01 Z-0.125000 F800.0(Penetrate)
G02 X13.446930 Y46.483666 Z-0.125000 I0.112630 J-0.279317 F1000.000000
G02 X13.559567 Y46.461812 Z-0.125000 I-0.000000 J-0.301207
G01 X13.559577 Y46.438220 Z-0.125000
G02 X13.446934 Y46.416318 Z-0.125000 I-0.112643 J0.278714
G02 X13.334309 Y46.438193 Z-0.125000 I-0.000000 J0.300870
G01 X13.334300 Y46.461812 Z-0.125000
G01 X13.334300 Y46.461812 Z-0.125000
G00 Z5.000000

(End cutting path id: path4900)


(Start cutting path id: path4900)
(Change tool to Cylindrical cutter)

G00 Z5.000000
G00 X11.374474 Y45.625199

G01 Z-0.125000 F800.0(Penetrate)
G02 X11.468835 Y45.729100 Z-0.125000 I0.104383 J0.000000 F1000.000000
G02 X11.871502 Y45.673100 Z-0.125000 I0.084051 J-0.871326
G01 X11.872906 Y45.634968 Z-0.125000
G02 X11.712374 Y45.596971 Z-0.125000 I-0.167805 J0.350838
G02 X11.390827 Y45.607348 Z-0.125000 I-0.057457 J3.206448
G01 X11.374474 Y45.625108 Z-0.125000
G01 X11.374474 Y45.625199 Z-0.125000
G00 Z5.000000

(End cutting path id: path4900)


(Start cutting path id: path4900)
(Change tool to Cylindrical cutter)

G00 Z5.000000
G00 X10.997148 Y45.562435

G01 Z-0.125000 F800.0(Penetrate)
G02 X11.109526 Y45.581669 Z-0.125000 I0.100930 J-0.251786 F1000.000000
G02 X11.169855 Y45.554956 Z-0.125000 I-0.003805 J-0.090074
G01 X11.164093 Y45.526909 Z-0.125000
G02 X11.051590 Y45.507636 Z-0.125000 I-0.101304 J0.253345
G02 X10.991406 Y45.533979 Z-0.125000 I0.003559 J0.090051
G01 X10.997171 Y45.562015 Z-0.125000
G01 X10.997148 Y45.562435 Z-0.125000
G00 Z5.000000

(End cutting path id: path4900)


(Start cutting path id: path4900)
(Change tool to Cylindrical cutter)

G00 Z5.000000
G00 X11.757425 Y45.022318

G01 Z-0.125000 F800.0(Penetrate)
G02 X11.915113 Y45.042581 Z-0.125000 I0.157689 J-0.603462 F1000.000000
G02 X12.072800 Y45.022318 Z-0.125000 I-0.000000 J-0.623709
G01 X12.072785 Y45.001361 Z-0.125000
G02 X11.915116 Y44.981142 Z-0.125000 I-0.157669 J0.604654
G02 X11.757414 Y45.001413 Z-0.125000 I-0.000000 J0.623577
G01 X11.757425 Y45.022318 Z-0.125000
G01 X11.757425 Y45.022318 Z-0.125000
G00 Z5.000000

(End cutting path id: path4900)


(Start cutting path id: path4900)
(Change tool to Cylindrical cutter)

G00 Z5.000000
G00 X10.563508 Y44.074881

G01 Z-0.125000 F800.0(Penetrate)
G03 X10.062488 Y44.614723 Z-0.125000 I-26.793465 J-24.364190 F1000.000000
G03 X9.595691 Y45.096664 Z-0.125000 I-21.840027 J-20.686731
G02 X9.280944 Y45.482644 Z-0.125000 I1.835965 J1.818455
G01 X9.310763 Y45.524456 Z-0.125000
G03 X9.426058 Y45.555794 Z-0.125000 I0.030331 J0.116171
G03 X9.467614 Y45.681603 Z-0.125000 I-0.104418 J0.104258
G03 X9.256709 Y46.006206 Z-0.125000 I-0.459698 J-0.067863
G03 X9.035221 Y45.955717 Z-0.125000 I-0.085686 J-0.135168
G02 X8.945650 Y45.929989 Z-0.125000 I-0.059060 J0.036830
G02 X8.699882 Y46.119243 Z-0.125000 I0.338185 J0.693378
G03 X8.441437 Y46.409217 Z-0.125000 I-9.275198 J-8.006545
G03 X8.030926 Y46.846253 Z-0.125000 I-21.440417 J-19.727817
G02 X7.755315 Y47.197221 Z-0.125000 I1.634638 J1.567364
G01 X7.783134 Y47.235392 Z-0.125000
G03 X7.902952 Y47.252921 Z-0.125000 I0.039246 J0.150010
G03 X7.950406 Y47.337322 Z-0.125000 I-0.051331 J0.084401
G02 X7.982636 Y47.450727 Z-0.125000 I0.215631 J0.000000
G02 X8.040515 Y47.482988 Z-0.125000 I0.057879 J-0.035789
G02 X8.108203 Y47.460456 Z-0.125000 I-0.000000 J-0.112935
G02 X8.130846 Y47.415410 Z-0.125000 I-0.033874 J-0.045241
G03 X8.160186 Y47.339513 Z-0.125000 I0.113819 J0.000380
G03 X9.793465 Y45.573970 Z-0.125000 I73.892759 J66.718890
G02 X9.997738 Y45.321904 Z-0.125000 I-1.520440 J-1.440962
G02 X10.022866 Y45.241176 Z-0.125000 I-0.117111 J-0.080728
G03 X10.050718 Y45.164948 Z-0.125000 I0.118238 J0.000000
G03 X10.209893 Y45.019423 Z-0.125000 I0.638153 J0.538191
G02 X11.361319 Y43.930133 Z-0.125000 I-3.110832 J-4.441482
G02 X11.248803 Y43.698496 Z-0.125000 I-0.112516 J-0.088492
G03 X11.138455 Y43.671150 Z-0.125000 I-0.000000 J-0.236319
G03 X11.089133 Y43.614187 Z-0.125000 I0.048482 J-0.091814
G01 X11.044528 Y43.602601 Z-0.125000
G02 X10.563508 Y44.074881 Z-0.125000 I3.925881 J4.479635
G01 X10.563508 Y44.074881 Z-0.125000
G00 Z5.000000

(End cutting path id: path4900)


(Start cutting path id: path4900)
(Change tool to Cylindrical cutter)

G00 Z5.000000
G00 X8.648732 Y44.749243

G01 Z-0.125000 F800.0(Penetrate)
G02 X8.761363 Y44.771096 Z-0.125000 I0.112631 J-0.279319 F1000.000000
G02 X8.873999 Y44.749243 Z-0.125000 I0.000000 J-0.301202
G01 X8.874009 Y44.725650 Z-0.125000
G02 X8.761366 Y44.703746 Z-0.125000 I-0.112643 J0.278691
G02 X8.648723 Y44.725650 Z-0.125000 I-0.000000 J0.300589
G01 X8.648732 Y44.749243 Z-0.125000
G01 X8.648732 Y44.749243 Z-0.125000
G00 Z5.000000

(End cutting path id: path4900)


(Start cutting path id: path4900)
(Change tool to Cylindrical cutter)

G00 Z5.000000
G00 X7.843405 Y44.750936

G01 Z-0.125000 F800.0(Penetrate)
G02 X7.955785 Y44.770171 Z-0.125000 I0.100931 J-0.251789 F1000.000000
G02 X8.016105 Y44.743457 Z-0.125000 I-0.003804 J-0.090051
G01 X8.010343 Y44.715411 Z-0.125000
G02 X7.897840 Y44.696137 Z-0.125000 I-0.101304 J0.253344
G02 X7.837656 Y44.722481 Z-0.125000 I0.003559 J0.090051
G01 X7.843421 Y44.750516 Z-0.125000
G01 X7.843405 Y44.750936 Z-0.125000
G00 Z5.000000

(End cutting path id: path4900)


(Start cutting path id: path4900)
(Change tool to Cylindrical cutter)

G00 Z5.000000
G00 X7.884538 Y44.211316

G01 Z-0.125000 F800.0(Penetrate)
G02 X8.042498 Y44.230559 Z-0.125000 I0.150608 J-0.578345 F1000.000000
G02 X8.154863 Y44.207986 Z-0.125000 I-0.003813 J-0.309927
G01 X8.153418 Y44.185720 Z-0.125000
G02 X7.995457 Y44.166477 Z-0.125000 I-0.150622 J0.578435
G02 X7.883087 Y44.189025 Z-0.125000 I0.003517 J0.308797
G01 X7.884538 Y44.211308 Z-0.125000
G01 X7.884538 Y44.211316 Z-0.125000
G00 Z5.000000

(End cutting path id: path4900)


(Start cutting path id: path4900)
(Change tool to Cylindrical cutter)

G00 Z5.000000
G00 X6.891648 Y44.121250

G01 Z-0.125000 F800.0(Penetrate)
G02 X7.049335 Y44.141513 Z-0.125000 I0.157687 J-0.603450 F1000.000000
G02 X7.207023 Y44.121250 Z-0.125000 I-0.000000 J-0.623716
G01 X7.207021 Y44.100320 Z-0.125000
G02 X7.049332 Y44.080074 Z-0.125000 I-0.157689 J0.603978
G02 X6.891637 Y44.100345 Z-0.125000 I0.000000 J0.623533
G01 X6.891648 Y44.121250 Z-0.125000
G01 X6.891648 Y44.121250 Z-0.125000
G00 Z5.000000

(End cutting path id: path4900)


(Start cutting path id: path4900)
(Change tool to Cylindrical cutter)

G00 Z5.000000
G00 X6.148264 Y44.695228

G01 Z-0.125000 F800.0(Penetrate)
G01 X6.176930 Y44.739176 Z-0.125000 F1000.000000
G02 X6.238372 Y44.734914 Z-0.125000 I0.026669 J-0.060551
G02 X6.315537 Y44.672033 Z-0.125000 I-0.202080 J-0.326769
G01 X6.328481 Y44.639489 Z-0.125000
G01 X6.312758 Y44.615415 Z-0.125000
G02 X6.238372 Y44.599806 Z-0.125000 I-0.074385 J0.169441
G02 X6.175428 Y44.626931 Z-0.125000 I0.000000 J0.086594
G02 X6.148264 Y44.695237 Z-0.125000 I0.072298 J0.068305
G01 X6.148264 Y44.695228 Z-0.125000
G00 Z5.000000

(End cutting path id: path4900)


(Start cutting path id: path4900)
(Change tool to Cylindrical cutter)

G00 Z5.000000
G00 X6.437170 Y45.297462

G01 Z-0.125000 F800.0(Penetrate)
G02 X7.041483 Y45.313240 Z-0.125000 I0.607631 J-11.692126 F1000.000000
G02 X7.698670 Y45.297736 Z-0.125000 I0.003903 J-13.770632
G01 X7.698708 Y45.282077 Z-0.125000
G02 X7.094389 Y45.266271 Z-0.125000 I-0.607119 J11.651946
G02 X6.437208 Y45.281782 Z-0.125000 I-0.003420 J13.784642
G01 X6.437170 Y45.297488 Z-0.125000
G01 X6.437170 Y45.297462 Z-0.125000
G00 Z5.000000

(End cutting path id: path4900)


(Start cutting path id: path4900)
(Change tool to Cylindrical cutter)

G00 Z5.000000
G00 X4.266660 Y45.246925

G01 Z-0.125000 F800.0(Penetrate)
G02 X3.835878 Y46.026785 Z-0.125000 I7.054864 J4.405902 F1000.000000
G02 X3.827694 Y46.153143 Z-0.125000 I0.151190 J0.073236
G01 X3.864227 Y46.157851 Z-0.125000
G02 X4.141911 Y45.672177 Z-0.125000 I-3.955092 J-2.583541
G02 X4.301999 Y45.262783 Z-0.125000 I-2.255891 J-1.118136
G01 X4.266660 Y45.246925 Z-0.125000
G01 X4.266660 Y45.246925 Z-0.125000
G00 Z5.000000

(End cutting path id: path4900)


(Start cutting path id: path4900)
(Change tool to Cylindrical cutter)

G00 Z5.000000
G00 X3.367978 Y46.839513

G01 Z-0.125000 F800.0(Penetrate)
G02 X3.205574 Y47.020259 Z-0.125000 I0.406665 J0.528735 F1000.000000
G02 X3.187769 Y47.134224 Z-0.125000 I0.128216 J0.078405
G01 X3.245553 Y47.159071 Z-0.125000
G02 X3.476450 Y46.968988 Z-0.125000 I-0.441598 J-0.771699
G02 X3.477379 Y46.851475 Z-0.125000 I-0.068553 J-0.059302
G02 X3.367978 Y46.839513 Z-0.125000 I-0.060937 J0.051052
G01 X3.367978 Y46.839513 Z-0.125000
G00 Z5.000000

(End cutting path id: path4900)


(Start cutting path id: path4900)
(Change tool to Cylindrical cutter)

G00 Z5.000000
G00 X3.060403 Y47.565651

G01 Z-0.125000 F800.0(Penetrate)
G02 X3.064022 Y47.675406 Z-0.125000 I0.186662 J0.048782 F1000.000000
G01 X3.099771 Y47.683840 Z-0.125000
G02 X3.159195 Y47.580177 Z-0.125000 I-0.161371 J-0.161369
G02 X3.155544 Y47.470446 Z-0.125000 I-0.186422 J-0.048722
G01 X3.119759 Y47.461998 Z-0.125000
G02 X3.060340 Y47.565651 Z-0.125000 I0.161338 J0.161345
G01 X3.060403 Y47.565651 Z-0.125000
G00 Z5.000000

(End cutting path id: path4900)


(Start cutting path id: path4900)
(Change tool to Cylindrical cutter)

G00 Z5.000000
G00 X2.324108 Y48.329999

G01 Z-0.125000 F800.0(Penetrate)
G03 X2.066505 Y49.059372 Z-0.125000 I-354.182204 J-124.681371 F1000.000000
G03 X2.025654 Y49.172292 Z-0.125000 I-8.592513 J-3.044698
G02 X2.025652 Y49.256045 Z-0.125000 I0.113231 J0.041879
G01 X2.067122 Y49.284924 Z-0.125000
G02 X2.352203 Y49.101921 Z-0.125000 I-0.000000 J-0.313551
G02 X2.464148 Y48.417917 Z-0.125000 I-1.193328 J-0.546464
G03 X2.490100 Y48.254944 Z-0.125000 I0.316132 J-0.033212
G03 X2.571598 Y48.177749 Z-0.125000 I0.134114 J0.059972
G02 X2.763356 Y47.957747 Z-0.125000 I-0.111639 J-0.290878
G02 X2.684008 Y47.696583 Z-0.125000 I-0.265402 J-0.062000
G01 X2.607441 Y47.708271 Z-0.125000
G02 X2.324111 Y48.329999 Z-0.125000 I3.337202 J1.896232
G01 X2.324108 Y48.329999 Z-0.125000
G00 Z5.000000

(End cutting path id: path4900)


(Start cutting path id: path4900)
(Change tool to Cylindrical cutter)

G00 Z5.000000
G00 X3.311983 Y50.027817

G01 Z-0.125000 F800.0(Penetrate)
G03 X3.167545 Y50.071624 Z-0.125000 I-0.172313 J-0.308124 F1000.000000
G03 X3.000281 Y50.052399 Z-0.125000 I-0.034570 J-0.436467
G02 X2.845654 Y50.041892 Z-0.125000 I-0.098842 J0.311567
G02 X2.771518 Y50.092000 Z-0.125000 I0.018607 J0.107427
G01 X2.795416 Y50.140061 Z-0.125000
G02 X3.770127 Y50.185771 Z-0.125000 I0.974711 J-10.369412
G02 X4.777292 Y50.165288 Z-0.125000 I0.000000 J-24.771958
G01 X4.785394 Y50.144510 Z-0.125000
G02 X4.139605 Y49.846600 Z-0.125000 I-0.726945 J0.726916
G02 X3.311983 Y50.027843 Z-0.125000 I-0.115169 J1.454332
G01 X3.311983 Y50.027817 Z-0.125000
G00 Z5.000000

(End cutting path id: path4900)


(Start cutting path id: path4900)
(Change tool to Cylindrical cutter)

G00 Z5.000000
G00 X4.638972 Y48.269593

G01 Z-0.125000 F800.0(Penetrate)
G02 X4.976867 Y48.287196 Z-0.125000 I0.337895 J-3.234031 F1000.000000
G02 X5.314773 Y48.269593 Z-0.125000 I-0.000000 J-3.251860
G01 X5.314775 Y48.251873 Z-0.125000
G02 X4.976872 Y48.234227 Z-0.125000 I-0.337903 J3.226513
G02 X4.638970 Y48.251871 Z-0.125000 I0.000000 J3.244409
G01 X4.638972 Y48.269593 Z-0.125000
G01 X4.638972 Y48.269593 Z-0.125000
G00 Z5.000000

(End cutting path id: path4900)


(Start cutting path id: path4900)
(Change tool to Cylindrical cutter)

G00 Z5.000000
G00 X4.684022 Y47.636478

G01 Z-0.125000 F800.0(Penetrate)
G02 X4.886764 Y47.655849 Z-0.125000 I0.202742 J-1.051250 F1000.000000
G02 X5.089506 Y47.636478 Z-0.125000 I0.000000 J-1.070622
G01 X5.089501 Y47.616776 Z-0.125000
G02 X4.886764 Y47.597458 Z-0.125000 I-0.202737 J1.054147
G02 X4.684026 Y47.616780 Z-0.125000 I-0.000000 J1.073259
G01 X4.684022 Y47.636478 Z-0.125000
G01 X4.684022 Y47.636478 Z-0.125000
G00 Z5.000000

(End cutting path id: path4900)


(Start cutting path id: path4900)
(Change tool to Cylindrical cutter)

G00 Z5.000000
G00 X4.945700 Y47.055089

G01 Z-0.125000 F800.0(Penetrate)
G02 X5.005137 Y47.090328 Z-0.125000 I0.063455 J-0.039283 F1000.000000
G02 X5.950843 Y47.109134 Z-0.125000 I0.749411 J-13.898008
G01 X5.958101 Y47.065655 Z-0.125000
G02 X5.683771 Y47.013207 Z-0.125000 I-0.303992 J0.846363
G02 X4.962827 Y47.021971 Z-0.125000 I-0.263675 J7.967006
G01 X4.945700 Y47.055049 Z-0.125000
G01 X4.945700 Y47.055089 Z-0.125000
G00 Z5.000000

(End cutting path id: path4900)


(Start cutting path id: path4900)
(Change tool to Cylindrical cutter)

G00 Z5.000000
G00 X7.226689 Y47.822251

G01 Z-0.125000 F800.0(Penetrate)
G02 X7.067416 Y48.053989 Z-0.125000 I1.719003 J1.352071 F1000.000000
G02 X7.049332 Y48.119608 Z-0.125000 I0.110014 J0.065620
G03 X7.022558 Y48.171875 Z-0.125000 I-0.064403 J0.000000
G03 X6.870702 Y48.248192 Z-0.125000 I-0.314976 J-0.437502
G02 X6.725105 Y48.342682 Z-0.125000 I0.098725 J0.311538
G02 X6.545060 Y48.614688 Z-0.125000 I0.863721 J0.767300
G03 X6.370250 Y48.880524 Z-0.125000 I-1.039987 J-0.493485
G03 X6.273157 Y48.924495 Z-0.125000 I-0.097094 J-0.085214
G02 X6.175848 Y48.952063 Z-0.125000 I0.000000 J0.185523
G02 X6.148264 Y49.001454 Z-0.125000 I0.030428 J0.049391
G03 X6.127061 Y49.070152 Z-0.125000 I-0.121891 J0.000000
G03 X5.945523 Y49.298640 Z-0.125000 I-1.660510 J-1.132948
G02 X5.255830 Y50.184186 Z-0.125000 I5.019786 J4.620923
G02 X5.270888 Y50.329835 Z-0.125000 I0.097149 J0.063559
G01 X5.313569 Y50.343028 Z-0.125000
G02 X5.582800 Y50.271304 Z-0.125000 I-0.340537 J-1.819456
G02 X5.805319 Y50.129228 Z-0.125000 I-0.188408 J-0.540378
G02 X5.910698 Y49.933002 Z-0.125000 I-0.292444 J-0.283458
G03 X6.012847 Y49.716330 Z-0.125000 I0.525421 J0.115293
G03 X6.772333 Y48.834443 Z-0.125000 I9.983857 J7.830173
G02 X7.666412 Y47.746057 Z-0.125000 I-7.411692 J-6.999923
G02 X7.623348 Y47.638758 Z-0.125000 I-0.055963 J-0.039831
G02 X7.428652 Y47.662679 Z-0.125000 I-0.060162 J0.314630
G02 X7.226689 Y47.822307 Z-0.125000 I0.231762 J0.500805
G01 X7.226689 Y47.822251 Z-0.125000
G00 Z5.000000

(End cutting path id: path4900)


(Start cutting path id: path4900)
(Change tool to Cylindrical cutter)

G00 Z5.000000
G00 X8.626207 Y48.474170

G01 Z-0.125000 F800.0(Penetrate)
G01 X8.631040 Y48.530653 Z-0.125000 F1000.000000
G02 X8.705674 Y48.564272 Z-0.125000 I0.074633 J-0.066032
G02 X8.825804 Y48.537356 Z-0.125000 I0.000000 J-0.281536
G02 X8.896529 Y48.474170 Z-0.125000 I-0.071160 J-0.150825
G01 X8.891695 Y48.417689 Z-0.125000
G02 X8.817055 Y48.384068 Z-0.125000 I-0.074641 J0.066043
G02 X8.696927 Y48.410986 Z-0.125000 I0.000000 J0.281504
G02 X8.626206 Y48.474170 Z-0.125000 I0.071171 J0.150833
G01 X8.626207 Y48.474170 Z-0.125000
G00 Z5.000000

(End cutting path id: path4900)


(Start cutting path id: path4900)
(Change tool to Cylindrical cutter)

G00 Z5.000000
G00 X9.076741 Y47.936618

G01 Z-0.125000 F800.0(Penetrate)
G02 X9.618369 Y47.986668 Z-0.125000 I1.072896 J-8.654984 F1000.000000
G02 X10.112974 Y47.999712 Z-0.125000 I0.435794 J-7.140657
G01 X10.608565 Y47.995563 Z-0.125000
G01 X10.022866 Y47.929729 Z-0.125000
G02 X9.436378 Y47.878957 Z-0.125000 I-1.287093 J11.454988
G02 X8.986633 Y47.866636 Z-0.125000 I-0.409114 J6.718723
G01 X8.536099 Y47.869176 Z-0.125000
G01 X9.076741 Y47.936257 Z-0.125000
G01 X9.076741 Y47.936618 Z-0.125000
G00 Z5.000000

(End cutting path id: path4900)


(Start cutting path id: path4900)
(Change tool to Cylindrical cutter)

G00 Z5.000000
G00 X9.437174 Y48.564272

G01 Z-0.125000 F800.0(Penetrate)
G02 X9.710257 Y48.610734 Z-0.125000 I0.423377 J-1.662658 F1000.000000
G02 X10.203083 Y48.631684 Z-0.125000 I0.477858 J-5.434140
G01 X10.698667 Y48.629990 Z-0.125000
G01 X10.248133 Y48.559838 Z-0.125000
G02 X9.796487 Y48.504860 Z-0.125000 I-1.048004 J6.726744
G02 X9.482224 Y48.492427 Z-0.125000 I-0.286099 J3.253494
G01 X9.166849 Y48.494967 Z-0.125000
G01 X9.437174 Y48.563789 Z-0.125000
G01 X9.437174 Y48.564272 Z-0.125000
G00 Z5.000000

(End cutting path id: path4900)


(Start cutting path id: path4900)
(Change tool to Cylindrical cutter)

G00 Z5.000000
G00 X10.721199 Y48.083439

G01 Z-0.125000 F800.0(Penetrate)
G02 X10.833823 Y48.105291 Z-0.125000 I0.112625 J-0.279304 F1000.000000
G02 X10.946466 Y48.083439 Z-0.125000 I-0.000000 J-0.301249
G01 X10.946476 Y48.059845 Z-0.125000
G02 X10.833832 Y48.037942 Z-0.125000 I-0.112643 J0.278691
G02 X10.721207 Y48.059818 Z-0.125000 I0.000000 J0.300847
G01 X10.721199 Y48.083439 Z-0.125000
G01 X10.721199 Y48.083439 Z-0.125000
G00 Z5.000000

(End cutting path id: path4900)


(Start cutting path id: path4900)
(Change tool to Cylindrical cutter)

G00 Z5.000000
G00 X11.038288 Y48.716813

G01 Z-0.125000 F800.0(Penetrate)
G02 X11.196246 Y48.736058 Z-0.125000 I0.150607 J-0.578297 F1000.000000
G02 X11.308606 Y48.713483 Z-0.125000 I-0.003812 J-0.309885
G01 X11.307161 Y48.691217 Z-0.125000
G02 X11.149208 Y48.671974 Z-0.125000 I-0.150604 J0.578318
G02 X11.036841 Y48.694514 Z-0.125000 I0.003518 J0.308886
G01 X11.038288 Y48.716805 Z-0.125000
G01 X11.038288 Y48.716813 Z-0.125000
G00 Z5.000000

(End cutting path id: path4900)


(Start cutting path id: path4900)
(Change tool to Cylindrical cutter)

G00 Z5.000000
G00 X12.005224 Y48.744471

G01 Z-0.125000 F800.0(Penetrate)
G02 X12.394885 Y48.805344 Z-0.125000 I0.389661 J-1.216705 F1000.000000
G02 X12.455758 Y48.744471 Z-0.125000 I-0.000000 J-0.060873
G02 X12.416501 Y48.694674 Z-0.125000 I-0.051212 J0.000000
G02 X12.117857 Y48.663360 Z-0.125000 I-0.268035 J1.116518
G02 X11.998751 Y48.703573 Z-0.125000 I0.005886 J0.213931
G01 X12.005224 Y48.744471 Z-0.125000
G01 X12.005224 Y48.744471 Z-0.125000
G00 Z5.000000

(End cutting path id: path4900)


(Start cutting path id: path4900)
(Change tool to Cylindrical cutter)

G00 Z5.000000
G00 X11.960166 Y48.115900

G01 Z-0.125000 F800.0(Penetrate)
G01 X11.239309 Y48.162972 Z-0.125000 F1000.000000
G01 X11.942859 Y48.205974 Z-0.125000
G02 X12.642852 Y48.223702 Z-0.125000 I0.598027 J-9.784692
G02 X12.792289 Y48.197169 Z-0.125000 I-0.004796 J-0.461101
G01 X12.783946 Y48.129118 Z-0.125000
G02 X11.960166 Y48.115894 Z-0.125000 I-0.493018 J5.047361
G01 X11.960166 Y48.115900 Z-0.125000
G00 Z5.000000

(End cutting path id: path4900)


(Start cutting path id: path4900)
(Change tool to Cylindrical cutter)

G00 Z5.000000
G00 X14.438109 Y49.337773

G01 Z-0.125000 F800.0(Penetrate)
G01 X14.212842 Y49.559594 Z-0.125000 F1000.000000
G01 X14.459937 Y49.444961 Z-0.125000
G02 X14.668705 Y49.305702 Z-0.125000 I-0.343870 J-0.741624
G02 X14.707729 Y49.217687 Z-0.125000 I-0.081439 J-0.088767
G01 X14.659918 Y49.186482 Z-0.125000
G02 X14.438109 Y49.337773 Z-0.125000 I0.305717 J0.686460
G01 X14.438109 Y49.337773 Z-0.125000
G00 Z5.000000

(End cutting path id: path4900)


(Start cutting path id: path4900)
(Change tool to Cylindrical cutter)

G00 Z5.000000
G00 X13.987575 Y50.208866

G01 Z-0.125000 F800.0(Penetrate)
G03 X13.968196 Y50.268452 Z-0.125000 I-0.101295 J0.000000 F1000.000000
G03 X13.807360 Y50.456665 Z-0.125000 I-1.280697 J-0.931583
G01 X13.627149 Y50.636875 Z-0.125000
G01 X13.829891 Y50.634335 Z-0.125000
G02 X14.368454 Y50.466810 Z-0.125000 I-0.015542 J-0.999420
G02 X14.528217 Y50.168437 Z-0.125000 I-0.198739 J-0.298373
G01 X14.515439 Y50.154333 Z-0.125000
G02 X14.257900 Y50.141626 Z-0.125000 I-0.257539 J2.603471
G02 X14.017163 Y50.171298 Z-0.125000 I0.000000 J0.991416
G01 X13.987575 Y50.209204 Z-0.125000
G01 X13.987575 Y50.208866 Z-0.125000
G00 Z5.000000

(End cutting path id: path4900)


(Start cutting path id: path4900)
(Change tool to Cylindrical cutter)

G00 Z5.000000
G00 X14.573274 Y51.087398

G01 Z-0.125000 F800.0(Penetrate)
G02 X14.569019 Y51.148848 Z-0.125000 I0.056251 J0.034767 F1000.000000
G01 X14.612983 Y51.177509 Z-0.125000
G02 X14.681235 Y51.150395 Z-0.125000 I-0.000000 J-0.099461
G02 X14.708411 Y51.087398 Z-0.125000 I-0.059431 J-0.062997
G02 X14.692723 Y51.012947 Z-0.125000 I-0.184509 J-0.000000
G01 X14.668702 Y50.997287 Z-0.125000
G01 X14.636151 Y51.010230 Z-0.125000
G02 X14.573282 Y51.087398 Z-0.125000 I0.263150 J0.278584
G01 X14.573274 Y51.087398 Z-0.125000
G00 Z5.000000

(End cutting path id: path4900)


(Start cutting path id: path4900)
(Change tool to Cylindrical cutter)

G00 Z5.000000
G00 X15.158968 Y50.362677

G01 Z-0.125000 F800.0(Penetrate)
G02 X15.480576 Y50.516628 Z-0.125000 I1.364666 J-2.437931 F1000.000000
G02 X15.607028 Y50.542997 Z-0.125000 I0.136929 J-0.340254
G01 X15.633878 Y50.451555 Z-0.125000
G02 X15.113917 Y50.244739 Z-0.125000 I-0.880603 J1.456912
G01 X15.085575 Y50.277745 Z-0.125000
G02 X15.158980 Y50.362677 Z-0.125000 I0.153873 J-0.058803
G01 X15.158968 Y50.362677 Z-0.125000
G00 Z5.000000

(End cutting path id: path4900)


(Start cutting path id: path4900)
(Change tool to Cylindrical cutter)

G00 Z5.000000
G00 X14.991626 Y48.487163

G01 Z-0.125000 F800.0(Penetrate)
G02 X14.908420 Y48.668368 Z-0.125000 I0.664086 J0.414642 F1000.000000
G01 X14.920155 Y48.716048 Z-0.125000
G01 X14.957598 Y48.715852 Z-0.125000
G02 X15.068860 Y48.564396 Z-0.125000 I-0.473861 J-0.464699
G02 X15.056328 Y48.479803 Z-0.125000 I-0.063257 J-0.033854
G01 X14.991626 Y48.487189 Z-0.125000
G01 X14.991626 Y48.487163 Z-0.125000
G00 Z5.000000

(End cutting path id: path4900)


(Start cutting path id: path4900)
(Change tool to Cylindrical cutter)

G00 Z5.000000
G00 X15.335958 Y48.038077

G01 Z-0.125000 F800.0(Penetrate)
G01 X15.344496 Y48.092429 Z-0.125000 F1000.000000
G01 X15.390851 Y48.092952 Z-0.125000
G02 X15.507322 Y47.936880 Z-0.125000 I-0.403980 J-0.422971
G01 X15.498781 Y47.882497 Z-0.125000
G01 X15.452385 Y47.881969 Z-0.125000
G02 X15.335933 Y48.038035 Z-0.125000 I0.404014 J0.422943
G01 X15.335958 Y48.038077 Z-0.125000
G00 Z5.000000

(End cutting path id: path4900)


(Start cutting path id: path4900)
(Change tool to Cylindrical cutter)

G00 Z5.000000
G00 X16.475886 Y46.172989

G01 Z-0.125000 F800.0(Penetrate)
G02 X16.347341 Y46.400163 Z-0.125000 I1.676358 J1.098515 F1000.000000
G02 X16.330359 Y46.474400 Z-0.125000 I0.153775 J0.074237
G03 X16.307214 Y46.543504 Z-0.125000 I-0.114734 J-0.000000
G03 X16.141889 Y46.724273 Z-0.125000 I-1.037042 J-0.782452
G02 X15.594310 Y47.422894 Z-0.125000 I1.755674 J1.940003
G02 X15.685264 Y47.571522 Z-0.125000 I0.088749 J0.047833
G02 X15.731051 Y47.547306 Z-0.125000 I-0.000990 J-0.057267
G02 X16.014985 Y47.105118 Z-0.125000 I-4.843667 J-3.422425
G03 X16.286396 Y46.640654 Z-0.125000 I98.949806 J57.510119
G03 X16.490672 Y46.295451 Z-0.125000 I54.868957 J32.236084
G02 X16.514689 Y46.182070 Z-0.125000 I-0.154165 J-0.091890
G01 X16.475904 Y46.172989 Z-0.125000
G01 X16.475886 Y46.172989 Z-0.125000
G00 Z5.000000

(End cutting path id: path4900)


(Start cutting path id: path4900)
(Change tool to Cylindrical cutter)

G00 Z5.000000
G00 X16.822440 Y45.594614

G01 Z-0.125000 F800.0(Penetrate)
G02 X16.772200 Y45.698957 Z-0.125000 I0.151757 J0.137336 F1000.000000
G01 X16.801502 Y45.722805 Z-0.125000
G02 X16.925211 Y45.644969 Z-0.125000 I-0.134665 J-0.351259
G02 X16.996362 Y45.538717 Z-0.125000 I-0.198016 J-0.209549
G01 X16.963259 Y45.503729 Z-0.125000
G02 X16.822434 Y45.594592 Z-0.125000 I0.098931 J0.307892
