%
(Header)
(Generated by gcodetools from Inkscape.)
(Using default header. To add your own header create file "header" in the output dir.)
M3
(Header end.)
G21 (All units in mm)

(Start cutting path id: path825)
(Change tool to Cylindrical cutter)

G00 Z5.000000
G00 X31.191915 Y8.808110

G01 Z-0.125000 F1000.0(Penetrate)
G02 X31.211954 Y8.911329 Z-0.125000 I0.275856 J0.000000 F1200.000000
G01 X31.233565 Y8.911330 Z-0.125000
G02 X31.253602 Y8.808085 Z-0.125000 I-0.255973 J-0.103245
G02 X31.233565 Y8.704890 Z-0.125000 I-0.275750 J-0.000000
G01 X31.211949 Y8.704890 Z-0.125000
G02 X31.191915 Y8.808110 Z-0.125000 I0.255898 J0.103220
G01 X31.191915 Y8.808110 Z-0.125000
G00 Z5.000000

(End cutting path id: path825)


(Start cutting path id: path825)
(Change tool to Cylindrical cutter)

G00 Z5.000000
G00 X31.274489 Y9.468700

G01 Z-0.125000 F1000.0(Penetrate)
G02 X31.294531 Y9.571922 Z-0.125000 I0.275826 J0.000000 F1200.000000
G01 X31.316139 Y9.571920 Z-0.125000
G02 X31.336185 Y9.468675 Z-0.125000 I-0.255861 J-0.103245
G02 X31.316139 Y9.365480 Z-0.125000 I-0.275646 J-0.000000
G01 X31.294529 Y9.365475 Z-0.125000
G02 X31.274489 Y9.468700 Z-0.125000 I0.255831 J0.103225
G01 X31.274489 Y9.468700 Z-0.125000
G00 Z5.000000

(End cutting path id: path825)


(Start cutting path id: path825)
(Change tool to Cylindrical cutter)

G00 Z5.000000
G00 X31.350545 Y10.177460

G01 Z-0.125000 F1000.0(Penetrate)
G02 X31.374741 Y10.232626 Z-0.125000 I0.082841 J-0.003445 F1200.000000
G01 X31.400435 Y10.227360 Z-0.125000
G02 X31.418113 Y10.124242 Z-0.125000 I-0.232033 J-0.092852
G02 X31.393935 Y10.069090 Z-0.125000 I-0.082753 J0.003402
G01 X31.368247 Y10.074368 Z-0.125000
G02 X31.350565 Y10.177460 Z-0.125000 I0.231862 J0.092832
G01 X31.350545 Y10.177460 Z-0.125000
G00 Z5.000000

(End cutting path id: path825)


(Start cutting path id: path825)
(Change tool to Cylindrical cutter)

G00 Z5.000000
G00 X31.439639 Y10.789890

G01 Z-0.125000 F1000.0(Penetrate)
G02 X31.459678 Y10.893109 Z-0.125000 I0.275856 J0.000000 F1200.000000
G01 X31.481289 Y10.893110 Z-0.125000
G02 X31.501311 Y10.789861 Z-0.125000 I-0.256205 J-0.103249
G02 X31.481289 Y10.686680 Z-0.125000 I-0.275879 J-0.000000
G01 X31.459669 Y10.686682 Z-0.125000
G02 X31.439639 Y10.789890 Z-0.125000 I0.255890 J0.103208
G01 X31.439639 Y10.789890 Z-0.125000
G00 Z5.000000

(End cutting path id: path825)


(Start cutting path id: path825)
(Change tool to Cylindrical cutter)

G00 Z5.000000
G00 X31.522211 Y11.450530

G01 Z-0.125000 F1000.0(Penetrate)
G02 X31.542249 Y11.553740 Z-0.125000 I0.275814 J-0.000000 F1200.000000
G01 X31.563861 Y11.553740 Z-0.125000
G02 X31.583906 Y11.450500 Z-0.125000 I-0.255849 J-0.103240
G02 X31.563861 Y11.347310 Z-0.125000 I-0.275633 J-0.000000
G01 X31.542241 Y11.347312 Z-0.125000
G02 X31.522211 Y11.450530 Z-0.125000 I0.255932 J0.103218
G01 X31.522211 Y11.450530 Z-0.125000
G00 Z5.000000

(End cutting path id: path825)


(Start cutting path id: path825)
(Change tool to Cylindrical cutter)

G00 Z5.000000
G00 X31.604786 Y12.111100

G01 Z-0.125000 F1000.0(Penetrate)
G02 X31.624825 Y12.214319 Z-0.125000 I0.275856 J0.000000 F1200.000000
G01 X31.646436 Y12.214320 Z-0.125000
G02 X31.666482 Y12.111075 Z-0.125000 I-0.255861 J-0.103245
G02 X31.646436 Y12.007880 Z-0.125000 I-0.275646 J0.000000
G01 X31.624816 Y12.007882 Z-0.125000
G02 X31.604786 Y12.111100 Z-0.125000 I0.255932 J0.103218
G01 X31.604786 Y12.111100 Z-0.125000
G00 Z5.000000

(End cutting path id: path825)


(Start cutting path id: path825)
(Change tool to Cylindrical cutter)

G00 Z5.000000
G00 X31.687361 Y12.771620

G01 Z-0.125000 F1000.0(Penetrate)
G02 X31.707400 Y12.874839 Z-0.125000 I0.275856 J0.000000 F1200.000000
G01 X31.729011 Y12.874840 Z-0.125000
G02 X31.749057 Y12.771595 Z-0.125000 I-0.255861 J-0.103245
G02 X31.729011 Y12.668400 Z-0.125000 I-0.275646 J0.000000
G01 X31.707391 Y12.668402 Z-0.125000
G02 X31.687361 Y12.771620 Z-0.125000 I0.255932 J0.103218
G01 X31.687361 Y12.771620 Z-0.125000
G00 Z5.000000

(End cutting path id: path825)


(Start cutting path id: path825)
(Change tool to Cylindrical cutter)

G00 Z5.000000
G00 X31.763415 Y13.480810

G01 Z-0.125000 F1000.0(Penetrate)
G02 X31.787614 Y13.535978 Z-0.125000 I0.082836 J-0.003444 F1200.000000
G01 X31.813305 Y13.530710 Z-0.125000
G02 X31.830981 Y13.427601 Z-0.125000 I-0.232010 J-0.092843
G02 X31.806805 Y13.372440 Z-0.125000 I-0.082784 J0.003404
G01 X31.781116 Y13.377717 Z-0.125000
G02 X31.763435 Y13.480820 Z-0.125000 I0.231790 J0.092818
G01 X31.763415 Y13.480810 Z-0.125000
G00 Z5.000000

(End cutting path id: path825)


(Start cutting path id: path825)
(Change tool to Cylindrical cutter)

G00 Z5.000000
G00 X31.935084 Y14.753690

G01 Z-0.125000 F1000.0(Penetrate)
G02 X31.955123 Y14.856909 Z-0.125000 I0.275856 J0.000000 F1200.000000
G01 X31.976734 Y14.856910 Z-0.125000
G02 X31.996780 Y14.753665 Z-0.125000 I-0.255861 J-0.103245
G02 X31.976734 Y14.650470 Z-0.125000 I-0.275646 J0.000000
G01 X31.955114 Y14.650472 Z-0.125000
G02 X31.935084 Y14.753690 Z-0.125000 I0.255932 J0.103218
G01 X31.935084 Y14.753690 Z-0.125000
G00 Z5.000000

(End cutting path id: path825)


(Start cutting path id: path825)
(Change tool to Cylindrical cutter)

G00 Z5.000000
G00 X33.092961 Y15.311090

G01 Z-0.125000 F1000.0(Penetrate)
G03 X33.089421 Y15.703193 Z-0.125000 I-11.286973 J0.094180 F1200.000000
G03 X33.059591 Y16.570350 Z-0.125000 I-54.283448 J-1.433278
G02 X33.048598 Y17.434554 Z-0.125000 I14.570167 J0.617504
G02 X33.077781 Y17.643810 Z-0.125000 I0.870435 J-0.014727
G01 X33.137936 Y17.669506 Z-0.125000
G02 X33.227797 Y17.561210 Z-0.125000 I-0.092686 J-0.168339
G02 X33.373205 Y16.639589 Z-0.125000 I-2.758990 J-0.907577
G02 X33.222597 Y16.488320 Z-0.125000 I-0.152008 J0.000735
G03 X33.011509 Y16.268304 Z-0.125000 I0.001738 J-0.212936
G03 X33.243237 Y15.868430 Z-0.125000 I0.488944 J0.016264
G02 X33.290597 Y15.797725 Z-0.125000 I-0.054106 J-0.087455
G02 X33.325817 Y15.368120 Z-0.125000 I-2.602463 J-0.429605
G02 X33.274391 Y14.970255 Z-0.125000 I-1.564801 J0.000000
G02 X33.207700 Y14.918830 Z-0.125000 I-0.066691 J0.017533
G02 X33.140430 Y14.969242 Z-0.125000 I0.000000 J0.070089
G02 X33.092971 Y15.311060 Z-0.125000 I1.133747 J0.331617
G01 X33.092961 Y15.311090 Z-0.125000
G00 Z5.000000

(End cutting path id: path825)


(Start cutting path id: path825)
(Change tool to Cylindrical cutter)

G00 Z5.000000
G00 X34.029488 Y15.081140

G01 Z-0.125000 F1000.0(Penetrate)
G02 X33.425681 Y17.277205 Z-0.125000 I3.442346 J2.127511 F1200.000000
G02 X34.086488 Y18.439140 Z-0.125000 I1.393466 J-0.023609
G03 X34.172366 Y18.658508 Z-0.125000 I-0.103212 J0.166899
G03 X33.986398 Y18.799900 Z-0.125000 I-0.185968 J-0.051602
G02 X33.852781 Y18.831466 Z-0.125000 I-0.000000 J0.298585
G02 X33.821251 Y18.882500 Z-0.125000 I0.025538 J0.051034
G02 X33.850028 Y18.936293 Z-0.125000 I0.064666 J0.000000
G02 X33.945111 Y18.965100 Z-0.125000 I0.095083 J-0.142515
G03 X34.093506 Y19.149573 Z-0.125000 I0.000000 J0.151923
G03 X33.820929 Y19.531240 Z-0.125000 I-0.582362 J-0.127741
G02 X33.691371 Y19.693331 Z-0.125000 I0.157171 J0.258449
G02 X33.724209 Y19.819040 Z-0.125000 I0.112415 J0.037778
G02 X33.886529 Y19.927441 Z-0.125000 I0.448191 J-0.495391
G02 X34.013542 Y19.955990 Z-0.125000 I0.127013 J-0.268266
G03 X34.104290 Y20.003255 Z-0.125000 I-0.000000 J0.110750
G03 X34.151545 Y20.153240 Z-0.125000 I-0.214396 J0.149985
G03 X34.085188 Y20.296802 Z-0.125000 I-0.188476 J0.000000
G03 X33.841891 Y20.416640 Z-0.125000 I-0.359094 J-0.422148
G01 X33.532238 Y20.482840 Z-0.125000
G01 X33.861736 Y20.529140 Z-0.125000
G03 X34.146782 Y20.622056 Z-0.125000 I-0.119414 J0.850023
G03 X34.218730 Y20.719890 Z-0.125000 I-0.066320 J0.124145
G03 X34.195070 Y20.822055 Z-0.125000 I-0.127524 J0.024289
G03 X34.110414 Y20.864390 Z-0.125000 I-0.084656 J-0.063474
G01 X34.067857 Y20.903034 Z-0.125000
G02 X34.098444 Y20.988260 Z-0.125000 I0.105604 J0.010202
G02 X34.227885 Y21.098634 Z-0.125000 I0.760129 J-0.760352
G02 X34.269493 Y21.112120 Z-0.125000 I0.041608 J-0.057443
G01 X34.297415 Y21.092879 Z-0.125000
G02 X34.316673 Y20.988260 Z-0.125000 I-0.274546 J-0.104619
G03 X34.394827 Y20.900661 Z-0.125000 I0.088170 J0.000000
G03 X34.652399 Y20.949860 Z-0.125000 I0.049985 J0.437145
G03 X34.746748 Y21.279155 Z-0.125000 I-0.112616 J0.210431
G03 X34.322101 Y21.524970 Z-0.125000 I-0.424647 J-0.243882
G02 X34.216100 Y21.589527 Z-0.125000 I0.000000 J0.119304
G02 X34.151526 Y21.855270 Z-0.125000 I0.514524 J0.265743
G02 X34.167884 Y22.169188 Z-0.125000 I3.020297 J-0.000000
G01 X34.186056 Y22.185560 Z-0.125000
G03 X34.219679 Y22.190558 Z-0.125000 I-0.000000 J0.115604
G03 X34.351204 Y22.235660 Z-0.125000 I-0.573838 J1.887717
G02 X34.428709 Y22.208347 Z-0.125000 I0.022704 J-0.059198
G02 X34.483082 Y22.008590 Z-0.125000 I-0.346456 J-0.201581
G03 X34.613542 Y21.640180 Z-0.125000 I0.593315 J0.002798
G03 X34.859756 Y21.538980 Z-0.125000 I0.214667 J0.172163
G03 X35.205319 Y21.759980 Z-0.125000 I-0.053605 J0.464486
G03 X35.275307 Y22.220230 Z-0.125000 I-0.514167 J0.313633
G03 X35.159230 Y22.367179 Z-0.125000 I-0.221408 J-0.055573
G03 X34.893179 Y22.418970 Z-0.125000 I-0.220656 J-0.424263
G02 X34.664799 Y22.433289 Z-0.125000 I-0.069139 J0.725681
G01 X34.653438 Y22.472570 Z-0.125000
G02 X34.750875 Y22.526408 Z-0.125000 I0.142498 J-0.142804
G02 X35.022844 Y22.557170 Z-0.125000 I0.271969 J-1.186868
G02 X35.252544 Y22.502220 Z-0.125000 I-0.000000 J-0.507570
G02 X35.307536 Y22.412660 Z-0.125000 I-0.045459 J-0.089576
G03 X35.340149 Y22.300737 Z-0.125000 I0.208475 J0.000034
G03 X35.399506 Y22.268160 Z-0.125000 I0.059357 J0.037788
G01 X35.444282 Y22.227537 Z-0.125000
G02 X35.435736 Y21.896570 Z-0.125000 I-1.342713 J-0.130922
G03 X35.573775 Y21.704174 Z-0.125000 I0.167990 J-0.025190
G03 X35.896844 Y21.813970 Z-0.125000 I0.062193 J0.347205
G02 X36.174348 Y22.070152 Z-0.125000 I1.607112 J-1.462477
G02 X36.270430 Y22.102980 Z-0.125000 I0.096082 J-0.124196
G03 X36.343352 Y22.140669 Z-0.125000 I0.000000 J0.089390
G03 X36.381024 Y22.258940 Z-0.125000 I-0.166817 J0.118271
G03 X36.325195 Y22.368569 Z-0.125000 I-0.135552 J0.000000
G03 X36.092015 Y22.469110 Z-0.125000 I-0.339650 J-0.467066
G02 X35.850881 Y22.563056 Z-0.125000 I0.128704 J0.686789
G02 X35.803005 Y22.649350 Z-0.125000 I0.053834 J0.086294
G01 X35.840661 Y22.684578 Z-0.125000
G02 X35.938255 Y22.640350 Z-0.125000 I-0.010149 J-0.152183
G03 X36.091580 Y22.553564 Z-0.125000 I0.233110 J0.233005
G03 X36.388896 Y22.527870 Z-0.125000 I0.229139 J0.918424
G02 X36.694679 Y22.524005 Z-0.125000 I0.130097 J-1.805380
G02 X36.762854 Y22.492070 Z-0.125000 I-0.010929 J-0.112069
G03 X36.932817 Y22.475937 Z-0.125000 I0.094740 J0.094740
G03 X37.041616 Y22.681230 Z-0.125000 I-0.139283 J0.205293
G03 X36.981550 Y22.868884 Z-0.125000 I-0.323162 J0.000000
G03 X36.864929 Y22.928950 Z-0.125000 I-0.116621 J-0.083180
G02 X36.595467 Y23.053119 Z-0.125000 I-0.000000 J0.354467
G02 X36.466225 Y23.395450 Z-0.125000 I0.409876 J0.350305
G03 X36.426732 Y23.561350 Z-0.125000 I-0.393614 J-0.006049
G03 X36.165395 Y24.014760 Z-0.125000 I-3.325655 J-1.614828
G02 X35.882323 Y24.464456 Z-0.125000 I6.902898 J4.659144
G02 X35.792338 Y24.651610 Z-0.125000 I1.097427 J0.642858
G03 X35.686530 Y24.786345 Z-0.125000 I-0.271237 J-0.104090
G03 X35.567420 Y24.807410 Z-0.125000 I-0.082474 J-0.119066
G02 X35.481261 Y24.836554 Z-0.125000 I-0.020919 J0.080085
G02 X35.452886 Y24.954050 Z-0.125000 I0.115283 J0.090015
G03 X35.398208 Y25.359008 Z-0.125000 I-0.632045 J0.120830
G03 X35.189759 Y25.488750 Z-0.125000 I-0.208449 J-0.102580
G02 X35.106269 Y25.530859 Z-0.125000 I-0.000000 J0.103821
G02 X34.945611 Y25.819050 Z-0.125000 I1.039564 J0.768405
G03 X34.694664 Y26.070341 Z-0.125000 I-0.419290 J-0.167770
G03 X34.446428 Y26.019580 Z-0.125000 I-0.085690 J-0.213309
G02 X34.354674 Y25.981575 Z-0.125000 I-0.091754 J0.091754
G01 X34.316669 Y26.019580 Z-0.125000
G03 X34.195974 Y26.117959 Z-0.125000 I-0.100442 J0.000000
G03 X33.613687 Y25.874860 Z-0.125000 I0.332575 J-1.615522
G02 X33.195111 Y25.613747 Z-0.125000 I-4.532650 J6.799996
G02 X33.039287 Y25.540200 Z-0.125000 I-0.501648 J0.860993
G01 X33.022678 Y25.567337 Z-0.125000
G02 X33.458119 Y25.925980 Z-0.125000 I3.455876 J-3.752236
G02 X33.976996 Y26.230124 Z-0.125000 I1.723704 J-2.346000
G02 X34.180645 Y26.254450 Z-0.125000 I0.140083 J-0.308128
G03 X34.327766 Y26.299112 Z-0.125000 I0.031061 J0.162330
G03 X34.399244 Y26.470010 Z-0.125000 I-0.168563 J0.170898
G02 X34.437256 Y26.689355 Z-0.125000 I0.651867 J-0.000000
G02 X34.491194 Y26.727360 Z-0.125000 I0.053938 J-0.019273
G01 X34.538939 Y26.765543 Z-0.125000
G03 X34.546874 Y26.974450 Z-0.125000 I-0.558250 J0.125808
G01 X34.595092 Y26.994237 Z-0.125000
G02 X34.886485 Y26.511690 Z-0.125000 I-2.532576 J-1.858586
G03 X35.233080 Y25.877194 Z-0.125000 I6.982760 J3.402441
G03 X35.998883 Y24.683070 Z-0.125000 I25.545291 J15.539809
G02 X36.781136 Y23.501897 Z-0.125000 I-65.193454 J-44.025165
G02 X36.793896 Y23.458820 Z-0.125000 I-0.066334 J-0.043077
G03 X36.807280 Y23.416460 Z-0.125000 I0.073728 J0.000000
G03 X37.170307 Y22.922680 Z-0.125000 I11.450928 J8.038390
G02 X37.482691 Y22.465029 Z-0.125000 I-3.860902 J-2.970821
G01 X37.464879 Y22.433510 Z-0.125000
G03 X37.404063 Y22.404771 Z-0.125000 I-0.000000 J-0.078718
G03 X37.331576 Y22.271340 Z-0.125000 I0.310206 J-0.254925
G02 X37.242354 Y22.173177 Z-0.125000 I-0.151515 J0.048085
G02 X37.056077 Y22.153990 Z-0.125000 I-0.124149 J0.291466
G03 X36.845242 Y22.136076 Z-0.125000 I-0.074485 J-0.373003
G03 X36.420743 Y21.909970 Z-0.125000 I0.703817 J-1.832911
G02 X36.008015 Y21.623201 Z-0.125000 I-28.898956 J41.151997
G02 X35.431422 Y21.229880 Z-0.125000 I-54.971291 J79.966446
G03 X34.332244 Y20.202592 Z-0.125000 I2.704538 J-3.995494
G03 X34.312173 Y19.795580 Z-0.125000 I0.279059 J-0.217762
G02 X34.346088 Y19.674700 Z-0.125000 I-0.184913 J-0.117078
G02 X34.307473 Y19.526320 Z-0.125000 I-0.326162 J0.005666
G03 X34.263360 Y19.367150 Z-0.125000 I0.331945 J-0.177695
G03 X34.193916 Y17.221220 Z-0.125000 I63.550628 J-3.130625
G02 X34.142571 Y15.073578 Z-0.125000 I-127.365089 J1.970555
G02 X34.122996 Y15.028400 Z-0.125000 I-0.066918 J0.002165
G01 X34.089305 Y15.023792 Z-0.125000
G02 X34.029416 Y15.081500 Z-0.125000 I0.081848 J0.144872
G01 X34.029488 Y15.081140 Z-0.125000
G00 Z5.000000

(End cutting path id: path825)


(Start cutting path id: path825)
(Change tool to Cylindrical cutter)

G00 Z5.000000
G00 X34.031213 Y14.417670

G01 Z-0.125000 F1000.0(Penetrate)
G02 X34.021736 Y14.485596 Z-0.125000 I0.072404 J0.044726 F1200.000000
G02 X34.067623 Y14.546410 Z-0.125000 I0.101269 J-0.028693
G01 X34.119844 Y14.541489 Z-0.125000
G02 X34.151543 Y14.469510 Z-0.125000 I-0.065872 J-0.071979
G02 X34.102617 Y14.395131 Z-0.125000 I-0.080999 J0.000000
G02 X34.031207 Y14.417610 Z-0.125000 I-0.022684 J0.052605
G01 X34.031213 Y14.417670 Z-0.125000
G00 Z5.000000

(End cutting path id: path825)


(Start cutting path id: path825)
(Change tool to Cylindrical cutter)

G00 Z5.000000
G00 X34.753184 Y13.804230

G01 Z-0.125000 F1000.0(Penetrate)
G02 X34.771155 Y13.989246 Z-0.125000 I0.995661 J-0.003328 F1200.000000
G01 X34.788824 Y13.988890 Z-0.125000
G02 X34.805639 Y13.761010 Z-0.125000 I-1.481240 J-0.223862
G02 X34.787824 Y13.576020 Z-0.125000 I-0.997124 J0.002675
G01 X34.770139 Y13.576378 Z-0.125000
G02 X34.753314 Y13.804230 Z-0.125000 I1.479181 J0.223770
G01 X34.753184 Y13.804230 Z-0.125000
G00 Z5.000000

(End cutting path id: path825)


(Start cutting path id: path825)
(Change tool to Cylindrical cutter)

G00 Z5.000000
G00 X34.838572 Y12.276240

G01 Z-0.125000 F1000.0(Penetrate)
G02 X34.855154 Y12.544599 Z-0.125000 I2.179832 J-0.000000 F1200.000000
G01 X34.871872 Y12.544600 Z-0.125000
G02 X34.888454 Y12.276235 Z-0.125000 I-2.163336 J-0.268365
G02 X34.871872 Y12.007870 Z-0.125000 I-2.179918 J-0.000000
G01 X34.855159 Y12.007870 Z-0.125000
G02 X34.838572 Y12.276240 Z-0.125000 I2.162805 J0.268370
G01 X34.838572 Y12.276240 Z-0.125000
G00 Z5.000000

(End cutting path id: path825)


(Start cutting path id: path825)
(Change tool to Cylindrical cutter)

G00 Z5.000000
G00 X34.039148 Y12.317530

G01 Z-0.125000 F1000.0(Penetrate)
G02 X34.021830 Y12.441090 Z-0.125000 I0.258810 J0.099268 F1200.000000
G02 X34.066368 Y12.627190 Z-0.125000 I0.650031 J-0.057187
G01 X34.107478 Y12.631135 Z-0.125000
G02 X34.146318 Y12.503420 Z-0.125000 I-0.204076 J-0.131827
G02 X34.097070 Y12.312989 Z-0.125000 I-0.368905 J-0.006179
G01 X34.039153 Y12.317530 Z-0.125000
G01 X34.039148 Y12.317530 Z-0.125000
G00 Z5.000000

(End cutting path id: path825)


(Start cutting path id: path825)
(Change tool to Cylindrical cutter)

G00 Z5.000000
G00 X33.986399 Y11.473160

G01 Z-0.125000 F1000.0(Penetrate)
G02 X34.020645 Y11.751959 Z-0.125000 I1.151996 J0.000000 F1200.000000
G02 X34.074239 Y11.825340 Z-0.125000 I0.116986 J-0.029180
G01 X34.112464 Y11.806824 Z-0.125000
G02 X34.104569 Y11.561850 Z-0.125000 I-0.832227 J-0.095795
G02 X34.034871 Y11.448924 Z-0.125000 I-0.178738 J0.032346
G01 X33.986396 Y11.473150 Z-0.125000
G01 X33.986399 Y11.473160 Z-0.125000
G00 Z5.000000

(End cutting path id: path825)


(Start cutting path id: path825)
(Change tool to Cylindrical cutter)

G00 Z5.000000
G00 X34.919460 Y10.955040

G01 Z-0.125000 F1000.0(Penetrate)
G02 X34.936563 Y11.182120 Z-0.125000 I1.516070 J-0.000000 F1200.000000
G01 X34.953860 Y11.182120 Z-0.125000
G02 X34.970963 Y10.955040 Z-0.125000 I-1.498944 J-0.227080
G02 X34.953860 Y10.727960 Z-0.125000 I-1.516047 J0.000000
G01 X34.936562 Y10.727960 Z-0.125000
G02 X34.919460 Y10.955040 Z-0.125000 I1.499008 J0.227080
G01 X34.919460 Y10.955040 Z-0.125000
G00 Z5.000000

(End cutting path id: path825)


(Start cutting path id: path825)
(Change tool to Cylindrical cutter)

G00 Z5.000000
G00 X34.999781 Y9.633850

G01 Z-0.125000 F1000.0(Penetrate)
G02 X35.017511 Y9.819641 Z-0.125000 I0.982328 J0.000000 F1200.000000
G01 X35.035561 Y9.819640 Z-0.125000
G02 X35.053289 Y9.633859 Z-0.125000 I-0.964589 J-0.185781
G02 X35.035561 Y9.448060 Z-0.125000 I-0.982504 J0.000000
G01 X35.017509 Y9.448060 Z-0.125000
G02 X34.999781 Y9.633850 Z-0.125000 I0.964694 J0.185790
G01 X34.999781 Y9.633850 Z-0.125000
G00 Z5.000000

(End cutting path id: path825)


(Start cutting path id: path825)
(Change tool to Cylindrical cutter)

G00 Z5.000000
G00 X33.220150 Y9.248380

G01 Z-0.125000 F1000.0(Penetrate)
G02 X33.175123 Y9.402254 Z-0.125000 I0.829880 J0.326366 F1200.000000
G02 X33.163170 Y9.537390 Z-0.125000 I0.626448 J0.123507
G01 X33.194384 Y9.565049 Z-0.125000
G02 X33.251300 Y9.528390 Z-0.125000 I-0.007602 J-0.074315
G02 X33.308587 Y9.376605 Z-0.125000 I-0.423654 J-0.246599
G02 X33.308280 Y9.239380 Z-0.125000 I-0.344132 J-0.067843
G01 X33.269610 Y9.210893 Z-0.125000
G02 X33.220150 Y9.248380 Z-0.125000 I0.006070 J0.059382
G01 X33.220150 Y9.248380 Z-0.125000
G00 Z5.000000

(End cutting path id: path825)


(Start cutting path id: path825)
(Change tool to Cylindrical cutter)

G00 Z5.000000
G00 X33.249751 Y10.260060

G01 Z-0.125000 F1000.0(Penetrate)
G02 X33.273948 Y10.315226 Z-0.125000 I0.082837 J-0.003444 F1200.000000
G01 X33.299641 Y10.309960 Z-0.125000
G02 X33.317317 Y10.206851 Z-0.125000 I-0.232010 J-0.092843
G02 X33.293141 Y10.151690 Z-0.125000 I-0.082784 J0.003404
G01 X33.267433 Y10.156975 Z-0.125000
G02 X33.249771 Y10.260070 Z-0.125000 I0.231927 J0.092793
G01 X33.249751 Y10.260060 Z-0.125000
G00 Z5.000000

(End cutting path id: path825)


(Start cutting path id: path825)
(Change tool to Cylindrical cutter)

G00 Z5.000000
G00 X33.094181 Y13.886720

G01 Z-0.125000 F1000.0(Penetrate)
G02 X33.114901 Y13.989687 Z-0.125000 I0.284907 J-0.003764 F1200.000000
G01 X33.135311 Y13.988370 Z-0.125000
G02 X33.152953 Y13.843651 Z-0.125000 I-0.528823 J-0.137902
G02 X33.132211 Y13.740650 Z-0.125000 I-0.283681 J0.003539
G01 X33.111775 Y13.741976 Z-0.125000
G02 X33.094151 Y13.886720 Z-0.125000 I0.529749 J0.137945
G01 X33.094181 Y13.886720 Z-0.125000
G00 Z5.000000

(End cutting path id: path825)


(Start cutting path id: path825)
(Change tool to Cylindrical cutter)

G00 Z5.000000
G00 X30.936642 Y15.723760

G01 Z-0.125000 F1000.0(Penetrate)
G02 X31.028197 Y16.036404 Z-0.125000 I0.665649 J-0.025201 F1200.000000
G02 X31.756896 Y17.117680 Z-0.125000 I9.201468 J-5.414922
G03 X32.115052 Y17.610846 Z-0.125000 I-9.309099 J7.137267
G03 X32.244269 Y17.826820 Z-0.125000 I-1.648004 J1.132638
G02 X32.377893 Y18.037860 Z-0.125000 I1.258541 J-0.649044
G02 X32.558271 Y18.237530 Z-0.125000 I1.306195 J-0.998684
G02 X32.745348 Y18.337938 Z-0.125000 I0.281059 J-0.299176
G02 X32.832536 Y18.302030 Z-0.125000 I0.018534 J-0.078802
G02 X32.846478 Y18.206406 Z-0.125000 I-0.101941 J-0.063692
G02 X32.791916 Y18.154600 Z-0.125000 I-0.070258 J0.019360
G03 X32.699228 Y18.096500 Z-0.125000 I0.034842 J-0.158566
G03 X32.431912 Y17.697710 Z-0.125000 I2.460200 J-1.938106
G02 X32.170637 Y17.281555 Z-0.125000 I-4.571203 J2.579848
G02 X32.055318 Y17.155960 Z-0.125000 I-0.518918 J0.360721
G03 X31.943177 Y17.035445 Z-0.125000 I0.408726 J-0.492757
G03 X31.922051 Y16.969550 Z-0.125000 I0.092204 J-0.065895
G02 X31.883794 Y16.843044 Z-0.125000 I-0.228290 J-0.000000
G02 X31.358592 Y16.123060 Z-0.125000 I-8.650522 J5.758690
G03 X31.214460 Y15.872296 Z-0.125000 I0.749645 J-0.597676
G03 X31.206356 Y15.730830 Z-0.125000 I0.214491 J-0.083253
G02 X31.184929 Y15.626396 Z-0.125000 I-0.116604 J-0.030491
G02 X31.088578 Y15.579240 Z-0.125000 I-0.096351 J0.074855
G02 X30.977333 Y15.623695 Z-0.125000 I0.000000 J0.161418
G02 X30.936647 Y15.723740 Z-0.125000 I0.090420 J0.095067
G01 X30.936642 Y15.723760 Z-0.125000
G00 Z5.000000

(End cutting path id: path825)


(Start cutting path id: path825)
(Change tool to Cylindrical cutter)

G00 Z5.000000
G00 X29.962480 Y15.719030

G01 Z-0.125000 F1000.0(Penetrate)
G02 X30.107230 Y15.736685 Z-0.125000 I0.138290 J-0.531591 F1200.000000
G02 X30.210203 Y15.716030 Z-0.125000 I-0.003336 J-0.283633
G01 X30.208882 Y15.695621 Z-0.125000
G02 X30.064126 Y15.677930 Z-0.125000 I-0.138318 J0.530701
G02 X29.961170 Y15.698676 Z-0.125000 I0.004209 J0.286733
G01 X29.962480 Y15.719030 Z-0.125000
G01 X29.962480 Y15.719030 Z-0.125000
G00 Z5.000000

(End cutting path id: path825)


(Start cutting path id: path825)
(Change tool to Cylindrical cutter)

G00 Z5.000000
G00 X28.733606 Y15.804230

G01 Z-0.125000 F1000.0(Penetrate)
G02 X28.802707 Y15.837293 Z-0.125000 I0.081437 J-0.081462 F1200.000000
G02 X29.067392 Y15.840030 Z-0.125000 I0.146415 J-1.359339
G03 X29.313590 Y15.881186 Z-0.125000 I0.043064 J0.499361
G03 X29.517120 Y16.039420 Z-0.125000 I-0.216638 J0.488665
G03 X29.667659 Y16.271046 Z-0.125000 I-1.205037 J0.947917
G03 X29.692543 Y16.371400 Z-0.125000 I-0.189920 J0.100354
G02 X29.719835 Y16.469584 Z-0.125000 I0.190254 J0.000000
G02 X29.878334 Y16.679710 Z-0.125000 I1.085872 J-0.654235
G03 X30.051732 Y16.889003 Z-0.125000 I-1.704718 J1.588821
G03 X30.642146 Y17.719580 Z-0.125000 I-26.400306 J19.391755
G02 X31.236538 Y18.546092 Z-0.125000 I19.922695 J-13.700543
G02 X31.405632 Y18.735400 Z-0.125000 I1.201526 J-0.903061
G02 X31.495752 Y18.697529 Z-0.125000 I0.036701 J-0.038828
G02 X31.410732 Y18.451120 Z-0.125000 I-0.379868 J-0.006803
G03 X31.138066 Y18.088197 Z-0.125000 I4.615871 J-3.751816
G03 X30.904932 Y17.721480 Z-0.125000 I4.477692 J-3.104081
G02 X30.666491 Y17.360449 Z-0.125000 I-3.265606 J1.897501
G02 X30.478350 Y17.149710 Z-0.125000 I-1.290938 J0.963154
G03 X30.295028 Y16.943965 Z-0.125000 I1.064497 J-1.133027
G03 X30.270604 Y16.870150 Z-0.125000 I0.099331 J-0.073815
G02 X30.131900 Y16.408373 Z-0.125000 I-0.838032 J0.000000
G02 X29.754515 Y16.088770 Z-0.125000 I-0.735109 J0.485403
G03 X29.715828 Y16.046199 Z-0.125000 I0.028855 J-0.065087
G03 X29.692585 Y15.902980 Z-0.125000 I0.429621 J-0.143219
G02 X29.625467 Y15.811833 Z-0.125000 I-0.095449 J0.000000
G02 X29.183378 Y15.744710 Z-0.125000 I-0.442089 J1.422301
G02 X28.744002 Y15.773666 Z-0.125000 I0.000000 J3.348041
G01 X28.733649 Y15.804210 Z-0.125000
G01 X28.733606 Y15.804230 Z-0.125000
G00 Z5.000000

(End cutting path id: path825)


(Start cutting path id: path825)
(Change tool to Cylindrical cutter)

G00 Z5.000000
G00 X27.648832 Y15.884230

G01 Z-0.125000 F1000.0(Penetrate)
G02 X27.793339 Y15.902826 Z-0.125000 I0.144507 J-0.552184 F1200.000000
G02 X27.937841 Y15.884230 Z-0.125000 I-0.000000 J-0.570739
G01 X27.937840 Y15.865014 Z-0.125000
G02 X27.793337 Y15.846430 Z-0.125000 I-0.144503 J0.552511
G02 X27.648834 Y15.865014 Z-0.125000 I-0.000000 J0.571094
G01 X27.648832 Y15.884230 Z-0.125000
G01 X27.648832 Y15.884230 Z-0.125000
G00 Z5.000000

(End cutting path id: path825)


(Start cutting path id: path825)
(Change tool to Cylindrical cutter)

G00 Z5.000000
G00 X26.617617 Y15.968230

G01 Z-0.125000 F1000.0(Penetrate)
G02 X26.803716 Y15.985485 Z-0.125000 I0.180827 J-0.938065 F1200.000000
G02 X26.947914 Y15.966230 Z-0.125000 I-0.003163 J-0.573249
G01 X26.947291 Y15.947573 Z-0.125000
G02 X26.761159 Y15.930330 Z-0.125000 I-0.181367 J0.944571
G02 X26.617007 Y15.949270 Z-0.125000 I0.003206 J0.582426
G01 X26.617617 Y15.967930 Z-0.125000
G01 X26.617617 Y15.968230 Z-0.125000
G00 Z5.000000

(End cutting path id: path825)


(Start cutting path id: path825)
(Change tool to Cylindrical cutter)

G00 Z5.000000
G00 X26.513437 Y16.493030

G01 Z-0.125000 F1000.0(Penetrate)
G02 X26.222263 Y16.534965 Z-0.125000 I0.113439 J1.819508 F1200.000000
G01 X26.224427 Y16.558830 Z-0.125000
G02 X28.655757 Y16.630107 Z-0.125000 I3.847792 J-89.748840
G01 X28.660365 Y16.597230 Z-0.125000
G03 X28.501476 Y16.540419 Z-0.125000 I0.275219 J-1.020334
G03 X28.411269 Y16.484970 Z-0.125000 I0.170576 J-0.378601
G02 X28.267928 Y16.434634 Z-0.125000 I-0.142374 J0.176172
G02 X26.513437 Y16.492970 Z-0.125000 I0.129485 J30.307245
G01 X26.513437 Y16.493030 Z-0.125000
G00 Z5.000000

(End cutting path id: path825)


(Start cutting path id: path825)
(Change tool to Cylindrical cutter)

G00 Z5.000000
G00 X25.543190 Y16.047100

G01 Z-0.125000 F1000.0(Penetrate)
G02 X25.646408 Y16.067134 Z-0.125000 I0.103218 J-0.255881 F1200.000000
G02 X25.749626 Y16.047100 Z-0.125000 I-0.000000 J-0.275915
G01 X25.749634 Y16.025474 Z-0.125000
G02 X25.646408 Y16.005400 Z-0.125000 I-0.103226 J0.255376
G02 X25.543204 Y16.025441 Z-0.125000 I0.000000 J0.275749
G01 X25.543190 Y16.047100 Z-0.125000
G01 X25.543190 Y16.047100 Z-0.125000
G00 Z5.000000

(End cutting path id: path825)


(Start cutting path id: path825)
(Change tool to Cylindrical cutter)

G00 Z5.000000
G00 X25.233537 Y16.674730

G01 Z-0.125000 F1000.0(Penetrate)
G03 X25.200042 Y16.757321 Z-0.125000 I-0.118571 J0.000000 F1200.000000
G03 X25.053087 Y16.860520 Z-0.125000 I-0.344732 J-0.334663
G02 X24.924332 Y17.036356 Z-0.125000 I0.091154 J0.201805
G02 X25.013487 Y17.195870 Z-0.125000 I0.154609 J0.018258
G02 X25.167938 Y17.180465 Z-0.125000 I0.064178 J-0.138519
G02 X25.379447 Y16.927500 Z-0.125000 I-0.407261 J-0.555425
G02 X25.453836 Y16.632966 Z-0.125000 I-0.662967 J-0.324104
G02 X25.393767 Y16.570440 Z-0.125000 I-0.060069 J-0.002409
G02 X25.270222 Y16.607094 Z-0.125000 I-0.000000 J0.226534
G02 X25.233537 Y16.674730 Z-0.125000 I0.044007 J0.067636
G01 X25.233537 Y16.674730 Z-0.125000
G00 Z5.000000

(End cutting path id: path825)


(Start cutting path id: path825)
(Change tool to Cylindrical cutter)

G00 Z5.000000
G00 X24.744611 Y17.361430

G01 Z-0.125000 F1000.0(Penetrate)
G02 X24.768810 Y17.416598 Z-0.125000 I0.082836 J-0.003444 F1200.000000
G01 X24.794501 Y17.411330 Z-0.125000
G02 X24.812177 Y17.308221 Z-0.125000 I-0.232010 J-0.092843
G02 X24.788001 Y17.253060 Z-0.125000 I-0.082784 J0.003404
G01 X24.762312 Y17.258337 Z-0.125000
G02 X24.744631 Y17.361440 Z-0.125000 I0.231790 J0.092818
G01 X24.744611 Y17.361430 Z-0.125000
G00 Z5.000000

(End cutting path id: path825)


(Start cutting path id: path825)
(Change tool to Cylindrical cutter)

G00 Z5.000000
G00 X24.655518 Y17.868590

G01 Z-0.125000 F1000.0(Penetrate)
G03 X24.631317 Y18.032139 Z-0.125000 I-0.564733 J0.000000 F1200.000000
G03 X24.532681 Y18.274580 Z-0.125000 I-1.354916 J-0.409957
G02 X24.535987 Y18.482613 Z-0.125000 I0.194378 J0.100954
G02 X24.658777 Y18.499580 Z-0.125000 I0.067819 J-0.038007
G02 X24.841317 Y18.100943 Z-0.125000 I-0.444964 J-0.444865
G02 X24.713487 Y17.757080 Z-0.125000 I-0.439346 J-0.032366
G01 X24.681566 Y17.761998 Z-0.125000
G02 X24.655517 Y17.868590 Z-0.125000 I0.205062 J0.106592
G01 X24.655518 Y17.868590 Z-0.125000
G00 Z5.000000

(End cutting path id: path825)


(Start cutting path id: path825)
(Change tool to Cylindrical cutter)

G00 Z5.000000
G00 X24.170652 Y18.874080

G01 Z-0.125000 F1000.0(Penetrate)
G02 X24.094018 Y18.958919 Z-0.125000 I0.114260 J0.180241 F1200.000000
G02 X24.088352 Y19.038780 Z-0.125000 I0.093586 J0.046771
G01 X24.128485 Y19.054631 Z-0.125000
G02 X24.222976 Y18.965780 Z-0.125000 I-0.121103 J-0.223461
G02 X24.224533 Y18.887486 Z-0.125000 I-0.064770 J-0.040450
G01 X24.170656 Y18.874080 Z-0.125000
G01 X24.170652 Y18.874080 Z-0.125000
G00 Z5.000000

(End cutting path id: path825)


(Start cutting path id: path825)
(Change tool to Cylindrical cutter)

G00 Z5.000000
G00 X23.835580 Y19.553300

G01 Z-0.125000 F1000.0(Penetrate)
G03 X23.801981 Y19.673887 Z-0.125000 I-0.276104 J-0.011956 F1200.000000
G03 X23.705915 Y19.790480 Z-0.125000 I-0.352838 J-0.192846
G02 X23.629000 Y19.914624 Z-0.125000 I0.146857 J0.176887
G02 X23.591632 Y20.275400 Z-0.125000 I1.379918 J0.325249
G01 X23.632507 Y20.287065 Z-0.125000
G02 X23.703120 Y20.105670 Z-0.125000 I-0.390392 J-0.256413
G03 X23.788492 Y19.834916 Z-0.125000 I0.975535 J0.158759
G03 X23.862491 Y19.775380 Z-0.125000 I0.099623 J0.048069
G02 X23.917092 Y19.720457 Z-0.125000 I-0.017044 J-0.071546
G02 X23.906881 Y19.584050 Z-0.125000 I-0.223499 J-0.051855
G02 X23.861333 Y19.537107 Z-0.125000 I-0.079431 J0.031502
G01 X23.835581 Y19.553250 Z-0.125000
G01 X23.835580 Y19.553300 Z-0.125000
G00 Z5.000000

(End cutting path id: path825)


(Start cutting path id: path825)
(Change tool to Cylindrical cutter)

G00 Z5.000000
G00 X23.582053 Y21.116880

G01 Z-0.125000 F1000.0(Penetrate)
G01 X23.608332 Y21.157190 Z-0.125000 F1200.000000
G02 X23.664633 Y21.153280 Z-0.125000 I0.024438 J-0.055413
G02 X23.735368 Y21.095632 Z-0.125000 I-0.185486 J-0.299814
G01 X23.747203 Y21.065880 Z-0.125000
G01 X23.732848 Y21.043858 Z-0.125000
G02 X23.664633 Y21.029480 Z-0.125000 I-0.068215 J0.154632
G02 X23.606935 Y21.054336 Z-0.125000 I0.000000 J0.079396
G02 X23.582053 Y21.116880 Z-0.125000 I0.066166 J0.062544
G01 X23.582053 Y21.116880 Z-0.125000
G00 Z5.000000

(End cutting path id: path825)


(Start cutting path id: path825)
(Change tool to Cylindrical cutter)

G00 Z5.000000
G00 X23.181555 Y22.438750

G01 Z-0.125000 F1000.0(Penetrate)
G03 X23.140487 Y22.639472 Z-0.125000 I-0.715756 J-0.041882 F1200.000000
G03 X23.047947 Y22.810340 Z-0.125000 I-0.607080 J-0.218294
G02 X22.951707 Y22.978544 Z-0.125000 I0.604384 J0.457439
G02 X22.930605 Y23.094480 Z-0.125000 I0.259475 J0.107117
G01 X22.951310 Y23.114537 Z-0.125000
G01 X22.980045 Y23.094480 Z-0.125000
G03 X23.037568 Y22.977727 Z-0.125000 I0.581081 J0.213746
G03 X23.144864 Y22.833420 Z-0.125000 I0.997965 J0.629971
G02 X23.220816 Y22.683595 Z-0.125000 I-0.259849 J-0.225891
G02 X23.229034 Y22.461840 Z-0.125000 I-0.586020 J-0.132747
G01 X23.202897 Y22.426242 Z-0.125000
G01 X23.181554 Y22.438740 Z-0.125000
G01 X23.181555 Y22.438750 Z-0.125000
G00 Z5.000000

(End cutting path id: path825)


(Start cutting path id: path825)
(Change tool to Cylindrical cutter)

G00 Z5.000000
G00 X22.754655 Y23.549420

G01 Z-0.125000 F1000.0(Penetrate)
G02 X22.678614 Y23.673947 Z-0.125000 I0.389311 J0.323207 F1200.000000
G01 X22.685735 Y23.710810 Z-0.125000
G01 X22.717280 Y23.711422 Z-0.125000
G02 X22.822063 Y23.584950 Z-0.125000 I-0.418166 J-0.453097
G01 X22.809517 Y23.538516 Z-0.125000
G01 X22.754653 Y23.549450 Z-0.125000
G01 X22.754655 Y23.549420 Z-0.125000
G00 Z5.000000

(End cutting path id: path825)


(Start cutting path id: path825)
(Change tool to Cylindrical cutter)

G00 Z5.000000
G00 X24.294707 Y24.096370

G01 Z-0.125000 F1000.0(Penetrate)
G03 X24.132432 Y24.148396 Z-0.125000 I-0.199805 J-0.344127 F1200.000000
G03 X23.778619 Y24.145270 Z-0.125000 I-0.161829 J-1.708208
G02 X23.479315 Y24.174344 Z-0.125000 I-0.081130 J0.719951
G02 X23.416905 Y24.259500 Z-0.125000 I0.026892 J0.085156
G03 X23.274606 Y24.432213 Z-0.125000 I-0.175964 J0.000000
G03 X23.045321 Y24.331900 Z-0.125000 I-0.042097 J-0.215973
G02 X22.981905 Y24.271892 Z-0.125000 I-0.144838 J0.089551
G02 X22.895943 Y24.250600 Z-0.125000 I-0.083697 J0.153737
G01 X22.878427 Y24.274879 Z-0.125000
G02 X22.921463 Y24.330800 Z-0.125000 I0.098603 J-0.031363
G03 X22.968746 Y24.537452 Z-0.125000 I-0.081154 J0.127304
G03 X22.673960 Y24.731430 Z-0.125000 I-0.355898 J-0.219873
G03 X22.567892 Y24.677336 Z-0.125000 I-0.015007 J-0.101611
G03 X22.532997 Y24.461210 Z-0.125000 I0.307691 J-0.160558
G01 X22.454794 Y24.415650 Z-0.125000
G02 X22.199455 Y24.729090 Z-0.125000 I0.605661 J0.754117
G01 X21.952410 Y25.211780 Z-0.125000
G01 X22.457580 Y25.026970 Z-0.125000
G02 X22.957699 Y24.830802 Z-0.125000 I-3.994339 J-10.918922
G02 X23.210473 Y24.711400 Z-0.125000 I-1.217637 J-2.905005
G03 X23.465322 Y24.609278 Z-0.125000 I0.614488 J1.164425
G03 X23.672953 Y24.580120 Z-0.125000 I0.209449 J0.737619
G02 X24.247024 Y24.466861 Z-0.125000 I-0.003566 J-1.529590
G02 X24.492116 Y24.246050 Z-0.125000 I-0.183630 J-0.450248
G02 X24.461622 Y24.106549 Z-0.125000 I-0.096956 J-0.051889
G02 X24.294710 Y24.096300 Z-0.125000 I-0.091148 J0.120154
G01 X24.294707 Y24.096370 Z-0.125000
G00 Z5.000000

(End cutting path id: path825)


(Start cutting path id: path825)
(Change tool to Cylindrical cutter)

G00 Z5.000000
G00 X24.944528 Y24.760170

G01 Z-0.125000 F1000.0(Penetrate)
G03 X24.826713 Y24.904282 Z-0.125000 I-0.311097 J-0.134116 F1200.000000
G03 X24.630588 Y24.978260 Z-0.125000 I-0.245097 J-0.352816
G02 X24.373287 Y25.139278 Z-0.125000 I0.040191 J0.350312
G02 X24.242647 Y25.587940 Z-0.125000 I0.705111 J0.448662
G03 X24.205635 Y25.740865 Z-0.125000 I-0.334430 J-0.000000
G03 X24.098142 Y25.868950 Z-0.125000 I-0.335785 J-0.172652
G02 X24.061108 Y25.943557 Z-0.125000 I0.056634 J0.074607
G01 X24.098142 Y25.981270 Z-0.125000
G03 X24.266607 Y26.124787 Z-0.125000 I-0.003420 J0.174649
G03 X24.165292 Y26.352250 Z-0.125000 I-0.217538 J0.039401
G02 X24.085091 Y26.439851 Z-0.125000 I0.114671 J0.185496
G02 X23.499963 Y27.676670 Z-0.125000 I25.858399 J12.990205
G03 X23.297217 Y28.077134 Z-0.125000 I-4.071093 J-1.809554
G03 X23.169736 Y28.254690 Z-0.125000 I-0.917342 J-0.524085
G02 X23.042572 Y28.430754 Z-0.125000 I0.805038 J0.715403
G02 X22.966677 Y28.605630 Z-0.125000 I0.718724 J0.415827
G03 X22.877229 Y28.746784 Z-0.125000 I-0.299355 J-0.090781
G03 X22.761388 Y28.791420 Z-0.125000 I-0.115841 J-0.127997
G02 X22.664957 Y28.851373 Z-0.125000 I0.000000 J0.107529
G02 X22.557673 Y29.204290 Z-0.125000 I1.017899 J0.502197
G03 X22.471363 Y29.581167 Z-0.125000 I-2.057837 J-0.272952
G03 X22.421601 Y29.617160 Z-0.125000 I-0.049762 J-0.016402
G01 X22.382852 Y29.650370 Z-0.125000
G02 X22.390571 Y29.817480 Z-0.125000 I0.416469 J0.064497
G03 X22.389441 Y30.012135 Z-0.125000 I-0.379030 J0.095131
G03 X22.224218 Y30.449100 Z-0.125000 I-2.176104 J-0.573100
G02 X22.034801 Y30.882352 Z-0.125000 I3.964989 J1.991521
G02 X22.033400 Y30.957830 Z-0.125000 I0.105887 J0.039717
G01 X22.063679 Y30.960662 Z-0.125000
G02 X22.442786 Y30.222990 Z-0.125000 I-10.802045 J-6.017679
G02 X22.869210 Y29.307234 Z-0.125000 I-84.743740 J-40.018264
G02 X23.668691 Y27.552810 Z-0.125000 I-310.123995 J-142.381152
G03 X23.960048 Y26.939263 Z-0.125000 I16.643359 J7.527526
G03 X24.162020 Y26.561910 Z-0.125000 I6.495225 J3.233738
G02 X24.360625 Y26.183234 Z-0.125000 I-4.891513 J-2.806882
G02 X24.568989 Y25.708800 Z-0.125000 I-7.474416 J-3.565619
G03 X24.804521 Y25.269867 Z-0.125000 I2.105621 J0.847218
G03 X24.948827 Y25.156520 Z-0.125000 I0.253737 J0.174507
G02 X25.195251 Y24.984055 Z-0.125000 I-0.218391 J-0.574326
G01 X25.161578 Y24.910430 Z-0.125000
G03 X25.106080 Y24.879865 Z-0.125000 I0.000000 J-0.065667
G03 X25.053487 Y24.739530 Z-0.125000 I0.310491 J-0.196385
G01 X25.009274 Y24.708274 Z-0.125000
G02 X24.944527 Y24.760130 Z-0.125000 I0.016423 J0.086855
G01 X24.944528 Y24.760170 Z-0.125000
G00 Z5.000000

(End cutting path id: path825)


(Start cutting path id: path825)
(Change tool to Cylindrical cutter)

G00 Z5.000000
G00 X26.230946 Y25.618470

G01 Z-0.125000 F1000.0(Penetrate)
G02 X26.255145 Y25.673638 Z-0.125000 I0.082836 J-0.003444 F1200.000000
G01 X26.280836 Y25.668370 Z-0.125000
G02 X26.298511 Y25.565268 Z-0.125000 I-0.231993 J-0.092836
G02 X26.274336 Y25.510110 Z-0.125000 I-0.082779 J0.003404
G01 X26.248647 Y25.515387 Z-0.125000
G02 X26.230966 Y25.618490 Z-0.125000 I0.231790 J0.092818
G01 X26.230946 Y25.618470 Z-0.125000
G00 Z5.000000

(End cutting path id: path825)


(Start cutting path id: path825)
(Change tool to Cylindrical cutter)

G00 Z5.000000
G00 X26.802446 Y24.579800

G01 Z-0.125000 F1000.0(Penetrate)
G02 X26.742491 Y24.727918 Z-0.125000 I0.660113 J0.353393 F1200.000000
G01 X26.755346 Y24.744950 Z-0.125000
G01 X26.787320 Y24.729405 Z-0.125000
G02 X26.885019 Y24.579800 Z-0.125000 I-0.806877 J-0.633635
G02 X26.944978 Y24.431688 Z-0.125000 I-0.660329 J-0.353509
G01 X26.932119 Y24.414650 Z-0.125000
G01 X26.900145 Y24.430196 Z-0.125000
G02 X26.802447 Y24.579800 Z-0.125000 I0.806839 J0.633604
G01 X26.802446 Y24.579800 Z-0.125000
G00 Z5.000000

(End cutting path id: path825)


(Start cutting path id: path825)
(Change tool to Cylindrical cutter)

G00 Z5.000000
G00 X27.732602 Y26.074100

G01 Z-0.125000 F1000.0(Penetrate)
G03 X27.643020 Y26.176373 Z-0.125000 I-0.147081 J-0.038460 F1200.000000
G03 X27.433259 Y26.196410 Z-0.125000 I-0.138133 J-0.338091
G02 X27.268268 Y26.191100 Z-0.125000 I-0.098453 J0.493170
G01 X27.259185 Y26.219710 Z-0.125000
G02 X27.349522 Y26.273107 Z-0.125000 I0.168109 J-0.181294
G02 X27.648832 Y26.348860 Z-0.125000 I0.674058 J-2.034096
G02 X27.874996 Y26.304267 Z-0.125000 I0.055699 J-0.313329
G02 X27.958485 Y26.152440 Z-0.125000 I-0.096307 J-0.151827
G02 X27.855883 Y26.008277 Z-0.125000 I-0.152580 J0.000000
G02 X27.732602 Y26.074140 Z-0.125000 I-0.031181 J0.089944
G01 X27.732602 Y26.074100 Z-0.125000
G00 Z5.000000

(End cutting path id: path825)


(Start cutting path id: path825)
(Change tool to Cylindrical cutter)

G00 Z5.000000
G00 X28.420236 Y26.768000

G01 Z-0.125000 F1000.0(Penetrate)
G02 X28.345919 Y26.941512 Z-0.125000 I0.452569 J0.296511 F1200.000000
G01 X28.372046 Y26.974440 Z-0.125000
G02 X28.439294 Y26.946019 Z-0.125000 I-0.000000 J-0.093769
G02 X28.512432 Y26.829930 Z-0.125000 I-0.237277 J-0.230573
G03 X28.581255 Y26.697500 Z-0.125000 I0.557360 J0.205557
G03 X28.654346 Y26.624760 Z-0.125000 I0.233527 J0.161562
G01 X28.673161 Y26.585191 Z-0.125000
G01 X28.649246 Y26.562860 Z-0.125000
G02 X28.571656 Y26.591888 Z-0.125000 I-0.001677 J0.113727
G02 X28.420263 Y26.768030 Z-0.125000 I0.597609 J0.666776
G01 X28.420236 Y26.768000 Z-0.125000
G00 Z5.000000

(End cutting path id: path825)


(Start cutting path id: path825)
(Change tool to Cylindrical cutter)

G00 Z5.000000
G00 X28.866801 Y27.224470

G01 Z-0.125000 F1000.0(Penetrate)
G03 X28.810754 Y27.345730 Z-0.125000 I-0.159198 J0.000000 F1200.000000
G03 X28.609812 Y27.443080 Z-0.125000 I-0.288175 J-0.338767
G02 X28.481924 Y27.514842 Z-0.125000 I0.046635 J0.232945
G01 X28.490966 Y27.571780 Z-0.125000
G02 X28.720709 Y27.573648 Z-0.125000 I0.116573 J-0.208305
G02 X28.975254 Y27.311050 Z-0.125000 I-0.286847 J-0.532718
G02 X29.028277 Y27.102776 Z-0.125000 I-0.453918 J-0.226447
G01 X28.984354 Y27.057250 Z-0.125000
G02 X28.907021 Y27.097410 Z-0.125000 I-0.000000 J0.094537
G02 X28.866821 Y27.224470 Z-0.125000 I0.180699 J0.127060
G01 X28.866801 Y27.224470 Z-0.125000
G00 Z5.000000

(End cutting path id: path825)


(Start cutting path id: path825)
(Change tool to Cylindrical cutter)

G00 Z5.000000
G00 X29.121043 Y26.857450

G01 Z-0.125000 F1000.0(Penetrate)
G02 X29.145242 Y26.912618 Z-0.125000 I0.082836 J-0.003444 F1200.000000
G01 X29.170933 Y26.907350 Z-0.125000
G02 X29.188609 Y26.804241 Z-0.125000 I-0.232010 J-0.092843
G02 X29.164433 Y26.749080 Z-0.125000 I-0.082784 J0.003404
G01 X29.138744 Y26.754357 Z-0.125000
G02 X29.121063 Y26.857460 Z-0.125000 I0.231790 J0.092818
G01 X29.121043 Y26.857450 Z-0.125000
G00 Z5.000000

(End cutting path id: path825)


(Start cutting path id: path825)
(Change tool to Cylindrical cutter)

G00 Z5.000000
G00 X28.950639 Y26.003610

G01 Z-0.125000 F1000.0(Penetrate)
G02 X28.982973 Y26.080904 Z-0.125000 I0.110357 J-0.000755 F1200.000000
G01 X29.023469 Y26.076410 Z-0.125000
G03 X29.105500 Y25.973942 Z-0.125000 I0.504210 J0.319576
G03 X29.207997 Y25.891880 Z-0.125000 I0.421279 J0.421144
G01 X29.212484 Y25.851398 Z-0.125000
G02 X29.135167 Y25.819080 Z-0.125000 I-0.078042 J0.078061
G02 X29.004301 Y25.872753 Z-0.125000 I-0.001324 J0.183148
G02 X28.950639 Y26.003610 Z-0.125000 I0.129677 J0.129610
G01 X28.950639 Y26.003610 Z-0.125000
G00 Z5.000000

(End cutting path id: path825)


(Start cutting path id: path825)
(Change tool to Cylindrical cutter)

G00 Z5.000000
G00 X29.460918 Y25.446320

G01 Z-0.125000 F1000.0(Penetrate)
G02 X29.481625 Y25.549294 Z-0.125000 I0.284013 J-0.003544 F1200.000000
G01 X29.502048 Y25.547970 Z-0.125000
G02 X29.519692 Y25.403253 Z-0.125000 I-0.529333 J-0.137969
G02 X29.498948 Y25.300250 Z-0.125000 I-0.283469 J0.003497
G01 X29.478506 Y25.301578 Z-0.125000
G02 X29.460878 Y25.446320 Z-0.125000 I0.529904 J0.137982
G01 X29.460918 Y25.446320 Z-0.125000
G00 Z5.000000

(End cutting path id: path825)


(Start cutting path id: path825)
(Change tool to Cylindrical cutter)

G00 Z5.000000
G00 X29.733830 Y25.735210

G01 Z-0.125000 F1000.0(Penetrate)
G02 X29.799336 Y25.791526 Z-0.125000 I0.121593 J-0.075179 F1200.000000
G02 X29.924495 Y25.816510 Z-0.125000 I0.122317 J-0.286772
G01 X29.961712 Y25.785557 Z-0.125000
G01 X29.940265 Y25.735210 Z-0.125000
G02 X29.762986 Y25.682914 Z-0.125000 I-0.177279 J0.274333
G01 X29.733830 Y25.735210 Z-0.125000
G01 X29.733830 Y25.735210 Z-0.125000
G00 Z5.000000

(End cutting path id: path825)


(Start cutting path id: path825)
(Change tool to Cylindrical cutter)

G00 Z5.000000
G00 X30.125543 Y26.285940

G01 Z-0.125000 F1000.0(Penetrate)
G02 X30.064129 Y26.341656 Z-0.125000 I0.044774 J0.111059 F1200.000000
G02 X30.066253 Y26.399680 Z-0.125000 I0.052083 J0.027144
G02 X30.239415 Y26.462487 Z-0.125000 I0.126277 J-0.078041
G02 X30.353133 Y26.304780 Z-0.125000 I-0.052496 J-0.157707
G01 X30.310061 Y26.257985 Z-0.125000
G02 X30.125540 Y26.285880 Z-0.125000 I-0.033447 J0.402997
G01 X30.125543 Y26.285940 Z-0.125000
G00 Z5.000000

(End cutting path id: path825)


(Start cutting path id: path825)
(Change tool to Cylindrical cutter)

G00 Z5.000000
G00 X31.426599 Y26.649010

G01 Z-0.125000 F1000.0(Penetrate)
G01 X31.452878 Y26.689320 Z-0.125000 F1200.000000
G02 X31.509179 Y26.685410 Z-0.125000 I0.024438 J-0.055413
G02 X31.579914 Y26.627762 Z-0.125000 I-0.185486 J-0.299814
G01 X31.591749 Y26.598010 Z-0.125000
G01 X31.577394 Y26.575988 Z-0.125000
G02 X31.509179 Y26.561610 Z-0.125000 I-0.068215 J0.154632
G02 X31.451481 Y26.586466 Z-0.125000 I0.000000 J0.079396
G02 X31.426599 Y26.649010 Z-0.125000 I0.066166 J0.062544
G01 X31.426599 Y26.649010 Z-0.125000
G00 Z5.000000

(End cutting path id: path825)


(Start cutting path id: path825)
(Change tool to Cylindrical cutter)

G00 Z5.000000
G00 X31.756896 Y27.305070

G01 Z-0.125000 F1000.0(Penetrate)
G02 X31.713638 Y27.361910 Z-0.125000 I0.057091 J0.088331 F1200.000000
G01 X31.731376 Y27.386370 Z-0.125000
G02 X31.817343 Y27.365105 Z-0.125000 I0.002452 J-0.174488
G02 X31.880754 Y27.305070 Z-0.125000 I-0.081581 J-0.149675
G01 X31.863259 Y27.273690 Z-0.125000
G02 X31.756891 Y27.305070 Z-0.125000 I0.000000 J0.195966
G01 X31.756896 Y27.305070 Z-0.125000
G00 Z5.000000

(End cutting path id: path825)


(Start cutting path id: path825)
(Change tool to Cylindrical cutter)

G00 Z5.000000
G00 X31.220934 Y27.718860

G01 Z-0.125000 F1000.0(Penetrate)
G02 X31.288551 Y27.768996 Z-0.125000 I0.096758 J-0.059830 F1200.000000
G02 X31.527809 Y27.800160 Z-0.125000 I0.239258 J-0.902864
G01 X31.549953 Y27.755358 Z-0.125000
G02 X31.443139 Y27.689400 Z-0.125000 I-0.139734 J0.106821
G02 X31.237636 Y27.683578 Z-0.125000 I-0.120819 J0.634852
G01 X31.220933 Y27.718800 Z-0.125000
G01 X31.220934 Y27.718860 Z-0.125000
G00 Z5.000000

(End cutting path id: path825)


(Start cutting path id: path825)
(Change tool to Cylindrical cutter)

G00 Z5.000000
G00 X31.405955 Y28.928340

G01 Z-0.125000 F1000.0(Penetrate)
G02 X31.509173 Y28.948374 Z-0.125000 I0.103218 J-0.255882 F1200.000000
G02 X31.612393 Y28.928340 Z-0.125000 I0.000000 J-0.275924
G01 X31.612401 Y28.906714 Z-0.125000
G02 X31.509174 Y28.886640 Z-0.125000 I-0.103227 J0.255380
G02 X31.405970 Y28.906681 Z-0.125000 I0.000000 J0.275754
G01 X31.405955 Y28.928340 Z-0.125000
G01 X31.405955 Y28.928340 Z-0.125000
G00 Z5.000000

(End cutting path id: path825)


(Start cutting path id: path825)
(Change tool to Cylindrical cutter)

G00 Z5.000000
G00 X30.765252 Y29.244350

G01 Z-0.125000 F1000.0(Penetrate)
G02 X30.874043 Y29.326081 Z-0.125000 I0.226130 J-0.187728 F1200.000000
G02 X30.941859 Y29.321250 Z-0.125000 I0.029288 J-0.067259
G02 X30.963513 Y29.207147 Z-0.125000 I-0.041353 J-0.066954
G02 X30.792310 Y29.121430 Z-0.125000 I-0.171203 J0.128113
G01 X30.744699 Y29.159702 Z-0.125000
G02 X30.765250 Y29.244380 Z-0.125000 I0.096879 J0.021320
G01 X30.765252 Y29.244350 Z-0.125000
G00 Z5.000000

(End cutting path id: path825)


(Start cutting path id: path825)
(Change tool to Cylindrical cutter)

G00 Z5.000000
G00 X29.829444 Y28.671620

G01 Z-0.125000 F1000.0(Penetrate)
G02 X29.948806 Y28.776038 Z-0.125000 I0.158591 J-0.060858 F1200.000000
G02 X30.022839 Y28.717520 Z-0.125000 I0.013890 J-0.058518
G02 X29.999093 Y28.660166 Z-0.125000 I-0.081136 J0.000000
G02 X29.903183 Y28.597870 Z-0.125000 I-0.194333 J0.194212
G02 X29.842295 Y28.610836 Z-0.125000 I-0.020470 J0.053322
G02 X29.829443 Y28.671570 Z-0.125000 I0.040322 J0.040259
G01 X29.829444 Y28.671620 Z-0.125000
G00 Z5.000000

(End cutting path id: path825)


(Start cutting path id: path825)
(Change tool to Cylindrical cutter)

G00 Z5.000000
G00 X28.495217 Y28.378200

G01 Z-0.125000 F1000.0(Penetrate)
G01 X28.511515 Y28.423208 Z-0.125000 F1200.000000
G02 X28.742940 Y28.460800 Z-0.125000 I0.231425 J-0.693568
G02 X28.974311 Y28.423265 Z-0.125000 I-0.000000 J-0.731864
G01 X28.990662 Y28.378200 Z-0.125000
G02 X28.923316 Y28.324896 Z-0.125000 I-0.107254 J0.066313
G02 X28.742940 Y28.295600 Z-0.125000 I-0.180376 J0.540638
G02 X28.562613 Y28.324834 Z-0.125000 I-0.000000 J0.570785
G02 X28.495217 Y28.378200 Z-0.125000 I0.039787 J0.119488
G01 X28.495217 Y28.378200 Z-0.125000
G00 Z5.000000

(End cutting path id: path825)


(Start cutting path id: path825)
(Change tool to Cylindrical cutter)

G00 Z5.000000
G00 X28.087655 Y27.940810

G01 Z-0.125000 F1000.0(Penetrate)
G01 X28.097533 Y27.986949 Z-0.125000 F1200.000000
G01 X28.133875 Y27.987010 Z-0.125000
G02 X28.200133 Y27.885099 Z-0.125000 I-0.202771 J-0.204328
G01 X28.190255 Y27.838940 Z-0.125000
G01 X28.153914 Y27.838875 Z-0.125000
G02 X28.087650 Y27.940780 Z-0.125000 I0.202692 J0.204299
G01 X28.087655 Y27.940810 Z-0.125000
G00 Z5.000000

(End cutting path id: path825)


(Start cutting path id: path825)
(Change tool to Cylindrical cutter)

G00 Z5.000000
G00 X27.530131 Y28.682520

G01 Z-0.125000 F1000.0(Penetrate)
G02 X27.633065 Y28.700113 Z-0.125000 I0.092330 J-0.230285 F1200.000000
G02 X27.688399 Y28.675520 Z-0.125000 I-0.003528 J-0.082485
G01 X27.683147 Y28.649827 Z-0.125000
G02 X27.580020 Y28.632120 Z-0.125000 I-0.092823 J0.231451
G02 X27.524865 Y28.656315 Z-0.125000 I0.003443 J0.082813
G01 X27.530130 Y28.682020 Z-0.125000
G01 X27.530131 Y28.682520 Z-0.125000
G00 Z5.000000

(End cutting path id: path825)


(Start cutting path id: path825)
(Change tool to Cylindrical cutter)

G00 Z5.000000
G00 X26.614870 Y29.272250

G01 Z-0.125000 F1000.0(Penetrate)
G01 X26.627664 Y29.326811 Z-0.125000 F1200.000000
G02 X26.801324 Y29.354850 Z-0.125000 I0.140154 J-0.316247
G02 X27.054697 Y29.297813 Z-0.125000 I-0.101986 J-1.044348
G02 X27.105740 Y29.245250 Z-0.125000 I-0.028255 J-0.078503
G02 X26.983810 Y29.086460 Z-0.125000 I-0.115269 J-0.037697
G02 X26.614870 Y29.272250 Z-0.125000 I0.028360 J0.515529
G01 X26.614870 Y29.272250 Z-0.125000
G00 Z5.000000

(End cutting path id: path825)


(Start cutting path id: path825)
(Change tool to Cylindrical cutter)

G00 Z5.000000
G00 X25.946165 Y28.526170

G01 Z-0.125000 F1000.0(Penetrate)
G02 X25.727439 Y28.984236 Z-0.125000 I2.000535 J1.236508 F1200.000000
G01 X25.766265 Y29.039000 Z-0.125000
G02 X26.088168 Y28.834349 Z-0.125000 I-0.000000 J-0.355492
G02 X26.026618 Y28.483370 Z-0.125000 I-0.280897 J-0.131627
G01 X25.996571 Y28.478892 Z-0.125000
G02 X25.946168 Y28.526170 Z-0.125000 I0.062657 J0.117305
G01 X25.946165 Y28.526170 Z-0.125000
G00 Z5.000000

(End cutting path id: path825)


(Start cutting path id: path825)
(Change tool to Cylindrical cutter)

G00 Z5.000000
G00 X26.262319 Y27.970440

G01 Z-0.125000 F1000.0(Penetrate)
G02 X26.232590 Y28.055614 Z-0.125000 I0.177235 J0.109637 F1200.000000
G02 X26.247249 Y28.097860 Z-0.125000 I0.050875 J0.006013
G01 X26.278255 Y28.097885 Z-0.125000
G02 X26.335499 Y28.009760 Z-0.125000 I-0.178320 J-0.178486
G01 X26.315583 Y27.956089 Z-0.125000
G01 X26.262319 Y27.970360 Z-0.125000
G01 X26.262319 Y27.970440 Z-0.125000
G00 Z5.000000

(End cutting path id: path825)


(Start cutting path id: path825)
(Change tool to Cylindrical cutter)

G00 Z5.000000
G00 X27.041438 Y26.793320

G01 Z-0.125000 F1000.0(Penetrate)
G02 X26.755245 Y27.395573 Z-0.125000 I1.599590 J1.129259 F1200.000000
G02 X26.855046 Y27.460290 Z-0.125000 I0.060009 J0.016770
G02 X26.937505 Y27.352737 Z-0.125000 I-0.195125 J-0.234985
G02 X26.967595 Y27.215070 Z-0.125000 I-0.299879 J-0.137667
G03 X27.002779 Y27.078556 Z-0.125000 I0.282429 J-0.000000
G03 X27.140245 Y26.902400 Z-0.125000 I0.620945 J0.342849
G02 X27.270673 Y26.728424 Z-0.125000 I-0.420278 J-0.450955
G02 X27.284750 Y26.615050 Z-0.125000 I-0.151960 J-0.076429
G01 X27.234976 Y26.596328 Z-0.125000
G02 X27.041438 Y26.793320 Z-0.125000 I0.506627 J0.691310
G01 X27.041438 Y26.793320 Z-0.125000
G00 Z5.000000

(End cutting path id: path825)


(Start cutting path id: path825)
(Change tool to Cylindrical cutter)

G00 Z5.000000
G00 X24.837181 Y27.569010

G01 Z-0.125000 F1000.0(Penetrate)
G02 X24.769723 Y27.681204 Z-0.125000 I0.191548 J0.191548 F1200.000000
G02 X24.738091 Y27.892430 Z-0.125000 I0.689430 J0.211226
G03 X24.700426 Y28.090211 Z-0.125000 I-0.538115 J-0.000000
G03 X24.634873 Y28.153620 Z-0.125000 I-0.102706 J-0.040590
G02 X24.580658 Y28.202520 Z-0.125000 I0.032291 J0.090305
G01 X24.588093 Y28.251320 Z-0.125000
G02 X24.724567 Y28.257195 Z-0.125000 I0.071205 J-0.066010
G02 X24.820666 Y28.040140 Z-0.125000 I-0.197077 J-0.217055
G03 X24.847965 Y27.885160 Z-0.125000 I0.453575 J-0.000000
G03 X24.954024 Y27.673430 Z-0.125000 I0.964167 J0.350540
G02 X24.939920 Y27.566113 Z-0.125000 I-0.069389 J-0.045466
G02 X24.837181 Y27.568990 Z-0.125000 I-0.049849 J0.055768
G01 X24.837181 Y27.569010 Z-0.125000
G00 Z5.000000

(End cutting path id: path825)


(Start cutting path id: path825)
(Change tool to Cylindrical cutter)

G00 Z5.000000
G00 X24.165464 Y28.908440

G01 Z-0.125000 F1000.0(Penetrate)
G01 X24.167644 Y28.962393 Z-0.125000 F1200.000000
G02 X24.237004 Y28.981640 Z-0.125000 I0.051245 J-0.050072
G02 X24.353912 Y28.916644 Z-0.125000 I-0.067964 J-0.259884
G01 X24.360712 Y28.864280 Z-0.125000
G02 X24.287535 Y28.833578 Z-0.125000 I-0.058094 J0.035907
G02 X24.165469 Y28.908480 Z-0.125000 I0.049133 J0.216986
G01 X24.165464 Y28.908440 Z-0.125000
G00 Z5.000000

(End cutting path id: path825)


(Start cutting path id: path825)
(Change tool to Cylindrical cutter)

G00 Z5.000000
G00 X23.963839 Y29.413530

G01 Z-0.125000 F1000.0(Penetrate)
G02 X23.965996 Y29.505121 Z-0.125000 I0.112508 J0.043172 F1200.000000
G01 X24.004999 Y29.507330 Z-0.125000
G02 X24.065478 Y29.360152 Z-0.125000 I-0.504491 J-0.293323
G01 X24.053979 Y29.317970 Z-0.125000
G01 X24.023629 Y29.318396 Z-0.125000
G02 X23.963839 Y29.413470 Z-0.125000 I0.210820 J0.198917
G01 X23.963839 Y29.413530 Z-0.125000
G00 Z5.000000

(End cutting path id: path825)


(Start cutting path id: path825)
(Change tool to Cylindrical cutter)

G00 Z5.000000
G00 X23.531974 Y30.112580

G01 Z-0.125000 F1000.0(Penetrate)
G02 X23.589539 Y30.309643 Z-0.125000 I0.416622 J-0.014762 F1200.000000
G02 X23.678099 Y30.360300 Z-0.125000 I0.088700 J-0.052328
G02 X23.740141 Y30.308354 Z-0.125000 I0.000090 J-0.062915
G02 X23.721929 Y30.112770 Z-0.125000 I-0.365102 J-0.064644
G02 X23.607988 Y30.033913 Z-0.125000 I-0.114053 J0.043051
G02 X23.531977 Y30.112600 Z-0.125000 I-0.000070 J0.075989
G01 X23.531974 Y30.112580 Z-0.125000
G00 Z5.000000

(End cutting path id: path825)


(Start cutting path id: path825)
(Change tool to Cylindrical cutter)

G00 Z5.000000
G00 X24.636398 Y30.539040

G01 Z-0.125000 F1000.0(Penetrate)
G02 X24.731377 Y30.593499 Z-0.125000 I0.147829 J-0.147767 F1200.000000
G02 X24.831955 Y30.590140 Z-0.125000 I0.044640 J-0.170814
G01 X24.839688 Y30.557376 Z-0.125000
G02 X24.744715 Y30.502940 Z-0.125000 I-0.147916 J0.147999
G02 X24.644149 Y30.506253 Z-0.125000 I-0.044703 J0.171028
G01 X24.636402 Y30.539040 Z-0.125000
G01 X24.636398 Y30.539040 Z-0.125000
G00 Z5.000000

(End cutting path id: path825)


(Start cutting path id: path825)
(Change tool to Cylindrical cutter)

G00 Z5.000000
G00 X25.145793 Y29.957250

G01 Z-0.125000 F1000.0(Penetrate)
G02 X25.151002 Y30.058828 Z-0.125000 I0.086826 J0.046470 F1200.000000
G02 X25.241283 Y30.098680 Z-0.125000 I0.076837 J-0.051881
G02 X25.415541 Y29.968416 Z-0.125000 I-0.033187 J-0.226082
G02 X25.362148 Y29.836980 Z-0.125000 I-0.088193 J-0.040736
G02 X25.256853 Y29.844422 Z-0.125000 I-0.044673 J0.116558
G02 X25.145793 Y29.957250 Z-0.125000 I0.136188 J0.245127
G01 X25.145793 Y29.957250 Z-0.125000
G00 Z5.000000

(End cutting path id: path825)


(Start cutting path id: path825)
(Change tool to Cylindrical cutter)

G00 Z5.000000
G00 X26.162497 Y30.834870

G01 Z-0.125000 F1000.0(Penetrate)
G02 X26.078177 Y30.882905 Z-0.125000 I0.078525 J0.235865 F1200.000000
G02 X26.059221 Y30.924370 Z-0.125000 I0.035999 J0.041523
G02 X26.440646 Y31.285771 Z-0.125000 I0.361567 J0.000380
G02 X27.415034 Y30.848670 Z-0.125000 I-0.081789 J-1.486929
G02 X27.334327 Y30.651313 Z-0.125000 I-0.081964 J-0.081662
G02 X26.162497 Y30.834870 Z-0.125000 I-0.038929 J3.583750
G01 X26.162497 Y30.834870 Z-0.125000
G00 Z5.000000

(End cutting path id: path825)


(Start cutting path id: path825)
(Change tool to Cylindrical cutter)

G00 Z5.000000
G00 X25.192250 Y32.505820

G01 Z-0.125000 F1000.0(Penetrate)
G02 X25.188340 Y32.562128 Z-0.125000 I0.051544 J0.031869 F1200.000000
G01 X25.228660 Y32.588420 Z-0.125000
G02 X25.291246 Y32.563526 Z-0.125000 I0.000000 J-0.091122
G02 X25.316110 Y32.505820 Z-0.125000 I-0.054533 J-0.057706
G02 X25.301744 Y32.437595 Z-0.125000 I-0.169186 J-0.000000
G01 X25.279700 Y32.423220 Z-0.125000
G01 X25.249886 Y32.435080 Z-0.125000
G02 X25.192250 Y32.505820 Z-0.125000 I0.241896 J0.255935
G01 X25.192250 Y32.505820 Z-0.125000
G00 Z5.000000

(End cutting path id: path825)


(Start cutting path id: path825)
(Change tool to Cylindrical cutter)

G00 Z5.000000
G00 X26.017992 Y34.158520

G01 Z-0.125000 F1000.0(Penetrate)
G02 X26.080309 Y34.220852 Z-0.125000 I0.163356 J-0.101000 F1200.000000
G02 X26.151599 Y34.241120 Z-0.125000 I0.071290 J-0.115242
G01 X26.188559 Y34.215666 Z-0.125000
G02 X26.183139 Y34.158520 Z-0.125000 I-0.060499 J-0.023092
G02 X26.120822 Y34.096188 Z-0.125000 I-0.163355 J0.101000
G02 X26.049531 Y34.075920 Z-0.125000 I-0.071291 J0.115244
G01 X26.012573 Y34.101370 Z-0.125000
G02 X26.017991 Y34.158520 Z-0.125000 I0.060496 J0.023097
G01 X26.017992 Y34.158520 Z-0.125000
G00 Z5.000000

(End cutting path id: path825)


(Start cutting path id: path825)
(Change tool to Cylindrical cutter)

G00 Z5.000000
G00 X25.462095 Y36.282770

G01 Z-0.125000 F1000.0(Penetrate)
G02 X25.731713 Y36.299183 Z-0.125000 I0.265848 J-2.144340 F1200.000000
G02 X25.957540 Y36.282010 Z-0.125000 I-0.002667 J-1.528446
G01 X25.957301 Y36.264976 Z-0.125000
G02 X25.687695 Y36.248610 Z-0.125000 I-0.265637 J2.147175
G02 X25.461861 Y36.265880 Z-0.125000 I0.002849 J1.522445
G01 X25.462095 Y36.282910 Z-0.125000
G01 X25.462095 Y36.282770 Z-0.125000
G00 Z5.000000

(End cutting path id: path825)


(Start cutting path id: path825)
(Change tool to Cylindrical cutter)

G00 Z5.000000
G00 X24.392313 Y36.196770

G01 Z-0.125000 F1000.0(Penetrate)
G02 X24.495236 Y36.214336 Z-0.125000 I0.092503 J-0.231684 F1200.000000
G02 X24.550580 Y36.189770 Z-0.125000 I-0.003444 J-0.082383
G01 X24.545328 Y36.164077 Z-0.125000
G02 X24.442201 Y36.146370 Z-0.125000 I-0.092823 J0.231451
G02 X24.387046 Y36.170563 Z-0.125000 I0.003444 J0.082817
G01 X24.392311 Y36.196270 Z-0.125000
G01 X24.392313 Y36.196770 Z-0.125000
G00 Z5.000000

(End cutting path id: path825)


(Start cutting path id: path825)
(Change tool to Cylindrical cutter)

G00 Z5.000000
G00 X24.306760 Y36.778820

G01 Z-0.125000 F1000.0(Penetrate)
G02 X24.659763 Y36.794479 Z-0.125000 I0.350290 J-3.909920 F1200.000000
G02 X24.967354 Y36.778310 Z-0.125000 I-0.002055 J-2.972908
G01 X24.967236 Y36.762288 Z-0.125000
G02 X24.614231 Y36.746610 Z-0.125000 I-0.349777 J3.893517
G02 X24.306641 Y36.762832 Z-0.125000 I0.002039 J2.962893
G01 X24.306760 Y36.778910 Z-0.125000
G01 X24.306760 Y36.778820 Z-0.125000
G00 Z5.000000

(End cutting path id: path825)


(Start cutting path id: path825)
(Change tool to Cylindrical cutter)

G00 Z5.000000
G00 X24.696805 Y37.378620

G01 Z-0.125000 F1000.0(Penetrate)
G01 X24.706891 Y37.427117 Z-0.125000 F1200.000000
G02 X24.815793 Y37.461220 Z-0.125000 I0.108902 J-0.156828
G02 X24.954034 Y37.429403 Z-0.125000 I0.000000 J-0.316233
G02 X24.985815 Y37.378620 Z-0.125000 I-0.024683 J-0.050783
G02 X24.957463 Y37.324408 Z-0.125000 I-0.066005 J-0.000000
G02 X24.866827 Y37.296020 Z-0.125000 I-0.090636 J0.130495
G02 X24.761357 Y37.320296 Z-0.125000 I-0.000000 J0.241253
G02 X24.696805 Y37.378620 Z-0.125000 I0.068266 J0.140441
G01 X24.696805 Y37.378620 Z-0.125000
G00 Z5.000000

(End cutting path id: path825)


(Start cutting path id: path825)
(Change tool to Cylindrical cutter)

G00 Z5.000000
G00 X23.912350 Y38.071840

G01 Z-0.125000 F1000.0(Penetrate)
G02 X24.112578 Y38.286080 Z-0.125000 I0.214731 J0.000000 F1200.000000
G02 X24.457592 Y38.108740 Z-0.125000 I0.025378 J-0.374907
G01 X24.443062 Y38.071789 Z-0.125000
G02 X24.206233 Y38.039940 Z-0.125000 I-0.236829 J0.864604
G02 X23.927400 Y38.055064 Z-0.125000 I0.000000 J2.577953
G01 X23.912350 Y38.071840 Z-0.125000
G01 X23.912350 Y38.071840 Z-0.125000
G00 Z5.000000

(End cutting path id: path825)


(Start cutting path id: path825)
(Change tool to Cylindrical cutter)

G00 Z5.000000
G00 X23.416905 Y38.782880

G01 Z-0.125000 F1000.0(Penetrate)
G01 X23.418223 Y38.826308 Z-0.125000 F1200.000000
G02 X23.561410 Y38.864180 Z-0.125000 I0.144488 J-0.256663
G02 X23.794689 Y38.830190 Z-0.125000 I0.004066 J-0.789597
G01 X23.829776 Y38.782880 Z-0.125000
G02 X23.735727 Y38.688831 Z-0.125000 I-0.094049 J0.000000
G02 X23.416905 Y38.782880 Z-0.125000 I-0.000000 J0.587417
G01 X23.416905 Y38.782880 Z-0.125000
G00 Z5.000000

(End cutting path id: path825)


(Start cutting path id: path825)
(Change tool to Cylindrical cutter)

G00 Z5.000000
G00 X23.127895 Y37.383620

G01 Z-0.125000 F1000.0(Penetrate)
G02 X23.837385 Y37.454041 Z-0.125000 I0.688843 J-3.330819 F1200.000000
G02 X23.912350 Y37.378620 Z-0.125000 I-0.000458 J-0.075421
G01 X23.874090 Y37.335009 Z-0.125000
G02 X23.354974 Y37.305520 Z-0.125000 I-0.459043 J3.496943
G02 X23.125531 Y37.345760 Z-0.125000 I0.013054 J0.748686
G01 X23.127895 Y37.383320 Z-0.125000
G01 X23.127895 Y37.383620 Z-0.125000
G00 Z5.000000

(End cutting path id: path825)


(Start cutting path id: path825)
(Change tool to Cylindrical cutter)

G00 Z5.000000
G00 X22.508589 Y36.726820

G01 Z-0.125000 F1000.0(Penetrate)
G01 X22.507234 Y36.756216 Z-0.125000 F1200.000000
G02 X22.735668 Y36.789720 Z-0.125000 I0.247969 J-0.895169
G02 X23.235904 Y36.785207 Z-0.125000 I0.175311 J-8.293628
G01 X23.251757 Y36.768720 Z-0.125000
G02 X23.173823 Y36.686269 Z-0.125000 I-0.082582 J0.000000
G02 X22.508589 Y36.726820 Z-0.125000 I-0.160393 J2.845612
G01 X22.508589 Y36.726820 Z-0.125000
G00 Z5.000000

(End cutting path id: path825)


(Start cutting path id: path825)
(Change tool to Cylindrical cutter)

G00 Z5.000000
G00 X22.942104 Y36.200770

G01 Z-0.125000 F1000.0(Penetrate)
G02 X23.334331 Y36.216201 Z-0.125000 I0.392227 J-4.977245 F1200.000000
G02 X23.726558 Y36.200770 Z-0.125000 I0.000000 J-4.992676
G01 X23.726558 Y36.185295 Z-0.125000
G02 X23.334331 Y36.169870 Z-0.125000 I-0.392227 J4.979214
G02 X22.942104 Y36.185295 Z-0.125000 I-0.000000 J4.994616
G01 X22.942104 Y36.200770 Z-0.125000
G01 X22.942104 Y36.200770 Z-0.125000
G00 Z5.000000

(End cutting path id: path825)


(Start cutting path id: path825)
(Change tool to Cylindrical cutter)

G00 Z5.000000
G00 X22.508589 Y35.159050

G01 Z-0.125000 F1000.0(Penetrate)
G02 X22.261698 Y35.214773 Z-0.125000 I0.468810 J2.651948 F1200.000000
G01 X22.260867 Y35.227450 Z-0.125000
G02 X22.304029 Y35.237138 Z-0.125000 I0.046235 J-0.104999
G02 X24.449082 Y35.286950 Z-0.125000 I8.043484 J-300.162483
G02 X26.496946 Y35.286805 Z-0.125000 I1.020241 J-51.950175
G01 X26.513437 Y35.246050 Z-0.125000
G02 X25.733944 Y34.911557 Z-0.125000 I-0.804096 J0.798340
G02 X22.508589 Y35.159150 Z-0.125000 I-0.357733 J16.471731
G01 X22.508589 Y35.159050 Z-0.125000
G00 Z5.000000

(End cutting path id: path825)


(Start cutting path id: path825)
(Change tool to Cylindrical cutter)

G00 Z5.000000
G00 X21.495214 Y36.199770

G01 Z-0.125000 F1000.0(Penetrate)
G02 X21.761905 Y36.216421 Z-0.125000 I0.269278 J-2.168838 F1200.000000
G02 X22.073233 Y36.200530 Z-0.125000 I0.003537 J-2.988349
G01 X22.073396 Y36.184034 Z-0.125000
G02 X21.806709 Y36.167330 Z-0.125000 I-0.269431 J2.164359
G02 X21.495376 Y36.183380 Z-0.125000 I-0.002345 J2.982135
G01 X21.495214 Y36.199830 Z-0.125000
G01 X21.495214 Y36.199770 Z-0.125000
G00 Z5.000000

(End cutting path id: path825)


(Start cutting path id: path825)
(Change tool to Cylindrical cutter)

G00 Z5.000000
G00 X21.047838 Y37.349420

G01 Z-0.125000 F1000.0(Penetrate)
G02 X21.806722 Y37.658762 Z-0.125000 I0.746800 J-0.746540 F1200.000000
G02 X22.582972 Y37.332020 Z-0.125000 I-0.012769 J-1.115788
G01 X22.576011 Y37.314029 Z-0.125000
G02 X21.806709 Y37.296320 Z-0.125000 I-0.769302 J16.700810
G02 X21.057903 Y37.322490 Z-0.125000 I-0.000000 J10.726048
G01 X21.047838 Y37.349420 Z-0.125000
G01 X21.047838 Y37.349420 Z-0.125000
G00 Z5.000000

(End cutting path id: path825)


(Start cutting path id: path825)
(Change tool to Cylindrical cutter)

G00 Z5.000000
G00 X22.013144 Y38.035910

G01 Z-0.125000 F1000.0(Penetrate)
G02 X23.365583 Y38.050557 Z-0.125000 I1.003296 J-30.194016 F1200.000000
G02 X23.454064 Y38.019310 Z-0.125000 I-0.001684 J-0.145665
G01 X23.443979 Y37.988653 Z-0.125000
G02 X22.091590 Y37.974010 Z-0.125000 I-1.004319 J30.298225
G01 X20.650670 Y37.990610 Z-0.125000
G01 X22.013144 Y38.035910 Z-0.125000
G00 Z5.000000

(End cutting path id: path825)


(Start cutting path id: path825)
(Change tool to Cylindrical cutter)

G00 Z5.000000
G00 X20.774531 Y38.694440

G01 Z-0.125000 F1000.0(Penetrate)
G01 X20.807541 Y38.737957 Z-0.125000 F1200.000000
G02 X21.042898 Y38.769540 Z-0.125000 I0.230150 J-0.822351
G03 X21.311211 Y38.771398 Z-0.125000 I0.066350 J9.793318
G03 X21.682848 Y38.782140 Z-0.125000 I-0.463375 J22.465103
G02 X22.054442 Y38.788903 Z-0.125000 I0.347378 J-8.874257
G02 X22.549876 Y38.779140 Z-0.125000 I-0.039794 J-14.594408
G01 X23.045321 Y38.762040 Z-0.125000
G01 X22.673738 Y38.695940 Z-0.125000
G02 X20.927429 Y38.541141 Z-0.125000 I-1.752815 J9.846197
G02 X20.774531 Y38.693940 Z-0.125000 I-0.000099 J0.152799
G01 X20.774531 Y38.694440 Z-0.125000
G00 Z5.000000

(End cutting path id: path825)


(Start cutting path id: path825)
(Change tool to Cylindrical cutter)

G00 Z5.000000
G00 X20.472852 Y39.546210

G01 Z-0.125000 F1000.0(Penetrate)
G01 X20.489353 Y39.577291 Z-0.125000 F1200.000000
G02 X21.698618 Y39.595910 Z-0.125000 I0.974334 J-24.002082
G01 X21.708745 Y39.553888 Z-0.125000
G02 X21.530546 Y39.507810 Z-0.125000 I-0.187605 J0.357910
G02 X20.527800 Y39.514147 Z-0.125000 I-0.394004 J16.991624
G02 X20.472852 Y39.546210 Z-0.125000 I0.002410 J0.067246
G01 X20.472852 Y39.546210 Z-0.125000
G00 Z5.000000

(End cutting path id: path825)


(Start cutting path id: path825)
(Change tool to Cylindrical cutter)

G00 Z5.000000
G00 X19.742354 Y40.265592

G01 Z-0.125000 F1000.0(Penetrate)
G01 X19.742537 Y40.298585 Z-0.125000 F1200.000000
G02 X20.857106 Y40.355792 Z-0.125000 I1.527889 J-18.881693
G02 X22.539660 Y40.362303 Z-0.125000 I1.022703 J-46.881387
G02 X22.628322 Y40.330802 Z-0.125000 I-0.002059 J-0.146319
G01 X22.618584 Y40.299433 Z-0.125000
G02 X21.678719 Y40.267742 Z-0.125000 I-0.955679 J14.390148
G03 X20.651620 Y40.254981 Z-0.125000 I0.062215 J-46.348190
G03 X20.485522 Y40.239472 Z-0.125000 I0.028190 J-1.199106
G02 X20.319789 Y40.228863 Z-0.125000 I-0.136273 J0.829050
G02 X19.742354 Y40.265582 Z-0.125000 I0.356831 J10.170231
G01 X19.742354 Y40.265592 Z-0.125000
G00 Z5.000000

(End cutting path id: path825)


(Start cutting path id: path825)
(Change tool to Cylindrical cutter)

G00 Z5.000000
G00 X19.880777 Y41.187899

G01 Z-0.125000 F1000.0(Penetrate)
G02 X19.998498 Y41.227738 Z-0.125000 I0.140738 J-0.222020 F1200.000000
G02 X20.609383 Y41.251939 Z-0.125000 I0.556923 J-6.335884
G01 X20.619566 Y41.208668 Z-0.125000
G02 X20.417509 Y41.154269 Z-0.125000 I-0.230021 J0.451918
G02 X19.888890 Y41.156245 Z-0.125000 I-0.247553 J4.482827
G01 X19.880777 Y41.187889 Z-0.125000
G01 X19.880777 Y41.187899 Z-0.125000
G00 Z5.000000

(End cutting path id: path825)


(Start cutting path id: path825)
(Change tool to Cylindrical cutter)

G00 Z5.000000
G00 X19.288196 Y41.177149

G01 Z-0.125000 F1000.0(Penetrate)
G01 X19.081761 Y41.243259 Z-0.125000 F1200.000000
G01 X19.308840 Y41.251459 Z-0.125000
G02 X19.501751 Y41.224251 Z-0.125000 I0.020017 J-0.555561
G01 X19.535919 Y41.177119 Z-0.125000
G02 X19.526545 Y41.108359 Z-0.125000 I-0.256869 J-0.000000
G01 X19.515279 Y41.102779 Z-0.125000
G03 X19.494413 Y41.110325 Z-0.125000 I-0.134308 J-0.338755
G03 X19.288200 Y41.177119 Z-0.125000 I-10.154228 J-30.997497
G01 X19.288196 Y41.177149 Z-0.125000
G00 Z5.000000

(End cutting path id: path825)


(Start cutting path id: path825)
(Change tool to Cylindrical cutter)

G00 Z5.000000
G00 X19.144827 Y41.731899

G01 Z-0.125000 F1000.0(Penetrate)
G02 X19.372693 Y41.748719 Z-0.125000 I0.223912 J-1.481549 F1200.000000
G02 X19.557698 Y41.730899 Z-0.125000 I-0.002630 J-0.996585
G01 X19.557339 Y41.713209 Z-0.125000
G02 X19.329483 Y41.696389 Z-0.125000 I-0.223771 J1.479624
G02 X19.144471 Y41.714359 Z-0.125000 I0.003328 J0.995637
G01 X19.144827 Y41.732029 Z-0.125000
G01 X19.144827 Y41.731899 Z-0.125000
G00 Z5.000000

(End cutting path id: path825)


(Start cutting path id: path825)
(Change tool to Cylindrical cutter)

G00 Z5.000000
G00 X18.446972 Y41.233559

G01 Z-0.125000 F1000.0(Penetrate)
G02 X18.550086 Y41.251233 Z-0.125000 I0.092846 J-0.232056 F1200.000000
G02 X18.605239 Y41.227059 Z-0.125000 I-0.003403 J-0.082768
G01 X18.599966 Y41.201359 Z-0.125000
G02 X18.496861 Y41.183689 Z-0.125000 I-0.092812 J0.231912
G02 X18.441702 Y41.207886 Z-0.125000 I0.003444 J0.082821
G01 X18.446971 Y41.233579 Z-0.125000
G01 X18.446972 Y41.233559 Z-0.125000
G00 Z5.000000

(End cutting path id: path825)


(Start cutting path id: path825)
(Change tool to Cylindrical cutter)

G00 Z5.000000
G00 X18.049584 Y41.704559

G01 Z-0.125000 F1000.0(Penetrate)
G02 X18.249822 Y41.918804 Z-0.125000 I0.214735 J0.000000 F1200.000000
G02 X18.594825 Y41.741449 Z-0.125000 I0.025366 J-0.374895
G01 X18.580271 Y41.704470 Z-0.125000
G02 X18.343467 Y41.672639 Z-0.125000 I-0.236804 J0.864935
G02 X18.064675 Y41.687740 Z-0.125000 I-0.000000 J2.581101
G01 X18.049584 Y41.704559 Z-0.125000
G01 X18.049584 Y41.704559 Z-0.125000
G00 Z5.000000

(End cutting path id: path825)


(Start cutting path id: path825)
(Change tool to Cylindrical cutter)

G00 Z5.000000
G00 X17.533495 Y41.727329

G01 Z-0.125000 F1000.0(Penetrate)
G02 X17.636713 Y41.747379 Z-0.125000 I0.103218 J-0.255658 F1200.000000
G02 X17.739931 Y41.727329 Z-0.125000 I-0.000000 J-0.275708
G01 X17.739935 Y41.705724 Z-0.125000
G02 X17.636713 Y41.685679 Z-0.125000 I-0.103222 J0.255741
G02 X17.533496 Y41.705718 Z-0.125000 I-0.000000 J0.275843
G01 X17.533495 Y41.727329 Z-0.125000
G01 X17.533495 Y41.727329 Z-0.125000
G00 Z5.000000

(End cutting path id: path825)


(Start cutting path id: path825)
(Change tool to Cylindrical cutter)

G00 Z5.000000
G00 X17.653744 Y43.385320

G01 Z-0.125000 F1000.0(Penetrate)
G02 X18.207540 Y43.399761 Z-0.125000 I0.556068 J-10.698773 F1200.000000
G02 X18.809782 Y43.385568 Z-0.125000 I0.002686 J-12.670531
G01 X18.809815 Y43.371212 Z-0.125000
G02 X18.256019 Y43.356758 Z-0.125000 I-0.555984 J10.685494
G02 X17.653777 Y43.370965 Z-0.125000 I-0.003259 J12.633408
G01 X17.653744 Y43.385328 Z-0.125000
G01 X17.653744 Y43.385320 Z-0.125000
G00 Z5.000000

(End cutting path id: path825)


(Start cutting path id: path825)
(Change tool to Cylindrical cutter)

G00 Z5.000000
G00 X17.327060 Y43.880805

G01 Z-0.125000 F1000.0(Penetrate)
G02 X17.884435 Y43.895241 Z-0.125000 I0.557375 J-10.753085 F1200.000000
G02 X18.441811 Y43.880805 Z-0.125000 I-0.000000 J-10.767591
G01 X18.441811 Y43.866350 Z-0.125000
G02 X17.884436 Y43.851915 Z-0.125000 I-0.557375 J10.753532
G02 X17.327060 Y43.866350 Z-0.125000 I0.000000 J10.768024
G01 X17.327060 Y43.880805 Z-0.125000
G01 X17.327060 Y43.880805 Z-0.125000
G00 Z5.000000

(End cutting path id: path825)


(Start cutting path id: path825)
(Change tool to Cylindrical cutter)

G00 Z5.000000
G00 X19.185941 Y43.960551

G01 Z-0.125000 F1000.0(Penetrate)
G02 X19.372063 Y43.977805 Z-0.125000 I0.181154 J-0.941661 F1200.000000
G02 X19.516238 Y43.958751 Z-0.125000 I-0.002993 J-0.577640
G01 X19.515621 Y43.940098 Z-0.125000
G02 X19.329483 Y43.922841 Z-0.125000 I-0.181276 J0.942780
G02 X19.185327 Y43.941782 Z-0.125000 I0.003206 J0.582437
G01 X19.185941 Y43.960421 Z-0.125000
G01 X19.185941 Y43.960551 Z-0.125000
G00 Z5.000000

(End cutting path id: path825)


(Start cutting path id: path825)
(Change tool to Cylindrical cutter)

G00 Z5.000000
G00 X19.663295 Y45.625131

G01 Z-0.125000 F1000.0(Penetrate)
G03 X19.573815 Y45.746497 Z-0.125000 I-0.223084 J-0.070805 F1200.000000
G03 X19.387470 Y45.816894 Z-0.125000 I-0.233169 J-0.335380
G02 X19.230699 Y45.906914 Z-0.125000 I0.026206 J0.227156
G02 X19.138933 Y46.148502 Z-0.125000 I0.373954 J0.280268
G03 X19.048663 Y46.414582 Z-0.125000 I-0.579023 J-0.048087
G03 X18.829488 Y46.629907 Z-0.125000 I-0.584422 J-0.375662
G03 X18.536248 Y46.751460 Z-0.125000 I-0.521756 J-0.844221
G03 X18.307983 Y46.753301 Z-0.125000 I-0.118169 J-0.499414
G02 X18.101005 Y46.757743 Z-0.125000 I-0.094320 J0.429457
G02 X18.021358 Y46.829271 Z-0.125000 I0.030126 J0.113653
G02 X18.017054 Y46.926558 Z-0.125000 I0.143574 J0.055091
G01 X18.057918 Y46.957393 Z-0.125000
G03 X18.189771 Y47.131351 Z-0.125000 I0.000000 J0.136949
G03 X17.946365 Y47.354832 Z-0.125000 I-0.302167 J-0.084813
G03 X17.849246 Y47.325104 Z-0.125000 I-0.020384 J-0.106909
G03 X17.801860 Y47.211171 Z-0.125000 I0.113274 J-0.113933
G02 X17.718673 Y47.134444 Z-0.125000 I-0.076978 J0.000000
G02 X17.621509 Y47.225771 Z-0.125000 I0.008621 J0.106522
G02 X17.731591 Y47.442818 Z-0.125000 I0.209640 J0.030114
G02 X18.017332 Y47.436579 Z-0.125000 I0.137310 J-0.257817
G02 X18.217140 Y47.255473 Z-0.125000 I-0.339368 J-0.575186
G02 X18.240816 Y47.130811 Z-0.125000 I-0.119377 J-0.087252
G03 X18.263565 Y47.016285 Z-0.125000 I0.129353 J-0.033829
G03 X18.393866 Y46.928618 Z-0.125000 I0.192869 J0.145998
G03 X18.945410 Y46.871909 Z-0.125000 I0.452389 J1.689411
G03 X19.513603 Y46.992198 Z-0.125000 I-0.108804 J1.916041
G02 X20.429832 Y47.226680 Z-0.125000 I1.519841 J-4.031403
G02 X21.712004 Y47.303266 Z-0.125000 I1.113363 J-7.868428
G03 X21.944005 Y47.319037 Z-0.125000 I0.028110 J1.300841
G03 X22.138493 Y47.370846 Z-0.125000 I-0.153385 J0.966745
G02 X22.302212 Y47.382655 Z-0.125000 I0.101551 J-0.267114
G02 X22.377702 Y47.317526 Z-0.125000 I-0.022934 J-0.102897
G02 X22.336388 Y47.172105 Z-0.125000 I-0.117661 J-0.045152
G02 X22.135895 Y47.133405 Z-0.125000 I-0.139293 J0.182938
G03 X21.792531 Y47.114427 Z-0.125000 I-0.143485 J-0.519658
G03 X21.682847 Y46.952539 Z-0.125000 I0.064628 J-0.161888
G02 X21.623280 Y46.851829 Z-0.125000 I-0.114920 J0.000000
G02 X21.391246 Y46.792264 Z-0.125000 I-0.232034 J0.422165
G02 X21.131257 Y46.838257 Z-0.125000 I0.000000 J0.757826
G02 X21.052114 Y46.916126 Z-0.125000 I0.045977 J0.125883
G03 X20.457355 Y47.275815 Z-0.125000 I-0.528874 J-0.202940
G03 X19.886848 Y46.779669 Z-0.125000 I0.077957 J-0.665721
G02 X19.805346 Y46.681003 Z-0.125000 I-0.147015 J0.038446
G02 X19.567574 Y46.627116 Z-0.125000 I-0.237772 J0.497629
G03 X19.397241 Y46.475466 Z-0.125000 I0.000000 J-0.171484
G03 X19.504434 Y46.084872 Z-0.125000 I0.537267 J-0.062561
G03 X19.747597 Y45.855778 Z-0.125000 I0.815594 J0.622084
G03 X19.925977 Y45.801375 Z-0.125000 I0.178380 J0.265243
G03 X20.049353 Y45.875867 Z-0.125000 I0.000000 J0.139415
G03 X20.099787 Y46.131669 Z-0.125000 I-0.403790 J0.212484
G02 X20.117653 Y46.417084 Z-0.125000 I0.906875 J0.086500
G02 X20.173687 Y46.461966 Z-0.125000 I0.056034 J-0.012538
G02 X20.252674 Y46.435555 Z-0.125000 I0.000000 J-0.131319
G02 X20.279087 Y46.382606 Z-0.125000 I-0.039866 J-0.052949
G03 X20.422736 Y46.110166 Z-0.125000 I0.330175 J0.000000
G03 X20.886819 Y45.966519 Z-0.125000 I0.464083 J0.677839
G03 X21.118208 Y46.005204 Z-0.125000 I0.000000 J0.711358
G03 X21.284119 Y46.103178 Z-0.125000 I-0.156106 J0.453817
G02 X21.403516 Y46.168596 Z-0.125000 I0.196703 J-0.217343
G01 X21.435126 Y46.144468 Z-0.125000
G03 X21.704692 Y45.877952 Z-0.125000 I0.266533 J0.000000
G03 X22.130126 Y46.152268 Z-0.125000 I-0.005409 J0.475449
G02 X22.178293 Y46.182946 Z-0.125000 I0.048167 J-0.022474
G02 X22.226466 Y46.152268 Z-0.125000 I-0.000000 J-0.053161
G03 X22.295517 Y46.081844 Z-0.125000 I0.134398 J0.062713
G03 X22.436759 Y46.049050 Z-0.125000 I0.141242 J0.287766
G03 X22.526653 Y46.115228 Z-0.125000 I-0.000000 J0.094144
G03 X22.563258 Y46.455676 Z-0.125000 I-0.845834 J0.263135
G02 X22.584226 Y46.787224 Z-0.125000 I1.103330 J0.096660
G01 X22.641978 Y46.818425 Z-0.125000
G02 X22.718305 Y46.748419 Z-0.125000 I-0.050536 J-0.131712
G02 X22.756320 Y46.583351 Z-0.125000 I-0.339372 J-0.165068
G03 X22.816975 Y46.436011 Z-0.125000 I0.209284 J-0.000000
G03 X23.038027 Y46.299183 Z-0.125000 I0.395651 J0.392220
G02 X23.295014 Y46.180283 Z-0.125000 I-0.388285 J-1.176397
G02 X23.359286 Y46.103144 Z-0.125000 I-0.081110 J-0.132927
G01 X23.326211 Y46.044861 Z-0.125000
G02 X21.918404 Y45.852753 Z-0.125000 I-3.339163 J19.215714
G03 X20.294911 Y45.639420 Z-0.125000 I2.576931 J-25.894945
G03 X19.853040 Y45.514946 Z-0.125000 I0.330145 J-2.018524
G02 X19.745660 Y45.522428 Z-0.125000 I-0.046074 J0.113042
G02 X19.663303 Y45.625103 Z-0.125000 I0.091729 J0.157945
G01 X19.663295 Y45.625131 Z-0.125000
G00 Z5.000000

(End cutting path id: path825)


(Start cutting path id: path825)
(Change tool to Cylindrical cutter)

G00 Z5.000000
G00 X18.772108 Y47.424941

G01 Z-0.125000 F1000.0(Penetrate)
G02 X18.875326 Y47.444991 Z-0.125000 I0.103217 J-0.255657 F1200.000000
G02 X18.978543 Y47.424941 Z-0.125000 I0.000000 J-0.275707
G01 X18.978540 Y47.403327 Z-0.125000
G02 X18.875325 Y47.383291 Z-0.125000 I-0.103215 J0.255842
G02 X18.772109 Y47.403330 Z-0.125000 I0.000000 J0.275840
G01 X18.772108 Y47.424941 Z-0.125000
G01 X18.772108 Y47.424941 Z-0.125000
G00 Z5.000000

(End cutting path id: path825)


(Start cutting path id: path825)
(Change tool to Cylindrical cutter)

G00 Z5.000000
G00 X18.999187 Y49.106157

G01 Z-0.125000 F1000.0(Penetrate)
G02 X20.501909 Y49.283109 Z-0.125000 I2.001296 J-10.526301 F1200.000000
G02 X20.544795 Y49.178147 Z-0.125000 I0.002799 J-0.060099
G02 X20.476186 Y49.148084 Z-0.125000 I-0.080237 J0.089795
G02 X19.577206 Y49.084267 Z-0.125000 I-1.683993 J17.358325
G02 X19.000986 Y49.082204 Z-0.125000 I-0.312995 J6.951239
G01 X18.999187 Y49.106147 Z-0.125000
G01 X18.999187 Y49.106157 Z-0.125000
G00 Z5.000000

(End cutting path id: path825)


(Start cutting path id: path825)
(Change tool to Cylindrical cutter)

G00 Z5.000000
G00 X19.040474 Y49.684007

G01 Z-0.125000 F1000.0(Penetrate)
G02 X20.309691 Y49.821111 Z-0.125000 I1.544276 J-8.352553 F1200.000000
G02 X20.350700 Y49.726467 Z-0.125000 I0.001796 J-0.055428
G02 X20.304700 Y49.705031 Z-0.125000 I-0.052426 J0.052426
G02 X19.490553 Y49.651647 Z-0.125000 I-1.660434 J19.088163
G02 X19.041928 Y49.657835 Z-0.125000 I-0.171021 J3.866924
G01 X19.040474 Y49.684007 Z-0.125000
G01 X19.040474 Y49.684007 Z-0.125000
G00 Z5.000000

(End cutting path id: path825)


(Start cutting path id: path825)
(Change tool to Cylindrical cutter)

G00 Z5.000000
G00 X19.432701 Y50.315113

G01 Z-0.125000 F1000.0(Penetrate)
G02 X19.535919 Y50.335163 Z-0.125000 I0.103218 J-0.255658 F1200.000000
G02 X19.639137 Y50.315113 Z-0.125000 I-0.000000 J-0.275708
G01 X19.639134 Y50.293499 Z-0.125000
G02 X19.535919 Y50.273463 Z-0.125000 I-0.103215 J0.255842
G02 X19.432702 Y50.293502 Z-0.125000 I-0.000000 J0.275845
G01 X19.432701 Y50.315113 Z-0.125000
G01 X19.432701 Y50.315113 Z-0.125000
G00 Z5.000000

(End cutting path id: path825)


(Start cutting path id: path825)
(Change tool to Cylindrical cutter)

G00 Z5.000000
G00 X17.636713 Y49.548880

G01 Z-0.125000 F1000.0(Penetrate)
G02 X17.723191 Y49.644101 Z-0.125000 I0.095662 J0.000000 F1200.000000
G02 X18.092189 Y49.592820 Z-0.125000 I0.077047 J-0.798827
G01 X18.093483 Y49.557873 Z-0.125000
G02 X17.946366 Y49.523030 Z-0.125000 I-0.153792 J0.321345
G02 X17.651777 Y49.532508 Z-0.125000 I-0.054360 J2.893136
G01 X17.636713 Y49.548880 Z-0.125000
G01 X17.636713 Y49.548880 Z-0.125000
G00 Z5.000000

(End cutting path id: path825)


(Start cutting path id: path825)
(Change tool to Cylindrical cutter)

G00 Z5.000000
G00 X17.290933 Y49.491060

G01 Z-0.125000 F1000.0(Penetrate)
G02 X17.394046 Y49.508733 Z-0.125000 I0.092844 J-0.232053 F1200.000000
G02 X17.449201 Y49.484560 Z-0.125000 I-0.003404 J-0.082775
G01 X17.443928 Y49.458860 Z-0.125000
G02 X17.340822 Y49.441190 Z-0.125000 I-0.092813 J0.231916
G02 X17.285663 Y49.465387 Z-0.125000 I0.003444 J0.082820
G01 X17.290932 Y49.491080 Z-0.125000
G01 X17.290933 Y49.491060 Z-0.125000
G00 Z5.000000

(End cutting path id: path825)


(Start cutting path id: path825)
(Change tool to Cylindrical cutter)

G00 Z5.000000
G00 X17.987653 Y48.996057

G01 Z-0.125000 F1000.0(Penetrate)
G02 X18.132160 Y49.014627 Z-0.125000 I0.144507 J-0.552980 F1200.000000
G02 X18.276663 Y48.996057 Z-0.125000 I-0.000000 J-0.571522
G01 X18.276663 Y48.976864 Z-0.125000
G02 X18.132158 Y48.958297 Z-0.125000 I-0.144505 J0.553035
G02 X17.987652 Y48.976868 Z-0.125000 I-0.000000 J0.571516
G01 X17.987653 Y48.996057 Z-0.125000
G01 X17.987653 Y48.996057 Z-0.125000
G00 Z5.000000

(End cutting path id: path825)


(Start cutting path id: path825)
(Change tool to Cylindrical cutter)

G00 Z5.000000
G00 X16.893545 Y48.128048

G01 Z-0.125000 F1000.0(Penetrate)
G03 X16.434409 Y48.622761 Z-0.125000 I-24.562474 J-22.335676 F1200.000000
G03 X16.006639 Y49.064405 Z-0.125000 I-20.002122 J-18.945767
G02 X15.718200 Y49.418127 Z-0.125000 I1.682516 J1.666451
G01 X15.745526 Y49.456443 Z-0.125000
G03 X15.851192 Y49.485149 Z-0.125000 I0.027824 J0.106410
G03 X15.889265 Y49.600446 Z-0.125000 I-0.095709 J0.095540
G03 X15.695984 Y49.897914 Z-0.125000 I-0.421307 J-0.062219
G03 X15.493020 Y49.851651 Z-0.125000 I-0.078522 J-0.123860
G02 X15.410942 Y49.828071 Z-0.125000 I-0.054122 J0.033752
G02 X15.185718 Y50.001500 Z-0.125000 I0.309712 J0.635167
G03 X14.948874 Y50.267239 Z-0.125000 I-8.493541 J-7.331578
G03 X14.572683 Y50.667738 Z-0.125000 I-19.666292 J-18.095743
G02 X14.320112 Y50.989368 Z-0.125000 I1.498022 J1.436362
G01 X14.345604 Y51.024347 Z-0.125000
G03 X14.455483 Y51.040475 Z-0.125000 I0.035945 J0.137477
G03 X14.498894 Y51.117757 Z-0.125000 I-0.047086 J0.077282
G02 X14.528444 Y51.221702 Z-0.125000 I0.197591 J-0.000000
G02 X14.581464 Y51.251249 Z-0.125000 I0.053020 J-0.032796
G02 X14.643481 Y51.230617 Z-0.125000 I-0.000000 J-0.103524
G02 X14.664244 Y51.189319 Z-0.125000 I-0.031023 J-0.041465
G03 X14.691110 Y51.119817 Z-0.125000 I0.104228 J0.000346
G03 X16.187871 Y49.501815 Z-0.125000 I67.678188 J61.105584
G02 X16.375067 Y49.270824 Z-0.125000 I-1.393093 J-1.320319
G02 X16.398095 Y49.196844 Z-0.125000 I-0.107323 J-0.073980
G03 X16.423629 Y49.126970 Z-0.125000 I0.108373 J0.000000
G03 X16.569489 Y48.993637 Z-0.125000 I0.584691 J0.493176
G02 X17.624654 Y47.995408 Z-0.125000 I-2.850966 J-4.070362
G02 X17.521544 Y47.783134 Z-0.125000 I-0.103110 J-0.081095
G03 X17.420419 Y47.758074 Z-0.125000 I0.000000 J-0.216563
G03 X17.375223 Y47.705874 Z-0.125000 I0.044427 J-0.084132
G01 X17.334341 Y47.695242 Z-0.125000
G02 X16.893540 Y48.128050 Z-0.125000 I3.599566 J4.106921
G01 X16.893545 Y48.128048 Z-0.125000
G00 Z5.000000

(End cutting path id: path825)


(Start cutting path id: path825)
(Change tool to Cylindrical cutter)

G00 Z5.000000
G00 X15.138844 Y48.746036

G01 Z-0.125000 F1000.0(Penetrate)
G02 X15.242062 Y48.766086 Z-0.125000 I0.103218 J-0.255659 F1200.000000
G02 X15.345279 Y48.746036 Z-0.125000 I0.000000 J-0.275701
G01 X15.345276 Y48.724422 Z-0.125000
G02 X15.242062 Y48.704386 Z-0.125000 I-0.103214 J0.255838
G02 X15.138845 Y48.724425 Z-0.125000 I0.000000 J0.275845
G01 X15.138844 Y48.746036 Z-0.125000
G01 X15.138844 Y48.746036 Z-0.125000
G00 Z5.000000

(End cutting path id: path825)


(Start cutting path id: path825)
(Change tool to Cylindrical cutter)

G00 Z5.000000
G00 X14.400837 Y48.747836

G01 Z-0.125000 F1000.0(Penetrate)
G02 X14.503951 Y48.765510 Z-0.125000 I0.092846 J-0.232056 F1200.000000
G02 X14.559104 Y48.741336 Z-0.125000 I-0.003403 J-0.082768
G01 X14.553831 Y48.715636 Z-0.125000
G02 X14.450726 Y48.697966 Z-0.125000 I-0.092812 J0.231912
G02 X14.395568 Y48.722161 Z-0.125000 I0.003444 J0.082821
G01 X14.400836 Y48.747856 Z-0.125000
G01 X14.400837 Y48.747836 Z-0.125000
G00 Z5.000000

(End cutting path id: path825)


(Start cutting path id: path825)
(Change tool to Cylindrical cutter)

G00 Z5.000000
G00 X14.438535 Y48.253256

G01 Z-0.125000 F1000.0(Penetrate)
G02 X14.583279 Y48.270892 Z-0.125000 I0.137921 J-0.529158 F1200.000000
G02 X14.686258 Y48.250156 Z-0.125000 I-0.003540 J-0.283651
G01 X14.684936 Y48.229739 Z-0.125000
G02 X14.540181 Y48.212086 Z-0.125000 I-0.138011 J0.529371
G02 X14.437218 Y48.232806 Z-0.125000 I0.003764 J0.284890
G01 X14.438535 Y48.253216 Z-0.125000
G01 X14.438535 Y48.253256 Z-0.125000
G00 Z5.000000

(End cutting path id: path825)


(Start cutting path id: path825)
(Change tool to Cylindrical cutter)

G00 Z5.000000
G00 X13.528647 Y48.170356

G01 Z-0.125000 F1000.0(Penetrate)
G02 X13.673154 Y48.188926 Z-0.125000 I0.144507 J-0.552980 F1200.000000
G02 X13.817657 Y48.170356 Z-0.125000 I-0.000000 J-0.571522
G01 X13.817657 Y48.151163 Z-0.125000
G02 X13.673152 Y48.132596 Z-0.125000 I-0.144505 J0.553035
G02 X13.528646 Y48.151167 Z-0.125000 I-0.000000 J0.571513
G01 X13.528647 Y48.170356 Z-0.125000
G01 X13.528647 Y48.170356 Z-0.125000
G00 Z5.000000

(End cutting path id: path825)


(Start cutting path id: path825)
(Change tool to Cylindrical cutter)

G00 Z5.000000
G00 X12.847411 Y48.696326

G01 Z-0.125000 F1000.0(Penetrate)
G01 X12.873689 Y48.736635 Z-0.125000 F1200.000000
G02 X12.929981 Y48.732736 Z-0.125000 I0.024442 J-0.055424
G02 X13.000703 Y48.675095 Z-0.125000 I-0.184591 J-0.298687
G01 X13.012551 Y48.645286 Z-0.125000
G01 X12.998178 Y48.623242 Z-0.125000
G02 X12.929981 Y48.608876 Z-0.125000 I-0.068197 J0.154691
G02 X12.872283 Y48.633752 Z-0.125000 I-0.000000 J0.079351
G02 X12.847411 Y48.696326 Z-0.125000 I0.066276 J0.062574
G01 X12.847411 Y48.696326 Z-0.125000
G00 Z5.000000

(End cutting path id: path825)


(Start cutting path id: path825)
(Change tool to Cylindrical cutter)

G00 Z5.000000
G00 X13.112164 Y49.248058

G01 Z-0.125000 F1000.0(Penetrate)
G02 X13.665960 Y49.262507 Z-0.125000 I0.556406 J-10.705271 F1200.000000
G02 X14.268202 Y49.248306 Z-0.125000 I0.003078 J-12.646171
G01 X14.268235 Y49.233952 Z-0.125000
G02 X13.714439 Y49.219506 Z-0.125000 I-0.555815 J10.685008
G02 X13.112197 Y49.233713 Z-0.125000 I-0.003318 J12.631315
G01 X13.112164 Y49.248076 Z-0.125000
G01 X13.112164 Y49.248058 Z-0.125000
G00 Z5.000000

(End cutting path id: path825)


(Start cutting path id: path825)
(Change tool to Cylindrical cutter)

G00 Z5.000000
G00 X11.123106 Y49.201947

G01 Z-0.125000 F1000.0(Penetrate)
G02 X10.728337 Y49.916623 Z-0.125000 I6.465210 J4.037589 F1200.000000
G02 X10.720839 Y50.032406 Z-0.125000 I0.138535 J0.067105
G01 X10.754296 Y50.036728 Z-0.125000
G02 X11.008790 Y49.591658 Z-0.125000 I-3.622891 J-2.366890
G02 X11.155494 Y49.216480 Z-0.125000 I-2.067196 J-1.024594
G01 X11.123106 Y49.201947 Z-0.125000
G01 X11.123106 Y49.201947 Z-0.125000
G00 Z5.000000

(End cutting path id: path825)


(Start cutting path id: path825)
(Change tool to Cylindrical cutter)

G00 Z5.000000
G00 X10.299556 Y50.661335

G01 Z-0.125000 F1000.0(Penetrate)
G02 X10.150723 Y50.826975 Z-0.125000 I0.372645 J0.484520 F1200.000000
G02 X10.134408 Y50.931406 Z-0.125000 I0.117492 J0.071845
G01 X10.187366 Y50.954174 Z-0.125000
G02 X10.398962 Y50.779984 Z-0.125000 I-0.404994 J-0.707576
G02 X10.399811 Y50.672296 Z-0.125000 I-0.062821 J-0.054343
G02 X10.299552 Y50.661335 Z-0.125000 I-0.055844 J0.046789
G01 X10.299556 Y50.661335 Z-0.125000
G00 Z5.000000

(End cutting path id: path825)


(Start cutting path id: path825)
(Change tool to Cylindrical cutter)

G00 Z5.000000
G00 X10.017694 Y51.327201

G01 Z-0.125000 F1000.0(Penetrate)
G02 X10.021011 Y51.427775 Z-0.125000 I0.170946 J0.044704 F1200.000000
G01 X10.053794 Y51.435514 Z-0.125000
G02 X10.108252 Y51.340536 Z-0.125000 I-0.147909 J-0.147909
G02 X10.104934 Y51.239957 Z-0.125000 I-0.170919 J-0.044705
G01 X10.072151 Y51.232217 Z-0.125000
G02 X10.017694 Y51.327197 Z-0.125000 I0.147904 J0.147904
G01 X10.017694 Y51.327201 Z-0.125000
G00 Z5.000000

(End cutting path id: path825)


(Start cutting path id: path825)
(Change tool to Cylindrical cutter)

G00 Z5.000000
G00 X9.342952 Y52.027634

G01 Z-0.125000 F1000.0(Penetrate)
G03 X9.106882 Y52.696046 Z-0.125000 I-325.868303 J-114.714394 F1200.000000
G03 X9.069448 Y52.799513 Z-0.125000 I-7.840598 J-2.778196
G02 X9.069407 Y52.876198 Z-0.125000 I0.103975 J0.038398
G01 X9.107444 Y52.902729 Z-0.125000
G02 X9.368695 Y52.735023 Z-0.125000 I0.000000 J-0.287341
G02 X9.471282 Y52.108203 Z-0.125000 I-1.093585 J-0.500785
G03 X9.495053 Y51.958858 Z-0.125000 I0.289431 J-0.030496
G03 X9.569747 Y51.888113 Z-0.125000 I0.122943 J0.055002
G02 X9.745476 Y51.686510 Z-0.125000 I-0.102297 J-0.266557
G02 X9.672760 Y51.447176 Z-0.125000 I-0.243209 J-0.056820
G01 X9.602591 Y51.457878 Z-0.125000
G02 X9.342952 Y52.027634 Z-0.125000 I3.058557 J1.737828
G01 X9.342952 Y52.027634 Z-0.125000
G00 Z5.000000

(End cutting path id: path825)


(Start cutting path id: path825)
(Change tool to Cylindrical cutter)

G00 Z5.000000
G00 X10.248244 Y53.583716

G01 Z-0.125000 F1000.0(Penetrate)
G03 X10.115867 Y53.623874 Z-0.125000 I-0.157838 J-0.282035 F1200.000000
G03 X9.962597 Y53.606276 Z-0.125000 I-0.031654 J-0.400561
G02 X9.820893 Y53.596622 Z-0.125000 I-0.090632 J0.285503
G02 X9.752955 Y53.642526 Z-0.125000 I0.017032 J0.098433
G01 X9.774896 Y53.686613 Z-0.125000
G02 X10.668084 Y53.728456 Z-0.125000 I0.893188 J-9.512224
G02 X11.591021 Y53.709702 Z-0.125000 I-0.000000 J-22.719465
G01 X11.598477 Y53.690616 Z-0.125000
G02 X11.006640 Y53.417610 Z-0.125000 I-0.666190 J0.666190
G02 X10.248244 Y53.583704 Z-0.125000 I-0.105507 J1.332733
G01 X10.248244 Y53.583716 Z-0.125000
G00 Z5.000000

(End cutting path id: path825)


(Start cutting path id: path825)
(Change tool to Cylindrical cutter)

G00 Z5.000000
G00 X11.464293 Y51.972000

G01 Z-0.125000 F1000.0(Penetrate)
G02 X11.773946 Y51.988147 Z-0.125000 I0.309653 J-2.961072 F1200.000000
G02 X12.083599 Y51.972000 Z-0.125000 I-0.000000 J-2.977219
G01 X12.083599 Y51.955762 Z-0.125000
G02 X11.773946 Y51.939610 Z-0.125000 I-0.309653 J2.960057
G02 X11.464293 Y51.955759 Z-0.125000 I0.000000 J2.976779
G01 X11.464293 Y51.972000 Z-0.125000
G01 X11.464293 Y51.972000 Z-0.125000
G00 Z5.000000

(End cutting path id: path825)


(Start cutting path id: path825)
(Change tool to Cylindrical cutter)

G00 Z5.000000
G00 X11.505580 Y51.392095

G01 Z-0.125000 F1000.0(Penetrate)
G02 X11.691372 Y51.409823 Z-0.125000 I0.185792 J-0.964702 F1200.000000
G02 X11.877164 Y51.392095 Z-0.125000 I-0.000000 J-0.982430
G01 X11.877164 Y51.374042 Z-0.125000
G02 X11.691372 Y51.356315 Z-0.125000 I-0.185792 J0.964759
G02 X11.505579 Y51.374045 Z-0.125000 I-0.000000 J0.982333
G01 X11.505580 Y51.392095 Z-0.125000
G01 X11.505580 Y51.392095 Z-0.125000
G00 Z5.000000

(End cutting path id: path825)


(Start cutting path id: path825)
(Change tool to Cylindrical cutter)

G00 Z5.000000
G00 X11.745383 Y50.859018

G01 Z-0.125000 F1000.0(Penetrate)
G02 X11.799911 Y50.891355 Z-0.125000 I0.058205 J-0.036007 F1200.000000
G02 X12.666492 Y50.908578 Z-0.125000 I0.687401 J-12.776753
G01 X12.673144 Y50.868734 Z-0.125000
G02 X12.421747 Y50.820668 Z-0.125000 I-0.278576 J0.775551
G02 X11.761276 Y50.828489 Z-0.125000 I-0.243107 J7.361965
G01 X11.745383 Y50.859018 Z-0.125000
G01 X11.745383 Y50.859018 Z-0.125000
G00 Z5.000000

(End cutting path id: path825)


(Start cutting path id: path825)
(Change tool to Cylindrical cutter)

G00 Z5.000000
G00 X13.835681 Y51.562341

G01 Z-0.125000 F1000.0(Penetrate)
G02 X13.689724 Y51.774701 Z-0.125000 I1.574587 J1.238570 F1200.000000
G02 X13.673152 Y51.834836 Z-0.125000 I0.100823 J0.060135
G03 X13.648607 Y51.882749 Z-0.125000 I-0.059036 J0.000000
G03 X13.509456 Y51.952665 Z-0.125000 I-0.288497 J-0.400751
G02 X13.376025 Y52.039299 Z-0.125000 I0.090731 J0.285814
G02 X13.211038 Y52.288527 Z-0.125000 I0.791066 J0.702902
G03 X13.050836 Y52.532139 Z-0.125000 I-0.953151 J-0.452321
G03 X12.961863 Y52.572432 Z-0.125000 I-0.088973 J-0.078087
G02 X12.872682 Y52.597700 Z-0.125000 I-0.000000 J0.170014
G02 X12.847411 Y52.642952 Z-0.125000 I0.027881 J0.045252
G03 X12.827984 Y52.705898 Z-0.125000 I-0.111690 J-0.000000
G03 X12.661619 Y52.915297 Z-0.125000 I-1.521507 J-1.038032
G02 X12.029580 Y53.726820 Z-0.125000 I4.599603 J4.234201
G02 X12.043380 Y53.860284 Z-0.125000 I0.089022 J0.058241
G01 X12.082497 Y53.872375 Z-0.125000
G02 X12.329217 Y53.806604 Z-0.125000 I-0.314448 J-1.675177
G02 X12.533134 Y53.676410 Z-0.125000 I-0.172595 J-0.495119
G02 X12.629703 Y53.496578 Z-0.125000 I-0.268017 J-0.259769
G03 X12.723287 Y53.298034 Z-0.125000 I0.481224 J0.105498
G03 X13.419309 Y52.489862 Z-0.125000 I9.153293 J7.179290
G02 X14.238646 Y51.492465 Z-0.125000 I-6.792240 J-6.414891
G02 X14.199183 Y51.394140 Z-0.125000 I-0.051282 J-0.036500
G02 X14.020765 Y51.416060 Z-0.125000 I-0.055123 J0.288402
G02 X13.835681 Y51.562343 Z-0.125000 I0.212290 J0.458831
G01 X13.835681 Y51.562341 Z-0.125000
G00 Z5.000000

(End cutting path id: path825)


(Start cutting path id: path825)
(Change tool to Cylindrical cutter)

G00 Z5.000000
G00 X15.118200 Y52.159563

G01 Z-0.125000 F1000.0(Penetrate)
G01 X15.122579 Y52.211234 Z-0.125000 F1200.000000
G02 X15.191030 Y52.242133 Z-0.125000 I0.068451 J-0.060371
G02 X15.301129 Y52.217449 Z-0.125000 I-0.000000 J-0.257880
G02 X15.365925 Y52.159563 Z-0.125000 I-0.065295 J-0.138298
G01 X15.361543 Y52.107882 Z-0.125000
G02 X15.293095 Y52.076983 Z-0.125000 I-0.068448 J0.060365
G02 X15.183000 Y52.101667 Z-0.125000 I0.000000 J0.257863
G02 X15.118200 Y52.159563 Z-0.125000 I0.065295 J0.138293
G01 X15.118200 Y52.159563 Z-0.125000
G00 Z5.000000

(End cutting path id: path825)


(Start cutting path id: path825)
(Change tool to Cylindrical cutter)

G00 Z5.000000
G00 X15.531071 Y51.667295

G01 Z-0.125000 F1000.0(Penetrate)
G02 X16.027419 Y51.713159 Z-0.125000 I0.980512 J-7.902533 F1200.000000
G02 X16.480674 Y51.725135 Z-0.125000 I0.400513 J-6.575120
G01 X16.934832 Y51.721535 Z-0.125000
G01 X16.398100 Y51.661205 Z-0.125000
G02 X15.860638 Y51.614662 Z-0.125000 I-1.179549 J10.494429
G02 X15.448497 Y51.603365 Z-0.125000 I-0.374937 J6.155248
G01 X15.035626 Y51.605865 Z-0.125000
G01 X15.531071 Y51.667335 Z-0.125000
G01 X15.531071 Y51.667295 Z-0.125000
G00 Z5.000000

(End cutting path id: path825)


(Start cutting path id: path825)
(Change tool to Cylindrical cutter)

G00 Z5.000000
G00 X15.861368 Y52.242133

G01 Z-0.125000 F1000.0(Penetrate)
G02 X16.111626 Y52.284700 Z-0.125000 I0.388320 J-1.526039 F1200.000000
G02 X16.563249 Y52.303903 Z-0.125000 I0.437635 J-4.972251
G01 X17.017407 Y52.302603 Z-0.125000
G01 X16.604536 Y52.238293 Z-0.125000
G02 X16.190649 Y52.187902 Z-0.125000 I-0.961811 J6.174922
G02 X15.902655 Y52.176523 Z-0.125000 I-0.261706 J2.973408
G01 X15.613645 Y52.179023 Z-0.125000
G01 X15.861368 Y52.242053 Z-0.125000
G01 X15.861368 Y52.242133 Z-0.125000
G00 Z5.000000

(End cutting path id: path825)


(Start cutting path id: path825)
(Change tool to Cylindrical cutter)

G00 Z5.000000
G00 X17.038050 Y51.801380

G01 Z-0.125000 F1000.0(Penetrate)
G02 X17.141268 Y51.821430 Z-0.125000 I0.103218 J-0.255659 F1200.000000
G02 X17.244485 Y51.801380 Z-0.125000 I-0.000000 J-0.275701
G01 X17.244482 Y51.779766 Z-0.125000
G02 X17.141268 Y51.759730 Z-0.125000 I-0.103214 J0.255838
G02 X17.038051 Y51.779769 Z-0.125000 I-0.000000 J0.275845
G01 X17.038050 Y51.801380 Z-0.125000
G01 X17.038050 Y51.801380 Z-0.125000
G00 Z5.000000

(End cutting path id: path825)


(Start cutting path id: path825)
(Change tool to Cylindrical cutter)

G00 Z5.000000
G00 X17.328631 Y52.381933

G01 Z-0.125000 F1000.0(Penetrate)
G02 X17.473375 Y52.399569 Z-0.125000 I0.137921 J-0.529158 F1200.000000
G02 X17.576354 Y52.378833 Z-0.125000 I-0.003540 J-0.283651
G01 X17.575032 Y52.358415 Z-0.125000
G02 X17.430277 Y52.340763 Z-0.125000 I-0.138011 J0.529399
G02 X17.327312 Y52.361482 Z-0.125000 I0.003764 J0.284912
G01 X17.328631 Y52.381883 Z-0.125000
G01 X17.328631 Y52.381933 Z-0.125000
G00 Z5.000000

(End cutting path id: path825)


(Start cutting path id: path825)
(Change tool to Cylindrical cutter)

G00 Z5.000000
G00 X18.214732 Y52.407283

G01 Z-0.125000 F1000.0(Penetrate)
G02 X18.571818 Y52.463068 Z-0.125000 I0.357086 J-1.114987 F1200.000000
G02 X18.627603 Y52.407283 Z-0.125000 I0.000000 J-0.055785
G01 X18.591627 Y52.361648 Z-0.125000
G02 X18.317950 Y52.332943 Z-0.125000 I-0.245691 J1.023452
G02 X18.208786 Y52.369767 Z-0.125000 I0.005165 J0.195534
G01 X18.214732 Y52.407283 Z-0.125000
G01 X18.214732 Y52.407283 Z-0.125000
G00 Z5.000000

(End cutting path id: path825)


(Start cutting path id: path825)
(Change tool to Cylindrical cutter)

G00 Z5.000000
G00 X18.173445 Y51.831140

G01 Z-0.125000 F1000.0(Penetrate)
G01 X17.512852 Y51.874300 Z-0.125000 F1200.000000
G01 X18.157585 Y51.913720 Z-0.125000
G02 X18.799047 Y51.929975 Z-0.125000 I0.548109 J-8.964995
G02 X18.936002 Y51.905620 Z-0.125000 I-0.004385 J-0.421914
G01 X18.928357 Y51.843257 Z-0.125000
G02 X18.173445 Y51.831120 Z-0.125000 I-0.451922 J4.625770
G01 X18.173445 Y51.831140 Z-0.125000
G00 Z5.000000

(End cutting path id: path825)


(Start cutting path id: path825)
(Change tool to Cylindrical cutter)

G00 Z5.000000
G00 X20.444235 Y52.950801

G01 Z-0.125000 F1000.0(Penetrate)
G01 X20.237800 Y53.154082 Z-0.125000 F1200.000000
G01 X20.464234 Y53.049026 Z-0.125000
G02 X20.655551 Y52.921397 Z-0.125000 I-0.315665 J-0.680390
G02 X20.691313 Y52.840753 Z-0.125000 I-0.074596 J-0.081332
G01 X20.647586 Y52.812163 Z-0.125000
G02 X20.444235 Y52.950801 Z-0.125000 I0.280549 J0.629956
G01 X20.444235 Y52.950801 Z-0.125000
G00 Z5.000000

(End cutting path id: path825)


(Start cutting path id: path825)
(Change tool to Cylindrical cutter)

G00 Z5.000000
G00 X20.031364 Y53.749115

G01 Z-0.125000 F1000.0(Penetrate)
G03 X20.013616 Y53.803692 Z-0.125000 I-0.092790 J0.000000 F1200.000000
G03 X19.866216 Y53.976193 Z-0.125000 I-1.173167 J-0.853232
G01 X19.701067 Y54.141343 Z-0.125000
G01 X19.886859 Y54.138743 Z-0.125000
G02 X20.380445 Y53.985506 Z-0.125000 I-0.012170 J-0.910754
G02 X20.526809 Y53.711799 Z-0.125000 I-0.182740 J-0.273707
G01 X20.515118 Y53.698889 Z-0.125000
G02 X20.279086 Y53.687189 Z-0.125000 I-0.236032 J2.375001
G02 X20.058516 Y53.714343 Z-0.125000 I-0.000000 J0.909410
G01 X20.031364 Y53.749119 Z-0.125000
G01 X20.031364 Y53.749115 Z-0.125000
G00 Z5.000000

(End cutting path id: path825)


(Start cutting path id: path825)
(Change tool to Cylindrical cutter)

G00 Z5.000000
G00 X20.568096 Y54.554213

G01 Z-0.125000 F1000.0(Penetrate)
G02 X20.564197 Y54.610505 Z-0.125000 I0.051525 J0.031850 F1200.000000
G01 X20.604506 Y54.636783 Z-0.125000
G02 X20.667085 Y54.611906 Z-0.125000 I0.000000 J-0.091148
G02 X20.691956 Y54.554213 Z-0.125000 I-0.054479 J-0.057693
G02 X20.677581 Y54.486007 Z-0.125000 I-0.169002 J-0.000000
G01 X20.655546 Y54.471643 Z-0.125000
G01 X20.625735 Y54.483494 Z-0.125000
G02 X20.568096 Y54.554213 Z-0.125000 I0.241244 J0.255472
G01 X20.568096 Y54.554213 Z-0.125000
G00 Z5.000000

(End cutting path id: path825)


(Start cutting path id: path825)
(Change tool to Cylindrical cutter)

G00 Z5.000000
G00 X21.104828 Y53.890064

G01 Z-0.125000 F1000.0(Penetrate)
G02 X21.399553 Y54.031149 Z-0.125000 I1.250595 J-2.234092 F1200.000000
G02 X21.515429 Y54.055308 Z-0.125000 I0.125444 J-0.311707
G01 X21.540061 Y53.971605 Z-0.125000
G02 X21.063541 Y53.781984 Z-0.125000 I-0.806778 J1.333877
G01 X21.037563 Y53.812228 Z-0.125000
G02 X21.104831 Y53.890064 Z-0.125000 I0.140991 J-0.053863
G01 X21.104828 Y53.890064 Z-0.125000
G00 Z5.000000

(End cutting path id: path825)


(Start cutting path id: path825)
(Change tool to Cylindrical cutter)

G00 Z5.000000
G00 X20.951476 Y52.171356

G01 Z-0.125000 F1000.0(Penetrate)
G02 X20.875228 Y52.337415 Z-0.125000 I0.607952 J0.379685 F1200.000000
G01 X20.885986 Y52.381109 Z-0.125000
G01 X20.920315 Y52.380940 Z-0.125000
G02 X21.022259 Y52.242135 Z-0.125000 I-0.434153 J-0.425695
G02 X21.010777 Y52.164592 Z-0.125000 I-0.057990 J-0.031035
G01 X20.951479 Y52.171355 Z-0.125000
G01 X20.951476 Y52.171356 Z-0.125000
G00 Z5.000000

(End cutting path id: path825)


(Start cutting path id: path825)
(Change tool to Cylindrical cutter)

G00 Z5.000000
G00 X21.267021 Y51.760265

G01 Z-0.125000 F1000.0(Penetrate)
G01 X21.274848 Y51.810107 Z-0.125000 F1200.000000
G01 X21.317351 Y51.810595 Z-0.125000
G02 X21.424087 Y51.667568 Z-0.125000 I-0.370305 J-0.387686
G01 X21.416261 Y51.617732 Z-0.125000
G01 X21.373760 Y51.617244 Z-0.125000
G02 X21.267025 Y51.760270 Z-0.125000 I0.370160 J0.387574
G01 X21.267021 Y51.760265 Z-0.125000
G00 Z5.000000

(End cutting path id: path825)


(Start cutting path id: path825)
(Change tool to Cylindrical cutter)

G00 Z5.000000
G00 X22.311651 Y50.051016

G01 Z-0.125000 F1000.0(Penetrate)
G02 X22.193856 Y50.259191 Z-0.125000 I1.536891 J1.007057 F1200.000000
G02 X22.178292 Y50.327226 Z-0.125000 I0.140917 J0.068035
G03 X22.157101 Y50.390512 Z-0.125000 I-0.105095 J-0.000000
G03 X22.005581 Y50.556209 Z-0.125000 I-0.949791 J-0.716400
G02 X21.503778 Y51.196438 Z-0.125000 I1.608887 J1.777791
G02 X21.587123 Y51.332630 Z-0.125000 I0.081324 J0.043830
G02 X21.629094 Y51.310228 Z-0.125000 I-0.001345 J-0.053037
G02 X21.889283 Y50.905218 Z-0.125000 I-4.412993 J-3.121102
G03 X22.138005 Y50.479582 Z-0.125000 I90.452373 J52.570607
G03 X22.325207 Y50.163237 Z-0.125000 I50.262463 J29.530087
G02 X22.347204 Y50.059338 Z-0.125000 I-0.141227 J-0.084177
G01 X22.311647 Y50.051016 Z-0.125000
G01 X22.311651 Y50.051016 Z-0.125000
G00 Z5.000000

(End cutting path id: path825)


(Start cutting path id: path825)
(Change tool to Cylindrical cutter)

G00 Z5.000000
G00 X22.629234 Y49.520750

G01 Z-0.125000 F1000.0(Penetrate)
G02 X22.583197 Y49.616370 Z-0.125000 I0.139050 J0.125839 F1200.000000
G01 X22.610054 Y49.638227 Z-0.125000
G02 X22.723424 Y49.566883 Z-0.125000 I-0.123613 J-0.322175
G02 X22.788624 Y49.469524 Z-0.125000 I-0.181383 J-0.191982
G01 X22.758293 Y49.437463 Z-0.125000
G02 X22.629235 Y49.520754 Z-0.125000 I0.090682 J0.282143
G01 X22.629234 Y49.520750 Z-0.125000
