%
(Header)
(Generated by gcodetools from Inkscape.)
(Using default header. To add your own header create file "header" in the output dir.)
M3
(Header end.)
G21 (All units in mm)

(Start cutting path id: path829)
(Change tool to Cylindrical cutter)

G00 Z5.000000
G00 X95.918640 Y91.619350

G01 Z-0.125000 F1000.0(Penetrate)
G01 X93.922206 Y90.203220 Z-0.125000 F1100.000000
G02 X95.633916 Y92.042241 Z-0.125000 I10.030372 J-7.619876
G03 X97.061067 Y93.315240 Z-0.125000 I-89.916210 J102.240977
G03 X100.674226 Y96.685443 Z-0.125000 I-109.003444 J120.483349
G03 X104.145380 Y100.098820 Z-0.125000 I-150.933253 J156.959697
G03 X116.591513 Y113.556266 Z-0.125000 I-179.082245 J178.108535
G03 X127.265470 Y127.421560 Z-0.125000 I-122.903311 J105.656218
G03 X129.529568 Y130.835401 Z-0.125000 I-102.005399 J70.108836
G02 X132.043890 Y134.194070 Z-0.125000 I24.048319 J-15.382279
G01 X134.807990 Y134.365660 Z-0.125000
G01 X134.958910 Y131.567080 Z-0.125000
G01 X134.958910 Y125.537240 Z-0.125000
G01 X134.924110 Y103.867470 Z-0.125000
G01 X134.958910 Y35.843260 Z-0.125000
G01 X134.958910 Y13.608200 Z-0.125000
G01 X134.958910 Y7.766790 Z-0.125000
G01 X134.701630 Y5.413260 Z-0.125000
G02 X132.655153 Y4.418498 Z-0.125000 I-2.314150 J2.158352
G03 X129.953740 Y4.026780 Z-0.125000 I1.947561 J-22.941742
G02 X122.514775 Y3.039980 Z-0.125000 I-10.620498 J51.529714
G02 X114.938260 Y3.039760 Z-0.125000 I-3.790073 J62.561474
G02 X83.744345 Y12.439460 Z-0.125000 I4.276232 J70.651168
G02 X64.351332 Y29.813420 Z-0.125000 I31.950932 J55.174327
G02 X57.708031 Y44.685939 Z-0.125000 I30.810937 J22.682705
G02 X55.168862 Y59.585790 Z-0.125000 I201.159988 J41.947110
G02 X54.648258 Y65.539064 Z-0.125000 I66.179385 J8.786673
G03 X53.124504 Y71.457050 Z-0.125000 I-14.675248 J-0.623401
G02 X48.307245 Y72.364427 Z-0.125000 I-1.369924 J5.968169
G03 X44.115212 Y74.790800 Z-0.125000 I-18.618094 J-27.331927
G02 X31.591783 Y82.177060 Z-0.125000 I38.937244 J80.328123
G02 X22.907840 Y91.242480 Z-0.125000 I18.915743 J26.811727
G02 X22.024736 Y96.688149 Z-0.125000 I5.812386 J3.737012
G02 X27.848435 Y101.574060 Z-0.125000 I6.313048 J-1.611059
G02 X42.488688 Y98.845557 Z-0.125000 I2.180577 J-28.941390
G02 X52.906779 Y91.996210 Z-0.125000 I-19.471748 J-40.965006
G02 X67.524763 Y71.757068 Z-0.125000 I-36.736296 J-41.931855
G03 X79.767231 Y51.483180 Z-0.125000 I76.241180 J32.205262
G03 X86.192965 Y45.170259 Z-0.125000 I32.471197 J26.624723
G03 X94.917610 Y39.838800 Z-0.125000 I26.368431 J33.346077
G03 X99.059073 Y38.423944 Z-0.125000 I9.213669 J20.200858
G03 X103.369070 Y39.443280 Z-0.125000 I1.133298 J4.829662
G03 X103.666417 Y43.642874 Z-0.125000 I-1.869926 J2.242722
G03 X100.599210 Y46.960800 Z-0.125000 I-142.994923 J-129.112847
G03 X95.997517 Y50.915371 Z-0.125000 I-21.431956 J-20.284418
G03 X90.412957 Y54.427620 Z-0.125000 I-41.355370 J-59.560115
G03 X86.303344 Y56.342190 Z-0.125000 I-14.006889 J-24.697788
G02 X82.840650 Y58.526600 Z-0.125000 I3.476315 J9.347313
G02 X81.848140 Y60.230027 Z-0.125000 I2.535598 J2.618236
G03 X81.288299 Y62.035410 Z-0.125000 I-19.476681 J-5.050141
G02 X80.184802 Y67.025939 Z-0.125000 I18.530385 J6.714671
G03 X79.610318 Y72.022340 Z-0.125000 I-93.179615 J-8.182531
G03 X77.720435 Y83.712190 Z-0.125000 I-309.101786 J-43.974385
G03 X73.973005 Y95.388000 Z-0.125000 I-46.072199 J-8.347898
G03 X62.470530 Y109.962279 Z-0.125000 I-37.409247 J-17.698348
G03 X43.364437 Y121.582180 Z-0.125000 I-53.991846 J-67.258813
G03 X30.889304 Y125.891629 Z-0.125000 I-31.889903 J-72.104486
G03 X16.837079 Y127.414130 Z-0.125000 I-12.393694 J-48.779922
G03 X8.256170 Y126.323216 Z-0.125000 I1.526348 J-46.299227
G03 X0.320045 Y124.029770 Z-0.125000 I14.693846 J-65.723470
G01 X0.069787 Y132.132380 Z-0.125000
G01 X0.471050 Y134.765190 Z-0.125000
G01 X4.324174 Y134.958870 Z-0.125000
G01 X14.334498 Y134.958870 Z-0.125000
G01 X34.355146 Y134.894970 Z-0.125000
G02 X37.727175 Y133.978546 Z-0.125000 I-1.967054 J-13.899863
G03 X40.861856 Y132.744270 Z-0.125000 I42.603449 J103.601943
G02 X48.176469 Y129.719012 Z-0.125000 I-43.437109 J-115.379756
G02 X54.876309 Y126.206410 Z-0.125000 I-26.582683 J-58.848920
G02 X73.056905 Y107.943979 Z-0.125000 I-27.252984 J-45.311641
G02 X80.331312 Y88.039200 Z-0.125000 I-49.072626 J-29.215741
G02 X81.091739 Y82.098403 Z-0.125000 I-81.026821 J-13.390568
G02 X81.631403 Y76.167940 Z-0.125000 I-33757.095100 J-3074.838952
G02 X81.573431 Y73.435688 Z-0.125000 I-12.184166 J-1.108223
G03 X81.904184 Y70.703390 Z-0.125000 I5.436376 J-0.728079
G03 X82.882339 Y74.188370 Z-0.125000 I-7.632750 J4.022103
G02 X83.176997 Y77.675390 Z-0.125000 I79.367753 J-4.950729
G02 X83.723869 Y82.008255 Z-0.125000 I112.650027 J-12.017157
G03 X84.166267 Y86.343300 Z-0.125000 I-50.006278 J7.293316
G03 X84.328063 Y101.108810 Z-0.125000 I-154.744240 J9.079281
G03 X79.824789 Y116.115670 Z-0.125000 I-31.055160 J-1.139961
G03 X74.802894 Y122.472723 Z-0.125000 I-28.382014 J-17.258895
G03 X68.149749 Y128.363790 Z-0.125000 I-56.603574 J-57.223470
G02 X64.389430 Y131.769746 Z-0.125000 I23.684042 J29.926930
G03 X59.881222 Y134.736770 Z-0.125000 I-8.874757 J-8.576159
G01 X52.874245 Y134.958940 Z-0.125000
G01 X35.856695 Y134.958940 Z-0.125000
G00 Z5.000000

(End cutting path id: path829)


(Start cutting path id: path829)
(Change tool to Cylindrical cutter)

G00 Z5.000000
G00 X60.381987 Y134.770500

G01 Z-0.125000 F1000.0(Penetrate)
G01 X73.645667 Y134.958940 Z-0.125000 F1100.000000
G01 X78.302971 Y134.656800 Z-0.125000
G02 X82.072264 Y130.318300 Z-0.125000 I-4.832672 J-8.005263
G03 X84.204557 Y125.725740 Z-0.125000 I73.411437 J31.293120
G02 X88.517797 Y109.461392 Z-0.125000 I-36.539186 J-18.394147
G02 X87.868087 Y93.315310 Z-0.125000 I-87.537185 J-4.563661
G02 X87.087610 Y88.977096 Z-0.125000 I-48.066092 J6.408134
G02 X86.096008 Y84.647410 Z-0.125000 I-1295.001554 J294.308052
G02 X85.471616 Y82.677713 Z-0.125000 I-12.567240 J2.899991
G03 X85.407798 Y80.690320 Z-0.125000 I2.648083 J-1.079754
G01 X86.408830 Y82.574650 Z-0.125000
G01 X92.164763 Y81.585370 Z-0.125000
G01 X102.925870 Y80.002350 Z-0.125000
G01 X134.708640 Y73.529880 Z-0.125000
G00 Z5.000000

(End cutting path id: path829)


(Start cutting path id: path829)
(Change tool to Cylindrical cutter)

G00 Z5.000000
G00 X134.708640 Y91.054080

G01 Z-0.125000 F1000.0(Penetrate)
G01 X124.197800 Y90.141120 Z-0.125000 F1100.000000
G01 X101.424310 Y88.009950 Z-0.125000
G01 X90.412965 Y87.096990 Z-0.125000
G01 X93.666322 Y88.161820 Z-0.125000
G01 X101.674580 Y89.571110 Z-0.125000
G01 X134.708640 Y95.388030 Z-0.125000
G00 Z5.000000

(End cutting path id: path829)


(Start cutting path id: path829)
(Change tool to Cylindrical cutter)

G00 Z5.000000
G00 X134.458380 Y113.854410

G01 Z-0.125000 F1000.0(Penetrate)
G01 X107.680770 Y98.101430 Z-0.125000 F1100.000000
G01 X100.923800 Y94.108720 Z-0.125000
G01 X97.670446 Y92.749940 Z-0.125000
G01 X120.901900 Y110.651050 Z-0.125000
G01 X129.934970 Y118.188360 Z-0.125000
G01 X134.708640 Y121.957010 Z-0.125000
G00 Z5.000000

(End cutting path id: path829)


(Start cutting path id: path829)
(Change tool to Cylindrical cutter)

G00 Z5.000000
G00 X119.442900 Y134.770510

G01 Z-0.125000 F1000.0(Penetrate)
G02 X117.453372 Y127.542519 Z-0.125000 I-22.927054 J2.422937 F1100.000000
G02 X114.043330 Y120.449630 Z-0.125000 I-220.180958 J101.490052
G02 X104.675445 Y104.855528 Z-0.125000 I-106.338255 J53.270005
G02 X92.915538 Y89.735100 Z-0.125000 I-179.504780 J127.476428
G00 Z5.000000

(End cutting path id: path829)


(Start cutting path id: path829)
(Change tool to Cylindrical cutter)

G00 Z5.000000
G00 X92.915546 Y89.735050

G01 Z-0.125000 F1000.0(Penetrate)
G01 X93.922214 Y90.203250 Z-0.125000 F1100.000000
G00 Z5.000000

(End cutting path id: path829)


(Start cutting path id: path829)
(Change tool to Cylindrical cutter)

G00 Z5.000000
G00 X93.922214 Y90.203250

G01 Z-0.125000 F1000.0(Penetrate)
G01 X97.169934 Y91.807810 Z-0.125000 F1100.000000
G00 Z5.000000

(End cutting path id: path829)


(Start cutting path id: path829)
(Change tool to Cylindrical cutter)

G00 Z5.000000
G00 X95.918648 Y91.619370

G01 Z-0.125000 F1000.0(Penetrate)
G01 X97.670454 Y92.749970 Z-0.125000 F1100.000000
G00 Z5.000000

(End cutting path id: path829)


(Start cutting path id: path829)
(Change tool to Cylindrical cutter)

G00 Z5.000000
G00 X100.923800 Y94.108750

G01 Z-0.125000 F1000.0(Penetrate)
G01 X97.169934 Y91.807810 Z-0.125000 F1100.000000
G00 Z5.000000

(End cutting path id: path829)


(Start cutting path id: path829)
(Change tool to Cylindrical cutter)

G00 Z5.000000
G00 X93.922206 Y90.203220

G01 Z-0.125000 F1000.0(Penetrate)
G03 X100.949677 Y92.787071 Z-0.125000 I-5.550138 J25.943539 F1100.000000
G02 X107.430520 Y95.990980 Z-0.125000 I49.270395 J-91.507142
G03 X120.934011 Y102.306394 Z-0.125000 I-233.525781 J516.914283
G02 X134.708640 Y108.389860 Z-0.125000 I94.449887 J-195.223851
G00 Z5.000000

(End cutting path id: path829)


(Start cutting path id: path829)
(Change tool to Cylindrical cutter)

G00 Z5.000000
G00 X106.929990 Y134.582060

G01 Z-0.125000 F1000.0(Penetrate)
G02 X104.405647 Y117.967041 Z-0.125000 I-55.941510 J-0.000000 F1100.000000
G02 X97.814340 Y101.606340 Z-0.125000 I-103.538209 J32.204802
G02 X94.750707 Y96.029947 Z-0.125000 I-74.904294 J37.522151
G03 X91.448777 Y90.488810 Z-0.125000 I932.866000 J-559.643588
G02 X90.125904 Y88.616851 Z-0.125000 I-12.223382 J7.234597
G03 X88.437409 Y86.323320 Z-0.125000 I17.820975 J-14.888084
G00 Z5.000000

(End cutting path id: path829)


(Start cutting path id: path829)
(Change tool to Cylindrical cutter)

G00 Z5.000000
G00 X88.437414 Y86.323290

G01 Z-0.125000 F1000.0(Penetrate)
G01 X87.660126 Y85.024230 Z-0.125000 F1100.000000
G00 Z5.000000

(End cutting path id: path829)


(Start cutting path id: path829)
(Change tool to Cylindrical cutter)

G00 Z5.000000
G00 X87.660126 Y85.024230

G01 Z-0.125000 F1000.0(Penetrate)
G01 X86.408836 Y82.574600 Z-0.125000 F1100.000000
G00 Z5.000000

(End cutting path id: path829)


(Start cutting path id: path829)
(Change tool to Cylindrical cutter)

G00 Z5.000000
G00 X86.999064 Y83.564320

G01 Z-0.125000 F1000.0(Penetrate)
G02 X111.017965 Y81.457054 Z-0.125000 I-0.292491 J-141.272812 F1100.000000
G03 X134.708640 Y78.240620 Z-0.125000 I54.139833 J309.912298
G00 Z5.000000

(End cutting path id: path829)


(Start cutting path id: path829)
(Change tool to Cylindrical cutter)

G00 Z5.000000
G00 X92.915538 Y89.735020

G01 Z-0.125000 F1000.0(Penetrate)
G01 X92.164763 Y88.981280 Z-0.125000 F1100.000000
G01 X95.668385 Y89.891420 Z-0.125000
G01 X103.176120 Y92.587700 Z-0.125000
G01 X123.947540 Y99.959000 Z-0.125000
G01 X134.708640 Y103.679040 Z-0.125000
G00 Z5.000000

(End cutting path id: path829)


(Start cutting path id: path829)
(Change tool to Cylindrical cutter)

G00 Z5.000000
G00 X90.913486 Y88.039150

G01 Z-0.125000 F1000.0(Penetrate)
G01 X92.164771 Y88.981310 Z-0.125000 F1100.000000
G00 Z5.000000

(End cutting path id: path829)


(Start cutting path id: path829)
(Change tool to Cylindrical cutter)

G00 Z5.000000
G00 X90.913478 Y88.039120

G01 Z-0.125000 F1000.0(Penetrate)
G01 X134.708640 Y99.345090 Z-0.125000 F1100.000000
G00 Z5.000000

(End cutting path id: path829)


(Start cutting path id: path829)
(Change tool to Cylindrical cutter)

G00 Z5.000000
G00 X90.412965 Y87.096990

G01 Z-0.125000 F1000.0(Penetrate)
G01 X88.437417 Y86.323290 Z-0.125000 F1100.000000
G00 Z5.000000

(End cutting path id: path829)


(Start cutting path id: path829)
(Change tool to Cylindrical cutter)

G00 Z5.000000
G00 X87.660126 Y85.024230

G01 Z-0.125000 F1000.0(Penetrate)
G02 X111.296979 Y84.521444 Z-0.125000 I-0.000000 J-555.856907 F1100.000000
G02 X134.708650 Y82.386170 Z-0.125000 I-10.327433 J-242.645779
G00 Z5.000000

(End cutting path id: path829)


(Start cutting path id: path829)
(Change tool to Cylindrical cutter)

G00 Z5.000000
G00 X85.407798 Y80.690250

G01 Z-0.125000 F1000.0(Penetrate)
G03 X85.233618 Y79.913950 Z-0.125000 I5.167911 J-1.567227 F1100.000000
G03 X85.174557 Y78.863010 Z-0.125000 I5.738545 J-0.849624
G03 X85.819955 Y77.754470 Z-0.125000 I0.632008 J-0.374188
G02 X87.910377 Y77.539650 Z-0.125000 I0.159173 J-8.729466
G02 X92.178627 Y76.530723 Z-0.125000 I-53.051281 J-233.965519
G02 X96.419151 Y75.476870 Z-0.125000 I-224.515079 J-912.468525
G02 X116.033998 Y70.012442 Z-0.125000 I-96.059593 J-382.747322
G02 X134.458380 Y63.166000 Z-0.125000 I-49.454611 J-161.300794
G00 Z5.000000

(End cutting path id: path829)


(Start cutting path id: path829)
(Change tool to Cylindrical cutter)

G00 Z5.000000
G00 X85.174557 Y78.863010

G01 Z-0.125000 F1000.0(Penetrate)
G03 X84.593451 Y77.870047 Z-0.125000 I3.712083 J-2.838921 F1100.000000
G03 X84.317423 Y76.623690 Z-0.125000 I3.135377 J-1.348129
G03 X85.695692 Y75.940207 Z-0.125000 I1.760857 J1.819426
G02 X87.409862 Y75.566390 Z-0.125000 I-2.104389 J-13.767009
G03 X91.560806 Y74.403918 Z-0.125000 I124.300115 J435.857149
G02 X95.668385 Y73.181210 Z-0.125000 I-27.027683 J-98.308027
G02 X116.056609 Y65.949709 Z-0.125000 I-108.478893 J-338.197970
G02 X134.458380 Y56.947730 Z-0.125000 I-44.476281 J-114.227415
G00 Z5.000000

(End cutting path id: path829)


(Start cutting path id: path829)
(Change tool to Cylindrical cutter)

G00 Z5.000000
G00 X82.840647 Y58.526600

G01 Z-0.125000 F1000.0(Penetrate)
G01 X84.657020 Y54.874960 Z-0.125000 F1100.000000
G00 Z5.000000

(End cutting path id: path829)


(Start cutting path id: path829)
(Change tool to Cylindrical cutter)

G00 Z5.000000
G00 X81.859496 Y60.649080

G01 Z-0.125000 F1000.0(Penetrate)
G01 X81.904196 Y64.108170 Z-0.125000 F1100.000000
G02 X99.956653 Y55.378696 Z-0.125000 I-50.784769 J-128.053231
G02 X112.373610 Y43.757440 Z-0.125000 I-18.714497 J-32.440065
G02 X114.386215 Y37.922642 Z-0.125000 I-10.079797 J-6.741343
G02 X110.183350 Y31.568290 Z-0.125000 I-6.202063 J-0.464957
G02 X108.608330 Y31.158548 Z-0.125000 I-3.602204 J10.614612
G02 X106.929990 Y30.960780 Z-0.125000 I-2.368786 J12.882078
G02 X93.627481 Y33.486207 Z-0.125000 I-1.498530 J28.404325
G02 X83.656003 Y39.423490 Z-0.125000 I22.112695 J48.479599
G02 X73.747866 Y49.159398 Z-0.125000 I32.144085 J42.622378
G02 X67.001327 Y59.585790 Z-0.125000 I54.794617 J42.851518
G02 X62.128867 Y69.684203 Z-0.125000 I140.159613 J73.851358
G03 X56.370613 Y79.748090 Z-0.125000 I-50.374885 J-22.143704
G03 X50.531041 Y86.908494 Z-0.125000 I-63.642658 J-45.941522
G03 X41.862900 Y93.199170 Z-0.125000 I-19.852146 J-18.237559
G03 X37.923031 Y94.755493 Z-0.125000 I-17.038627 J-37.368599
G03 X33.364887 Y94.628990 Z-0.125000 I-2.107053 J-6.261424
G03 X32.305846 Y90.679375 Z-0.125000 I0.947204 J-2.370774
G03 X34.830398 Y87.850700 Z-0.125000 I24.079226 J18.949470
G03 X40.241955 Y83.496969 Z-0.125000 I23.812446 J24.058091
G03 X46.617804 Y79.603930 Z-0.125000 I76.486667 J118.098945
G02 X50.425170 Y77.183045 Z-0.125000 I-25.150661 J-43.759254
G02 X52.874256 Y74.095110 Z-0.125000 I-3.964566 J-5.659525
G02 X49.012916 Y75.481732 Z-0.125000 I1.486164 J10.208204
G03 X45.616772 Y77.361200 Z-0.125000 I-25.479467 J-42.032547
G02 X34.747931 Y83.329264 Z-0.125000 I77.013860 J153.136124
G02 X27.773120 Y91.054050 Z-0.125000 I9.085614 J15.214737
G02 X27.338748 Y92.271999 Z-0.125000 I6.260997 J2.919366
G02 X27.162490 Y93.503670 Z-0.125000 I5.661007 J1.438566
G02 X33.048587 Y98.554834 Z-0.125000 I4.959517 J0.175800
G02 X41.862900 Y95.511040 Z-0.125000 I-6.037707 J-31.768459
G02 X62.552332 Y73.848498 Z-0.125000 I-21.154245 J-40.915257
G03 X75.571165 Y51.671610 Z-0.125000 I117.460233 J54.044686
G03 X85.202567 Y41.674692 Z-0.125000 I41.255014 J30.108527
G03 X101.424310 Y35.143990 Z-0.125000 I19.258000 J24.423227
G03 X103.052496 Y35.056694 Z-0.125000 I1.801230 J18.367763
G03 X104.677670 Y35.150990 Z-0.125000 I0.113428 J12.097033
G03 X108.875138 Y39.703558 Z-0.125000 I-0.599129 J4.763714
G03 X107.615950 Y44.134330 Z-0.125000 I-7.295024 J0.321127
G03 X100.025952 Y51.624220 Z-0.125000 I-22.830271 J-15.544746
G03 X89.662190 Y57.911770 Z-0.125000 I-85.375236 J-129.038860
G02 X86.131505 Y60.032604 Z-0.125000 I28.740852 J51.845990
G03 X81.904196 Y61.281700 Z-0.125000 I-4.219122 J-6.500977
G00 Z5.000000

(End cutting path id: path829)


(Start cutting path id: path829)
(Change tool to Cylindrical cutter)

G00 Z5.000000
G00 X81.920951 Y67.539530

G01 Z-0.125000 F1000.0(Penetrate)
G01 X81.904181 Y64.108170 Z-0.125000 F1100.000000
G00 Z5.000000

(End cutting path id: path829)


(Start cutting path id: path829)
(Change tool to Cylindrical cutter)

G00 Z5.000000
G00 X82.404713 Y69.384310

G01 Z-0.125000 F1000.0(Penetrate)
G02 X108.967451 Y57.386752 Z-0.125000 I-575.926567 J-1310.512253 F1100.000000
G02 X127.087780 Y40.365680 Z-0.125000 I-16.646530 J-35.877423
G02 X128.582826 Y37.094249 Z-0.125000 I-23.168536 J-12.565369
G02 X129.410680 Y33.770540 Z-0.125000 I-13.815361 J-5.206020
G02 X129.465166 Y31.317173 Z-0.125000 I-11.533465 J-1.483431
G02 X128.977990 Y28.871280 Z-0.125000 I-11.010349 J0.921589
G02 X123.771959 Y22.813362 Z-0.125000 I-9.762691 J3.123897
G02 X114.716122 Y20.367808 Z-0.125000 I-10.657661 J21.475527
G02 X104.004246 Y20.898966 Z-0.125000 I-3.084809 J46.067467
G02 X95.167873 Y23.003680 Z-0.125000 I11.061917 J66.043586
G02 X91.953577 Y24.066776 Z-0.125000 I28.467098 J91.461732
G02 X88.911415 Y25.303310 Z-0.125000 I11.091612 J31.648435
G02 X67.935044 Y43.601651 Z-0.125000 I21.058295 J45.312594
G02 X58.223024 Y63.919770 Z-0.125000 I75.790184 J48.707780
G03 X54.680077 Y73.198070 Z-0.125000 I-106.618240 J-35.396903
G03 X49.682715 Y82.386170 Z-0.125000 I-53.887563 J-23.356109
G03 X46.382903 Y86.502934 Z-0.125000 I-24.880878 J-16.562516
G03 X41.112126 Y89.923480 Z-0.125000 I-9.904170 J-9.490315
G03 X43.038411 Y86.677386 Z-0.125000 I2.711556 J-0.585510
G02 X47.286244 Y84.575950 Z-0.125000 I-3.910108 J-13.247868
G02 X48.867780 Y82.770316 Z-0.125000 I-3.252687 J-4.444437
G02 X49.871160 Y80.878710 Z-0.125000 I-78.591701 J-42.899959
G02 X43.490770 Y83.963888 Z-0.125000 I3.077435 J14.504539
G02 X38.681870 Y88.039150 Z-0.125000 I178.074014 J215.006239
G03 X36.924254 Y89.488933 Z-0.125000 I-30.261284 J-34.896364
G02 X36.625249 Y91.412290 Z-0.125000 I0.879645 J1.121670
G02 X38.506345 Y91.956121 Z-0.125000 I1.268664 J-0.863030
G03 X40.361352 Y91.193700 Z-0.125000 I19.414150 J44.597697
G02 X44.750620 Y88.826342 Z-0.125000 I-7.203544 J-18.608645
G02 X48.144629 Y85.966400 Z-0.125000 I-16.074938 J-22.520650
G02 X57.049025 Y73.152405 Z-0.125000 I-30.167764 J-30.464277
G03 X63.057760 Y60.151120 Z-0.125000 I756.451067 J341.715811
G03 X71.966252 Y45.431856 Z-0.125000 I75.866997 J35.861274
G03 X87.409874 Y32.103280 Z-0.125000 I38.710790 J29.242179
G03 X97.808198 Y27.779874 Z-0.125000 I25.487783 J46.634932
G03 X109.933100 Y26.044980 Z-0.125000 I11.971159 J40.427583
G03 X117.656878 Y27.764194 Z-0.125000 I-0.067342 J18.512147
G03 X121.635410 Y32.263070 Z-0.125000 I-3.153777 J6.797633
G03 X122.088316 Y34.143289 Z-0.125000 I-12.214330 J3.936838
G03 X122.185970 Y36.031730 Z-0.125000 I-8.556523 J1.389215
G03 X120.452937 Y41.395067 Z-0.125000 I-11.159570 J-0.644283
G03 X116.545150 Y46.395530 Z-0.125000 I-27.932361 J-17.801555
G03 X108.210895 Y53.763072 Z-0.125000 I-46.116099 J-43.769423
G03 X97.670454 Y60.141500 Z-0.125000 I-39.789196 J-53.853876
G03 X92.094278 Y62.773377 Z-0.125000 I-121.532313 J-250.268239
G03 X86.408842 Y65.318690 Z-0.125000 I-144.663597 J-315.511033
G03 X83.811563 Y66.225455 Z-0.125000 I-7.238176 J-16.559452
G02 X81.920963 Y67.539550 Z-0.125000 I0.867613 J3.265300
G02 X81.674150 Y69.082695 Z-0.125000 I1.445715 J1.022541
G03 X81.904193 Y70.703340 Z-0.125000 I-4.990508 J1.535030
G00 Z5.000000

(End cutting path id: path829)


(Start cutting path id: path829)
(Change tool to Cylindrical cutter)

G00 Z5.000000
G00 X82.654959 Y71.833910

G01 Z-0.125000 F1000.0(Penetrate)
G02 X90.713297 Y69.579642 Z-0.125000 I-7.649787 J-42.875928 F1100.000000
G02 X98.170966 Y66.616020 Z-0.125000 I-156.051843 J-403.554509
G02 X118.892528 Y55.402275 Z-0.125000 I-41.123279 J-100.742811
G02 X134.458380 Y41.684670 Z-0.125000 I-50.144235 J-72.590802
G00 Z5.000000

(End cutting path id: path829)


(Start cutting path id: path829)
(Change tool to Cylindrical cutter)

G00 Z5.000000
G00 X134.958910 Y4.940300

G01 Z-0.125000 F1000.0(Penetrate)
G01 X134.378800 Y0.154680 Z-0.125000 F1100.000000
G01 X130.954770 Y0.041050 Z-0.125000
G01 X122.946510 Y0.041050 Z-0.125000
G01 X96.919670 Y0.041050 Z-0.125000
G01 X86.158567 Y0.417910 Z-0.125000
G00 Z5.000000

(End cutting path id: path829)


(Start cutting path id: path829)
(Change tool to Cylindrical cutter)

G00 Z5.000000
G00 X45.616760 Y46.960800

G01 Z-0.125000 F1000.0(Penetrate)
G03 X31.576772 Y24.247954 Z-0.125000 I1406.175832 J-884.926063 F1100.000000
G03 X24.845339 Y0.229480 Z-0.125000 I39.629588 J-24.059128
G00 Z5.000000

(End cutting path id: path829)


(Start cutting path id: path829)
(Change tool to Cylindrical cutter)

G00 Z5.000000
G00 X0.069782 Y20.580220

G01 Z-0.125000 F1000.0(Penetrate)
G01 X0.069782 Y13.419770 Z-0.125000 F1100.000000
G00 Z5.000000

(End cutting path id: path829)


(Start cutting path id: path829)
(Change tool to Cylindrical cutter)

G00 Z5.000000
G00 X0.069782 Y30.944010

G01 Z-0.125000 F1000.0(Penetrate)
G01 X0.069782 Y26.233200 Z-0.125000 F1100.000000
G00 Z5.000000

(End cutting path id: path829)


(Start cutting path id: path829)
(Change tool to Cylindrical cutter)

G00 Z5.000000
G00 X0.069782 Y39.611920

G01 Z-0.125000 F1000.0(Penetrate)
G01 X0.069782 Y35.654830 Z-0.125000 F1100.000000
G00 Z5.000000

(End cutting path id: path829)


(Start cutting path id: path829)
(Change tool to Cylindrical cutter)

G00 Z5.000000
G00 X0.320045 Y43.757440

G01 Z-0.125000 F1000.0(Penetrate)
G01 X28.098693 Y45.986790 Z-0.125000 F1100.000000
G01 X44.615728 Y47.337660 Z-0.125000
G00 Z5.000000

(End cutting path id: path829)


(Start cutting path id: path829)
(Change tool to Cylindrical cutter)

G00 Z5.000000
G00 X46.117276 Y47.902960

G01 Z-0.125000 F1000.0(Penetrate)
G01 X45.616760 Y46.960800 Z-0.125000 F1100.000000
G01 X44.365470 Y46.207060 Z-0.125000
G00 Z5.000000

(End cutting path id: path829)


(Start cutting path id: path829)
(Change tool to Cylindrical cutter)

G00 Z5.000000
G00 X43.364437 Y45.453330

G01 Z-0.125000 F1000.0(Penetrate)
G02 X41.594043 Y42.773476 Z-0.125000 I-12.242227 J6.162874 F1100.000000
G02 X39.361059 Y40.177220 Z-0.125000 I-144.316515 J121.865167
G03 X35.615418 Y35.853344 Z-0.125000 I388.846229 J-340.629839
G03 X31.958674 Y31.509320 Z-0.125000 I250.029540 J-214.182798
G03 X20.466441 Y16.194846 Z-0.125000 I155.945321 J-128.993149
G03 X12.832950 Y0.229480 Z-0.125000 I48.841636 J-33.160139
G00 Z5.000000

(End cutting path id: path829)


(Start cutting path id: path829)
(Change tool to Cylindrical cutter)

G00 Z5.000000
G00 X39.360304 Y42.815280

G01 Z-0.125000 F1000.0(Penetrate)
G01 X40.975469 Y43.552050 Z-0.125000 F1100.000000
G00 Z5.000000

(End cutting path id: path829)


(Start cutting path id: path829)
(Change tool to Cylindrical cutter)

G00 Z5.000000
G00 X42.363405 Y44.888030

G01 Z-0.125000 F1000.0(Penetrate)
G03 X31.547643 Y41.740871 Z-0.125000 I17.175620 J-79.185734 F1100.000000
G02 X21.091467 Y38.078070 Z-0.125000 I-121.249415 J329.373969
G02 X10.522309 Y34.785546 Z-0.125000 I-91.314667 J274.514409
G03 X0.320045 Y31.132450 Z-0.125000 I24.813232 J-85.370543
G01 X0.649860 Y35.414020 Z-0.125000
G02 X5.007940 Y36.814663 Z-0.125000 I5.971817 J-11.100847
G03 X9.829853 Y37.727590 Z-0.125000 I-5.350968 J41.453524
G02 X21.083546 Y40.442358 Z-0.125000 I153.969414 J-613.576089
G03 X32.353081 Y43.129950 Z-0.125000 I-199.548741 J861.713511
G03 X37.799836 Y44.850674 Z-0.125000 I-10.421667 J42.469503
G02 X43.364437 Y45.453330 Z-0.125000 I3.899395 J-10.013319
G00 Z5.000000

(End cutting path id: path829)


(Start cutting path id: path829)
(Change tool to Cylindrical cutter)

G00 Z5.000000
G00 X42.363405 Y44.888030

G01 Z-0.125000 F1000.0(Penetrate)
G02 X34.681493 Y41.449962 Z-0.125000 I-25.358287 J46.358616 F1100.000000
G03 X26.597145 Y38.319270 Z-0.125000 I51.112213 J-143.989859
G03 X17.622008 Y34.381918 Z-0.125000 I122.382051 J-291.166144
G03 X8.828820 Y30.298820 Z-0.125000 I348.086544 J-761.134424
G02 X3.938047 Y28.377350 Z-0.125000 I-16.942194 J35.938406
G03 X0.327002 Y25.821660 Z-0.125000 I2.215076 J-6.958724
G01 X0.320041 Y20.768650 Z-0.125000
G02 X13.046082 Y28.387474 Z-0.125000 I368.117446 J-600.444119
G02 X26.096624 Y35.821410 Z-0.125000 I340.421654 J-582.450194
G03 X32.423667 Y39.578423 Z-0.125000 I-61.192766 J110.258478
G02 X39.360304 Y42.815280 Z-0.125000 I16.000378 J-25.237981
G02 X34.015422 Y38.505025 Z-0.125000 I-17.962465 J16.805092
G03 X27.848431 Y34.507470 Z-0.125000 I51.650624 J-86.436589
G03 X19.113774 Y28.053194 Z-0.125000 I126.238242 J-179.977385
G02 X10.580622 Y21.522380 Z-0.125000 I-421.277377 J541.600285
G03 X6.893718 Y18.619120 Z-0.125000 I65.278476 J-86.691013
G02 X3.300939 Y15.680960 Z-0.125000 I-465.541348 J565.597745
G02 X1.513502 Y14.351812 Z-0.125000 I-16.353880 J20.126241
G03 X0.220588 Y12.854480 Z-0.125000 I2.144326 J-3.158448
G01 X0.069782 Y9.085820 Z-0.125000
G01 X0.069782 Y0.794780 Z-0.125000
G00 Z5.000000

(End cutting path id: path829)


(Start cutting path id: path829)
(Change tool to Cylindrical cutter)

G00 Z5.000000
G00 X0.320045 Y52.613780

G01 Z-0.125000 F1000.0(Penetrate)
G03 X17.274522 Y51.183792 Z-0.125000 I21.525781 J153.993396 F1100.000000
G02 X34.355146 Y50.320550 Z-0.125000 I-11.919599 J-405.263930
G02 X41.616054 Y49.436383 Z-0.125000 I-5.277630 J-73.596593
G03 X48.369599 Y50.164150 Z-0.125000 I2.102252 J12.191203
G00 Z5.000000

(End cutting path id: path829)


(Start cutting path id: path829)
(Change tool to Cylindrical cutter)

G00 Z5.000000
G00 X48.369599 Y50.164150

G01 Z-0.125000 F1000.0(Penetrate)
G01 X47.869083 Y49.410410 Z-0.125000 F1100.000000
G00 Z5.000000

(End cutting path id: path829)


(Start cutting path id: path829)
(Change tool to Cylindrical cutter)

G00 Z5.000000
G00 X47.869083 Y49.410410

G01 Z-0.125000 F1000.0(Penetrate)
G01 X46.117276 Y47.902960 Z-0.125000 F1100.000000
G03 X39.766156 Y48.718342 Z-0.125000 I-4.743463 J-11.804919
G02 X32.853597 Y48.279830 Z-0.125000 I-6.912559 J54.264415
G01 X0.320045 Y48.279830 Z-0.125000
G00 Z5.000000

(End cutting path id: path829)


(Start cutting path id: path829)
(Change tool to Cylindrical cutter)

G00 Z5.000000
G00 X0.570302 Y57.136160

G01 Z-0.125000 F1000.0(Penetrate)
G03 X6.862730 Y55.994894 Z-0.125000 I11.259918 J44.164692 F1100.000000
G02 X13.333465 Y55.236760 Z-0.125000 I-47.817794 J-436.121861
G03 X24.345406 Y53.903884 Z-0.125000 I189.092683 J1516.090457
G02 X35.356177 Y52.567230 Z-0.125000 I-162.373549 J-1383.582441
G01 X44.115211 Y51.498250 Z-0.125000
G02 X46.460557 Y51.194858 Z-0.125000 I-31.562742 J-253.209905
G02 X48.369598 Y50.352580 Z-0.125000 I-0.497794 J-3.712841
G02 X48.657207 Y50.901066 Z-0.125000 I4.077696 J-1.788569
G03 X48.870115 Y51.294740 Z-0.125000 I-3.356328 J2.069588
G00 Z5.000000

(End cutting path id: path829)


(Start cutting path id: path829)
(Change tool to Cylindrical cutter)

G00 Z5.000000
G00 X48.369599 Y50.352580

G01 Z-0.125000 F1000.0(Penetrate)
G01 X48.369599 Y50.164150 Z-0.125000 F1100.000000
G00 Z5.000000

(End cutting path id: path829)


(Start cutting path id: path829)
(Change tool to Cylindrical cutter)

G00 Z5.000000
G00 X47.869083 Y49.410410

G01 Z-0.125000 F1000.0(Penetrate)
G02 X43.203182 Y38.685446 Z-0.125000 I-49.905357 J15.333915 F1100.000000
G03 X38.485156 Y27.929090 Z-0.125000 I46.675217 J-26.885907
G03 X36.497199 Y14.009573 Z-0.125000 I41.525337 J-13.032280
G03 X37.358243 Y0.229480 Z-0.125000 I164.319058 J3.350467
G00 Z5.000000

(End cutting path id: path829)


(Start cutting path id: path829)
(Change tool to Cylindrical cutter)

G00 Z5.000000
G00 X46.117276 Y47.902960

G01 Z-0.125000 F1000.0(Penetrate)
G01 X44.615728 Y47.337660 Z-0.125000 F1100.000000
G00 Z5.000000

(End cutting path id: path829)


(Start cutting path id: path829)
(Change tool to Cylindrical cutter)

G00 Z5.000000
G00 X49.120373 Y52.425340

G01 Z-0.125000 F1000.0(Penetrate)
G01 X48.870116 Y51.294740 Z-0.125000 F1100.000000
G00 Z5.000000

(End cutting path id: path829)


(Start cutting path id: path829)
(Change tool to Cylindrical cutter)

G00 Z5.000000
G00 X50.121405 Y53.932800

G01 Z-0.125000 F1000.0(Penetrate)
G03 X48.368938 Y48.197674 Z-0.125000 I21.634041 J-9.745965 F1100.000000
G02 X47.065503 Y42.438410 Z-0.125000 I-55.221964 J9.470694
G03 X44.386370 Y26.876854 Z-0.125000 I72.678694 J-20.524028
G03 X46.399316 Y11.158580 Z-0.125000 I41.193205 J-2.712660
G03 X48.253050 Y5.752683 Z-0.125000 I274.864240 J91.232814
G03 X51.122437 Y0.417910 Z-0.125000 I18.701662 J6.619908
G00 Z5.000000

(End cutting path id: path829)


(Start cutting path id: path829)
(Change tool to Cylindrical cutter)

G00 Z5.000000
G00 X51.891552 Y58.237010

G01 Z-0.125000 F1000.0(Penetrate)
G01 X51.122435 Y56.193990 Z-0.125000 F1100.000000
G00 Z5.000000

(End cutting path id: path829)


(Start cutting path id: path829)
(Change tool to Cylindrical cutter)

G00 Z5.000000
G00 X53.374759 Y65.427200

G01 Z-0.125000 F1000.0(Penetrate)
G01 X53.124501 Y62.977570 Z-0.125000 F1100.000000
G00 Z5.000000

(End cutting path id: path829)


(Start cutting path id: path829)
(Change tool to Cylindrical cutter)

G00 Z5.000000
G00 X52.874245 Y70.326450

G01 Z-0.125000 F1000.0(Penetrate)
G01 X53.124504 Y68.253690 Z-0.125000 F1100.000000
G00 Z5.000000

(End cutting path id: path829)


(Start cutting path id: path829)
(Change tool to Cylindrical cutter)

G00 Z5.000000
G00 X52.874245 Y70.891750

G01 Z-0.125000 F1000.0(Penetrate)
G01 X53.124504 Y70.514880 Z-0.125000 F1100.000000
G00 Z5.000000

(End cutting path id: path829)


(Start cutting path id: path829)
(Change tool to Cylindrical cutter)

G00 Z5.000000
G00 X52.874245 Y74.095110

G01 Z-0.125000 F1000.0(Penetrate)
G01 X53.124504 Y71.457050 Z-0.125000 F1100.000000
G00 Z5.000000

(End cutting path id: path829)


(Start cutting path id: path829)
(Change tool to Cylindrical cutter)

G00 Z5.000000
G00 X52.874245 Y74.095110

G01 Z-0.125000 F1000.0(Penetrate)
G02 X55.185393 Y68.856574 Z-0.125000 I-8.321939 J-6.800577 F1100.000000
G03 X56.277755 Y63.542870 Z-0.125000 I47.197934 J6.933557
G03 X59.231954 Y52.503413 Z-0.125000 I3066.694022 J814.743517
G03 X63.220916 Y41.496250 Z-0.125000 I67.049313 J18.072090
G03 X66.863189 Y35.681284 Z-0.125000 I24.500383 J11.297933
G03 X71.993963 Y30.190290 Z-0.125000 I45.128411 J37.025307
G03 X91.187045 Y16.987389 Z-0.125000 I52.595249 J55.905852
G03 X118.942380 Y12.371710 Z-0.125000 I21.742368 J44.984745
G03 X127.360196 Y14.615507 Z-0.125000 I-3.762055 J31.025714
G03 X134.458380 Y18.130590 Z-0.125000 I-25.964008 J61.354834
G00 Z5.000000

(End cutting path id: path829)


(Start cutting path id: path829)
(Change tool to Cylindrical cutter)

G00 Z5.000000
G00 X82.847119 Y73.780480

G01 Z-0.125000 F1000.0(Penetrate)
G02 X110.533700 Y63.640067 Z-0.125000 I-170.792885 J-509.186225 F1100.000000
G02 X134.458380 Y50.352580 Z-0.125000 I-39.482113 J-99.271646
G00 Z5.000000

(End cutting path id: path829)


(Start cutting path id: path829)
(Change tool to Cylindrical cutter)

G00 Z5.000000
G00 X84.317423 Y76.623690

G01 Z-0.125000 F1000.0(Penetrate)
G01 X82.847119 Y73.780480 Z-0.125000 F1100.000000
G00 Z5.000000

(End cutting path id: path829)


(Start cutting path id: path829)
(Change tool to Cylindrical cutter)

G00 Z5.000000
G00 X85.407798 Y80.690250

G01 Z-0.125000 F1000.0(Penetrate)
G03 X92.603354 Y79.045188 Z-0.125000 I11.322940 J32.967585 F1100.000000
G02 X100.173030 Y77.783300 Z-0.125000 I-9.774207 J-81.967463
G02 X117.808320 Y73.666714 Z-0.125000 I-108.023694 J-502.601872
G02 X134.458380 Y68.253690 Z-0.125000 I-31.775896 J-126.053991
G00 Z5.000000

(End cutting path id: path829)


(Start cutting path id: path829)
(Change tool to Cylindrical cutter)

G00 Z5.000000
G00 X93.165803 Y134.770500

G01 Z-0.125000 F1000.0(Penetrate)
G01 X106.929990 Y134.849600 Z-0.125000 F1100.000000
G01 X124.197800 Y134.958950 Z-0.125000
G01 X132.206060 Y134.770510 Z-0.125000
G00 Z5.000000

(End cutting path id: path829)


(Start cutting path id: path829)
(Change tool to Cylindrical cutter)

G00 Z5.000000
G00 X78.650828 Y134.770500

G01 Z-0.125000 F1000.0(Penetrate)
G01 X89.161672 Y134.958940 Z-0.125000 F1100.000000
G01 X92.774397 Y134.656800 Z-0.125000
G02 X93.565110 Y133.308426 Z-0.125000 I-1.085644 J-1.542675
G03 X93.816469 Y131.944020 Z-0.125000 I8.743414 J0.905404
G02 X94.726171 Y128.463393 Z-0.125000 I-312.148267 J-83.442758
G02 X95.430634 Y124.972000 Z-0.125000 I-33.862372 J-8.649221
G02 X95.484205 Y110.421643 Z-0.125000 I-49.999900 J-7.459364
G02 X91.769612 Y95.953370 Z-0.125000 I-67.009922 J9.493186
G02 X90.392218 Y92.369364 Z-0.125000 I-354.769504 J134.287254
G02 X88.911663 Y88.792930 Z-0.125000 I-87.869899 J34.281280
G03 X88.180318 Y87.019171 Z-0.125000 I40.119189 J-17.579347
G03 X87.660120 Y85.024270 Z-0.125000 I8.444577 J-3.267314
G02 X94.008771 Y86.669283 Z-0.125000 I5.489215 J-8.111418
G03 X101.424310 Y86.343300 Z-0.125000 I7.415539 J84.182157
G03 X118.063294 Y86.625896 Z-0.125000 I-0.000000 J489.985124
G02 X134.708640 Y86.908600 Z-0.125000 I16.645346 J-489.889776
G00 Z5.000000

(End cutting path id: path829)


(Start cutting path id: path829)
(Change tool to Cylindrical cutter)

G00 Z5.000000
G00 X49.871148 Y80.878680

G01 Z-0.125000 F1000.0(Penetrate)
G01 X52.874245 Y74.095110 Z-0.125000 F1100.000000
G00 Z5.000000

(End cutting path id: path829)


(Start cutting path id: path829)
(Change tool to Cylindrical cutter)

G00 Z5.000000
G00 X0.570303 Y78.240620

G01 Z-0.125000 F1000.0(Penetrate)
G03 X17.276195 Y70.349720 Z-0.125000 I131.612217 J257.007794 F1100.000000
G03 X35.105920 Y63.412670 Z-0.125000 I99.601315 J229.615371
G03 X43.599174 Y60.896907 Z-0.125000 I32.260858 J93.318584
G02 X51.891555 Y58.237010 Z-0.125000 I-15.587341 J-62.850366
G01 X52.758774 Y60.203430 Z-0.125000
G00 Z5.000000

(End cutting path id: path829)


(Start cutting path id: path829)
(Change tool to Cylindrical cutter)

G00 Z5.000000
G00 X0.570300 Y62.223840

G01 Z-0.125000 F1000.0(Penetrate)
G01 X13.333463 Y58.886890 Z-0.125000 F1100.000000
G01 X37.608499 Y54.389570 Z-0.125000
G01 X49.120371 Y52.425340 Z-0.125000
G01 X50.121403 Y53.932800 Z-0.125000
G00 Z5.000000

(End cutting path id: path829)


(Start cutting path id: path829)
(Change tool to Cylindrical cutter)

G00 Z5.000000
G00 X0.069787 Y67.123090

G01 Z-0.125000 F1000.0(Penetrate)
G01 X0.107626 Y48.279830 Z-0.125000 F1100.000000
G01 X0.320045 Y39.800350 Z-0.125000
G02 X6.349831 Y40.961172 Z-0.125000 I9.848673 J-34.917053
G03 X12.582691 Y41.760050 Z-0.125000 I-15.021736 J141.913694
G03 X22.831024 Y43.368104 Z-0.125000 I-125.688506 J834.490070
G02 X33.103856 Y44.903670 Z-0.125000 I62.403252 J-382.343348
G03 X38.822228 Y46.181726 Z-0.125000 I-4.650332 J34.238677
G02 X44.365470 Y46.207060 Z-0.125000 I2.812541 J-8.940663
G02 X42.712990 Y44.870557 Z-0.125000 I-6.017820 J5.750722
G03 X40.975474 Y43.552050 Z-0.125000 I5.900929 J-9.580287
G02 X30.639103 Y34.081932 Z-0.125000 I-1040.995210 J1125.841301
G03 X20.503661 Y24.537300 Z-0.125000 I256.150519 J-282.159913
G03 X9.627484 Y12.500434 Z-0.125000 I90.973448 J-93.133214
G03 X0.069787 Y0.229480 Z-0.125000 I568.223304 J-452.439903
G01 X7.077013 Y0.041050 Z-0.125000
G01 X21.091467 Y0.041050 Z-0.125000
G01 X66.638440 Y0.041050 Z-0.125000
G00 Z5.000000

(End cutting path id: path829)


(Start cutting path id: path829)
(Change tool to Cylindrical cutter)

G00 Z5.000000
G00 X0.069795 Y85.777960

G01 Z-0.125000 F1000.0(Penetrate)
G01 X0.069795 Y76.544760 Z-0.125000 F1100.000000
G01 X0.327011 Y72.795890 Z-0.125000
G03 X3.793405 Y70.499123 Z-0.125000 I4.868770 J3.583979
G02 X8.578570 Y68.949790 Z-0.125000 I-7.389239 J-30.986143
G03 X20.438725 Y64.521701 Z-0.125000 I69.580752 J168.267369
G03 X32.853606 Y60.706980 Z-0.125000 I84.211242 J251.953370
G03 X39.323938 Y58.992000 Z-0.125000 I62.114847 J221.285667
G03 X45.867028 Y57.389440 Z-0.125000 I188.019349 J753.505299
G03 X48.192854 Y56.891925 Z-0.125000 I11.055424 J45.997570
G02 X51.122447 Y56.194020 Z-0.125000 I-5.758128 J-30.668610
G03 X50.636709 Y54.888427 Z-0.125000 I28.163398 J-11.221184
G02 X50.121415 Y53.932830 Z-0.125000 I-3.193296 J1.105214
G03 X43.820338 Y55.897962 Z-0.125000 I-9.088159 J-18.056057
G02 X36.857736 Y57.136190 Z-0.125000 I12.940863 J92.961546
G02 X24.837805 Y59.969890 Z-0.125000 I73.362508 J338.097411
G02 X13.083217 Y63.204280 Z-0.125000 I78.590570 J308.594673
G02 X8.291158 Y64.626091 Z-0.125000 I910.266050 J3076.738780
G02 X3.573409 Y66.137430 Z-0.125000 I33.939826 J114.064583
G03 X1.722159 Y66.660164 Z-0.125000 I-5.605014 J-16.310587
G02 X0.327011 Y67.540120 Z-0.125000 I0.533292 J2.391485
G01 X0.069795 Y72.399240 Z-0.125000
G00 Z5.000000

(End cutting path id: path829)


(Start cutting path id: path829)
(Change tool to Cylindrical cutter)

G00 Z5.000000
G00 X0.069798 Y95.199600

G01 Z-0.125000 F1000.0(Penetrate)
G01 X0.219828 Y86.343260 Z-0.125000 F1100.000000
G03 X1.503077 Y84.840205 Z-0.125000 I3.426551 J1.626133
G02 X3.326833 Y83.516580 Z-0.125000 I-23.354641 J-34.097417
G03 X7.211799 Y80.705690 Z-0.125000 I50.946324 J66.323377
G03 X11.331413 Y78.005870 Z-0.125000 I79.016692 J116.077424
G03 X23.558703 Y71.213009 Z-0.125000 I67.242332 J106.636456
G03 X37.107997 Y65.391240 Z-0.125000 I70.333098 J145.011891
G03 X45.114032 Y62.922568 Z-0.125000 I24.224650 J64.345505
G02 X52.758785 Y60.203460 Z-0.125000 I-9.254710 J-38.125686
G00 Z5.000000

(End cutting path id: path829)


(Start cutting path id: path829)
(Change tool to Cylindrical cutter)

G00 Z5.000000
G00 X0.069787 Y110.651050

G01 Z-0.125000 F1000.0(Penetrate)
G01 X0.069787 Y100.475680 Z-0.125000 F1100.000000
G01 X0.209981 Y95.764860 Z-0.125000
G03 X2.599549 Y92.176006 Z-0.125000 I10.263870 J4.244046
G02 X5.899299 Y88.792860 Z-0.125000 I-170.208635 J-169.313689
G03 X16.639166 Y79.726147 Z-0.125000 I47.727264 J45.640518
G03 X30.100758 Y71.964300 Z-0.125000 I60.937468 J90.131246
G03 X37.755798 Y68.482060 Z-0.125000 I74.494400 J153.606500
G03 X45.867019 Y65.401010 Z-0.125000 I43.266809 J101.687516
G03 X49.526393 Y64.242021 Z-0.125000 I35.942811 J107.128785
G02 X53.124504 Y62.977570 Z-0.125000 I-11.306645 J-37.925685
G03 X52.780102 Y60.426013 Z-0.125000 I24.759139 J-4.640940
G02 X52.445052 Y57.701460 Z-0.125000 I-34.794916 J2.896003
G03 X51.498389 Y51.577464 Z-0.125000 I363.070118 J-59.259483
G03 X50.664466 Y45.453330 Z-0.125000 I318.250956 J-46.455054
G03 X51.252584 Y27.388362 Z-0.125000 I56.885522 J-7.190109
G03 X59.054119 Y9.462690 Z-0.125000 I44.043012 J8.507703
G03 X61.639989 Y6.138626 Z-0.125000 I54.960776 J40.087481
G03 X64.472207 Y2.867540 Z-0.125000 I77.399295 J64.153298
G01 X67.220291 Y0.234760 Z-0.125000
G01 X72.144118 Y0.041050 Z-0.125000
G01 X86.158572 Y0.229480 Z-0.125000
G03 X79.882164 Y4.461332 Z-0.125000 I-22.239700 J-26.214175
G02 X73.417933 Y8.708960 Z-0.125000 I18.273094 J34.851404
G02 X61.569328 Y21.449178 Z-0.125000 I38.676995 J47.850025
G02 X54.813245 Y35.089540 Z-0.125000 I42.553750 J29.570236
G02 X53.380672 Y44.145485 Z-0.125000 I28.151858 J9.094664
G02 X53.374761 Y53.179070 Z-0.125000 I6902.289867 J9.033585
G02 X54.010532 Y58.109791 Z-0.125000 I19.437995 J0.000000
G03 X53.124504 Y62.977570 Z-0.125000 I-5.660029 J1.484294
G00 Z5.000000

(End cutting path id: path829)


(Start cutting path id: path829)
(Change tool to Cylindrical cutter)

G00 Z5.000000
G00 X0.069787 Y123.841340

G01 Z-0.125000 F1000.0(Penetrate)
G01 X0.069787 Y115.361860 Z-0.125000 F1100.000000
G01 X0.320045 Y110.839480 Z-0.125000
G02 X2.829099 Y113.024876 Z-0.125000 I18.115090 J-18.264922
G02 X5.825722 Y115.004030 Z-0.125000 I15.996277 J-20.961696
G02 X24.604770 Y118.474044 Z-0.125000 I14.408153 J-25.424846
G02 X42.863921 Y113.712510 Z-0.125000 I-13.468957 J-89.039810
G02 X64.155441 Y99.360110 Z-0.125000 I-19.585353 J-52.023495
G02 X74.675729 Y81.820840 Z-0.125000 I-37.060812 J-34.154310
G02 X76.848892 Y73.320133 Z-0.125000 I-48.406865 J-16.903104
G03 X78.872057 Y64.861900 Z-0.125000 I61.185748 J10.164229
G03 X81.560286 Y58.861795 Z-0.125000 I27.041163 J8.513003
G02 X84.406765 Y52.990640 Z-0.125000 I-32.626415 J-19.443682
G02 X81.051307 Y56.754717 Z-0.125000 I4.746693 J7.609041
G02 X79.234681 Y60.716380 Z-0.125000 I149.745717 J71.063448
G02 X75.637980 Y69.095170 Z-0.125000 I369.210521 J163.449633
G02 X72.214192 Y77.486890 Z-0.125000 I614.973467 J255.800984
G03 X61.444703 Y94.386859 Z-0.125000 I-50.099183 J-20.044250
G03 X40.861856 Y108.520060 Z-0.125000 I-42.658548 J-40.071167
G03 X32.517825 Y111.019319 Z-0.125000 I-17.184179 J-42.192803
G03 X21.617972 Y111.820558 Z-0.125000 I-8.719997 J-44.084629
G03 X12.479681 Y109.469960 Z-0.125000 I1.133801 J-23.346336
G03 X7.642797 Y103.490610 Z-0.125000 I4.004791 J-8.185630
G03 X7.319759 Y101.422208 Z-0.125000 I11.349266 J-2.831928
G03 X7.433481 Y99.345090 Z-0.125000 I8.668814 J-0.567057
G03 X8.004386 Y96.703890 Z-0.125000 I34.874024 J6.155852
G03 X9.044317 Y94.068970 Z-0.125000 I11.016136 J2.825094
G03 X21.035647 Y81.155605 Z-0.125000 I31.535840 J17.259884
G03 X39.360308 Y71.155550 Z-0.125000 I75.492208 J116.546548
G03 X46.060911 Y68.217622 Z-0.125000 I135.609159 J300.176959
G03 X53.124504 Y65.615630 Z-0.125000 I29.972330 J70.476777
G03 X52.542735 Y67.807580 Z-0.125000 I-1.792957 J0.697308
G03 X50.121406 Y69.324740 Z-0.125000 I-7.434418 J-9.174294
G03 X44.820623 Y71.801779 Z-0.125000 I-892.597759 J-1903.220313
G02 X39.610566 Y74.348360 Z-0.125000 I64.827584 J139.233829
G02 X27.636749 Y81.310106 Z-0.125000 I59.458005 J116.042494
G02 X18.351942 Y89.546580 Z-0.125000 I23.391576 J35.720364
G02 X15.097320 Y95.304744 Z-0.125000 I13.771660 J11.582867
G02 X15.278948 Y101.417840 Z-0.125000 I8.227938 J2.814783
G02 X19.507924 Y105.395784 Z-0.125000 I6.486429 J-2.658865
G02 X27.262694 Y106.588464 Z-0.125000 I7.245050 J-21.300118
G02 X36.039476 Y105.395700 Z-0.125000 I-0.894432 J-39.469288
G02 X41.862888 Y103.235090 Z-0.125000 I-7.071687 J-27.988171
G02 X44.804317 Y101.687991 Z-0.125000 I-35.019069 J-70.149921
G02 X47.618825 Y100.061130 Z-0.125000 I-42.076764 J-76.041804
G02 X60.519941 Y89.370263 Z-0.125000 I-29.115440 J-48.264409
G02 X68.778147 Y77.486890 Z-0.125000 I-44.206590 J-39.531992
G02 X77.015786 Y60.745760 Z-0.125000 I-297.678877 J-156.873116
G03 X90.205247 Y44.354770 Z-0.125000 I38.955385 J17.844396
G03 X93.052525 Y42.510499 Z-0.125000 I14.498797 J19.263955
G03 X96.669415 Y41.247510 Z-0.125000 I5.522573 J10.004853
G03 X98.899903 Y41.556889 Z-0.125000 I0.624550 J3.692383
G03 X99.577410 Y43.003710 Z-0.125000 I-0.538392 J1.134154
G03 X95.634950 Y48.226145 Z-0.125000 I-8.233475 J-2.116203
G02 X88.911407 Y52.346010 Z-0.125000 I96.435651 J164.927487
G02 X86.913940 Y53.701173 Z-0.125000 I25.250653 J39.368321
G03 X84.657023 Y54.874960 Z-0.125000 I-5.223988 J-7.287852
G03 X90.420464 Y48.785826 Z-0.125000 I10.236064 J3.916410
G02 X96.919670 Y42.815280 Z-0.125000 I-5.679148 J-12.704617
G02 X93.812463 Y43.873496 Z-0.125000 I-0.025841 J5.015027
G02 X91.728070 Y45.631590 Z-0.125000 I21.466411 J27.565220
G03 X87.784327 Y49.189472 Z-0.125000 I-312.314858 J-342.221498
G02 X84.406765 Y52.990640 Z-0.125000 I14.612942 J16.385627
G00 Z5.000000

(End cutting path id: path829)


(Footer)
M5
G00 X0.0000 Y0.0000
M2
(Using default footer. To add your own footer create file "footer" in the output dir.)
(end)
%