%
(Header)
(Generated by gcodetools from Inkscape.)
(Using default header. To add your own header create file "header" in the output dir.)
M3
(Header end.)
G21 (All units in mm)

(Start cutting path id: path15032)
(Change tool to Cylindrical cutter)

G00 Z5.000000
G00 X0.000173 Y59.818000

G01 Z0.000000 F1000.0(Penetrate)
G01 X0.000347 Y119.818000 Z0.000000 F1100.000000
G01 X42.600344 Y119.817876 Z0.000000
G01 X85.200340 Y119.817753 Z0.000000
G01 X85.200166 Y59.817753 Z0.000000
G01 X85.199992 Y-0.182247 Z0.000000
G01 X42.599996 Y-0.182124 Z0.000000
G01 X-0.000001 Y-0.182000 Z0.000000
G01 X0.000173 Y59.818000 Z0.000000
G00 Z5.000000

(End cutting path id: path15032)


(Start cutting path id: path15032)
(Change tool to Cylindrical cutter)

G00 Z5.000000
G00 X35.535330 Y58.165216

G01 Z0.000000 F1000.0(Penetrate)
G01 X35.550163 Y59.287535 Z0.000000 F1100.000000
G01 X35.153769 Y58.704196 Z0.000000
G03 X34.892509 Y58.118244 Z0.000000 I1.503233 J-1.021472
G03 X34.938286 Y57.831167 Z0.000000 I0.362281 J-0.089420
G02 X35.064797 Y57.523610 Z0.000000 I-0.843471 J-0.526752
G02 X35.178720 Y56.767188 Z0.000000 I-5.131810 J-1.159681
G03 X35.239677 Y55.993019 Z0.000000 I206.571743 J15.875800
G03 X35.265317 Y55.692898 Z0.000000 I31.456686 J2.536201
G03 X35.384254 Y55.691781 Z0.000000 I0.059524 J0.005372
G03 X35.535326 Y58.165216 Z0.000000 I-25.787401 J2.816366
G01 X35.535330 Y58.165216 Z0.000000
G00 Z5.000000

(End cutting path id: path15032)


(Start cutting path id: path15032)
(Change tool to Cylindrical cutter)

G00 Z5.000000
G00 X50.948703 Y59.783152

G01 Z0.000000 F1000.0(Penetrate)
G03 X50.999595 Y60.513936 Z0.000000 I-1.334783 J0.460118 F1100.000000
G03 X50.048288 Y64.392855 Z0.000000 I-41.188257 J-8.045334
G03 X49.500140 Y65.328026 Z0.000000 I-2.167852 J-0.642446
G03 X49.224991 Y65.238113 Z0.000000 I-0.115502 J-0.112501
G02 X49.134300 Y64.897845 Z0.000000 I-1.457556 J0.206261
G02 X48.907195 Y64.443333 Z0.000000 I-2.844882 J1.137502
G03 X48.795092 Y63.990712 Z0.000000 I0.666341 J-0.405229
G03 X48.986051 Y63.148077 Z0.000000 I2.672576 J0.162707
G03 X49.407619 Y62.387665 Z0.000000 I3.329672 J1.348886
G03 X49.641096 Y62.244957 Z0.000000 I0.288058 J0.208933
G02 X49.875165 Y62.117268 Z0.000000 I-0.060400 J-0.389102
G02 X50.040584 Y61.794956 Z0.000000 I-0.543644 J-0.482618
G03 X50.134222 Y61.393499 Z0.000000 I29.542783 J6.679083
G03 X50.340828 Y60.546205 Z0.000000 I131.682334 J31.660748
G02 X50.520664 Y59.695960 Z0.000000 I-12.427860 J-3.072779
G02 X50.550163 Y59.358700 Z0.000000 I-1.913129 J-0.337254
G03 X50.665111 Y59.313193 Z0.000000 I0.066482 J-0.000000
G03 X50.948699 Y59.783152 Z0.000000 I-0.955378 J0.897047
G01 X50.948703 Y59.783152 Z0.000000
G00 Z5.000000

(End cutting path id: path15032)


(Start cutting path id: path15032)
(Change tool to Cylindrical cutter)

G00 Z5.000000
G00 X50.949495 Y54.605352

G01 Z0.000000 F1000.0(Penetrate)
G01 X50.910244 Y54.605354 Z0.000000 F1100.000000
G03 X50.873835 Y54.417852 Z0.000000 I0.464601 J-0.187503
G03 X50.910239 Y54.230353 Z0.000000 I0.501048 J-0.000001
G01 X50.949494 Y54.230353 Z0.000000
G03 X50.985896 Y54.417857 Z0.000000 I-0.464712 J0.187505
G03 X50.949495 Y54.605352 Z0.000000 I-0.501071 J0.000001
G01 X50.949495 Y54.605352 Z0.000000
G00 Z5.000000

(End cutting path id: path15032)


(Start cutting path id: path15032)
(Change tool to Cylindrical cutter)

G00 Z5.000000
G00 X50.971046 Y52.209876

G01 Z0.000000 F1000.0(Penetrate)
G01 X50.925148 Y52.842853 Z0.000000 F1100.000000
G01 X50.515788 Y52.440311 Z0.000000
G03 X50.276221 Y51.998499 Z0.000000 I0.602157 J-0.612369
G03 X50.314641 Y51.447624 Z0.000000 I1.016174 J-0.205906
G03 X50.545914 Y50.868527 Z0.000000 I7.212008 J2.544518
G03 X50.723998 Y50.532789 Z0.000000 I2.592771 J1.160167
G03 X50.845076 Y50.529932 Z0.000000 I0.061472 J0.038080
G03 X50.971046 Y50.892498 Z0.000000 I-0.598679 J0.411170
G03 X50.993974 Y51.576840 Z0.000000 I-10.202083 J0.684373
G03 X50.971050 Y52.209876 Z0.000000 I-8.751277 J0.000027
G01 X50.971046 Y52.209876 Z0.000000
G00 Z5.000000

(End cutting path id: path15032)


(Start cutting path id: path15032)
(Change tool to Cylindrical cutter)

G00 Z5.000000
G00 X53.708442 Y48.872291

G01 Z0.000000 F1000.0(Penetrate)
G03 X54.224490 Y49.490001 Z0.000000 I-0.507600 J0.948474 F1100.000000
G03 X54.407385 Y51.035372 Z0.000000 I-3.826227 J1.236343
G03 X53.970592 Y53.398327 Z0.000000 I-11.337326 J-0.873860
G03 X53.442207 Y54.285786 Z0.000000 I-2.013831 J-0.597989
G03 X53.288903 Y54.373262 Z0.000000 I-0.236588 J-0.236554
G03 X52.698820 Y54.476861 Z0.000000 I-0.959666 J-3.733789
G02 X52.092224 Y54.558155 Z0.000000 I0.787430 J8.179432
G02 X51.768894 Y54.636904 Z0.000000 I0.412797 J2.398009
G03 X51.586345 Y54.518978 Z0.000000 I-0.042619 J-0.134282
G03 X51.445231 Y51.867852 Z0.000000 I20.882186 J-2.440831
G03 X51.631936 Y49.770244 Z0.000000 I13.380605 J0.133872
G03 X51.871060 Y49.350142 Z0.000000 I0.695137 J0.117568
G03 X52.962384 Y48.783483 Z0.000000 I1.786516 J2.106423
G03 X53.708442 Y48.872291 Z0.000000 I0.259527 J0.997906
G01 X53.708442 Y48.872291 Z0.000000
G00 Z5.000000

(End cutting path id: path15032)


(Start cutting path id: path15032)
(Change tool to Cylindrical cutter)

G00 Z5.000000
G00 X54.119824 Y46.613137

G01 Z0.000000 F1000.0(Penetrate)
G03 X54.789299 Y47.323163 Z0.000000 I-1.532558 J2.115663 F1100.000000
G03 X55.129971 Y48.195604 Z0.000000 I-2.028337 J1.294761
G01 X55.236440 Y48.792841 Z0.000000
G01 X54.880785 Y48.280893 Z0.000000
G02 X54.473355 Y47.827965 Z0.000000 I-2.000126 J1.389495
G02 X53.938030 Y47.465923 Z0.000000 I-1.792237 J2.073251
G02 X53.341479 Y47.306641 Z0.000000 I-0.662018 J1.282672
G02 X52.668469 Y47.408286 Z0.000000 I-0.079552 J1.752155
G03 X51.992637 Y47.624068 Z0.000000 I-3.320967 J-9.235107
G03 X51.943507 Y47.611196 Z0.000000 I-0.013559 J-0.048445
G03 X51.930209 Y47.561888 Z0.000000 I0.036256 J-0.036225
G03 X52.139666 Y46.868253 Z0.000000 I9.975052 J2.633719
G03 X52.497589 Y46.334448 Z0.000000 I1.173196 J0.399745
G03 X52.941720 Y46.167815 Z0.000000 I0.444133 J0.508566
G03 X53.473619 Y46.264981 Z0.000000 I0.000004 J1.504408
G03 X54.119824 Y46.613105 Z0.000000 I-0.980183 J2.593286
G01 X54.119824 Y46.613137 Z0.000000
G00 Z5.000000

(End cutting path id: path15032)


(Start cutting path id: path15032)
(Change tool to Cylindrical cutter)

G00 Z5.000000
G00 X54.153881 Y45.605344

G01 Z0.000000 F1000.0(Penetrate)
G03 X54.605657 Y45.977062 Z0.000000 I-1.766865 J2.607794 F1100.000000
G03 X54.720806 Y46.167842 Z0.000000 I-0.321898 J0.324428
G01 X54.673341 Y46.209167 Z0.000000
G03 X54.357369 Y45.999057 Z0.000000 I0.527825 J-1.136403
G02 X53.897936 Y45.650927 Z0.000000 I-2.148987 J2.358825
G02 X53.475128 Y45.448401 Z0.000000 I-1.117611 J1.790605
G03 X53.315075 Y45.335039 Z0.000000 I0.116466 J-0.334104
G01 X53.340445 Y45.279686 Z0.000000
G03 X53.637614 Y45.331204 Z0.000000 I0.027209 J0.725887
G03 X54.153881 Y45.605344 Z0.000000 I-1.013643 J2.532112
G01 X54.153881 Y45.605344 Z0.000000
G00 Z5.000000

(End cutting path id: path15032)


(Start cutting path id: path15032)
(Change tool to Cylindrical cutter)

G00 Z5.000000
G00 X54.522593 Y43.813646

G01 Z0.000000 F1000.0(Penetrate)
G03 X54.712934 Y44.315046 Z0.000000 I-7.508369 J3.137142 F1100.000000
G03 X54.832539 Y44.718971 Z0.000000 I-4.749165 J1.625932
G01 X54.935322 Y45.128489 Z0.000000
G01 X54.402120 Y44.813892 Z0.000000
G02 X53.847268 Y44.576508 Z0.000000 I-1.194092 J2.023890
G02 X53.259521 Y44.490894 Z0.000000 I-0.619147 J2.190195
G03 X52.795409 Y44.339163 Z0.000000 I0.011429 J-0.820637
G03 X52.650124 Y44.057619 Z0.000000 I0.200157 J-0.281545
G03 X52.903433 Y43.582464 Z0.000000 I0.572297 J-0.000002
G03 X53.745276 Y43.322404 Z0.000000 I0.854112 J1.272258
G03 X54.222558 Y43.458491 Z0.000000 I0.007144 J0.879949
G03 X54.522593 Y43.813646 Z0.000000 I-0.412673 J0.652938
G01 X54.522593 Y43.813646 Z0.000000
G00 Z5.000000

(End cutting path id: path15032)


(Start cutting path id: path15032)
(Change tool to Cylindrical cutter)

G00 Z5.000000
G00 X52.151969 Y44.426981

G01 Z0.000000 F1000.0(Penetrate)
G03 X52.034196 Y44.580059 Z0.000000 I-0.315952 J-0.121238 F1100.000000
G03 X51.763104 Y44.707919 Z0.000000 I-0.477310 J-0.660684
G03 X51.682522 Y44.640748 Z0.000000 I-0.016307 J-0.062358
G03 X51.787903 Y44.376774 Z0.000000 I0.471822 J0.035334
G03 X52.059291 Y44.270127 Z0.000000 I0.230697 J0.188434
G03 X52.151966 Y44.426973 Z0.000000 I-0.015884 J0.115188
G01 X52.151969 Y44.426981 Z0.000000
G00 Z5.000000

(End cutting path id: path15032)


(Start cutting path id: path15032)
(Change tool to Cylindrical cutter)

G00 Z5.000000
G00 X51.642178 Y47.255351

G01 Z0.000000 F1000.0(Penetrate)
G03 X51.338379 Y47.998438 Z0.000000 I-3.525557 J-1.007722 F1100.000000
G03 X50.928922 Y48.567853 Z0.000000 I-2.458996 J-1.336299
G02 X50.463916 Y49.111085 Z0.000000 I6.374159 J5.926907
G02 X50.045447 Y49.690174 Z0.000000 I6.828048 J5.374925
G03 X49.905938 Y49.638629 Z0.000000 I-0.063701 J-0.042157
G03 X50.157093 Y48.788621 Z0.000000 I2.692383 J0.333420
G03 X51.394839 Y46.647745 Z0.000000 I15.295280 J7.414718
G03 X51.734641 Y46.467851 Z0.000000 I0.339802 J0.230980
G03 X51.787894 Y46.527723 Z0.000000 I0.000000 J0.053619
G03 X51.642173 Y47.255351 Z0.000000 I-4.567215 J-0.536263
G01 X51.642178 Y47.255351 Z0.000000
G00 Z5.000000

(End cutting path id: path15032)


(Start cutting path id: path15032)
(Change tool to Cylindrical cutter)

G00 Z5.000000
G00 X46.339108 Y32.967666

G01 Z0.000000 F1000.0(Penetrate)
G02 X46.042524 Y34.118254 Z0.000000 I5.587824 J2.053877 F1100.000000
G02 X45.671359 Y37.317668 Z0.000000 I43.238314 J6.637319
G03 X44.997704 Y43.298899 Z0.000000 I-89.616645 J-7.064804
G03 X44.307250 Y46.617672 Z0.000000 I-28.211024 J-4.137954
G03 X43.162420 Y50.402670 Z0.000000 I-65.547383 J-17.760173
G03 X42.879607 Y50.885176 Z0.000000 I-1.288326 J-0.430995
G01 X42.813238 Y50.863673 Z0.000000
G03 X42.746076 Y49.685176 Z0.000000 I10.888633 J-1.211696
G02 X42.708558 Y48.344394 Z0.000000 I-26.836737 J0.080038
G02 X42.599425 Y46.917676 Z0.000000 I-30.565770 J1.620512
G03 X42.107242 Y41.029149 Z0.000000 I179.961228 J-18.006618
G03 X41.990006 Y37.842678 Z0.000000 I52.545956 J-3.528648
G03 X42.042095 Y35.003253 Z0.000000 I57.179525 J-0.371229
G03 X42.135793 Y34.468670 Z0.000000 I2.086074 J0.090129
G02 X42.234541 Y33.934620 Z0.000000 I-2.146533 J-0.673059
G02 X42.300089 Y31.815021 Z0.000000 I-34.234342 J-2.119499
G03 X42.359302 Y29.718403 Z0.000000 I37.144841 J-0.000108
G03 X42.424850 Y29.608273 Z0.000000 I0.138440 J0.007826
G03 X42.559036 Y29.557777 Z0.000000 I0.195900 J0.317042
G03 X43.962349 Y29.350122 Z0.000000 I6.038895 J35.964578
G02 X45.357122 Y29.105320 Z0.000000 I-1.944964 J-15.177343
G02 X45.975081 Y28.899962 Z0.000000 I-0.706195 J-3.157521
G01 X46.575080 Y28.630834 Z0.000000
G01 X46.663845 Y30.236750 Z0.000000
G03 X46.613789 Y31.821894 Z0.000000 I-9.134167 J0.504921
G03 X46.339104 Y32.967666 Z0.000000 I-5.013990 J-0.596231
G01 X46.339108 Y32.967666 Z0.000000
G00 Z5.000000

(End cutting path id: path15032)


(Start cutting path id: path15032)
(Change tool to Cylindrical cutter)

G00 Z5.000000
G00 X79.099091 Y28.306262

G01 Z0.000000 F1000.0(Penetrate)
G02 X80.304318 Y29.163364 Z0.000000 I3.658013 J-3.867840 F1100.000000
G02 X81.637072 Y29.623762 Z0.000000 I2.229608 J-4.295022
G01 X82.049070 Y29.701461 Z0.000000
G01 X82.087227 Y73.334506 Z0.000000
G01 X82.125383 Y116.967557 Z0.000000
G01 X42.562839 Y116.967672 Z0.000000
G01 X3.000342 Y116.967786 Z0.000000
G01 X3.000213 Y72.700304 Z0.000000
G01 X3.000085 Y28.432818 Z0.000000
G01 X3.412585 Y28.523647 Z0.000000
G02 X5.650767 Y28.811158 Z0.000000 I2.730664 J-12.401826
G02 X6.716742 Y28.651882 Z0.000000 I0.112349 J-2.894802
G03 X7.168966 Y28.607500 Z0.000000 I0.317742 J0.911479
G03 X8.166711 Y28.855877 Z0.000000 I-0.688583 J4.894274
G02 X9.176284 Y29.146411 Z0.000000 I2.638435 J-7.268930
G02 X9.846255 Y29.217771 Z0.000000 I0.669962 J-3.109256
G03 X10.499521 Y29.309294 Z0.000000 I0.000007 J2.377141
G03 X10.986432 Y29.543646 Z0.000000 I-0.438392 J1.533844
G02 X11.910814 Y29.937301 Z0.000000 I1.358461 J-1.907797
G02 X14.153555 Y30.140997 Z0.000000 I2.180749 J-11.562163
G02 X17.057400 Y29.698544 Z0.000000 I-0.053111 J-10.098849
G02 X18.949094 Y28.672554 Z0.000000 I-1.587282 J-5.183514
G03 X19.963054 Y28.330675 Z0.000000 I0.945648 J1.130079
G03 X21.000084 Y28.767738 Z0.000000 I-0.075559 J1.628105
G02 X21.510232 Y29.145684 Z0.000000 I1.909450 J-2.044088
G02 X21.778979 Y29.217736 Z0.000000 I0.268746 J-0.465168
G02 X22.011339 Y29.124005 Z0.000000 I-0.000001 J-0.334881
G02 X22.245999 Y28.767734 Z0.000000 I-0.673624 J-0.699103
G03 X22.510855 Y28.455707 Z0.000000 I0.569455 J0.214944
G03 X23.020469 Y28.320076 Z0.000000 I0.505703 J0.874892
G03 X23.619403 Y28.366998 Z0.000000 I-0.014537 J4.031536
G03 X24.525084 Y28.551568 Z0.000000 I-1.457217 J9.464917
G02 X25.879669 Y28.837257 Z0.000000 I4.120845 J-16.184661
G02 X28.163252 Y29.162618 Z0.000000 I7.680422 J-45.729337
G02 X28.930392 Y29.128303 Z0.000000 I0.278154 J-2.373816
G02 X29.908325 Y28.797883 Z0.000000 I-0.883634 J-4.227647
G03 X30.874353 Y28.500877 Z0.000000 I1.483525 J3.105711
G03 X31.492621 Y28.556940 Z0.000000 I0.195257 J1.283883
G02 X32.113808 Y28.717383 Z0.000000 I1.323415 J-3.841102
G02 X32.253660 Y28.690496 Z0.000000 I0.034603 J-0.197179
G03 X32.361096 Y28.702618 Z0.000000 I0.046000 J0.074465
G03 X32.613308 Y29.044932 Z0.000000 I-0.949909 J0.963949
G02 X32.881364 Y29.448359 Z0.000000 I1.973669 J-1.020629
G02 X33.306209 Y29.874832 Z0.000000 I2.634574 J-2.199667
G02 X33.824272 Y30.127421 Z0.000000 I0.762337 J-0.905992
G02 X35.169565 Y30.267697 Z0.000000 I1.345274 J-6.380592
G01 X36.566025 Y30.267693 Z0.000000
G01 X36.668233 Y30.949260 Z0.000000
G03 X36.675819 Y31.624200 Z0.000000 I-2.432791 J0.364855
G03 X36.440363 Y32.742711 Z0.000000 I-6.999200 J-0.889349
G02 X36.219948 Y33.856795 Z0.000000 I5.845848 J1.735413
G02 X36.264324 Y34.461464 Z0.000000 I1.728903 J0.177081
G03 X36.345027 Y35.068758 Z0.000000 I-2.555274 J0.648578
G03 X36.282627 Y35.630513 Z0.000000 I-2.243498 J0.035137
G02 X35.909548 Y38.266975 Z0.000000 I13.454734 J3.248575
G02 X35.726540 Y48.192696 Z0.000000 I192.208272 J8.508438
G03 X35.689515 Y54.769622 Z0.000000 I-253.038052 J1.864077
G03 X35.597980 Y55.092697 Z0.000000 I-0.659264 J-0.012281
G03 X35.482052 Y55.091595 Z0.000000 I-0.057646 J-0.034046
G03 X35.314230 Y54.590700 Z0.000000 I1.210089 J-0.683994
G02 X35.070433 Y53.980652 Z0.000000 I-1.326080 J0.176211
G02 X34.791991 Y53.871835 Z0.000000 I-0.224113 J0.162814
G03 X34.407460 Y53.866829 Z0.000000 I-0.180550 J-0.902358
G03 X34.194871 Y53.736335 Z0.000000 I0.086067 J-0.378626
G02 X33.713096 Y53.595034 Z0.000000 I-0.345774 J0.286969
G02 X32.749444 Y54.195339 Z0.000000 I0.695450 J2.189999
G02 X32.301730 Y55.070163 Z0.000000 I1.236545 J1.184812
G02 X32.333507 Y56.455243 Z0.000000 I3.347485 J0.616105
G03 X33.111837 Y60.587583 Z0.000000 I-49.107067 J11.388831
G03 X33.368108 Y63.567703 Z0.000000 I-25.241158 J3.671660
G02 X33.422837 Y65.442526 Z0.000000 I454.103896 J-12.317716
G02 X33.434575 Y65.693693 Z0.000000 I8.133502 J-0.254235
G02 X33.501089 Y65.924499 Z0.000000 I0.553332 J-0.034473
G02 X33.802418 Y66.368692 Z0.000000 I2.430112 J-1.324227
G03 X34.030161 Y66.845632 Z0.000000 I-0.829113 J0.688751
G03 X34.488648 Y69.792700 Z0.000000 I-33.655430 J6.745116
G02 X35.301960 Y76.374633 Z0.000000 I273.129736 J-30.408698
G02 X35.456485 Y76.917697 Z0.000000 I1.973815 J-0.268117
G02 X35.772971 Y77.286117 Z0.000000 I0.774896 J-0.345517
G02 X37.200225 Y78.037329 Z0.000000 I5.055117 J-7.872942
G03 X37.969804 Y78.564773 Z0.000000 I-0.898727 J2.136466
G03 X39.003932 Y79.907488 Z0.000000 I-5.505175 J5.309545
G01 X39.771173 Y81.172287 Z0.000000
G01 X39.504543 Y81.763576 Z0.000000
G03 X39.203070 Y82.333616 Z0.000000 I-4.680705 J-2.110716
G03 X38.822907 Y82.877080 Z0.000000 I-4.632265 J-2.835650
G02 X38.472149 Y83.428636 Z0.000000 I2.439586 J1.938747
G02 X38.313731 Y83.901293 Z0.000000 I1.622949 J0.806833
G03 X37.990424 Y84.460184 Z0.000000 I-0.954152 J-0.178999
G03 X37.026010 Y85.002202 Z0.000000 I-1.851980 J-2.166233
G02 X36.786034 Y85.496646 Z0.000000 I0.119044 J0.363235
G02 X37.384251 Y85.982434 Z0.000000 I0.705828 J-0.257957
G03 X38.054330 Y86.144433 Z0.000000 I-0.529435 J3.656720
G03 X38.203983 Y86.263858 Z0.000000 I-0.092439 J0.269315
G03 X38.264749 Y86.455708 Z0.000000 I-0.349011 J0.216093
G03 X38.271576 Y87.406521 Z0.000000 I-9.146260 J0.541106
G02 X38.897453 Y89.258797 Z0.000000 I2.696661 J0.120687
G02 X40.575261 Y90.161471 Z0.000000 I1.966355 J-1.644265
G02 X42.725360 Y90.204753 Z0.000000 I1.307880 J-11.544739
G02 X43.358409 Y89.959193 Z0.000000 I-0.083962 J-1.155229
G02 X44.071943 Y89.055114 Z0.000000 I-1.530117 J-1.941241
G02 X44.481263 Y87.530170 Z0.000000 I-4.216722 J-1.949243
G01 X44.574130 Y86.517670 Z0.000000
G01 X45.152425 Y86.517668 Z0.000000
G02 X46.297345 Y86.314759 Z0.000000 I-0.000010 J-3.331631
G02 X46.500250 Y86.024442 Z0.000000 I-0.106239 J-0.290316
G02 X46.318634 Y85.588540 Z0.000000 I-0.613920 J0.000002
G02 X45.357874 Y84.891490 Z0.000000 I-2.731504 J2.754249
G03 X45.137245 Y84.661830 Z0.000000 I0.223409 J-0.435431
G03 X44.962745 Y84.038825 Z0.000000 I1.832601 J-0.849241
G02 X44.803404 Y83.386727 Z0.000000 I-2.624700 J0.295830
G02 X44.567615 Y83.011161 Z0.000000 I-1.075923 J0.413691
G03 X44.350215 Y82.439619 Z0.000000 I0.585093 J-0.549671
G03 X44.606131 Y81.597942 Z0.000000 I1.660923 J0.045266
G03 X45.045804 Y81.150247 Z0.000000 I1.253504 J0.791301
G03 X45.768628 Y80.834361 Z0.000000 I1.286131 J1.958039
G02 X49.045210 Y79.800815 Z0.000000 I-6.590422 J-26.603711
G02 X49.821167 Y79.270565 Z0.000000 I-0.738303 J-1.913299
G02 X51.162027 Y77.340558 Z0.000000 I-6.544988 J-5.977870
G02 X51.656132 Y75.695770 Z0.000000 I-4.211397 J-2.161741
G03 X51.817545 Y74.864275 Z0.000000 I5.119400 J0.562389
G03 X52.520630 Y72.620768 Z0.000000 I38.202569 J10.740233
G02 X53.218158 Y70.376302 Z0.000000 I-34.702270 J-12.015286
G02 X53.384035 Y69.492645 Z0.000000 I-5.180200 J-1.429805
G03 X53.554685 Y68.618512 Z0.000000 I4.875474 J0.498080
G03 X53.813088 Y68.021569 Z0.000000 I2.509630 J0.731961
G02 X54.134727 Y66.866743 Z0.000000 I-1.995570 J-1.178004
G02 X53.831523 Y66.178394 Z0.000000 I-0.912248 J-0.009125
G03 X53.661586 Y65.828723 Z0.000000 I0.343495 J-0.383065
G03 X53.603182 Y62.667645 Z0.000000 I33.954652 J-2.208427
G03 X53.971472 Y58.022201 Z0.000000 I45.586165 J1.276741
G03 X54.344331 Y57.008679 Z0.000000 I2.428485 J0.318059
G03 X54.502696 Y56.900702 Z0.000000 I0.207740 J0.134560
G03 X55.109834 Y56.852842 Z0.000000 I0.498472 J2.448542
G02 X56.208755 Y56.558930 Z0.000000 I0.082367 J-1.893393
G02 X56.550160 Y55.937425 Z0.000000 I-0.394998 J-0.621503
G03 X56.630294 Y55.549686 Z0.000000 I0.978124 J-0.000003
G03 X56.850158 Y55.242635 Z0.000000 I0.816977 J0.352756
G02 X57.057541 Y54.930045 Z0.000000 I-0.509746 J-0.563269
G02 X57.150156 Y54.384421 Z0.000000 I-1.560879 J-0.545618
G02 X57.008885 Y53.956741 Z0.000000 I-0.718017 J0.000002
G02 X56.750276 Y53.845172 Z0.000000 I-0.225517 J0.167230
G02 X56.438319 Y53.998228 Z0.000000 I0.061683 J0.520164
G02 X56.187778 Y54.417637 Z0.000000 I0.738763 J0.725850
G03 X55.940265 Y54.839089 Z0.000000 I-1.021151 J-0.316301
G03 X55.650158 Y54.981408 Z0.000000 I-0.338160 J-0.322474
G02 X55.310374 Y55.086292 Z0.000000 I0.093692 J0.906351
G02 X55.026115 Y55.318909 Z0.000000 I0.462559 J0.855238
G03 X54.413782 Y55.641726 Z0.000000 I-0.698060 J-0.581955
G03 X54.150160 Y55.401902 Z0.000000 I-0.022723 J-0.239825
G03 X54.206055 Y55.207842 Z0.000000 I0.364819 J-0.000001
G03 X54.584214 Y54.710926 Z0.000000 I2.953674 J1.855430
G02 X54.934425 Y54.187003 Z0.000000 I-1.547505 J-1.413424
G02 X55.484985 Y52.789163 Z0.000000 I-10.785178 J-5.055248
G02 X55.833684 Y51.324290 Z0.000000 I-9.147729 J-2.951466
G02 X55.946240 Y49.842637 Z0.000000 I-9.247196 J-1.447578
G02 X55.481237 Y44.399773 Z0.000000 I-33.513780 J0.121903
G02 X54.810895 Y43.099839 Z0.000000 I-2.369195 J0.398926
G02 X54.195246 Y42.780135 Z0.000000 I-0.813058 J0.813067
G02 X53.222862 Y42.823094 Z0.000000 I-0.388622 J2.229993
G01 X52.652476 Y42.975339 Z0.000000
G01 X52.739273 Y42.133992 Z0.000000
G03 X52.869083 Y41.300781 Z0.000000 I8.108011 J0.836468
G03 X53.188090 Y39.989416 Z0.000000 I20.436152 J4.276880
G02 X53.443192 Y38.634496 Z0.000000 I-7.836973 J-2.177008
G02 X53.337610 Y38.517644 Z0.000000 I-0.105582 J-0.010726
G03 X53.160715 Y38.468237 Z0.000000 I-0.000001 J-0.341373
G03 X53.071334 Y38.356324 Z0.000000 I0.107588 J-0.177575
G02 X52.973476 Y38.275401 Z0.000000 I-0.113746 J0.037920
G02 X52.616842 Y38.295575 Z0.000000 I-0.125698 J0.940234
G01 X52.216123 Y38.396154 Z0.000000
G01 X52.305470 Y40.683889 Z0.000000
G01 X52.394817 Y42.971631 Z0.000000
G01 X51.584968 Y43.857820 Z0.000000
G02 X50.792015 Y44.757536 Z0.000000 I24.595255 J22.475997
G02 X50.513719 Y45.118333 Z0.000000 I3.664645 J3.114414
G01 X50.252312 Y45.492654 Z0.000000
G01 X50.327741 Y45.117654 Z0.000000
G02 X51.716778 Y37.815336 Z0.000000 I-345.976041 J-69.594378
G02 X52.506572 Y32.967648 Z0.000000 I-151.665706 J-27.197810
G02 X52.734367 Y30.789445 Z0.000000 I-26.200472 J-3.841042
G02 X52.726220 Y29.476680 Z0.000000 I-9.496042 J-0.597481
G01 X52.627007 Y28.160714 Z0.000000
G01 X53.346526 Y28.562417 Z0.000000
G02 X54.081630 Y28.925373 Z0.000000 I3.954335 J-7.082938
G02 X54.595559 Y29.102437 Z0.000000 I1.415238 J-3.273364
G02 X56.417821 Y29.478329 Z0.000000 I4.515611 J-17.285979
G02 X58.788391 Y29.741827 Z0.000000 I4.426167 J-29.024980
G03 X59.896941 Y29.850662 Z0.000000 I-1.404464 J20.005208
G03 X60.438393 Y29.950257 Z0.000000 I-0.613365 J4.856218
G02 X61.880378 Y30.071350 Z0.000000 I1.110068 J-4.572567
G02 X63.182754 Y29.756194 Z0.000000 I-0.284615 J-4.024760
G03 X63.756677 Y29.597021 Z0.000000 I0.878679 J2.053945
G03 X64.907754 Y29.518657 Z0.000000 I1.143567 J8.304502
G02 X67.310789 Y29.368855 Z0.000000 I0.019863 J-19.030388
G02 X69.825071 Y28.898346 Z0.000000 I-2.696331 J-21.361574
G03 X70.429208 Y28.769538 Z0.000000 I2.176430 J8.726770
G03 X71.925070 Y28.525500 Z0.000000 I9.462809 J53.297079
G02 X73.403576 Y28.232195 Z0.000000 I-2.306034 J-15.497482
G02 X74.075790 Y27.990160 Z0.000000 I-0.850333 J-3.416166
G03 X74.736661 Y27.804774 Z0.000000 I0.858484 J1.789713
G03 X75.350790 Y27.862597 Z0.000000 I0.159597 J1.595131
G03 X75.952074 Y28.088593 Z0.000000 I-1.264904 J4.278304
G03 X76.215878 Y28.260992 Z0.000000 I-0.449178 J0.975362
G02 X76.676497 Y28.367056 Z0.000000 I0.327433 J-0.368759
G02 X77.019339 Y28.035630 Z0.000000 I-0.135553 J-0.483261
G03 X77.164674 Y27.863004 Z0.000000 I0.281279 J0.089320
G03 X77.579689 Y27.744841 Z0.000000 I0.496982 J0.957614
G02 X78.047182 Y27.681815 Z0.000000 I-0.308607 J-4.054401
G02 X78.129710 Y27.637931 Z0.000000 I-0.030514 J-0.156928
G03 X78.259019 Y27.626145 Z0.000000 I0.071730 J0.071730
G03 X79.099084 Y28.306262 Z0.000000 I-3.989843 J5.787038
G01 X79.099091 Y28.306262 Z0.000000
G00 Z5.000000

(End cutting path id: path15032)


(Footer)
M5
G00 X0.0000 Y0.0000
M2
(Using default footer. To add your own footer create file "footer" in the output dir.)
(end)
%