%
(Header)
(Generated by gcodetools from Inkscape.)
(Using default header. To add your own header create file "header" in the output dir.)
M3
(Header end.)
G21 (All units in mm)

(Start cutting path id: path16343)
(Change tool to Cylindrical cutter)

G00 Z5.000000
G00 X0.006838 Y119.811322

G01 Z0.000000 F1000.0(Penetrate)
G01 X0.006838 Y119.805072 Z0.000000 F1100.000000
G01 X0.006490 Y-0.175510 Z0.000000
G01 X83.891034 Y-0.175753 Z0.000000
G01 X83.891382 Y119.811267 Z0.000000
G01 X0.006838 Y119.811322 Z0.000000
G00 Z5.000000

(End cutting path id: path16343)


(Start cutting path id: path16343)
(Change tool to Cylindrical cutter)

G00 Z5.000000
G00 X0.019848 Y119.798405

G01 Z0.000000 F1000.0(Penetrate)
G01 X83.878393 Y119.798162 Z0.000000 F1100.000000
G01 X83.878046 Y-0.162543 Z0.000000
G01 X0.019493 Y-0.162300 Z0.000000
G01 X0.019848 Y119.798405 Z0.000000
G00 Z5.000000

(End cutting path id: path16343)


(Start cutting path id: path16343)
(Change tool to Cylindrical cutter)

G00 Z5.000000
G00 X14.267672 Y56.606190

G01 Z0.000000 F1000.0(Penetrate)
G03 X14.509675 Y56.871535 Z0.000000 I-3.771013 J3.682309 F1100.000000
G01 X14.504024 Y56.883769 Z0.000000
G01 X14.474186 Y56.872245 Z0.000000
G03 X14.198276 Y56.606190 Z0.000000 I4.283357 J-4.718107
G03 X13.956273 Y56.340847 Z0.000000 I3.771890 J-3.683141
G01 X13.961924 Y56.328613 Z0.000000
G01 X13.991762 Y56.340136 Z0.000000
G03 X14.267672 Y56.606190 Z0.000000 I-4.282331 J4.717074
G01 X14.267672 Y56.606190 Z0.000000
G00 Z5.000000

(End cutting path id: path16343)


(Start cutting path id: path16343)
(Change tool to Cylindrical cutter)

G00 Z5.000000
G00 X14.686649 Y56.522628

G01 Z0.000000 F1000.0(Penetrate)
G03 X14.520968 Y56.590351 Z0.000000 I-0.163505 J-0.163482 F1100.000000
G03 X14.396015 Y56.519929 Z0.000000 I0.001398 J-0.148548
G01 X14.399404 Y56.495073 Z0.000000
G01 X14.425635 Y56.492539 Z0.000000
G02 X14.492748 Y56.504294 Z0.000000 I0.048260 J-0.078072
G02 X14.545244 Y56.467449 Z0.000000 I-0.016714 J-0.079634
G03 X14.597411 Y56.429151 Z0.000000 I0.073450 J0.045370
G03 X14.658748 Y56.438558 Z0.000000 I0.019582 J0.076982
G03 X14.695536 Y56.485115 Z0.000000 I-0.045720 J0.073940
G01 X14.686648 Y56.522658 Z0.000000
G01 X14.686649 Y56.522628 Z0.000000
G00 Z5.000000

(End cutting path id: path16343)


(Start cutting path id: path16343)
(Change tool to Cylindrical cutter)

G00 Z5.000000
G00 X14.167494 Y56.137772

G01 Z0.000000 F1000.0(Penetrate)
G03 X14.179883 Y56.219477 Z0.000000 I-0.061226 J0.051076 F1100.000000
G01 X14.128874 Y56.230592 Z0.000000
G03 X13.970378 Y56.024820 Z0.000000 I0.530942 J-0.572884
G01 X13.996310 Y55.981632 Z0.000000
G03 X14.030953 Y55.995058 Z0.000000 I0.000000 J0.051407
G03 X14.167489 Y56.137769 Z0.000000 I-0.978826 J1.073143
G01 X14.167494 Y56.137772 Z0.000000
G00 Z5.000000

(End cutting path id: path16343)


(Start cutting path id: path16343)
(Change tool to Cylindrical cutter)

G00 Z5.000000
G00 X13.955047 Y55.873682

G01 Z0.000000 F1000.0(Penetrate)
G01 X13.936292 Y55.881628 Z0.000000 F1100.000000
G03 X13.781904 Y55.704063 Z0.000000 I1.029246 J-1.050801
G03 X13.619788 Y55.465575 Z0.000000 I3.004145 J-2.216462
G03 X13.610911 Y55.430352 Z0.000000 I0.050257 J-0.031396
G03 X13.783617 Y55.377409 Z0.000000 I0.096392 J0.006278
G03 X13.955047 Y55.873682 Z0.000000 I-0.645055 J0.500570
G01 X13.955047 Y55.873682 Z0.000000
G00 Z5.000000

(End cutting path id: path16343)


(Start cutting path id: path16343)
(Change tool to Cylindrical cutter)

G00 Z5.000000
G00 X13.776069 Y55.956752

G01 Z0.000000 F1000.0(Penetrate)
G01 X13.761927 Y55.990012 Z0.000000 F1100.000000
G01 X13.714099 Y55.982972 Z0.000000
G03 X13.644143 Y55.878544 Z0.000000 I0.141392 J-0.170364
G01 X13.670389 Y55.842862 Z0.000000
G03 X13.718059 Y55.863661 Z0.000000 I0.000000 J0.065028
G03 X13.776070 Y55.956769 Z0.000000 I-0.212055 J0.196747
G01 X13.776069 Y55.956752 Z0.000000
G00 Z5.000000

(End cutting path id: path16343)


(Start cutting path id: path16343)
(Change tool to Cylindrical cutter)

G00 Z5.000000
G00 X35.606533 Y35.914075

G01 Z0.000000 F1000.0(Penetrate)
G02 X36.800779 Y36.969562 Z0.000000 I4.502472 J-3.891020 F1100.000000
G02 X38.203194 Y37.650723 Z0.000000 I3.165595 J-4.733245
G03 X39.375228 Y38.333009 Z0.000000 I-0.996198 J3.059077
G03 X39.774249 Y39.083924 Z0.000000 I-0.852455 J0.934452
G03 X39.503400 Y41.831884 Z0.000000 I-5.657462 J0.829708
G03 X37.938973 Y44.237527 Z0.000000 I-5.817481 J-2.071691
G03 X36.613197 Y45.202283 Z0.000000 I-4.334277 J-4.562877
G03 X35.105136 Y45.779882 Z0.000000 I-2.918277 J-5.361860
G03 X33.357363 Y45.975171 Z0.000000 I-1.671276 J-7.038743
G03 X31.555745 Y45.742352 Z0.000000 I0.081622 J-7.718758
G03 X30.424168 Y45.318035 Z0.000000 I1.315649 J-5.229606
G03 X29.309558 Y44.598409 Z0.000000 I2.949196 J-5.790940
G03 X28.023413 Y43.179606 Z0.000000 I3.785077 J-4.723521
G03 X27.253552 Y41.443383 Z0.000000 I4.988207 J-3.250621
G03 X27.199020 Y38.541667 Z0.000000 I5.943085 J-1.563060
G03 X28.487283 Y35.915864 Z0.000000 I6.091278 J1.359561
G01 X28.697636 Y35.662350 Z0.000000
G01 X29.099494 Y35.865212 Z0.000000
G01 X29.501351 Y36.068065 Z0.000000
G01 X30.454748 Y35.994213 Z0.000000
G02 X32.610609 Y35.759368 Z0.000000 I-2.684932 J-34.660208
G02 X34.357424 Y35.445427 Z0.000000 I-3.242162 J-23.056676
G03 X34.947989 Y35.321774 Z0.000000 I6.783937 J30.927785
G03 X35.016674 Y35.313935 Z0.000000 I0.081316 J0.407688
G03 X35.074878 Y35.337440 Z0.000000 I0.002062 J0.078709
G03 X35.606533 Y35.914075 Z0.000000 I-8.698628 J8.553516
G01 X35.606533 Y35.914075 Z0.000000
G00 Z5.000000

(End cutting path id: path16343)


(Start cutting path id: path16343)
(Change tool to Cylindrical cutter)

G00 Z5.000000
G00 X36.079270 Y30.699953

G01 Z0.000000 F1000.0(Penetrate)
G02 X36.165909 Y30.714800 Z0.000000 I0.077999 J-0.194961 F1100.000000
G02 X36.212277 Y30.694453 Z0.000000 I-0.002863 J-0.069533
G01 X36.207842 Y30.672848 Z0.000000
G02 X36.121197 Y30.658003 Z0.000000 I-0.077985 J0.194889
G02 X36.074834 Y30.678329 Z0.000000 I0.002838 J0.069511
G01 X36.079267 Y30.699933 Z0.000000
G01 X36.079270 Y30.699953 Z0.000000
G00 Z5.000000

(End cutting path id: path16343)


(Start cutting path id: path16343)
(Change tool to Cylindrical cutter)

G00 Z5.000000
G00 X35.732295 Y30.491634

G01 Z0.000000 F1000.0(Penetrate)
G02 X35.818934 Y30.506481 Z0.000000 I0.077999 J-0.194961 F1100.000000
G02 X35.865302 Y30.486134 Z0.000000 I-0.002863 J-0.069533
G01 X35.860866 Y30.464532 Z0.000000
G02 X35.774222 Y30.449684 Z0.000000 I-0.078009 J0.194997
G02 X35.727860 Y30.470010 Z0.000000 I0.002838 J0.069511
G01 X35.732292 Y30.491614 Z0.000000
G01 X35.732295 Y30.491634 Z0.000000
G00 Z5.000000

(End cutting path id: path16343)


(Start cutting path id: path16343)
(Change tool to Cylindrical cutter)

G00 Z5.000000
G00 X35.658563 Y30.629125

G01 Z0.000000 F1000.0(Penetrate)
G02 X35.745308 Y30.645965 Z0.000000 I0.086744 J-0.214992 F1100.000000
G02 X35.832051 Y30.629124 Z0.000000 I-0.000001 J-0.231824
G01 X35.832049 Y30.610955 Z0.000000
G02 X35.745311 Y30.594124 Z0.000000 I-0.086738 J0.215084
G02 X35.658568 Y30.610968 Z0.000000 I0.000001 J0.231776
G01 X35.658571 Y30.629125 Z0.000000
G01 X35.658563 Y30.629125 Z0.000000
G00 Z5.000000

(End cutting path id: path16343)


(Start cutting path id: path16343)
(Change tool to Cylindrical cutter)

G00 Z5.000000
G00 X35.385322 Y30.561035

G01 Z0.000000 F1000.0(Penetrate)
G02 X35.471961 Y30.575882 Z0.000000 I0.078000 J-0.194962 F1100.000000
G02 X35.518328 Y30.555535 Z0.000000 I-0.002863 J-0.069529
G01 X35.513892 Y30.533929 Z0.000000
G02 X35.427248 Y30.519075 Z0.000000 I-0.078012 J0.194925
G02 X35.380885 Y30.539401 Z0.000000 I0.002838 J0.069511
G01 X35.385318 Y30.561005 Z0.000000
G01 X35.385322 Y30.561035 Z0.000000
G00 Z5.000000

(End cutting path id: path16343)


(Start cutting path id: path16343)
(Change tool to Cylindrical cutter)

G00 Z5.000000
G00 X34.496198 Y30.305490

G01 Z0.000000 F1000.0(Penetrate)
G03 X34.476491 Y30.355188 Z0.000000 I-0.072520 J0.000000 F1100.000000
G03 X34.430898 Y30.374890 Z0.000000 I-0.045593 J-0.042904
G03 X34.374768 Y30.358434 Z0.000000 I-0.000000 J-0.103952
G03 X34.322711 Y30.305490 Z0.000000 I0.090462 J-0.141013
G01 X34.327063 Y30.262428 Z0.000000
G03 X34.388011 Y30.236090 Z0.000000 I0.060948 J0.057351
G03 X34.471670 Y30.260616 Z0.000000 I0.000000 J0.154946
G03 X34.496198 Y30.305490 Z0.000000 I-0.028785 J0.044874
G01 X34.496198 Y30.305490 Z0.000000
G00 Z5.000000

(End cutting path id: path16343)


(Start cutting path id: path16343)
(Change tool to Cylindrical cutter)

G00 Z5.000000
G00 X34.253315 Y30.166699

G01 Z0.000000 F1000.0(Penetrate)
G03 X34.200016 Y30.217141 Z0.000000 I-0.121698 J-0.075212 F1100.000000
G03 X34.127780 Y30.235029 Z0.000000 I-0.070327 J-0.129198
G01 X34.112901 Y30.214403 Z0.000000
G03 X34.149229 Y30.166699 Z0.000000 I0.084260 J0.026483
G03 X34.238619 Y30.140327 Z0.000000 I0.089390 J0.138311
G01 X34.253322 Y30.166699 Z0.000000
G01 X34.253315 Y30.166699 Z0.000000
G00 Z5.000000

(End cutting path id: path16343)


(Start cutting path id: path16343)
(Change tool to Cylindrical cutter)

G00 Z5.000000
G00 X33.941039 Y30.097300

G01 Z0.000000 F1000.0(Penetrate)
G03 X33.920135 Y30.145794 Z0.000000 I-0.066701 J0.000000 F1100.000000
G03 X33.867549 Y30.166700 Z0.000000 I-0.052585 J-0.055684
G01 X33.833673 Y30.144613 Z0.000000
G03 X33.836949 Y30.097300 Z0.000000 I0.046592 J-0.020544
G03 X33.885391 Y30.037858 Z0.000000 I0.251167 J0.155226
G01 X33.910439 Y30.027900 Z0.000000
G01 X33.928962 Y30.039976 Z0.000000
G03 X33.941039 Y30.097300 Z0.000000 I-0.130008 J0.057324
G01 X33.941039 Y30.097300 Z0.000000
G00 Z5.000000

(End cutting path id: path16343)


(Start cutting path id: path16343)
(Change tool to Cylindrical cutter)

G00 Z5.000000
G00 X33.594064 Y30.031081

G01 Z0.000000 F1000.0(Penetrate)
G01 X33.589654 Y30.054684 Z0.000000 F1100.000000
G03 X33.489970 Y30.054951 Z0.000000 I-0.050430 J-0.219864
G03 X33.346780 Y29.990820 Z0.000000 I0.085775 J-0.383436
G01 X33.356963 Y29.959571 Z0.000000
G03 X33.484302 Y29.978981 Z0.000000 I-0.005163 J0.461282
G03 X33.594062 Y30.031081 Z0.000000 I-0.115355 J0.384692
G01 X33.594064 Y30.031081 Z0.000000
G00 Z5.000000

(End cutting path id: path16343)


(Start cutting path id: path16343)
(Change tool to Cylindrical cutter)

G00 Z5.000000
G00 X33.158901 Y29.931051

G01 Z0.000000 F1000.0(Penetrate)
G03 X33.112533 Y29.951391 Z0.000000 I-0.049232 J-0.049210 F1100.000000
G03 X33.025894 Y29.936551 Z0.000000 I-0.008642 J-0.209880
G01 X33.021462 Y29.914956 Z0.000000
G03 X33.067824 Y29.894621 Z0.000000 I0.049227 J0.049217
G03 X33.154468 Y29.909472 Z0.000000 I0.008610 J0.209945
G01 X33.158904 Y29.931071 Z0.000000
G01 X33.158901 Y29.931051 Z0.000000
G00 Z5.000000

(End cutting path id: path16343)


(Start cutting path id: path16343)
(Change tool to Cylindrical cutter)

G00 Z5.000000
G00 X36.543348 Y30.721932

G01 Z0.000000 F1000.0(Penetrate)
G02 X36.497634 Y30.762420 Z0.000000 I0.038437 J0.089451 F1100.000000
G01 X36.508648 Y30.781572 Z0.000000
G02 X36.610212 Y30.769284 Z0.000000 I-0.000001 J-0.425883
G02 X36.751529 Y30.721931 Z0.000000 I-0.215603 J-0.877978
G02 X36.797244 Y30.681444 Z0.000000 I-0.038437 J-0.089451
G01 X36.786229 Y30.662291 Z0.000000
G02 X36.684665 Y30.674579 Z0.000000 I0.000001 J0.425882
G02 X36.543347 Y30.721932 Z0.000000 I0.215610 J0.878010
G01 X36.543348 Y30.721932 Z0.000000
G00 Z5.000000

(End cutting path id: path16343)


(Start cutting path id: path16343)
(Change tool to Cylindrical cutter)

G00 Z5.000000
G00 X37.120193 Y30.769340

G01 Z0.000000 F1000.0(Penetrate)
G02 X37.206832 Y30.784187 Z0.000000 I0.077999 J-0.194961 F1100.000000
G02 X37.253200 Y30.763840 Z0.000000 I-0.002863 J-0.069533
G01 X37.248765 Y30.742234 Z0.000000
G02 X37.162120 Y30.727380 Z0.000000 I-0.078012 J0.194925
G02 X37.115758 Y30.747706 Z0.000000 I0.002838 J0.069511
G01 X37.120190 Y30.769310 Z0.000000
G01 X37.120193 Y30.769340 Z0.000000
G00 Z5.000000

(End cutting path id: path16343)


(Start cutting path id: path16343)
(Change tool to Cylindrical cutter)

G00 Z5.000000
G00 X39.510933 Y30.563523

G01 Z0.000000 F1000.0(Penetrate)
G02 X39.702418 Y30.577645 Z0.000000 I0.187924 J-1.242853 F1100.000000
G02 X39.857908 Y30.562522 Z0.000000 I-0.002355 J-0.831124
G01 X39.857606 Y30.547655 Z0.000000
G02 X39.666118 Y30.533523 Z0.000000 I-0.188057 J1.243738
G02 X39.510638 Y30.548652 Z0.000000 I0.003628 J0.843747
G01 X39.510933 Y30.563473 Z0.000000
G01 X39.510933 Y30.563523 Z0.000000
G00 Z5.000000

(End cutting path id: path16343)


(Start cutting path id: path16343)
(Change tool to Cylindrical cutter)

G00 Z5.000000
G00 X42.047228 Y30.491616

G01 Z0.000000 F1000.0(Penetrate)
G02 X42.133868 Y30.506462 Z0.000000 I0.078000 J-0.194962 F1100.000000
G02 X42.180234 Y30.486116 Z0.000000 I-0.002863 J-0.069529
G01 X42.175798 Y30.464513 Z0.000000
G02 X42.089154 Y30.449666 Z0.000000 I-0.078009 J0.194997
G02 X42.042792 Y30.469992 Z0.000000 I0.002838 J0.069511
G01 X42.047224 Y30.491596 Z0.000000
G01 X42.047228 Y30.491616 Z0.000000
G00 Z5.000000

(End cutting path id: path16343)


(Start cutting path id: path16343)
(Change tool to Cylindrical cutter)

G00 Z5.000000
G00 X40.829458 Y38.266371

G01 Z0.000000 F1000.0(Penetrate)
G02 X41.020942 Y38.280493 Z0.000000 I0.187922 J-1.242832 F1100.000000
G02 X41.176432 Y38.265370 Z0.000000 I-0.002355 J-0.831125
G01 X41.176130 Y38.250503 Z0.000000
G02 X40.984642 Y38.236370 Z0.000000 I-0.188057 J1.243730
G02 X40.829163 Y38.251499 Z0.000000 I0.003623 J0.843699
G01 X40.829458 Y38.266321 Z0.000000
G01 X40.829458 Y38.266371 Z0.000000
G00 Z5.000000

(End cutting path id: path16343)


(Start cutting path id: path16343)
(Change tool to Cylindrical cutter)

G00 Z5.000000
G00 X43.829754 Y11.539413

G01 Z0.000000 F1000.0(Penetrate)
G03 X50.572378 Y12.835161 Z0.000000 I-3.180047 J34.738883 F1100.000000
G03 X55.245219 Y14.926410 Z0.000000 I-5.516575 J18.592936
G03 X57.133900 Y16.299524 Z0.000000 I-8.136609 J13.177155
G03 X58.113294 Y17.362301 Z0.000000 I-3.840269 J4.521635
G01 X58.262029 Y17.569551 Z0.000000
G01 X58.054781 Y17.422912 Z0.000000
G02 X57.840056 Y17.288817 Z0.000000 I-1.277507 J1.806700
G02 X57.137979 Y16.920974 Z0.000000 I-10.352403 J18.904997
G02 X46.621704 Y14.172856 Z0.000000 I-11.748634 J23.463248
G02 X34.563463 Y15.859620 Z0.000000 I-1.546344 J32.889604
G02 X30.523985 Y17.745267 Z0.000000 I6.378442 J18.933599
G02 X28.512096 Y19.557577 Z0.000000 I3.843717 J6.289883
G02 X27.628621 Y21.205562 Z0.000000 I4.640967 J3.548800
G02 X27.445325 Y22.657990 Z0.000000 I3.386273 J1.165128
G02 X29.007309 Y25.734047 Z0.000000 I4.527503 J-0.364405
G02 X34.843170 Y29.034593 Z0.000000 I11.200118 J-12.993875
G02 X38.345986 Y29.924410 Z0.000000 I8.164218 J-24.799486
G02 X42.078461 Y30.347455 Z0.000000 I5.035646 J-27.751789
G03 X42.984574 Y30.449259 Z0.000000 I-0.321131 J6.941581
G03 X43.586928 Y30.618118 Z0.000000 I-0.577645 J3.219378
G02 X45.921216 Y31.403483 Z0.000000 I9.976374 J-25.790406
G02 X48.271085 Y31.965080 Z0.000000 I7.353896 J-25.573572
G03 X48.951077 Y32.141961 Z0.000000 I-1.012470 J5.287787
G03 X49.763076 Y32.459153 Z0.000000 I-2.605131 J7.866987
G02 X50.565246 Y32.810558 Z0.000000 I14.859203 J-32.828553
G02 X51.250442 Y33.089297 Z0.000000 I10.034842 J-23.686055
G03 X51.928009 Y33.382091 Z0.000000 I-3.734132 J9.571717
G03 X52.396570 Y33.634223 Z0.000000 I-2.292936 J4.822626
G02 X52.864264 Y33.886892 Z0.000000 I2.854049 J-4.723707
G02 X53.268633 Y34.052409 Z0.000000 I1.612171 J-3.361937
G03 X53.673607 Y34.217157 Z0.000000 I-1.254322 J3.663409
G03 X54.204650 Y34.496337 Z0.000000 I-3.123834 J6.586667
G02 X54.738240 Y34.761789 Z0.000000 I2.352999 J-4.060785
G02 X55.037392 Y34.846544 Z0.000000 I0.495167 J-1.177421
G03 X55.650877 Y34.989441 Z0.000000 I-0.647485 J4.168146
G03 X56.494385 Y35.302984 Z0.000000 I-2.572804 J8.212870
G02 X56.950102 Y35.485546 Z0.000000 I3.588574 J-8.297859
G02 X57.448566 Y35.655473 Z0.000000 I3.603517 J-9.754464
G03 X57.931956 Y35.827379 Z0.000000 I-1.991209 J6.364781
G01 X57.951680 Y35.856500 Z0.000000
G01 X57.932000 Y35.884785 Z0.000000
G03 X57.587356 Y35.991592 Z0.000000 I-1.150851 J-3.104104
G02 X56.612128 Y36.273413 Z0.000000 I3.497917 J13.932673
G02 X55.215153 Y36.768928 Z0.000000 I9.535473 J29.099728
G03 X54.307457 Y37.037722 Z0.000000 I-2.192194 J-5.735859
G03 X53.827256 Y37.065824 Z0.000000 I-0.331653 J-1.550379
G03 X53.342034 Y36.995285 Z0.000000 I0.453748 J-4.825389
G03 X52.955254 Y36.893663 Z0.000000 I0.625579 J-3.167868
G02 X50.916933 Y36.355633 Z0.000000 I-5.436856 J16.467352
G02 X48.444584 Y35.992204 Z0.000000 I-4.775290 J23.894303
G03 X47.285597 Y35.810509 Z0.000000 I0.911884 J-9.604020
G03 X46.661106 Y35.600218 Z0.000000 I0.653297 J-2.972460
G02 X46.436719 Y35.558467 Z0.000000 I-0.194186 J0.419791
G02 X46.059176 Y35.639599 Z0.000000 I0.086461 J1.321336
G02 X44.357012 Y36.421452 Z0.000000 I4.527424 J12.100430
G02 X41.956714 Y37.897541 Z0.000000 I14.097570 J25.613963
G03 X41.536862 Y38.174575 Z0.000000 I-8.714302 J-12.750116
G03 X41.436253 Y38.228916 Z0.000000 I-0.428374 J-0.672798
G01 X41.430545 Y38.256468 Z0.000000
G02 X41.483663 Y38.280956 Z0.000000 I0.055518 J-0.050571
G02 X41.623654 Y38.263383 Z0.000000 I0.014546 J-0.450524
G02 X41.672519 Y38.226265 Z0.000000 I-0.023760 J-0.082002
G03 X41.752925 Y38.142503 Z0.000000 I0.235370 J0.145465
G03 X43.344068 Y37.096242 Z0.000000 I41.698369 J61.681454
G03 X44.832488 Y36.249800 Z0.000000 I8.907563 J13.931570
G03 X46.098706 Y35.713305 Z0.000000 I4.785585 J9.532292
G03 X46.375739 Y35.691158 Z0.000000 I0.180741 J0.517108
G03 X47.334270 Y35.933936 Z0.000000 I-1.218907 J6.826096
G02 X47.511330 Y35.974508 Z0.000000 I0.303538 J-0.918032
G02 X48.583378 Y36.098732 Z0.000000 I4.461553 J-33.814903
G03 X49.655873 Y36.227134 Z0.000000 I-2.732394 J27.365916
G03 X50.387644 Y36.350768 Z0.000000 I-1.796798 J12.862478
G03 X52.205072 Y36.763327 Z0.000000 I-6.650145 J33.505006
G03 X53.045404 Y37.030825 Z0.000000 I-1.896038 J7.409980
G02 X53.244621 Y37.082466 Z0.000000 I0.328852 J-0.858542
G02 X53.843442 Y37.144484 Z0.000000 I1.109129 J-7.787309
G02 X54.435057 Y37.106463 Z0.000000 I0.149358 J-2.297808
G02 X55.229840 Y36.873153 Z0.000000 I-0.863350 J-4.411434
G03 X56.018150 Y36.579079 Z0.000000 I7.478519 J18.843719
G03 X56.721828 Y36.351575 Z0.000000 I5.170842 J14.791542
G03 X58.084295 Y36.065882 Z0.000000 I2.410923 J8.106028
G03 X58.704438 Y36.103872 Z0.000000 I0.208838 J1.671513
G03 X60.061211 Y36.580747 Z0.000000 I-1.925086 J7.645665
G03 X60.772273 Y37.050523 Z0.000000 I-1.152485 J2.517451
G02 X60.939412 Y37.150650 Z0.000000 I0.332260 J-0.365065
G02 X61.526895 Y37.318386 Z0.000000 I1.623985 J-4.575228
G03 X62.124140 Y37.476192 Z0.000000 I-1.527153 J6.988835
G03 X62.514064 Y37.625378 Z0.000000 I-0.970657 J3.121161
G02 X62.903507 Y37.763269 Z0.000000 I0.966925 J-2.111973
G02 X63.194364 Y37.800001 Z0.000000 I0.290853 J-1.133160
G03 X64.160520 Y37.884886 Z0.000000 I0.000016 J5.540637
G03 X65.023994 Y38.123998 Z0.000000 I-0.824552 J4.656212
G02 X65.481882 Y38.296373 Z0.000000 I17.455023 J-45.672345
G02 X65.828009 Y38.422092 Z0.000000 I9.633538 J-25.983608
G03 X66.172046 Y38.552756 Z0.000000 I-2.911963 J8.185398
G03 X66.487259 Y38.688595 Z0.000000 I-2.828386 J6.996898
G02 X66.808840 Y38.802633 Z0.000000 I0.800957 J-1.748215
G02 X67.771069 Y39.019069 Z0.000000 I4.005301 J-15.559559
G03 X68.736915 Y39.226190 Z0.000000 I-4.516944 J23.418946
G03 X69.020178 Y39.314103 Z0.000000 I-0.494629 J2.094052
G02 X69.306160 Y39.379873 Z0.000000 I0.369944 J-0.953947
G02 X70.803660 Y39.460954 Z0.000000 I2.193033 J-26.634449
G03 X72.292246 Y39.540529 Z0.000000 I-0.708451 J27.215632
G03 X72.399740 Y39.590166 Z0.000000 I-0.013864 J0.171238
G03 X72.450598 Y39.696999 Z0.000000 I-0.124564 J0.124820
G03 X72.512504 Y40.689973 Z0.000000 I-12.401193 J1.271562
G01 X72.535087 Y41.699764 Z0.000000
G01 X72.165532 Y41.675565 Z0.000000
G01 X71.795978 Y41.651366 Z0.000000
G01 X71.774459 Y41.989932 Z0.000000
G01 X71.752940 Y42.328495 Z0.000000
G01 X72.138775 Y42.296494 Z0.000000
G03 X72.467473 Y42.326584 Z0.000000 I0.078780 J0.949776
G03 X72.524616 Y42.401328 Z0.000000 I-0.020311 J0.074744
G03 X72.461968 Y42.472071 Z0.000000 I-0.071266 J0.000000
G03 X71.743926 Y42.496430 Z0.000000 I-0.498165 J-4.089408
G03 X70.963757 Y42.449396 Z0.000000 I3.047322 J-57.041556
G03 X70.824443 Y42.434703 Z0.000000 I0.123440 J-1.838126
G02 X70.744827 Y42.483017 Z0.000000 I-0.010453 J0.072531
G02 X70.685653 Y42.831079 Z0.000000 I0.994054 J0.348059
G02 X70.744657 Y43.181022 Z0.000000 I1.067257 J-0.000003
G02 X70.824445 Y43.230966 Z0.000000 I0.070937 J-0.024621
G03 X70.963534 Y43.217855 Z0.000000 I0.335067 J2.810441
G03 X71.622486 Y43.175523 Z0.000000 I4.444505 J64.034277
G01 X72.281736 Y43.136571 Z0.000000
G01 X72.038853 Y43.271733 Z0.000000
G02 X71.505557 Y43.672948 Z0.000000 I1.186734 J2.132452
G02 X71.414304 Y43.892244 Z0.000000 I0.217876 J0.219295
G02 X71.517245 Y44.081337 Z0.000000 I0.225144 J-0.000001
G02 X71.866197 Y44.184280 Z0.000000 I0.348950 J-0.539953
G02 X71.948412 Y44.157162 Z0.000000 I-0.000000 J-0.138187
G02 X72.030274 Y44.062837 Z0.000000 I-0.171160 J-0.231231
G03 X72.113741 Y43.958598 Z0.000000 I0.329072 J0.177961
G03 X72.321334 Y43.809509 Z0.000000 I0.900001 J1.034100
G01 X72.546700 Y43.677627 Z0.000000
G01 X72.496451 Y44.260577 Z0.000000
G02 X72.447020 Y44.843591 Z0.000000 I211.576210 J18.232168
G02 X72.433374 Y45.017013 Z0.000000 I18.535507 J1.545824
G02 X72.496074 Y45.120333 Z0.000000 I0.103821 J0.007681
G02 X72.836906 Y45.190499 Z0.000000 I0.340830 J-0.792705
G01 X73.253276 Y45.190498 Z0.000000
G01 X73.240795 Y44.982313 Z0.000000
G02 X73.225860 Y44.774317 Z0.000000 I-9.056423 J0.545785
G02 X73.177643 Y44.225841 Z0.000000 I-60.858877 J5.073748
G01 X73.126972 Y43.677561 Z0.000000
G01 X73.352392 Y43.809474 Z0.000000
G03 X73.560027 Y43.958588 Z0.000000 I-0.692424 J1.183293
G03 X73.643504 Y44.062832 Z0.000000 I-0.245651 J0.282257
G02 X74.039267 Y44.200205 Z0.000000 I0.272981 J-0.147672
G02 X74.232603 Y43.809076 Z0.000000 I-0.133177 J-0.309178
G02 X74.065837 Y43.541898 Z0.000000 I-0.497357 J0.124804
G02 X73.496130 Y43.187929 Z0.000000 I-1.499484 J1.777940
G01 X73.500232 Y43.167747 Z0.000000
G03 X74.210977 Y43.180727 Z0.000000 I0.126864 J12.519306
G01 X75.029923 Y43.218874 Z0.000000
G01 X75.009032 Y42.816808 Z0.000000
G02 X74.932798 Y42.482073 Z0.000000 I-1.001505 J0.052038
G02 X74.849339 Y42.434741 Z0.000000 I-0.072288 J0.030217
G03 X74.710034 Y42.449434 Z0.000000 I-0.262665 J-1.822618
G03 X73.929857 Y42.496474 Z0.000000 I-3.838695 J-57.173334
G03 X73.214563 Y42.469221 Z0.000000 I-0.209120 J-3.911920
G03 X73.149164 Y42.394747 Z0.000000 I0.009704 J-0.074474
G03 X73.208627 Y42.317210 Z0.000000 I0.080284 J-0.000000
G03 X73.535057 Y42.291121 Z0.000000 I0.233862 J0.870903
G01 X73.920939 Y42.330940 Z0.000000
G01 X73.899368 Y41.991175 Z0.000000
G01 X73.877797 Y41.651402 Z0.000000
G01 X73.513473 Y41.675133 Z0.000000
G01 X73.149149 Y41.698864 Z0.000000
G01 X73.149146 Y40.820491 Z0.000000
G03 X73.178813 Y39.949551 Z0.000000 I12.798126 J-0.000037
G03 X73.217793 Y39.813848 Z0.000000 I0.335327 J0.022872
G03 X73.551652 Y39.563524 Z0.000000 I0.435546 J0.233095
G03 X76.853808 Y39.049003 Z0.000000 I6.522796 J31.009058
G02 X77.598940 Y38.924136 Z0.000000 I-0.598293 J-5.855936
G02 X78.623378 Y38.634197 Z0.000000 I-2.667825 J-11.380979
G03 X79.641249 Y38.310898 Z0.000000 I12.196483 J36.635332
G03 X79.897792 Y38.248731 Z0.000000 I0.683036 J2.258248
G01 X80.158025 Y38.200911 Z0.000000
G01 X80.155843 Y44.436825 Z0.000000
G03 X80.103955 Y50.656052 Z0.000000 I-389.097989 J-0.136460
G03 X80.051767 Y50.807439 Z0.000000 I-0.257887 J-0.004213
G02 X79.973337 Y50.950019 Z0.000000 I0.450148 J0.340480
G02 X79.949882 Y51.079558 Z0.000000 I0.345989 J0.129538
G03 X79.926700 Y51.208552 Z0.000000 I-0.370466 J0.000001
G03 X79.858153 Y51.326529 Z0.000000 I-0.376471 J-0.139834
G02 X79.780568 Y51.444705 Z0.000000 I0.467207 J0.391288
G02 X79.577090 Y51.887149 Z0.000000 I6.470168 J3.243601
G03 X79.380029 Y52.334144 Z0.000000 I-12.646299 J-5.308295
G03 X79.320447 Y52.442309 Z0.000000 I-0.796155 J-0.368063
G02 X79.258277 Y52.549217 Z0.000000 I1.101642 J0.712166
G02 X79.151493 Y52.767189 Z0.000000 I4.479670 J2.329720
G03 X79.036924 Y52.976547 Z0.000000 I-1.566500 J-0.721228
G03 X78.983802 Y53.028802 Z0.000000 I-0.141428 J-0.090646
G02 X78.929050 Y53.080081 Z0.000000 I0.099746 J0.161370
G02 X78.819726 Y53.259082 Z0.000000 I1.206768 J0.859909
G03 X78.521332 Y53.834101 Z0.000000 I-237.614381 J-122.940249
G03 X78.414115 Y54.038392 Z0.000000 I-29.876192 J-15.549588
G02 X78.359279 Y54.142608 Z0.000000 I22.895091 J12.113318
G02 X78.205327 Y54.437418 Z0.000000 I175.818412 J92.001220
G03 X78.038054 Y54.709953 Z0.000000 I-2.024820 J-1.055169
G03 X77.994528 Y54.732344 Z0.000000 I-0.043526 J-0.031111
G01 X77.955882 Y54.750793 Z0.000000
G02 X77.937438 Y54.802934 Z0.000000 I0.064477 J0.052141
G03 X77.629350 Y55.742735 Z0.000000 I-1.587430 J0.000005
G03 X77.020718 Y56.050841 Z0.000000 I-0.608635 J-0.447099
G02 X76.977721 Y56.072939 Z0.000000 I0.000000 J0.052879
G02 X76.896521 Y56.224331 Z0.000000 I0.542923 J0.388670
G03 X76.815074 Y56.375363 Z0.000000 I-0.612823 J-0.233002
G03 X76.771141 Y56.397817 Z0.000000 I-0.043933 J-0.031751
G02 X76.723608 Y56.419949 Z0.000000 I0.000000 J0.062109
G02 X76.493894 Y56.727444 Z0.000000 I2.548232 J2.143211
G03 X76.261224 Y57.045323 Z0.000000 I-3.429342 J-2.265999
G03 X75.927051 Y57.428736 Z0.000000 I-5.331406 J-4.309387
G02 X75.606383 Y57.811627 Z0.000000 I3.205847 J3.010593
G02 X75.578023 Y57.897152 Z0.000000 I0.114778 J0.085524
G03 X75.551396 Y57.967978 Z0.000000 I-0.107509 J0.000000
G03 X75.491283 Y57.996212 Z0.000000 I-0.062317 J-0.054569
G02 X75.196895 Y58.108729 Z0.000000 I0.012706 J0.474618
G02 X75.092265 Y58.334656 Z0.000000 I0.191605 J0.225926
G03 X75.068233 Y58.386247 Z0.000000 I-0.067391 J0.000000
G03 X75.002265 Y58.410286 Z0.000000 I-0.065967 J-0.078492
G02 X74.924879 Y58.437130 Z0.000000 I0.000000 J0.124969
G02 X74.742036 Y58.615531 Z0.000000 I0.752370 J0.954002
G03 X74.560899 Y58.798693 Z0.000000 I-1.134949 J-0.941252
G03 X74.496629 Y58.823716 Z0.000000 I-0.068401 J-0.080635
G02 X74.430574 Y58.847326 Z0.000000 I0.004841 J0.117751
G02 X74.219048 Y59.032912 Z0.000000 I1.134140 J1.506002
G03 X74.007884 Y59.219064 Z0.000000 I-1.390842 J-1.364879
G03 X73.945322 Y59.241098 Z0.000000 I-0.065484 J-0.086098
G02 X73.882270 Y59.261201 Z0.000000 I0.003019 J0.118395
G02 X73.761661 Y59.364467 Z0.000000 I0.381781 J0.567966
G03 X73.641792 Y59.477380 Z0.000000 I-0.879897 J-0.814022
G03 X73.364562 Y59.690055 Z0.000000 I-3.419831 J-4.170845
G02 X73.099976 Y59.904558 Z0.000000 I1.677272 J2.339318
G02 X73.079818 Y59.950290 Z0.000000 I0.041794 J0.045732
G01 X73.058979 Y59.985527 Z0.000000
G03 X72.977797 Y60.006370 Z0.000000 I-0.081182 J-0.147673
G02 X72.891284 Y60.037116 Z0.000000 I0.000000 J0.137089
G02 X72.721871 Y60.214555 Z0.000000 I0.617965 J0.759610
G03 X72.548122 Y60.383422 Z0.000000 I-0.600394 J-0.443932
G03 X72.422831 Y60.422742 Z0.000000 I-0.125291 J-0.179958
G02 X72.294958 Y60.456428 Z0.000000 I0.000001 J0.259551
G02 X72.177683 Y60.561531 Z0.000000 I0.181370 J0.320357
G03 X72.062230 Y60.670200 Z0.000000 I-0.338586 J-0.244057
G03 X71.958275 Y60.700320 Z0.000000 I-0.103956 J-0.164332
G02 X71.851728 Y60.723335 Z0.000000 I0.000001 J0.258146
G02 X71.792464 Y60.775461 Z0.000000 I0.055849 J0.123249
G03 X71.731976 Y60.834265 Z0.000000 I-0.147311 J-0.091017
G03 X71.426367 Y60.987623 Z0.000000 I-1.426621 J-2.461765
G02 X71.113928 Y61.136387 Z0.000000 I1.731070 J4.038113
G02 X71.008056 Y61.207414 Z0.000000 I0.277270 J0.527720
G03 X70.901140 Y61.276576 Z0.000000 I-0.331045 J-0.394531
G03 X70.381182 Y61.510421 Z0.000000 I-4.493907 J-9.297289
G02 X69.903252 Y61.764186 Z0.000000 I1.120228 J2.686732
G02 X69.852957 Y61.857398 Z0.000000 I0.061229 J0.093212
G02 X69.897428 Y61.944492 Z0.000000 I0.107520 J-0.000000
G02 X70.061142 Y62.008109 Z0.000000 I0.203393 J-0.280957
G01 X70.079752 Y62.052296 Z0.000000
G03 X69.961782 Y62.136422 Z0.000000 I-0.198703 J-0.153865
G02 X69.666973 Y62.264390 Z0.000000 I0.626964 J1.847958
G02 X69.406624 Y62.433947 Z0.000000 I0.861311 J1.607170
G03 X69.147684 Y62.603353 Z0.000000 I-1.145292 J-1.467998
G03 X68.968179 Y62.671276 Z0.000000 I-0.340899 J-0.629760
G02 X68.813696 Y62.744327 Z0.000000 I0.090444 J0.391131
G02 X68.777345 Y62.818198 Z0.000000 I0.056881 J0.073870
G03 X68.743332 Y62.886940 Z0.000000 I-0.086473 J0.000000
G03 X68.642649 Y62.920969 Z0.000000 I-0.100683 J-0.131935
G02 X68.520770 Y62.943937 Z0.000000 I0.000001 J0.334867
G02 X68.465070 Y62.990369 Z0.000000 I0.041652 J0.106591
G03 X68.409373 Y63.036798 Z0.000000 I-0.097356 J-0.060168
G03 X68.287487 Y63.059770 Z0.000000 I-0.121887 J-0.311880
G02 X68.164937 Y63.089088 Z0.000000 I0.000001 J0.270790
G02 X68.014003 Y63.198563 Z0.000000 I0.268364 J0.528781
G03 X67.865480 Y63.313836 Z0.000000 I-0.531521 J-0.531518
G03 X67.779616 Y63.337351 Z0.000000 I-0.085865 J-0.145005
G02 X67.694738 Y63.360162 Z0.000000 I0.000000 J0.169320
G02 X67.595513 Y63.444010 Z0.000000 I0.185426 J0.320067
G03 X67.495111 Y63.518630 Z0.000000 I-0.203414 J-0.168840
G03 X67.390209 Y63.530871 Z0.000000 I-0.073411 J-0.173500
G02 X67.278607 Y63.541749 Z0.000000 I-0.035779 J0.210840
G02 X66.897720 Y63.717589 Z0.000000 I1.062267 J2.801420
G03 X66.514361 Y63.896960 Z0.000000 I-1.571186 J-2.858645
G03 X66.348528 Y63.932313 Z0.000000 I-0.190614 J-0.487518
G02 X66.178098 Y63.956526 Z0.000000 I0.044653 J0.926196
G02 X65.862767 Y64.048277 Z0.000000 I0.776593 J3.256760
G03 X64.899838 Y64.339385 Z0.000000 I-4.243447 J-12.298363
G03 X64.596367 Y64.378275 Z0.000000 I-0.303475 J-1.164629
G02 X64.367281 Y64.414304 Z0.000000 I0.000002 J0.746333
G02 X64.186958 Y64.510310 Z0.000000 I0.177815 J0.551328
G03 X64.008950 Y64.600628 Z0.000000 I-0.315279 J-0.400805
G03 X63.838270 Y64.607771 Z0.000000 I-0.100543 J-0.359718
G02 X63.207824 Y64.680933 Z0.000000 I-0.198790 J1.039893
G02 X63.017591 Y64.974210 Z0.000000 I0.130951 J0.293276
G02 X63.070799 Y65.034352 Z0.000000 I0.060594 J-0.000000
G02 X63.589663 Y65.044469 Z0.000000 I0.308506 J-2.511997
G02 X64.149892 Y64.971222 Z0.000000 I-0.501867 J-6.017665
G02 X64.228095 Y64.930398 Z0.000000 I-0.025892 J-0.144913
G03 X64.300568 Y64.878790 Z0.000000 I0.189686 J0.189685
G03 X64.364700 Y64.864037 Z0.000000 I0.064133 J0.132022
G03 X64.436318 Y65.061264 Z0.000000 I0.000000 J0.111616
G03 X63.870383 Y65.277588 Z0.000000 I-0.597171 J-0.713840
G02 X63.795262 Y65.300655 Z0.000000 I0.005594 J0.152073
G02 X63.662200 Y65.408104 Z0.000000 I0.378192 J0.604455
G03 X63.522013 Y65.508582 Z0.000000 I-0.349863 J-0.340098
G03 X63.202111 Y65.627078 Z0.000000 I-0.820548 J-1.724154
G02 X62.890626 Y65.745418 Z0.000000 I0.447400 J1.646715
G02 X62.830363 Y65.811659 Z0.000000 I0.054820 J0.110405
G03 X62.775580 Y65.877336 Z0.000000 I-0.123643 J-0.047447
G03 X62.677075 Y65.904959 Z0.000000 I-0.098505 J-0.161826
G02 X62.566790 Y65.923120 Z0.000000 I0.000001 J0.343946
G02 X62.493663 Y65.967040 Z0.000000 I0.064267 J0.189844
G03 X62.016304 Y66.205656 Z0.000000 I-0.635811 J-0.675166
G03 X61.662091 Y66.111231 Z0.000000 I-0.074760 J-0.431141
G02 X61.579982 Y66.067805 Z0.000000 I-0.144837 J0.174517
G02 X61.279280 Y66.001044 Z0.000000 I-0.690064 J2.397564
G03 X60.715860 Y65.821392 Z0.000000 I0.304830 J-1.929314
G03 X59.735859 Y65.235133 Z0.000000 I3.237524 J-6.524124
G02 X59.395349 Y65.078843 Z0.000000 I-0.582628 J0.820295
G02 X59.180702 Y65.097498 Z0.000000 I-0.080066 J0.322948
G03 X58.950641 Y65.162125 Z0.000000 I-0.340111 J-0.768944
G03 X58.387262 Y65.202260 Z0.000000 I-0.614945 J-4.657877
G03 X57.850480 Y65.151098 Z0.000000 I-0.027948 J-2.548295
G03 X57.742917 Y65.070988 Z0.000000 I0.031492 J-0.154551
G02 X57.564978 Y65.006868 Z0.000000 I-0.124540 J0.066653
G02 X57.459249 Y65.186818 Z0.000000 I0.065023 J0.159239
G03 X57.311821 Y65.511326 Z0.000000 I-0.339916 J0.041315
G03 X56.709046 Y65.696789 Z0.000000 I-0.602778 J-0.886824
G02 X56.661761 Y65.717427 Z0.000000 I0.000000 J0.064486
G02 X56.596443 Y65.818230 Z0.000000 I0.256198 J0.237576
G01 X56.551908 Y65.834116 Z0.000000
G03 X56.497273 Y65.766190 Z0.000000 I0.050787 J-0.096785
G03 X56.491283 Y65.609269 Z0.000000 I0.333564 J-0.091307
G03 X56.541522 Y65.537208 Z0.000000 I0.106250 J0.020531
G02 X56.639761 Y65.362104 Z0.000000 I-0.105397 J-0.174241
G02 X56.539821 Y65.150546 Z0.000000 I-0.276368 J0.001171
G02 X56.437727 Y65.091751 Z0.000000 I-0.222061 J0.267559
G02 X56.210196 Y65.029381 Z0.000000 I-0.480974 J1.308418
G03 X55.985801 Y64.964631 Z0.000000 I0.216861 J-1.172749
G03 X55.904281 Y64.907528 Z0.000000 I0.080060 J-0.201032
G02 X55.745041 Y64.857955 Z0.000000 I-0.120859 J0.107684
G02 X55.677621 Y64.962849 Z0.000000 I0.021454 J0.087903
G03 X55.687805 Y65.124599 Z0.000000 I-0.633255 J0.121066
G01 X55.665362 Y65.156565 Z0.000000
G02 X55.631028 Y65.188075 Z0.000000 I0.028337 J0.065336
G02 X55.242675 Y65.939679 Z0.000000 I20.673646 J11.158189
G03 X54.509001 Y67.223967 Z0.000000 I-11.036570 J-5.453150
G03 X54.194670 Y67.542289 Z0.000000 I-0.942525 J-0.616351
G02 X54.028859 Y67.687445 Z0.000000 I0.484062 J0.720223
G02 X53.972129 Y67.793780 Z0.000000 I0.194373 J0.171999
G03 X53.915415 Y67.885869 Z0.000000 I-0.179184 J-0.046844
G03 X53.831866 Y67.917437 Z0.000000 I-0.083549 J-0.094780
G02 X53.736526 Y67.948449 Z0.000000 I0.000000 J0.162058
G02 X53.402633 Y68.229715 Z0.000000 I1.807959 J2.485060
G03 X53.067073 Y68.506875 Z0.000000 I-1.879690 J-1.934049
G03 X52.955444 Y68.541993 Z0.000000 I-0.111629 J-0.159854
G02 X52.861189 Y68.592254 Z0.000000 I0.000000 J0.113510
G02 X52.513063 Y69.201245 Z0.000000 I4.064319 J2.727346
G03 X52.185795 Y69.843384 Z0.000000 I-13.681176 J-6.568171
G01 X52.157108 Y69.860497 Z0.000000
G01 X52.144391 Y69.844473 Z0.000000
G03 X52.187507 Y69.729978 Z0.000000 I0.455979 J0.106344
G02 X52.520211 Y68.847175 Z0.000000 I-3.184262 J-1.704153
G02 X52.724733 Y67.429627 Z0.000000 I-8.105773 J-1.893018
G02 X52.569359 Y66.883099 Z0.000000 I-0.864855 J-0.049478
G02 X52.331007 Y66.867649 Z0.000000 I-0.125370 J0.087832
G03 X52.058424 Y67.129719 Z0.000000 I-2.164349 J-1.978381
G03 X51.991760 Y67.154099 Z0.000000 I-0.066665 J-0.078952
G02 X51.944476 Y67.184223 Z0.000000 I0.000000 J0.052172
G02 X51.914340 Y67.320161 Z0.000000 I0.291530 J0.135938
G03 X51.880340 Y67.462849 Z0.000000 I-0.316404 J0.000001
G03 X51.810247 Y67.526168 Z0.000000 I-0.117088 J-0.059159
G02 X51.734003 Y67.585249 Z0.000000 I0.059861 J0.155986
G02 X51.706153 Y67.672383 Z0.000000 I0.122381 J0.087134
G03 X51.683684 Y67.756180 Z0.000000 I-0.167491 J0.000000
G01 X51.644744 Y67.778653 Z0.000000
G02 X51.461631 Y67.901160 Z0.000000 I0.000001 J0.198105
G02 X51.316114 Y68.574659 Z0.000000 I1.791142 J0.739466
G03 X51.269998 Y68.965080 Z0.000000 I-2.347093 J-0.079299
G03 X51.226495 Y69.014161 Z0.000000 I-0.064233 J-0.013112
G02 X51.176889 Y69.057986 Z0.000000 I0.026760 J0.080278
G02 X51.150996 Y69.172335 Z0.000000 I0.239543 J0.114348
G03 X51.089965 Y69.239896 Z0.000000 I-0.067910 J0.000000
G03 X50.977846 Y69.189965 Z0.000000 I-0.012502 J-0.122774
G02 X50.793532 Y69.138798 Z0.000000 I-0.124541 J0.091070
G02 X50.713407 Y69.301089 Z0.000000 I0.053515 J0.127346
G03 X50.664265 Y69.402402 Z0.000000 I-0.083816 J0.021920
G03 X50.557666 Y69.369109 Z0.000000 I-0.034108 J-0.078096
G02 X50.497392 Y69.328350 Z0.000000 I-0.075453 J0.046633
G02 X50.353613 Y69.333670 Z0.000000 I-0.059346 J0.341680
G03 X50.197195 Y69.344921 Z0.000000 I-0.110188 J-0.438977
G03 X49.968899 Y69.294111 Z0.000000 I0.102615 J-0.999353
G02 X49.759254 Y69.270758 Z0.000000 I-0.155955 J0.447338
G02 X49.658095 Y69.329552 Z0.000000 I0.016523 J0.144850
G03 X49.563364 Y69.422565 Z0.000000 I-0.329812 J-0.241156
G03 X49.495219 Y69.444133 Z0.000000 I-0.068145 J-0.096869
G02 X49.443375 Y69.471379 Z0.000000 I0.000000 J0.062949
G02 X49.416130 Y69.558980 Z0.000000 I0.127204 J0.087600
G01 X49.380387 Y69.593300 Z0.000000
G03 X49.283206 Y69.553580 Z0.000000 I0.006259 J-0.154059
G02 X49.145110 Y69.499658 Z0.000000 I-0.139964 J0.154658
G02 X48.970930 Y69.550781 Z0.000000 I-0.002803 J0.312739
G02 X48.813627 Y69.680221 Z0.000000 I0.515640 J0.786936
G02 X48.791574 Y69.734348 Z0.000000 I0.055398 J0.054126
G03 X48.775044 Y69.794801 Z0.000000 I-0.118805 J0.000000
G03 X48.618089 Y70.027845 Z0.000000 I-2.055317 J-1.214874
G02 X48.466447 Y70.262681 Z0.000000 I1.421907 J1.084553
G02 X48.444602 Y70.349112 Z0.000000 I0.160055 J0.086430
G03 X48.423753 Y70.436396 Z0.000000 I-0.193128 J0.000001
G03 X48.267822 Y70.698020 Z0.000000 I-1.983703 J-1.005027
G02 X47.943566 Y71.554744 Z0.000000 I1.557086 J1.079057
G02 X48.112149 Y72.015286 Z0.000000 I0.539260 J0.063729
G03 X48.148368 Y72.113001 Z0.000000 I-0.079394 J0.084999
G03 X48.086580 Y72.247813 Z0.000000 I-0.234148 J-0.025753
G02 X47.983418 Y72.394586 Z0.000000 I0.479396 J0.446590
G02 X47.958851 Y72.496006 Z0.000000 I0.197062 J0.101419
G03 X47.918193 Y72.565849 Z0.000000 I-0.080316 J0.000000
G03 X47.768016 Y72.604361 Z0.000000 I-0.145940 J-0.257022
G02 X47.644223 Y72.663448 Z0.000000 I-0.002236 J0.154540
G02 X47.598106 Y72.820720 Z0.000000 I0.173562 J0.136290
G03 X47.575113 Y73.020233 Z0.000000 I-0.479648 J0.045803
G03 X47.492997 Y73.132997 Z0.000000 I-0.220327 J-0.074162
G02 X47.413121 Y73.250210 Z0.000000 I0.127890 J0.172975
G02 X47.356238 Y73.642551 Z0.000000 I1.623051 J0.435612
G03 X47.302368 Y74.370039 Z0.000000 I-7.575390 J-0.195208
G03 X47.160439 Y75.238633 Z0.000000 I-10.948473 J-1.343096
G02 X47.002846 Y76.257083 Z0.000000 I10.442706 J2.137300
G02 X47.044073 Y76.341130 Z0.000000 I0.087464 J0.009232
G03 X47.074543 Y76.397618 Z0.000000 I-0.033792 J0.054689
G03 X47.037174 Y76.587349 Z0.000000 I-0.583260 J-0.016332
G02 X46.996448 Y77.101056 Z0.000000 I0.866796 J0.327188
G02 X47.195514 Y77.357685 Z0.000000 I0.360457 J-0.074084
G02 X47.299918 Y77.407832 Z0.000000 I4.066400 J-8.332252
G02 X47.481363 Y77.492790 Z0.000000 I11.811273 J-24.989117
G03 X47.649524 Y77.597440 Z0.000000 I-0.341095 J0.735537
G03 X48.215496 Y78.085367 Z0.000000 I-7.253410 J8.985830
G03 X48.887487 Y78.929348 Z0.000000 I-2.373134 J2.579042
G03 X49.217053 Y79.843149 Z0.000000 I-2.468944 J1.406763
G02 X49.320353 Y80.240042 Z0.000000 I2.519074 J-0.443759
G02 X49.439392 Y80.482074 Z0.000000 I1.044775 J-0.363565
G02 X49.589841 Y80.711634 Z0.000000 I147.085714 J-96.232843
G02 X49.707067 Y80.889776 Z0.000000 I82.487623 J-54.152797
G03 X50.012782 Y81.434061 Z0.000000 I-3.656593 J2.411843
G03 X50.248882 Y82.039321 Z0.000000 I-4.291417 J2.022676
G02 X50.343873 Y82.313843 Z0.000000 I4.667947 J-1.461529
G02 X50.459647 Y82.594480 Z0.000000 I4.990238 J-1.894465
G03 X50.611174 Y83.072420 Z0.000000 I-2.035948 J0.908474
G03 X50.766950 Y84.155863 Z0.000000 I-10.424715 J2.051769
G02 X50.988963 Y85.681309 Z0.000000 I14.419056 J-1.319663
G02 X51.106651 Y85.850967 Z0.000000 I0.254719 J-0.051046
G02 X51.263463 Y85.924613 Z0.000000 I0.392824 J-0.632658
G02 X52.365457 Y86.271600 Z0.000000 I10.497999 J-31.417083
G03 X54.351751 Y86.913943 Z0.000000 I-11.765349 J39.773825
G03 X55.507515 Y87.375785 Z0.000000 I-4.888337 J13.910184
G03 X57.064693 Y88.217765 Z0.000000 I-4.954456 J11.023813
G03 X57.931531 Y88.926025 Z0.000000 I-2.603742 J4.071308
G03 X58.521412 Y89.594844 Z0.000000 I-6.829914 J6.618343
G03 X59.072803 Y90.349331 Z0.000000 I-8.147824 J6.533291
G02 X59.442330 Y90.864267 Z0.000000 I7.314136 J-4.858680
G02 X59.488950 Y90.887140 Z0.000000 I0.046620 J-0.036074
G01 X59.526146 Y90.908833 Z0.000000
G03 X59.547840 Y90.991233 Z0.000000 I-0.145647 J0.082401
G02 X59.574162 Y91.069008 Z0.000000 I0.128063 J-0.000000
G02 X59.627410 Y91.095327 Z0.000000 I0.053248 J-0.040705
G01 X59.666837 Y91.132230 Z0.000000
G03 X59.662362 Y91.623284 Z0.000000 I-3.260655 J0.215833
G03 X59.183028 Y92.821266 Z0.000000 I-2.201813 J-0.186099
G03 X57.861349 Y93.864642 Z0.000000 I-2.933542 J-2.357218
G03 X56.852329 Y94.275966 Z0.000000 I-4.203084 J-8.867316
G03 X55.689439 Y94.612299 Z0.000000 I-3.942364 J-11.452426
G03 X54.856170 Y94.742386 Z0.000000 I-1.263233 J-5.357798
G03 X53.198214 Y94.807482 Z0.000000 I-1.664282 J-21.242275
G03 X51.537010 Y94.762279 Z0.000000 I-0.009368 J-30.202787
G03 X50.848971 Y94.678834 Z0.000000 I0.287497 J-5.248841
G02 X50.181710 Y94.601268 Z0.000000 I-0.879347 J4.655792
G02 X50.074582 Y94.644136 Z0.000000 I-0.006257 J0.139654
G02 X49.881162 Y95.016139 Z0.000000 I0.537567 J0.515789
G02 X49.763171 Y96.227362 Z0.000000 I6.157628 J1.211204
G03 X49.654802 Y96.517858 Z0.000000 I-0.443535 J0.000001
G03 X49.058330 Y97.040591 Z0.000000 I-2.193140 J-1.900838
G02 X48.643302 Y97.387154 Z0.000000 I1.316702 J1.998614
G02 X48.613449 Y97.506931 Z0.000000 I0.090257 J0.086104
G03 X48.641443 Y97.655438 Z0.000000 I-0.836963 J0.234660
G03 X48.724773 Y98.624700 Z0.000000 I-35.817943 J3.567596
G02 X48.796359 Y99.596134 Z0.000000 I375.658690 J-27.194357
G02 X48.865284 Y100.498360 Z0.000000 I323.333053 J-24.247198
G03 X48.933449 Y101.400644 Z0.000000 I-201.504172 J15.676631
G03 X49.002620 Y102.372023 Z0.000000 I-233.982031 J17.149834
G02 X49.079756 Y103.342585 Z0.000000 I47.226995 J-3.265041
G02 X49.142563 Y103.929793 Z0.000000 I17.338964 J-1.557608
G03 X49.256198 Y105.770098 Z0.000000 I-14.797777 J1.837393
G03 X49.142026 Y107.396660 Z0.000000 I-11.676051 J-0.002280
G03 X48.635184 Y109.415625 Z0.000000 I-9.754738 J-1.375738
G03 X47.802283 Y111.046384 Z0.000000 I-7.156055 J-2.626833
G03 X46.719007 Y112.252837 Z0.000000 I-4.851820 J-3.266892
G03 X44.905657 Y113.486629 Z0.000000 I-6.895510 J-8.185122
G03 X43.432205 Y114.200390 Z0.000000 I-8.898312 J-16.491477
G03 X43.081844 Y114.273687 Z0.000000 I-0.354891 J-0.822371
G02 X43.000738 Y114.287970 Z0.000000 I0.001090 J0.243618
G02 X42.814757 Y114.369368 Z0.000000 I0.501081 J1.398060
G03 X42.227552 Y114.607761 Z0.000000 I-1.540347 J-2.951761
G03 X40.846124 Y114.957551 Z0.000000 I-4.819322 J-16.130216
G03 X39.158627 Y115.181581 Z0.000000 I-2.361416 J-11.319780
G03 X35.502720 Y115.269495 Z0.000000 I-3.110107 J-53.274277
G02 X32.799264 Y115.295463 Z0.000000 I-0.697116 J68.161879
G02 X31.616608 Y115.383922 Z0.000000 I0.386100 J13.112072
G03 X28.492828 Y115.660355 Z0.000000 I-5.931641 J-49.241216
G03 X27.160046 Y115.636629 Z0.000000 I-0.507326 J-8.946868
G03 X25.407226 Y115.331546 Z0.000000 I1.024353 J-11.073200
G03 X24.145941 Y114.859270 Z0.000000 I1.591399 J-6.170434
G03 X22.686696 Y113.834155 Z0.000000 I2.702480 J-5.398137
G03 X21.574916 Y112.412473 Z0.000000 I4.262470 J-4.478881
G03 X20.849698 Y111.000697 Z0.000000 I16.171548 J-9.199353
G03 X20.125298 Y109.267225 Z0.000000 I23.675501 J-10.911838
G03 X19.457021 Y106.838120 Z0.000000 I12.928631 J-4.863306
G03 X18.948004 Y102.691121 Z0.000000 I37.395895 J-6.694841
G02 X18.835173 Y101.706045 Z0.000000 I-10.544170 J0.708729
G02 X18.750804 Y101.476712 Z0.000000 I-0.633472 J0.102861
G03 X18.610959 Y101.081444 Z0.000000 I0.885508 J-0.535665
G03 X18.493330 Y99.596306 Z0.000000 I12.945366 J-1.772554
G02 X18.324366 Y95.733144 Z0.000000 I-89.040082 J1.959091
G02 X18.190359 Y94.971711 Z0.000000 I-3.552792 J0.232756
G02 X18.097160 Y94.732102 Z0.000000 I-1.405114 J0.408611
G02 X18.031313 Y94.649827 Z0.000000 I-0.220393 J0.108897
G02 X17.625858 Y94.485585 Z0.000000 I-0.473006 J0.585100
G02 X14.764813 Y94.355361 Z0.000000 I-2.895406 J32.118782
G03 X13.227776 Y94.332328 Z0.000000 I0.058649 J-55.209563
G03 X12.394167 Y94.286818 Z0.000000 I0.470709 J-16.279396
G02 X9.739788 Y94.111284 Z0.000000 I-7.534769 J93.781638
G02 X7.993830 Y94.058252 Z0.000000 I-2.104316 J40.512249
G03 X6.487646 Y93.992539 Z0.000000 I0.191608 J-21.686112
G03 X6.350233 Y93.929186 Z0.000000 I0.017103 J-0.217796
G03 X6.331997 Y93.529784 Z0.000000 I0.209804 J-0.209696
G03 X7.735978 Y92.263412 Z0.000000 I5.099727 J4.242421
G03 X8.582263 Y91.723383 Z0.000000 I12.192770 J18.174293
G03 X9.198522 Y91.376671 Z0.000000 I5.629121 J9.284390
G02 X9.824182 Y91.045375 Z0.000000 I-23.098245 J-44.378038
G02 X10.763378 Y90.533829 Z0.000000 I-54.143188 J-100.524388
G03 X13.791364 Y89.029343 Z0.000000 I19.290852 J35.026167
G03 X16.661098 Y87.908258 Z0.000000 I13.503130 J30.331564
G02 X17.518164 Y87.598213 Z0.000000 I-6.921285 J-20.472352
G02 X17.620789 Y87.538020 Z0.000000 I-0.132533 J-0.343540
G02 X17.669544 Y87.441282 Z0.000000 I-0.086540 J-0.104271
G02 X17.671696 Y86.623745 Z0.000000 I-7.706158 J-0.429056
G03 X17.661408 Y84.666069 Z0.000000 I21.682176 J-1.092812
G03 X17.770089 Y84.155951 Z0.000000 I1.539633 J0.061384
G02 X17.875017 Y83.838045 Z0.000000 I-2.543893 J-1.015902
G02 X17.980372 Y83.357910 Z0.000000 I-5.707930 J-1.504106
G03 X18.136792 Y82.695119 Z0.000000 I5.843358 J1.029194
G03 X18.723639 Y80.859692 Z0.000000 I45.539574 J13.548993
G02 X19.026238 Y79.955599 Z0.000000 I-66.704921 J-22.828708
G02 X19.160942 Y79.523177 Z0.000000 I-15.121338 J-4.947646
G03 X19.554503 Y78.465900 Z0.000000 I7.890701 J2.335354
G03 X19.834632 Y78.034432 Z0.000000 I1.558897 J0.705437
G02 X19.903592 Y77.908885 Z0.000000 I-0.240560 J-0.213846
G02 X19.899132 Y77.808296 Z0.000000 I-0.152882 J-0.043613
G03 X19.899111 Y77.528540 Z0.000000 I0.364647 J-0.139904
G03 X20.114411 Y77.246971 Z0.000000 I0.585352 J0.224486
G02 X20.176570 Y77.154266 Z0.000000 I-0.096394 J-0.131825
G02 X20.158610 Y77.067829 Z0.000000 I-0.099193 J-0.024475
G03 X19.991663 Y76.607626 Z0.000000 I0.650744 J-0.496454
G03 X20.126858 Y76.351987 Z0.000000 I0.285368 J-0.012651
G02 X20.171699 Y76.289932 Z0.000000 I-0.052760 J-0.085352
G02 X20.198938 Y76.049997 Z0.000000 I-0.970721 J-0.231714
G03 X20.276768 Y75.525816 Z0.000000 I1.709992 J-0.013969
G03 X20.875603 Y73.885502 Z0.000000 I17.712747 J5.536992
G03 X21.387340 Y72.779026 Z0.000000 I15.578535 J6.533374
G03 X21.571589 Y72.512924 Z0.000000 I1.062052 J0.538530
G02 X21.629316 Y72.407004 Z0.000000 I-0.184847 J-0.169433
G02 X21.658328 Y72.181655 Z0.000000 I-0.860666 J-0.225346
G03 X21.725897 Y71.359214 Z0.000000 I5.038965 J-0.000015
G03 X21.904541 Y70.693334 Z0.000000 I3.470091 J0.574063
G02 X21.985560 Y70.447331 Z0.000000 I-2.879846 J-1.084797
G02 X22.079398 Y70.076068 Z0.000000 I-6.466637 J-1.831955
G03 X22.179159 Y69.707674 Z0.000000 I4.103232 J0.913451
G03 X22.257138 Y69.520909 Z0.000000 I1.126598 J0.360718
G02 X22.336288 Y69.334840 Z0.000000 I-1.136299 J-0.593230
G02 X22.395675 Y69.107345 Z0.000000 I-1.643233 J-0.550463
G03 X22.510715 Y68.758019 Z0.000000 I1.386469 J0.262985
G03 X22.974966 Y67.904486 Z0.000000 I8.873407 J4.273373
G02 X23.097529 Y67.669696 Z0.000000 I-1.703664 J-1.038713
G02 X23.115348 Y67.585598 Z0.000000 I-0.192433 J-0.084711
G03 X23.141126 Y67.507158 Z0.000000 I0.133380 J0.000378
G03 X23.358489 Y67.253658 Z0.000000 I1.760198 J1.289338
G02 X23.542127 Y66.986237 Z0.000000 I-0.628037 J-0.628033
G02 X23.601368 Y66.706981 Z0.000000 I-0.628552 J-0.279254
G02 X23.541992 Y66.430825 Z0.000000 I-0.671890 J0.000002
G02 X23.380665 Y66.217476 Z0.000000 I-0.549183 J0.247604
G03 X23.171581 Y66.020496 Z0.000000 I1.648554 J-1.959310
G03 X22.936105 Y65.748882 Z0.000000 I2.910156 J-2.760848
G03 X22.778242 Y65.462322 Z0.000000 I0.776733 J-0.614656
G03 X22.791975 Y65.338327 Z0.000000 I0.135894 J-0.047706
G02 X22.790768 Y65.126974 Z0.000000 I-0.167688 J-0.104722
G02 X22.480876 Y64.852602 Z0.000000 I-0.638482 J0.408949
G03 X22.264995 Y64.708070 Z0.000000 I0.398478 J-0.828678
G03 X22.055848 Y64.470931 Z0.000000 I0.910064 J-1.013442
G02 X21.852685 Y64.221537 Z0.000000 I-1.714015 J1.188837
G02 X21.448689 Y63.833111 Z0.000000 I-4.586674 J4.366212
G03 X21.047248 Y63.443196 Z0.000000 I3.746732 J-4.259097
G03 X20.866131 Y63.208555 Z0.000000 I1.163940 J-1.085657
G02 X20.692232 Y62.966599 Z0.000000 I-2.132630 J1.349299
G02 X20.350736 Y62.574141 Z0.000000 I-5.970254 J4.850179
G03 X20.010220 Y62.186366 Z0.000000 I6.447412 J-6.005046
G03 X19.994037 Y62.143106 Z0.000000 I0.054376 J-0.044998
G02 X19.978210 Y62.099726 Z0.000000 I-0.072344 J0.001817
G02 X19.732590 Y61.816214 Z0.000000 I-3.724522 J2.978573
G03 X19.282961 Y61.289986 Z0.000000 I5.468467 J-5.127672
G03 X19.010054 Y60.886931 Z0.000000 I2.926805 J-2.275653
G02 X18.792402 Y60.531609 Z0.000000 I-8.946688 J5.235955
G02 X18.646152 Y60.318812 Z0.000000 I-3.351905 J2.147022
G03 X18.510996 Y60.100833 Z0.000000 I1.299442 J-0.956599
G03 X18.370920 Y59.784247 Z0.000000 I2.614152 J-1.345929
G02 X18.211669 Y59.481041 Z0.000000 I-1.276725 J0.477143
G02 X17.837868 Y59.020905 Z0.000000 I-3.348347 J2.338201
G03 X17.453814 Y58.568764 Z0.000000 I4.260741 J-4.008307
G03 X17.383777 Y58.427806 Z0.000000 I0.326969 J-0.250335
G02 X17.248937 Y58.319851 Z0.000000 I-0.141950 J0.039113
G02 X17.147622 Y58.416386 Z0.000000 I-0.004667 J0.096535
G03 X17.092009 Y58.466313 Z0.000000 I-0.050217 J0.000000
G03 X16.826604 Y58.381687 Z0.000000 I0.074975 J-0.693634
G02 X16.501108 Y58.219469 Z0.000000 I-1.876055 J3.356693
G02 X16.419425 Y58.202270 Z0.000000 I-0.081683 J0.185374
G03 X16.050190 Y58.046060 Z0.000000 I-0.000001 J-0.514483
G03 X14.991984 Y56.731168 Z0.000000 I6.544120 J-6.349872
G02 X14.657615 Y56.292587 Z0.000000 I-3.464240 J2.294342
G02 X14.446639 Y56.106613 Z0.000000 I-0.813939 J0.710710
G03 X14.234201 Y55.924127 Z0.000000 I0.665240 J-0.989322
G03 X14.076576 Y55.704059 Z0.000000 I0.820017 J-0.753828
G02 X13.761163 Y55.311691 Z0.000000 I-1.252261 J0.683693
G02 X13.520409 Y55.219839 Z0.000000 I-0.245463 J0.281938
G02 X13.454344 Y55.263584 Z0.000000 I-0.000994 J0.070257
G02 X13.443230 Y55.409133 Z0.000000 I0.221104 J0.090083
G02 X13.502614 Y55.593287 Z0.000000 I1.215779 J-0.290399
G02 X13.557141 Y55.686714 Z0.000000 I0.361431 J-0.148321
G03 X13.595908 Y55.759114 Z0.000000 I-0.184824 J0.145543
G01 X13.585512 Y55.773454 Z0.000000
G03 X13.313482 Y55.654488 Z0.000000 I-0.000001 J-0.370495
G03 X12.803965 Y54.928201 Z0.000000 I2.428748 J-2.245720
G02 X12.688039 Y54.756750 Z0.000000 I-0.785882 J0.406457
G02 X12.635168 Y54.732533 Z0.000000 I-0.052871 J0.045607
G03 X12.586276 Y54.713812 Z0.000000 I-0.000000 J-0.073202
G03 X12.567558 Y54.671864 Z0.000000 I0.037645 J-0.041949
G02 X12.549726 Y54.618108 Z0.000000 I-0.089944 J0.000000
G02 X12.324675 Y54.346026 Z0.000000 I-2.804558 J2.090666
G03 X12.103504 Y54.072418 Z0.000000 I2.101784 J-1.925167
G03 X12.081793 Y54.004411 Z0.000000 I0.095655 J-0.068008
G02 X12.058455 Y53.937802 Z0.000000 I-0.106726 J0.000000
G02 X11.804212 Y53.656917 Z0.000000 I-2.402130 J1.918782
G03 X11.551272 Y53.375490 Z0.000000 I2.029328 J-2.078292
G03 X11.526631 Y53.304358 Z0.000000 I0.090349 J-0.071133
G02 X11.506393 Y53.232353 Z0.000000 I-0.138215 J0.000000
G02 X11.425797 Y53.139164 Z0.000000 I-0.319982 J0.195295
G03 X10.617605 Y52.206799 Z0.000000 I2.415015 J-2.909844
G03 X10.416304 Y51.493752 Z0.000000 I1.162243 J-0.713052
G02 X10.402910 Y51.450447 Z0.000000 I-0.076698 J0.000000
G02 X10.285102 Y51.301972 Z0.000000 I-1.106096 J0.756659
G03 X10.171644 Y51.146216 Z0.000000 I0.636386 J-0.582765
G03 X9.539103 Y49.991957 Z0.000000 I34.973100 J-19.915914
G02 X8.923914 Y48.825426 Z0.000000 I-1733.222917 J913.298456
G02 X8.806573 Y48.604063 Z0.000000 I-62.026933 J32.737632
G03 X8.407223 Y47.661943 Z0.000000 I5.122161 J-2.726902
G03 X8.227549 Y46.812761 Z0.000000 I3.972894 J-1.284204
G02 X8.161486 Y46.374694 Z0.000000 I-4.863218 J0.509382
G02 X8.078524 Y46.058190 Z0.000000 I-2.617277 J0.516919
G03 X7.981488 Y45.744241 Z0.000000 I8.701030 J-2.861312
G03 X7.847462 Y45.260149 Z0.000000 I20.557253 J-5.952079
G02 X7.715685 Y44.775345 Z0.000000 I-34.498981 J9.116987
G02 X7.605112 Y44.392713 Z0.000000 I-21.606046 J6.036475
G03 X7.351278 Y43.320120 Z0.000000 I9.137452 J-2.728752
G03 X7.115596 Y41.616919 Z0.000000 I22.854671 J-4.030437
G02 X7.006958 Y40.681980 Z0.000000 I-30.733324 J3.097365
G02 X6.878038 Y39.812654 Z0.000000 I-26.710578 J3.516940
G03 X6.943000 Y38.994896 Z0.000000 I1.683199 J-0.277746
G03 X7.189406 Y38.879587 Z0.000000 I0.177976 J0.059391
G02 X7.607314 Y39.038599 Z0.000000 I8.334455 J-21.275590
G02 X8.612003 Y39.405017 Z0.000000 I45.432508 J-123.011671
G03 X9.610787 Y39.785905 Z0.000000 I-9.692156 J26.915292
G03 X10.682244 Y40.239140 Z0.000000 I-12.660290 J31.422233
G01 X11.746256 Y40.710924 Z0.000000
G01 X12.694695 Y40.443507 Z0.000000
G03 X16.180588 Y39.593945 Z0.000000 I13.615495 J48.290233
G03 X17.438407 Y39.465649 Z0.000000 I1.257837 J6.101904
G02 X17.558978 Y39.433996 Z0.000000 I-0.000001 J-0.245462
G02 X18.277551 Y38.992446 Z0.000000 I-5.520253 J-9.789063
G03 X21.011460 Y37.366209 Z0.000000 I17.011947 J25.488085
G03 X23.809471 Y36.079413 Z0.000000 I13.383057 J25.414731
G03 X26.662001 Y35.038859 Z0.000000 I20.247679 J51.075973
G03 X27.178365 Y34.954959 Z0.000000 I0.516369 J1.547060
G03 X27.819321 Y35.090485 Z0.000000 I0.000005 J1.583414
G03 X28.517885 Y35.547922 Z0.000000 I-1.041364 J2.352407
G01 X28.520342 Y35.571816 Z0.000000
G03 X28.187179 Y36.008576 Z0.000000 I-7.695176 J-5.524467
G02 X27.587409 Y36.939600 Z0.000000 I3.978964 J3.221971
G02 X27.114709 Y38.152032 Z0.000000 I6.321887 J3.163125
G02 X27.470418 Y42.550388 Z0.000000 I6.015653 J1.727056
G02 X30.621304 Y45.581799 Z0.000000 I5.556894 J-2.622663
G02 X31.819161 Y45.941918 Z0.000000 I2.225026 J-5.228795
G02 X33.351293 Y46.083535 Z0.000000 I1.554319 J-8.457175
G02 X34.808473 Y45.989844 Z0.000000 I0.027959 J-10.943809
G02 X35.780113 Y45.763558 Z0.000000 I-0.666869 J-5.062620
G02 X37.022282 Y45.171036 Z0.000000 I-1.868837 J-5.516161
G02 X38.169423 Y44.253858 Z0.000000 I-3.542905 J-5.607184
G02 X39.241902 Y42.810817 Z0.000000 I-4.361775 J-4.361759
G02 X39.878217 Y41.072317 Z0.000000 I-5.761554 J-3.094509
G02 X40.009671 Y39.619770 Z0.000000 I-6.029051 J-1.277846
G02 X39.798929 Y38.276330 Z0.000000 I-5.355640 J0.151877
G01 X39.831584 Y38.232606 Z0.000000
G03 X40.078228 Y38.274929 Z0.000000 I0.003604 J0.718838
G02 X40.378110 Y38.334585 Z0.000000 I0.348850 J-0.970062
G02 X40.479446 Y38.294008 Z0.000000 I0.006241 J-0.131240
G01 X40.479079 Y38.255561 Z0.000000
G02 X40.428656 Y38.242728 Z0.000000 I-0.035892 J0.035549
G03 X40.292169 Y38.243169 Z0.000000 I-0.068987 J-0.229667
G03 X39.838798 Y38.069701 Z0.000000 I0.853866 J-2.910836
G02 X38.836704 Y37.648069 Z0.000000 I-4.957793 J10.381534
G02 X37.586356 Y37.244951 Z0.000000 I-5.775353 J15.772716
G03 X36.844967 Y36.895858 Z0.000000 I0.662896 J-2.369640
G03 X36.158193 Y36.252377 Z0.000000 I1.852255 J-2.665106
G02 X35.256969 Y35.233262 Z0.000000 I-10.306528 J8.206227
G02 X35.089682 Y35.163021 Z0.000000 I-0.167286 J0.164086
G03 X35.006528 Y35.138538 Z0.000000 I-0.000000 J-0.153452
G03 X34.982045 Y35.093622 Z0.000000 I0.028960 J-0.044917
G01 X34.954582 Y35.052556 Z0.000000
G02 X34.825907 Y35.029102 Z0.000000 I-0.118926 J0.287761
G01 X34.785046 Y35.054033 Z0.000000
G01 X34.795647 Y35.083612 Z0.000000
G03 X34.776577 Y35.265529 Z0.000000 I-0.034819 J0.088308
G03 X30.566868 Y35.795093 Z0.000000 I-8.474075 J-50.366552
G01 X29.602735 Y35.875876 Z0.000000
G01 X29.171599 Y35.658241 Z0.000000
G02 X28.736436 Y35.456414 Z0.000000 I-3.255443 J6.449087
G02 X28.651743 Y35.437804 Z0.000000 I-0.092137 J0.217282
G03 X28.566694 Y35.419402 Z0.000000 I0.008542 J-0.245219
G03 X27.920075 Y35.135620 Z0.000000 I6.061671 J-14.690548
G01 X27.277130 Y34.836246 Z0.000000
G01 X27.607797 Y34.577926 Z0.000000
G03 X29.261953 Y33.641662 Z0.000000 I3.964369 J5.074714
G03 X31.234716 Y33.183990 Z0.000000 I2.622484 J6.823479
G02 X31.746850 Y33.100223 Z0.000000 I-0.315645 J-3.537183
G02 X32.379731 Y32.909529 Z0.000000 I-1.342878 J-5.602361
G03 X33.523212 Y32.573862 Z0.000000 I3.169101 J8.680303
G03 X34.565982 Y32.418339 Z0.000000 I1.585481 J7.056926
G02 X35.147715 Y32.334595 Z0.000000 I-0.325337 J-4.322369
G02 X35.877241 Y32.137710 Z0.000000 I-1.498678 J-7.003132
G03 X36.601422 Y31.916900 Z0.000000 I5.771271 J17.629826
G03 X36.712881 Y31.901446 Z0.000000 I0.111460 J0.394212
G02 X37.690572 Y31.626024 Z0.000000 I-0.000005 J-1.873032
G02 X37.966012 Y31.134534 Z0.000000 I-0.300778 J-0.491488
G01 X37.908285 Y31.096171 Z0.000000
G02 X37.380863 Y31.380345 Z0.000000 I1.204113 J2.866347
G03 X36.900187 Y31.657135 Z0.000000 I-2.264926 J-3.377521
G03 X36.521588 Y31.799900 Z0.000000 I-0.949625 J-1.944920
G02 X36.128330 Y31.912147 Z0.000000 I4.860541 J17.773947
G02 X35.606590 Y32.072064 Z0.000000 I9.392900 J31.576117
G03 X35.080164 Y32.205772 Z0.000000 I-1.436068 J-4.550824
G03 X34.530970 Y32.280910 Z0.000000 I-0.946908 J-4.876451
G02 X33.357899 Y32.457315 Z0.000000 I0.687864 J8.562776
G02 X32.236819 Y32.789998 Z0.000000 I1.808072 J8.148143
G03 X31.677624 Y32.963892 Z0.000000 I-1.800896 J-4.805106
G03 X31.095926 Y33.074520 Z0.000000 I-1.269397 J-5.090055
G02 X30.511678 Y33.178497 Z0.000000 I0.872293 J6.594825
G02 X29.812122 Y33.362618 Z0.000000 I2.163270 J9.640275
G03 X29.116642 Y33.565719 Z0.000000 I-10.675923 J-35.265207
G03 X29.014081 Y33.587174 Z0.000000 I-0.208606 J-0.741338
G02 X28.915738 Y33.612435 Z0.000000 I0.060848 J0.440944
G02 X28.875292 Y33.640234 Z0.000000 I0.037468 J0.097838
G03 X28.835628 Y33.672523 Z0.000000 I-0.123019 J-0.110612
G03 X28.367546 Y33.936398 Z0.000000 I-9.189845 J-15.754553
G02 X27.903890 Y34.208689 Z0.000000 I3.965556 J7.283438
G02 X27.508803 Y34.478893 Z0.000000 I3.510805 J5.557368
G03 X27.102833 Y34.723527 Z0.000000 I-1.501256 J-2.032163
G03 X26.559257 Y34.935684 Z0.000000 I-1.659919 J-3.450512
G02 X24.310843 Y35.677118 Z0.000000 I15.212936 J49.913436
G02 X23.285074 Y36.098366 Z0.000000 I3.831024 J10.788348
G03 X23.071729 Y36.195015 Z0.000000 I-3.886533 J-8.295403
G03 X22.487035 Y36.447669 Z0.000000 I-27.180759 J-62.099269
G02 X20.498377 Y37.419842 Z0.000000 I8.435059 J19.774657
G02 X18.269607 Y38.785727 Z0.000000 I14.536031 J26.220349
G03 X17.521872 Y39.190004 Z0.000000 I-2.434944 J-3.609949
G03 X16.881712 Y39.369064 Z0.000000 I-1.031734 J-2.454713
G02 X14.925267 Y39.721857 Z0.000000 I4.744210 J31.910628
G02 X12.806741 Y40.234300 Z0.000000 I8.054694 J37.934907
G01 X11.733561 Y40.526039 Z0.000000
G01 X11.092266 Y40.227831 Z0.000000
G02 X9.048545 Y39.352727 Z0.000000 I-15.272882 J32.844308
G02 X7.615312 Y38.863717 Z0.000000 I-6.137971 J15.644889
G03 X7.267208 Y38.740098 Z0.000000 I0.900002 J-3.086284
G03 X6.963876 Y38.589276 Z0.000000 I1.049395 J-2.490978
G03 X6.739291 Y38.378205 Z0.000000 I0.337899 J-0.584550
G03 X6.668946 Y38.145091 Z0.000000 I0.351087 J-0.233116
G03 X6.755784 Y37.925335 Z0.000000 I0.321478 J-0.000001
G03 X7.146186 Y37.635524 Z0.000000 I0.993480 J0.930450
G02 X8.256357 Y36.969599 Z0.000000 I-3.531789 J-7.146223
G02 X9.340643 Y36.063591 Z0.000000 I-5.529808 J-7.719758
G03 X10.054297 Y35.416129 Z0.000000 I9.953739 J10.254293
G03 X10.346984 Y35.210638 Z0.000000 I1.272743 J1.501624
G02 X10.647622 Y35.014304 Z0.000000 I-1.559027 J-2.715619
G02 X11.249117 Y34.544713 Z0.000000 I-8.400599 J-11.380280
G03 X12.991378 Y33.135880 Z0.000000 I72.227617 J87.539959
G03 X13.287426 Y32.929517 Z0.000000 I1.827550 J2.306271
G03 X13.367709 Y32.885960 Z0.000000 I0.472160 J0.774489
G03 X14.103214 Y32.538723 Z0.000000 I31.067875 J64.854369
G02 X14.828741 Y32.174112 Z0.000000 I-5.662586 J-12.171941
G02 X15.248228 Y31.919231 Z0.000000 I-2.333811 J-4.313650
G03 X15.663714 Y31.656774 Z0.000000 I4.224277 J6.227209
G03 X16.106064 Y31.415764 Z0.000000 I4.002233 J6.819263
G02 X16.551367 Y31.179228 Z0.000000 I-5.345257 J-10.600381
G02 X17.064689 Y30.880154 Z0.000000 I-8.037618 J-14.385590
G03 X17.995657 Y30.426373 Z0.000000 I2.923470 J4.815873
G03 X18.847724 Y30.205974 Z0.000000 I1.438863 J3.805423
G02 X19.192049 Y30.142709 Z0.000000 I-0.682390 J-4.682558
G02 X19.715159 Y30.013185 Z0.000000 I-2.435181 J-10.956122
G03 X20.508969 Y29.875900 Z0.000000 I1.113586 J4.075365
G03 X21.048293 Y29.911983 Z0.000000 I0.143974 J1.896683
G02 X22.065760 Y30.099871 Z0.000000 I4.017958 J-18.909512
G02 X23.844155 Y30.351252 Z0.000000 I9.040344 J-57.539615
G02 X24.749239 Y30.419416 Z0.000000 I1.135927 J-9.039927
G02 X29.291652 Y30.489312 Z0.000000 I5.782360 J-228.147916
G02 X33.834874 Y30.481153 Z0.000000 I1.707520 J-314.089761
G02 X34.349618 Y30.443757 Z0.000000 I-0.036718 J-4.066851
G03 X34.852155 Y30.409225 Z0.000000 I0.506429 J3.695984
G03 X34.946375 Y30.442937 Z0.000000 I0.000155 J0.148092
G02 X35.038703 Y30.472474 Z0.000000 I0.082806 J-0.099769
G02 X35.365101 Y30.412095 Z0.000000 I-0.111622 J-1.515840
G03 X35.697217 Y30.330094 Z0.000000 I0.980152 J3.256197
G03 X35.743679 Y30.338594 Z0.000000 I0.012360 J0.063672
G02 X36.167003 Y30.481954 Z0.000000 I0.521875 J-0.844343
G02 X38.187787 Y30.582516 Z0.000000 I2.020725 J-20.252197
G03 X38.241337 Y30.622897 Z0.000000 I0.000000 J0.055698
G03 X38.227487 Y30.721307 Z0.000000 I-0.117577 J0.033632
G03 X38.126610 Y30.834485 Z0.000000 I-0.380802 J-0.237868
G03 X38.053411 Y30.860097 Z0.000000 I-0.073199 J-0.091797
G02 X37.988610 Y30.882696 Z0.000000 I0.000000 J0.104207
G02 X37.966012 Y30.929497 Z0.000000 I0.037163 J0.046801
G02 X38.043183 Y30.983008 Z0.000000 I0.057138 J-0.000000
G02 X38.341900 Y30.788777 Z0.000000 I-0.288403 J-0.770372
G03 X38.568492 Y30.640151 Z0.000000 I0.454730 J0.446230
G03 X38.879711 Y30.582518 Z0.000000 I0.311221 J0.811491
G02 X39.189592 Y30.556988 Z0.000000 I-0.000005 J-1.893440
G01 X39.215119 Y30.526877 Z0.000000
G01 X39.187997 Y30.496666 Z0.000000
G02 X37.913965 Y30.386247 Z0.000000 I-3.237159 J29.945705
G03 X35.507145 Y30.148853 Z0.000000 I2.383037 J-36.479902
G03 X33.420644 Y29.792414 Z0.000000 I3.669571 J-27.765848
G03 X31.299144 Y29.311544 Z0.000000 I14.064480 J-66.969892
G03 X31.246271 Y29.263088 Z0.000000 I0.017594 J-0.072272
G02 X31.204694 Y29.220352 Z0.000000 I-0.065507 J0.022137
G02 X31.060685 Y29.194639 Z0.000000 I-0.144008 J0.390402
G03 X30.503274 Y29.098236 Z0.000000 I-0.000005 J-1.659674
G03 X27.938445 Y28.081355 Z0.000000 I13.259183 J-37.185990
G03 X23.766989 Y25.492923 Z0.000000 I6.905764 J-15.784693
G03 X21.858610 Y22.977807 Z0.000000 I4.581299 J-5.457688
G03 X21.922110 Y19.063521 Z0.000000 I4.168353 J-1.890036
G03 X25.919917 Y14.742125 Z0.000000 I9.282582 J4.577572
G03 X27.171296 Y14.070099 Z0.000000 I8.423956 J14.185144
G03 X28.619429 Y13.438897 Z0.000000 I8.870079 J18.373353
G02 X29.322150 Y13.154178 Z0.000000 I-10.956737 J-28.052109
G02 X29.460346 Y13.085765 Z0.000000 I-0.480710 J-1.144828
G03 X29.904053 Y12.897506 Z0.000000 I0.999609 J1.738963
G03 X32.067395 Y12.333747 Z0.000000 I11.963290 J41.474736
G03 X35.067563 Y11.782809 Z0.000000 I7.306797 J31.345365
G03 X38.972181 Y11.401467 Z0.000000 I7.123871 J52.761721
G03 X40.990548 Y11.368922 Z0.000000 I1.375309 J22.689842
G03 X43.829822 Y11.538923 Z0.000000 I-1.277013 J45.123098
G01 X43.829754 Y11.539413 Z0.000000
G00 Z5.000000

(End cutting path id: path16343)


(Start cutting path id: path16343)
(Change tool to Cylindrical cutter)

G00 Z5.000000
G00 X80.134710 Y10.608658

G01 Z0.000000 F1000.0(Penetrate)
G02 X80.102625 Y17.282093 Z0.000000 I1587.852204 J10.970823 F1100.000000
G02 X80.088619 Y27.643777 Z0.000000 I3824.533355 J10.350631
G01 X80.088649 Y38.005499 Z0.000000
G01 X79.897812 Y38.046899 Z0.000000
G02 X79.708907 Y38.095605 Z0.000000 I0.534441 J2.463510
G02 X78.527265 Y38.457445 Z0.000000 I29.014648 J96.861974
G03 X77.339059 Y38.782886 Z0.000000 I-5.122792 J-16.371828
G03 X76.757699 Y38.874423 Z0.000000 I-0.897762 J-3.809846
G02 X73.602010 Y39.313766 Z0.000000 I2.244952 J27.677860
G02 X73.046040 Y39.610358 Z0.000000 I0.211227 J1.065336
G02 X73.009351 Y39.691833 Z0.000000 I0.088808 J0.088990
G02 X72.976643 Y40.769116 Z0.000000 I18.264950 J1.093680
G01 X72.975646 Y41.859577 Z0.000000
G01 X73.339967 Y41.849976 Z0.000000
G03 X73.644460 Y41.901884 Z0.000000 I0.020841 J0.796778
G03 X73.704387 Y41.988767 Z0.000000 I-0.033110 J0.086946
G03 X73.643527 Y42.072312 Z0.000000 I-0.087772 J0.000000
G03 X73.318401 Y42.113081 Z0.000000 I-0.270360 J-0.839263
G01 X72.932318 Y42.089052 Z0.000000
G01 X72.953979 Y42.390648 Z0.000000
G01 X72.975640 Y42.692252 Z0.000000
G01 X73.634890 Y42.692250 Z0.000000
G02 X74.292521 Y42.674051 Z0.000000 I-0.000034 J-11.892065
G02 X74.589072 Y42.639388 Z0.000000 I-0.135361 J-2.443884
G01 X74.883999 Y42.586527 Z0.000000
G01 X74.883999 Y42.823624 Z0.000000
G01 X74.884000 Y43.060723 Z0.000000
G01 X74.589073 Y43.015274 Z0.000000
G02 X74.292941 Y42.985496 Z0.000000 I-0.430687 J2.795675
G02 X73.634891 Y42.969836 Z0.000000 I-0.658011 J13.817181
G02 X73.035507 Y43.029695 Z0.000000 I0.000009 J3.030927
G02 X72.975641 Y43.102845 Z0.000000 I0.014758 J0.073150
G02 X73.022897 Y43.201789 Z0.000000 I0.127212 J-0.000000
G02 X73.255803 Y43.329241 Z0.000000 I0.468760 J-0.580083
G03 X73.977226 Y43.727440 Z0.000000 I-0.717461 J2.152439
G03 X73.987160 Y43.929129 Z0.000000 I-0.086408 J0.105346
G03 X73.912698 Y43.944078 Z0.000000 I-0.048460 J-0.048460
G03 X73.722095 Y43.820410 Z0.000000 I0.232612 J-0.567232
G02 X73.277687 Y43.528304 Z0.000000 I-1.023112 J1.072442
G02 X73.022914 Y43.523878 Z0.000000 I-0.132867 J0.313292
G02 X72.969665 Y43.593811 Z0.000000 I0.029951 J0.078045
G02 X72.966816 Y44.099227 Z0.000000 I2.751083 J0.268225
G02 X73.022061 Y44.633938 Z0.000000 I15.740112 J-1.356018
G02 X73.054458 Y44.826152 Z0.000000 I2.058988 J-0.248200
G03 X73.013542 Y44.950583 Z0.000000 I-0.126247 J0.027430
G03 X72.837525 Y45.016986 Z0.000000 I-0.176018 J-0.200091
G03 X72.647601 Y44.969910 Z0.000000 I-0.000001 J-0.406651
G03 X72.622669 Y44.903513 Z0.000000 I0.024957 J-0.047251
G02 X72.651586 Y44.786773 Z0.000000 I-0.455573 J-0.174798
G02 X72.709747 Y44.176630 Z0.000000 I-12.560633 J-1.505170
G02 X72.704197 Y43.594449 Z0.000000 I-3.615737 J-0.256645
G02 X72.650905 Y43.523928 Z0.000000 I-0.083238 J0.007506
G02 X72.396017 Y43.528341 Z0.000000 I-0.121979 J0.317874
G02 X71.951612 Y43.820415 Z0.000000 I0.578463 J1.364287
G03 X71.761003 Y43.944880 Z0.000000 I-0.430800 J-0.451554
G03 X71.687822 Y43.930414 Z0.000000 I-0.025793 J-0.061856
G03 X71.699998 Y43.704109 Z0.000000 I0.107686 J-0.107686
G03 X72.427238 Y43.335042 Z0.000000 I1.236801 J1.536055
G02 X72.677346 Y43.211469 Z0.000000 I-0.183574 J-0.686440
G02 X72.718252 Y43.110820 Z0.000000 I-0.065777 J-0.085370
G02 X72.644181 Y43.031984 Z0.000000 I-0.093199 J0.013351
G02 X72.038813 Y42.969841 Z0.000000 I-0.605360 J2.917474
G02 X71.381181 Y42.988041 Z0.000000 I0.000034 J11.892002
G02 X71.084636 Y43.022704 Z0.000000 I0.135356 J2.443779
G01 X70.789708 Y43.075575 Z0.000000
G01 X70.789707 Y42.824451 Z0.000000
G03 X70.839048 Y42.646171 Z0.000000 I0.346754 J-0.000001
G03 X70.911148 Y42.621850 Z0.000000 I0.050328 J0.030168
G02 X71.036583 Y42.651835 Z0.000000 I0.165099 J-0.413307
G02 X71.882673 Y42.708758 Z0.000000 I1.713050 J-19.145873
G01 X72.732762 Y42.747155 Z0.000000
G01 X72.732761 Y42.424782 Z0.000000
G01 X72.732760 Y42.102409 Z0.000000
G01 X72.351086 Y42.102410 Z0.000000
G03 X72.023977 Y42.047836 Z0.000000 I-0.000003 J-1.007593
G03 X71.969414 Y41.971420 Z0.000000 I0.026228 J-0.076416
G03 X72.023679 Y41.896131 Z0.000000 I0.079362 J-0.000000
G03 X72.333737 Y41.849975 Z0.000000 I0.286337 J0.859000
G01 X72.698061 Y41.859574 Z0.000000
G01 X72.717359 Y41.026838 Z0.000000
G02 X72.714960 Y40.195394 Z0.000000 I-15.933337 J-0.369755
G02 X72.682105 Y39.812425 Z0.000000 I-3.395483 J0.098403
G01 X72.627554 Y39.430753 Z0.000000
G01 X72.246429 Y39.350704 Z0.000000
G02 X71.862169 Y39.299996 Z0.000000 I-0.526059 J2.505112
G02 X70.683174 Y39.263969 Z0.000000 I-1.313496 J23.674908
G03 X69.509695 Y39.207549 Z0.000000 I0.077429 J-13.842224
G03 X69.115603 Y39.121805 Z0.000000 I0.147640 J-1.627087
G02 X68.725745 Y39.003353 Z0.000000 I-1.571573 J4.471694
G02 X68.319967 Y38.916967 Z0.000000 I-1.225411 J4.759880
G03 X67.190352 Y38.664415 Z0.000000 I1.841269 J-10.888203
G03 X66.013851 Y38.272796 Z0.000000 I3.409380 J-12.205453
G02 X64.427623 Y37.769546 Z0.000000 I-4.778383 J12.309832
G02 X63.563889 Y37.662425 Z0.000000 I-0.873200 J3.504961
G03 X63.113802 Y37.615671 Z0.000000 I0.005389 J-2.241706
G03 X62.703176 Y37.483911 Z0.000000 I0.414515 J-1.997556
G02 X62.294826 Y37.328603 Z0.000000 I-1.668636 J3.772843
G02 X61.718223 Y37.167895 Z0.000000 I-2.366703 J7.376711
G03 X61.155080 Y36.982045 Z0.000000 I0.801317 J-3.374173
G03 X60.700872 Y36.732524 Z0.000000 I1.042204 J-2.435311
G02 X59.776143 Y36.224029 Z0.000000 I-3.059494 J4.468787
G02 X58.819052 Y35.925403 Z0.000000 I-1.926888 J4.492608
G03 X58.409599 Y35.821441 Z0.000000 I0.856308 J-4.230852
G03 X58.194497 Y35.733852 Z0.000000 I0.382703 J-1.247766
G02 X57.981198 Y35.638642 Z0.000000 I-0.956451 J1.856209
G02 X57.327061 Y35.403503 Z0.000000 I-6.584430 J17.289836
G03 X56.671668 Y35.170310 Z0.000000 I7.172905 J-21.197210
G03 X56.230745 Y34.994125 Z0.000000 I3.648318 J-9.770120
G02 X55.786223 Y34.832336 Z0.000000 I-1.723037 J4.042550
G02 X55.323561 Y34.718257 Z0.000000 I-1.297280 J4.266050
G03 X54.868913 Y34.587449 Z0.000000 I0.482551 J-2.532714
G03 X54.372725 Y34.347258 Z0.000000 I1.272743 J-3.261856
G02 X53.881632 Y34.088260 Z0.000000 I-3.166502 J5.409003
G02 X53.440943 Y33.907436 Z0.000000 I-1.969586 J4.172676
G03 X53.001253 Y33.725262 Z0.000000 I1.433301 J-4.081071
G03 X52.573505 Y33.490717 Z0.000000 I1.967056 J-4.094708
G02 X52.144343 Y33.257569 Z0.000000 I-2.235223 J3.602893
G02 X51.202037 Y32.845014 Z0.000000 I-8.010816 J17.014826
G03 X50.252400 Y32.445467 Z0.000000 I14.959283 J-36.883330
G03 X49.746750 Y32.210437 Z0.000000 I4.662530 J-10.692538
G02 X49.231557 Y32.006787 Z0.000000 I-1.488123 J3.011154
G02 X48.238330 Y31.753929 Z0.000000 I-3.330007 J11.003175
G03 X44.067940 Y30.696264 Z0.000000 I10.012605 J-48.230653
G03 X43.552108 Y30.344975 Z0.000000 I0.298428 J-0.992578
G02 X43.463368 Y30.293923 Z0.000000 I-0.107958 J0.085005
G02 X42.580579 Y30.207737 Z0.000000 I-1.442913 J10.215265
G03 X33.896485 Y28.559512 Z0.000000 I1.806628 J-33.219986
G03 X29.350901 Y25.811764 Z0.000000 I3.788180 J-11.400506
G03 X27.800846 Y23.177314 Z0.000000 I3.941383 J-4.092262
G03 X28.006522 Y20.747629 Z0.000000 I3.494639 J-0.927722
G03 X29.539967 Y18.743511 Z0.000000 I5.150179 J2.351928
G03 X32.847793 Y16.728035 Z0.000000 I8.521454 J10.263362
G02 X33.419996 Y16.483774 Z0.000000 I-62.439030 J-147.061802
G02 X33.628659 Y16.392912 Z0.000000 I-8.497703 J-19.799832
G03 X34.568344 Y16.037342 Z0.000000 I3.743646 J8.474070
G03 X36.340432 Y15.531745 Z0.000000 I9.434815 J29.710132
G03 X38.283315 Y15.106516 Z0.000000 I7.431105 J29.301799
G03 X40.568141 Y14.751232 Z0.000000 I7.417118 J40.174920
G03 X43.702523 Y14.521458 Z0.000000 I3.741612 J29.546629
G03 X47.125956 Y14.617483 Z0.000000 I0.721153 J35.362797
G03 X53.671811 Y15.753004 Z0.000000 I-2.667702 J34.813288
G03 X57.875247 Y17.558272 Z0.000000 I-4.368610 J15.968321
G02 X58.531551 Y17.938860 Z0.000000 I10.472998 J-17.303975
G02 X58.586545 Y17.953100 Z0.000000 I0.054993 J-0.099069
G02 X58.646360 Y17.866939 Z0.000000 I-0.000000 J-0.063843
G02 X58.359048 Y17.343411 Z0.000000 I-1.938701 J0.723355
G02 X57.496117 Y16.401447 Z0.000000 I-5.377191 J4.059787
G02 X55.765618 Y15.002728 Z0.000000 I-13.697009 J15.176138
G02 X55.551220 Y14.862121 Z0.000000 I-1.666934 J2.307982
G02 X54.786527 Y14.421861 Z0.000000 I-17.277410 J29.125102
G02 X50.433147 Y12.609193 Z0.000000 I-10.034863 J17.966181
G02 X44.211358 Y11.384152 Z0.000000 I-10.273336 J35.764386
G02 X40.633645 Y11.179822 Z0.000000 I-3.749900 J34.234651
G02 X36.994291 Y11.348073 Z0.000000 I-0.177967 J35.595109
G02 X33.444586 Y11.842210 Z0.000000 I4.260363 J43.601856
G02 X30.619089 Y12.503091 Z0.000000 I5.120283 J28.261433
G02 X27.799546 Y13.529461 Z0.000000 I6.037986 J20.972941
G02 X25.405359 Y14.818316 Z0.000000 I7.273553 J16.379562
G02 X22.573684 Y17.318879 Z0.000000 I6.659459 J10.394869
G02 X21.326056 Y19.722768 Z0.000000 I4.878326 J4.057576
G02 X21.182698 Y20.881664 Z0.000000 I4.022803 J1.085944
G02 X21.369543 Y22.206188 Z0.000000 I5.466703 J-0.095725
G02 X23.289280 Y25.339574 Z0.000000 I6.269728 J-1.686507
G02 X28.379749 Y28.532955 Z0.000000 I11.632596 J-12.889190
G02 X30.714848 Y29.374974 Z0.000000 I11.620155 J-28.566289
G02 X33.575414 Y30.173373 Z0.000000 I13.290759 J-42.095464
G03 X33.893706 Y30.274220 Z0.000000 I-0.577495 J2.375409
G01 X33.899260 Y30.300905 Z0.000000
G03 X33.357190 Y30.525369 Z0.000000 I-0.541847 J-0.541764
G03 X25.474800 Y30.298429 Z0.000000 I0.040175 J-138.399827
G03 X23.099995 Y30.076781 Z0.000000 I1.906798 J-33.263084
G03 X20.945256 Y29.711488 Z0.000000 I3.595264 J-27.744909
G02 X20.477597 Y29.682716 Z0.000000 I-0.331963 J1.580662
G02 X19.765545 Y29.810952 Z0.000000 I0.323566 J3.837673
G03 X19.052520 Y29.993979 Z0.000000 I-4.708233 J-16.861641
G03 X18.708746 Y30.058676 Z0.000000 I-0.902953 J-3.852249
G02 X17.766839 Y30.294078 Z0.000000 I0.666480 J4.668882
G02 X17.035228 Y30.665811 Z0.000000 I1.148975 J3.167120
G03 X16.743039 Y30.846867 Z0.000000 I-2.565109 J-3.813291
G03 X16.167793 Y31.159407 Z0.000000 I-8.242769 J-14.485547
G02 X15.593559 Y31.473879 Z0.000000 I6.552525 J12.646631
G02 X15.100218 Y31.776356 Z0.000000 I5.568824 J9.636304
G03 X14.281756 Y32.255172 Z0.000000 I-5.535164 J-8.522577
G03 X13.530766 Y32.598737 Z0.000000 I-3.577180 J-6.826720
G02 X13.190392 Y32.769070 Z0.000000 I0.789385 J2.002656
G02 X12.818080 Y33.038157 Z0.000000 I1.645763 J2.669216
G03 X12.457139 Y33.328559 Z0.000000 I-6.891863 J-8.196401
G03 X12.150942 Y33.551548 Z0.000000 I-4.367312 J-5.675236
G02 X11.847440 Y33.777466 Z0.000000 I2.908133 J4.223661
G02 X11.567682 Y34.020115 Z0.000000 I3.077137 J3.830324
G03 X10.853005 Y34.626025 Z0.000000 I-6.540029 J-6.989590
G03 X10.172557 Y35.090100 Z0.000000 I-4.501217 J-5.868999
G02 X9.911400 Y35.277815 Z0.000000 I1.034752 J1.715117
G02 X9.271061 Y35.854972 Z0.000000 I9.308370 J10.971166
G03 X8.633354 Y36.437142 Z0.000000 I-12.640403 J-13.205896
G03 X8.239954 Y36.752565 Z0.000000 I-4.093129 J-4.701972
G03 X6.992798 Y37.566497 Z0.000000 I-7.734938 J-10.489493
G03 X6.658545 Y37.660245 Z0.000000 I-0.352545 J-0.614226
G01 X6.634550 Y37.639154 Z0.000000
G03 X6.577189 Y36.811319 Z0.000000 I15.683808 J-1.502646
G02 X6.511950 Y35.965280 Z0.000000 I-12.427353 J0.532748
G02 X6.432056 Y35.510163 Z0.000000 I-3.664404 J0.408703
G03 X6.344999 Y35.055541 Z0.000000 I4.762430 J-1.147621
G03 X6.248596 Y34.226359 Z0.000000 I15.773701 J-2.254085
G02 X5.962495 Y31.671078 Z0.000000 I-58.323156 J5.236465
G02 X5.629044 Y29.611604 Z0.000000 I-38.209429 J5.129794
G03 X5.407209 Y28.279269 Z0.000000 I29.369691 J-5.574713
G03 X5.246015 Y26.939902 Z0.000000 I29.520553 J-4.232204
G02 X5.137235 Y25.829639 Z0.000000 I-1071.752273 J104.446772
G02 X5.105897 Y25.517308 Z0.000000 I-86.034518 J8.474419
G03 X4.977060 Y24.192377 Z0.000000 I135.516504 J-13.846428
G03 X4.907307 Y23.366066 Z0.000000 I52.705758 J-4.865298
G02 X4.874286 Y22.984735 Z0.000000 I-19.063507 J1.458697
G02 X4.769767 Y21.943476 Z0.000000 I-142.569135 J13.784786
G03 X4.174578 Y14.329349 Z0.000000 I147.871072 J-15.389277
G03 X4.037477 Y7.960408 Z0.000000 I103.294116 J-5.409493
G02 X4.015296 Y6.532533 Z0.000000 I-28.781947 J-0.266988
G02 X3.941815 Y5.590459 Z0.000000 I-12.592324 J0.508289
G03 X3.862325 Y4.713327 Z0.000000 I17.531553 J-2.030955
G03 X3.873009 Y4.540329 Z0.000000 I0.682203 J-0.044696
G02 X3.872621 Y4.382778 Z0.000000 I-0.406831 J-0.077774
G02 X3.829998 Y4.321219 Z0.000000 I-0.091785 J0.018016
G03 X3.780432 Y4.259606 Z0.000000 I0.062328 J-0.100886
G03 X3.754070 Y4.104899 Z0.000000 I0.440789 J-0.154708
G01 X3.754070 Y3.935499 Z0.000000
G01 X41.967542 Y3.935388 Z0.000000
G01 X80.180864 Y3.935277 Z0.000000
G01 X80.134704 Y10.608718 Z0.000000
G01 X80.134710 Y10.608658 Z0.000000
G00 Z5.000000

(End cutting path id: path16343)


(Start cutting path id: path16343)
(Change tool to Cylindrical cutter)

G00 Z5.000000
G00 X63.746236 Y64.864045

G01 Z0.000000 F1000.0(Penetrate)
G03 X63.604138 Y64.907580 Z0.000000 I-0.270754 J-0.630076 F1100.000000
G03 X63.433958 Y64.923686 Z0.000000 I-0.170182 J-0.891034
G03 X63.388241 Y64.897392 Z0.000000 I-0.000000 J-0.052891
G01 X63.399258 Y64.864046 Z0.000000
G03 X63.541360 Y64.820506 Z0.000000 I0.270833 J0.630260
G03 X63.711536 Y64.804395 Z0.000000 I0.170179 J0.890741
G03 X63.757255 Y64.830692 Z0.000000 I0.000000 J0.052891
G01 X63.746236 Y64.864045 Z0.000000
G01 X63.746236 Y64.864045 Z0.000000
G00 Z5.000000

(End cutting path id: path16343)


(Start cutting path id: path16343)
(Change tool to Cylindrical cutter)

G00 Z5.000000
G00 X50.457133 Y69.513538

G01 Z0.000000 F1000.0(Penetrate)
G03 X50.436806 Y69.562611 Z0.000000 I-0.069400 J0.000000 F1100.000000
G03 X50.387733 Y69.582938 Z0.000000 I-0.049073 J-0.049073
G03 X50.338660 Y69.562611 Z0.000000 I-0.000000 J-0.069400
G03 X50.318333 Y69.513538 Z0.000000 I0.049073 J-0.049073
G03 X50.338659 Y69.464465 Z0.000000 I0.069400 J-0.000000
G03 X50.387732 Y69.444138 Z0.000000 I0.049073 J0.049073
G03 X50.436806 Y69.464465 Z0.000000 I0.000000 J0.069400
G03 X50.457133 Y69.513538 Z0.000000 I-0.049073 J0.049073
G01 X50.457133 Y69.513538 Z0.000000
G00 Z5.000000

(End cutting path id: path16343)


(Start cutting path id: path16343)
(Change tool to Cylindrical cutter)

G00 Z5.000000
G00 X3.572350 Y4.091620

G01 Z0.000000 F1000.0(Penetrate)
G03 X3.609829 Y4.386969 Z0.000000 I-12.709414 J1.762840 F1100.000000
G03 X3.650237 Y4.768219 Z0.000000 I-21.096703 J2.428765
G02 X3.692975 Y5.149178 Z0.000000 I12.588499 J-1.219368
G02 X3.760882 Y5.635659 Z0.000000 I20.613831 J-2.629482
G03 X3.805379 Y6.123535 Z0.000000 I-4.067869 J0.616976
G03 X3.825159 Y7.682809 Z0.000000 I-41.682309 J1.308529
G02 X3.835492 Y9.243842 Z0.000000 I61.541577 J0.373187
G02 X3.888731 Y10.979059 Z0.000000 I76.335183 J-1.473632
G03 X3.960121 Y12.714002 Z0.000000 I-948.409977 J39.894626
G03 X4.033905 Y14.587598 Z0.000000 I-1101.694470 J44.323839
G02 X4.113894 Y16.460688 Z0.000000 I224.524599 J-8.649940
G02 X4.134755 Y16.738838 Z0.000000 I4.974698 J-0.233237
G03 X4.159040 Y17.016783 Z0.000000 I-8.790337 J0.908078
G03 X4.236468 Y18.161438 Z0.000000 I-149.541142 J10.690298
G02 X4.315022 Y19.305978 Z0.000000 I118.947166 J-7.588857
G02 X4.343555 Y19.618727 Z0.000000 I8.876908 J-0.652195
G03 X4.375828 Y19.931176 Z0.000000 I-27.689482 J3.017953
G03 X4.414661 Y20.347367 Z0.000000 I-48.940941 J4.776389
G02 X4.453990 Y20.763524 Z0.000000 I38.258250 J-3.405616
G02 X4.556928 Y21.769967 Z0.000000 I222.779046 J-22.277208
G03 X4.654132 Y22.776884 Z0.000000 I-63.314165 J6.620247
G03 X4.725868 Y23.678326 Z0.000000 I-50.717854 J4.489669
G02 X4.796924 Y24.579683 Z0.000000 I55.409001 J-3.914538
G02 X4.828538 Y24.858033 Z0.000000 I5.309641 J-0.462082
G03 X4.862782 Y25.136168 Z0.000000 I-8.223894 J1.153712
G03 X4.968337 Y26.176537 Z0.000000 I-115.065910 J12.199972
G02 X5.200235 Y28.230643 Z0.000000 I65.031350 J-6.301579
G02 X5.376291 Y29.340268 Z0.000000 I19.141006 J-2.468173
G03 X5.539897 Y30.272783 Z0.000000 I-36.395319 J6.866045
G03 X5.696262 Y31.311753 Z0.000000 I-45.018950 J7.306596
G02 X5.846117 Y32.351805 Z0.000000 I99.289856 J-13.775265
G02 X5.903663 Y32.699650 Z0.000000 I11.169108 J-1.669093
G03 X5.950237 Y33.048180 Z0.000000 I-3.705621 J0.672555
G03 X5.970781 Y33.477011 Z0.000000 I-5.589280 J0.482667
G02 X6.072209 Y34.880376 Z0.000000 I11.243449 J-0.107273
G02 X6.321538 Y36.064843 Z0.000000 I8.255259 J-1.119250
G03 X6.366754 Y36.310730 Z0.000000 I-1.223901 J0.352162
G03 X6.391301 Y36.898003 Z0.000000 I-7.013401 J0.587294
G02 X6.450927 Y38.029865 Z0.000000 I10.773270 J-0.000031
G02 X6.732221 Y40.124901 Z0.000000 I37.264436 J-3.936974
G03 X6.857605 Y40.959050 Z0.000000 I-33.361694 J5.441225
G03 X6.947027 Y41.686281 Z0.000000 I-25.256245 J3.474697
G02 X7.206261 Y43.383520 Z0.000000 I19.586575 J-2.123204
G02 X7.639731 Y45.190617 Z0.000000 I22.642588 J-4.475770
G03 X7.950894 Y46.374940 Z0.000000 I-31.404075 J8.883967
G03 X8.018820 Y46.752106 Z0.000000 I-3.106418 J0.754159
G02 X8.249455 Y47.659235 Z0.000000 I3.564181 J-0.423296
G02 X9.223583 Y49.770778 Z0.000000 I20.575607 J-8.211770
G02 X9.942329 Y51.093640 Z0.000000 I51.399062 J-27.069784
G02 X10.297441 Y51.687598 Z0.000000 I10.709065 J-5.999542
G03 X10.488599 Y51.992847 Z0.000000 I-20.108241 J12.805009
G03 X10.852603 Y52.589175 Z0.000000 I-76.333851 J47.004093
G02 X11.584545 Y53.713761 Z0.000000 I17.480780 J-10.576957
G02 X11.703020 Y53.806416 Z0.000000 I0.210462 J-0.147039
G03 X11.778014 Y53.863173 Z0.000000 I-0.060499 J0.157862
G03 X11.804145 Y53.941888 Z0.000000 I-0.105488 J0.078715
G02 X11.827676 Y54.015020 Z0.000000 I0.125412 J-0.000000
G02 X11.873546 Y54.038558 Z0.000000 I0.045869 J-0.032926
G03 X11.919954 Y54.061546 Z0.000000 I0.000000 J0.058337
G03 X11.942946 Y54.129677 Z0.000000 I-0.089449 J0.068131
G02 X11.968816 Y54.209725 Z0.000000 I0.136781 J-0.000000
G02 X12.155814 Y54.424607 Z0.000000 I1.271359 J-0.917579
G03 X12.354520 Y54.640356 Z0.000000 I-1.615876 J1.687613
G03 X12.602578 Y54.975397 Z0.000000 I-3.665677 J2.973344
G02 X12.852886 Y55.309154 Z0.000000 I3.436441 J-2.316485
G02 X13.257149 Y55.762334 Z0.000000 I6.753069 J-5.617237
G03 X13.650565 Y56.213234 Z0.000000 I-4.746661 J4.538601
G03 X13.677824 Y56.291306 Z0.000000 I-0.098173 J0.078073
G02 X13.966989 Y56.941562 Z0.000000 I0.875716 J-0.000003
G02 X14.719278 Y57.230724 Z0.000000 I0.752286 J-0.833994
G02 X14.775917 Y57.168971 Z0.000000 I-0.000000 J-0.056851
G02 X14.687737 Y56.866400 Z0.000000 I-0.801120 J0.069342
G03 X14.624963 Y56.697857 Z0.000000 I0.643223 J-0.335528
G01 X14.642596 Y56.675567 Z0.000000
G03 X15.073091 Y56.876336 Z0.000000 I0.000002 J0.561919
G03 X15.273900 Y57.428141 Z0.000000 I-0.657757 J0.551807
G02 X15.757946 Y58.342759 Z0.000000 I1.106127 J-0.000003
G02 X17.330293 Y58.826799 Z0.000000 I1.572339 J-2.311748
G03 X17.961741 Y59.120821 Z0.000000 I0.000002 J0.825060
G03 X18.258223 Y59.930179 Z0.000000 I-0.966951 J0.813194
G02 X18.435070 Y60.511078 Z0.000000 I1.052383 J-0.003015
G02 X19.679168 Y62.060921 Z0.000000 I9.383120 J-6.257812
G03 X20.392778 Y62.862096 Z0.000000 I-10.475769 J10.049205
G03 X20.764190 Y63.373711 Z0.000000 I-3.885227 J3.211143
G02 X20.980867 Y63.651314 Z0.000000 I1.526073 J-0.967779
G02 X21.289400 Y63.925924 Z0.000000 I1.801567 J-1.713492
G03 X21.600089 Y64.199657 Z0.000000 I-1.593066 J2.121323
G03 X21.866433 Y64.520497 Z0.000000 I-1.930687 J1.873729
G02 X22.137639 Y64.830337 Z0.000000 I1.623696 J-1.147621
G02 X22.367611 Y64.985578 Z0.000000 I0.614105 J-0.661768
G03 X22.553777 Y65.144780 Z0.000000 I-0.196809 J0.418589
G03 X22.590865 Y65.315204 Z0.000000 I-0.194156 J0.131501
G02 X22.660622 Y65.821610 Z0.000000 I0.842895 J0.141899
G02 X22.901663 Y65.974455 Z0.000000 I0.241040 J-0.113642
G03 X22.950212 Y65.997954 Z0.000000 I0.000000 J0.061899
G03 X23.011453 Y66.113244 Z0.000000 I-0.284524 J0.225045
G02 X23.077865 Y66.221475 Z0.000000 I0.251509 J-0.079839
G02 X23.152478 Y66.252033 Z0.000000 I0.074613 J-0.075811
G03 X23.283586 Y66.326634 Z0.000000 I0.000000 J0.152508
G03 X23.399891 Y66.668401 Z0.000000 I-0.750932 J0.446219
G03 X23.353914 Y66.984761 Z0.000000 I-0.607654 J0.073209
G03 X23.144548 Y67.258259 Z0.000000 I-0.652066 J-0.282280
G02 X22.232588 Y68.452794 Z0.000000 I1.921691 J2.412485
G02 X21.866450 Y70.231857 Z0.000000 I4.139091 J1.779050
G03 X21.848457 Y70.350742 Z0.000000 I-0.401755 J0.000001
G03 X21.781190 Y70.507036 Z0.000000 I-0.768014 J-0.237920
G02 X21.618712 Y70.955736 Z0.000000 I1.266581 J0.712407
G02 X21.524961 Y71.895588 Z0.000000 I5.597963 J1.033002
G03 X21.467421 Y72.215678 Z0.000000 I-1.011995 J-0.016703
G03 X21.241901 Y72.697666 Z0.000000 I-2.553737 J-0.901126
G02 X20.977739 Y73.168586 Z0.000000 I9.342371 J5.550149
G02 X20.964323 Y73.222660 Z0.000000 I0.102271 J0.054074
G03 X20.949890 Y73.291835 Z0.000000 I-0.172983 J0.000001
G03 X20.505596 Y74.274083 Z0.000000 I-36.907137 J-16.102364
G02 X20.356739 Y74.631766 Z0.000000 I4.007035 J1.877425
G02 X20.339775 Y74.727554 Z0.000000 I0.261940 J0.095787
G03 X20.326535 Y74.824868 Z0.000000 I-0.364241 J0.000001
G03 X20.207028 Y75.206385 Z0.000000 I-5.819236 J-1.613343
G02 X20.093972 Y75.590103 Z0.000000 I3.766041 J1.318121
G02 X20.040449 Y75.897929 Z0.000000 I2.366328 J0.570005
G03 X19.990497 Y76.206258 Z0.000000 I-2.948503 J-0.319473
G03 X19.930735 Y76.404459 Z0.000000 I-1.272900 J-0.275700
G02 X19.890173 Y76.601391 Z0.000000 I0.555996 J0.217161
G02 X19.915076 Y76.866755 Z0.000000 I1.047701 J0.035528
G03 X19.927096 Y77.120822 Z0.000000 I-0.717781 J0.161277
G03 X19.867257 Y77.242843 Z0.000000 I-0.208346 J-0.026490
G02 X19.792798 Y77.365772 Z0.000000 I0.213080 J0.213079
G02 X19.745643 Y77.630723 Z0.000000 I1.008307 J0.316126
G03 X19.704024 Y77.899668 Z0.000000 I-1.298723 J-0.063283
G03 X19.643394 Y78.017405 Z0.000000 I-0.297111 J-0.078520
G02 X19.446535 Y78.346174 Z0.000000 I0.966165 J0.801842
G02 X18.811887 Y80.061624 Z0.000000 I26.497128 J10.777987
G03 X18.405747 Y81.275865 Z0.000000 I-1466.659922 J-489.894341
G03 X18.335399 Y81.484221 Z0.000000 I-43.093932 J-14.433922
G02 X17.986044 Y82.619488 Z0.000000 I19.067117 J6.488907
G02 X17.815747 Y83.368884 Z0.000000 I8.127862 J2.241068
G03 X17.697733 Y83.906942 Z0.000000 I-7.124778 J-1.280733
G03 X17.609593 Y84.163083 Z0.000000 I-1.694507 J-0.439854
G02 X17.493809 Y84.676899 Z0.000000 I1.298281 J0.562510
G02 X17.524550 Y86.632840 Z0.000000 I19.504821 J0.671659
G03 X17.320692 Y87.265443 Z0.000000 I-0.899396 J0.059315
G03 X16.592488 Y87.763670 Z0.000000 I-1.225821 J-1.010367
G02 X15.935033 Y87.985897 Z0.000000 I14.812265 J44.905370
G02 X15.794448 Y88.039960 Z0.000000 I0.728451 J2.104076
G03 X15.654951 Y88.097022 Z0.000000 I-2.336406 J-5.512718
G03 X15.001643 Y88.352656 Z0.000000 I-47.303388 J-119.927354
G02 X12.256643 Y89.553516 Z0.000000 I12.869296 J33.155215
G02 X9.739889 Y90.923769 Z0.000000 I14.284021 J29.231972
G03 X9.334874 Y91.143497 Z0.000000 I-2.613103 J-4.333489
G03 X9.243186 Y91.164644 Z0.000000 I-0.092074 J-0.189863
G02 X9.153247 Y91.187235 Z0.000000 I0.000247 J0.191310
G02 X8.918190 Y91.338310 Z0.000000 I0.820515 J1.535032
G03 X8.686892 Y91.500418 Z0.000000 I-2.126108 J-2.787498
G03 X8.648123 Y91.511798 Z0.000000 I-0.038769 J-0.060351
G02 X8.608832 Y91.522973 Z0.000000 I0.000000 J0.074660
G02 X7.808938 Y92.031181 Z0.000000 I21.144875 J34.164570
G02 X6.210945 Y93.511542 Z0.000000 I3.528382 J5.411418
G02 X6.259842 Y94.051311 Z0.000000 I0.317347 J0.243351
G02 X6.428788 Y94.124882 Z0.000000 I0.193565 J-0.213731
G02 X8.012063 Y94.201463 Z0.000000 I1.821783 J-21.259447
G03 X9.617062 Y94.245625 Z0.000000 I-0.551573 J49.233084
G03 X10.902122 Y94.328193 Z0.000000 I-1.385938 J31.611646
G02 X12.187271 Y94.412742 Z0.000000 I2.888450 J-34.095368
G02 X14.545353 Y94.499077 Z0.000000 I5.379158 J-114.675379
G03 X16.901782 Y94.591790 Z0.000000 I-2.386941 J90.659531
G03 X17.424995 Y94.649909 Z0.000000 I-0.236265 J4.511095
G01 X17.945212 Y94.738628 Z0.000000
G01 X18.035973 Y95.015822 Z0.000000
G03 X18.170609 Y95.706626 Z0.000000 I-2.705430 J0.885807
G03 X18.355244 Y99.665663 Z0.000000 I-90.071030 J6.184399
G02 X18.480762 Y101.224855 Z0.000000 I14.050466 J-0.346440
G02 X18.610449 Y101.530519 Z0.000000 I0.627434 J-0.085864
G03 X18.689696 Y101.708636 Z0.000000 I-0.312168 J0.245574
G03 X18.810382 Y102.690550 Z0.000000 I-10.081874 J1.737528
G02 X19.369871 Y107.020666 Z0.000000 I39.914997 J-2.956171
G02 X20.072064 Y109.505287 Z0.000000 I13.762836 J-2.548054
G02 X21.125876 Y111.904652 Z0.000000 I26.563963 J-10.235911
G02 X21.904968 Y113.205854 Z0.000000 I8.544124 J-4.231938
G02 X22.996534 Y114.300435 Z0.000000 I3.834450 J-2.732319
G02 X24.885253 Y115.341937 Z0.000000 I5.339688 J-7.449986
G02 X25.664676 Y115.570093 Z0.000000 I1.512608 J-3.721949
G02 X27.355440 Y115.800432 Z0.000000 I3.236780 J-17.438452
G02 X28.865012 Y115.832537 Z0.000000 I0.997583 J-11.400328
G02 X30.471541 Y115.660885 Z0.000000 I-0.586244 J-13.090526
G03 X32.116952 Y115.478469 Z0.000000 I2.401201 J14.146999
G03 X35.688312 Y115.385732 Z0.000000 I3.519694 J66.731679
G02 X40.385657 Y115.069298 Z0.000000 I0.026570 J-34.628945
G02 X43.301391 Y114.349380 Z0.000000 I-1.900558 J-13.961900
G02 X45.397934 Y113.337261 Z0.000000 I-3.949303 J-10.858234
G02 X47.142913 Y111.990555 Z0.000000 I-5.419687 J-8.826368
G02 X48.439486 Y110.212180 Z0.000000 I-4.324839 J-4.514981
G02 X49.241037 Y107.680680 Z0.000000 I-8.183044 J-3.983654
G02 X49.376853 Y106.007923 Z0.000000 I-10.466788 J-1.691718
G02 X49.248525 Y103.497473 Z0.000000 I-23.787693 J-0.042540
G03 X49.138253 Y102.307378 Z0.000000 I51.477158 J-5.369944
G03 X48.963351 Y99.977851 Z0.000000 I197.057916 J-15.966530
G02 X48.848448 Y98.417075 Z0.000000 I-175.526296 J12.137476
G02 X48.802200 Y97.914396 Z0.000000 I-18.220578 J1.422884
G01 X48.748998 Y97.412326 Z0.000000
G01 X49.183637 Y97.131237 Z0.000000
G02 X49.725149 Y96.606054 Z0.000000 I-1.051609 J-1.626074
G02 X49.929647 Y96.051670 Z0.000000 I-0.977508 J-0.675485
G03 X50.104912 Y94.891359 Z0.000000 I12.208748 J1.250745
G03 X50.192464 Y94.739946 Z0.000000 I0.267338 J0.053565
G01 X50.217519 Y94.732665 Z0.000000
G03 X50.769478 Y94.829655 Z0.000000 I-2.180570 J14.028405
G02 X51.328670 Y94.897501 Z0.000000 I0.744145 J-3.794886
G02 X53.128906 Y94.942619 Z0.000000 I1.889876 J-39.469868
G02 X54.925413 Y94.879485 Z0.000000 I0.055054 J-24.025259
G02 X55.758921 Y94.751533 Z0.000000 I-0.383515 J-5.277111
G02 X56.925105 Y94.413944 Z0.000000 I-2.812217 J-11.897719
G02 X57.914306 Y94.009760 Z0.000000 I-3.082060 J-8.955612
G02 X59.319781 Y92.905379 Z0.000000 I-1.747416 J-3.670344
G02 X59.806168 Y91.685158 Z0.000000 I-1.702754 J-1.385776
G02 X59.737328 Y90.877829 Z0.000000 I-2.527189 J-0.191109
G02 X59.571335 Y90.748309 Z0.000000 I-0.165992 J0.041608
G03 X59.506285 Y90.719459 Z0.000000 I-0.000000 J-0.087759
G03 X59.335672 Y90.488078 Z0.000000 I1.061597 J-0.961381
G02 X58.870476 Y89.794541 Z0.000000 I-6.419917 J3.803431
G02 X58.221574 Y89.012834 Z0.000000 I-8.812374 J6.655051
G02 X57.579865 Y88.402849 Z0.000000 I-4.555907 J4.150317
G02 X56.901359 Y87.927275 Z0.000000 I-3.428236 J4.169292
G02 X55.205530 Y87.078095 Z0.000000 I-6.880486 J11.622563
G02 X52.920697 Y86.272462 Z0.000000 I-8.460550 J20.351936
G03 X52.297260 Y86.086658 Z0.000000 I16.161526 J-55.366691
G03 X52.122653 Y86.029706 Z0.000000 I1.335703 J-4.391150
G02 X51.947935 Y85.973184 Z0.000000 I-1.347624 J3.867413
G02 X51.557664 Y85.860824 Z0.000000 I-5.736944 J19.192847
G03 X51.195029 Y85.720616 Z0.000000 I0.526114 J-1.899799
G03 X51.123654 Y85.641619 Z0.000000 I0.066655 J-0.131966
G03 X51.093691 Y85.527789 Z0.000000 I0.505066 J-0.193805
G03 X51.006932 Y84.860679 Z0.000000 I17.461218 J-2.610070
G02 X50.725954 Y82.849984 Z0.000000 I-35.335037 J3.912796
G02 X50.607198 Y82.495124 Z0.000000 I-1.190894 J0.201239
G03 X50.490913 Y82.242341 Z0.000000 I2.610906 J-1.354206
G03 X50.353033 Y81.865793 Z0.000000 I5.663627 J-2.287353
G02 X50.042419 Y81.126305 Z0.000000 I-4.797122 J1.580005
G02 X49.651375 Y80.508608 Z0.000000 I-3.727178 J1.926925
G03 X49.519097 Y80.268924 Z0.000000 I0.741353 J-0.565488
G03 X49.377681 Y79.774726 Z0.000000 I3.080616 J-1.148853
G02 X49.241641 Y79.274809 Z0.000000 I-3.895998 J0.791734
G02 X49.059240 Y78.847807 Z0.000000 I-3.018440 J1.036919
G02 X48.387652 Y77.934719 Z0.000000 I-3.207684 J1.655767
G02 X47.530537 Y77.338599 Z0.000000 I-2.151649 J2.179442
G03 X47.229346 Y77.028488 Z0.000000 I0.256919 J-0.550849
G03 X47.214685 Y76.606349 Z0.000000 I0.532820 J-0.229829
G02 X47.251571 Y76.382834 Z0.000000 I-0.616540 J-0.216548
G02 X47.210784 Y76.243491 Z0.000000 I-0.268185 J0.002859
G03 X47.174784 Y76.103385 Z0.000000 I0.203141 J-0.126874
G03 X47.236023 Y75.787147 Z0.000000 I1.186048 J0.065626
G02 X47.328107 Y75.461593 Z0.000000 I-3.103572 J-1.053656
G02 X47.374700 Y75.178478 Z0.000000 I-2.298021 J-0.523584
G03 X47.606678 Y73.416687 Z0.000000 I30.789805 J3.157977
G01 X47.663916 Y73.382087 Z0.000000
G02 X47.742523 Y73.334724 Z0.000000 I0.019159 J-0.057115
G02 X47.763874 Y72.772724 Z0.000000 I-2.232546 J-0.366222
G01 X47.779001 Y72.752723 Z0.000000
G03 X47.946491 Y72.738024 Z0.000000 I0.156882 J0.826016
G02 X48.087688 Y72.688659 Z0.000000 I0.002833 J-0.218511
G02 X48.155757 Y72.566884 Z0.000000 I-0.120441 J-0.147235
G03 X48.206086 Y72.406090 Z0.000000 I0.496149 J0.067022
G03 X48.324453 Y72.236767 Z0.000000 I0.670196 J0.342472
G02 X48.388311 Y72.083111 Z0.000000 I-0.176029 J-0.163253
G02 X48.335713 Y71.955298 Z0.000000 I-0.165501 J-0.006621
G03 X48.254788 Y71.801220 Z0.000000 I0.179311 J-0.192468
G03 X48.227736 Y71.223368 Z0.000000 I2.875217 J-0.424163
G03 X48.264135 Y71.068890 Z0.000000 I0.447091 J0.023820
G03 X48.409895 Y70.803916 Z0.000000 I1.488366 J0.646161
G02 X48.556405 Y70.539980 Z0.000000 I-1.397455 J-0.948355
G02 X48.583381 Y70.412559 Z0.000000 I-0.287443 J-0.127420
G03 X48.622871 Y70.316343 Z0.000000 I0.136960 J-0.000000
G03 X48.717344 Y70.276852 Z0.000000 I0.094474 J0.093258
G02 X48.815876 Y70.236040 Z0.000000 I-0.000000 J-0.139351
G02 X48.873482 Y70.120712 Z0.000000 I-0.143941 J-0.143949
G03 X48.919386 Y70.001504 Z0.000000 I0.281641 J0.040009
G01 X48.965052 Y69.985124 Z0.000000
G03 X49.003739 Y70.025632 Z0.000000 I-0.015984 J0.053993
G03 X49.012133 Y70.175959 Z0.000000 I-0.395131 J0.097461
G02 X49.067578 Y70.270123 Z0.000000 I0.088077 J0.011544
G02 X49.239366 Y70.265708 Z0.000000 I0.080700 J-0.204325
G02 X49.420819 Y70.050695 Z0.000000 I-0.136258 J-0.299063
G02 X49.329375 Y69.925475 Z0.000000 I-0.096500 J-0.025529
G01 X49.322691 Y69.907688 Z0.000000
G03 X49.398775 Y69.858315 Z0.000000 I0.163979 J0.169382
G02 X49.521232 Y69.772789 Z0.000000 I-0.123516 J-0.307285
G02 X49.554913 Y69.685130 Z0.000000 I-0.097230 J-0.087658
G03 X49.582561 Y69.624297 Z0.000000 I0.080749 J-0.000000
G01 X49.628973 Y69.620480 Z0.000000
G01 X49.683030 Y69.616268 Z0.000000
G02 X49.739903 Y69.525280 Z0.000000 I-0.117127 J-0.136479
G03 X49.866756 Y69.453294 Z0.000000 I0.098462 J0.025746
G03 X49.971277 Y69.592499 Z0.000000 I-0.040440 J0.139206
G02 X50.089541 Y69.790948 Z0.000000 I0.225633 J-0.000001
G02 X50.233126 Y69.734170 Z0.000000 I0.047963 J-0.088651
G03 X50.444935 Y69.575893 Z0.000000 I0.219781 J0.073252
G03 X50.595828 Y69.721679 Z0.000000 I0.005020 J0.145787
G02 X50.697828 Y69.792367 Z0.000000 I0.075494 J-0.000000
G02 X50.873408 Y69.617584 Z0.000000 I-0.105625 J-0.281688
G03 X50.971225 Y69.490300 Z0.000000 I0.260653 J0.099082
G03 X51.114575 Y69.444097 Z0.000000 I0.143351 J0.199280
G02 X51.246202 Y69.400518 Z0.000000 I-0.000001 J-0.220574
G02 X51.289779 Y69.313803 Z0.000000 I-0.064487 J-0.086714
G03 X51.316430 Y69.196031 Z0.000000 I0.273541 J-0.000001
G03 X51.392684 Y69.098105 Z0.000000 I0.260721 J0.124369
G02 X51.454051 Y68.994304 Z0.000000 I-0.114144 J-0.137522
G02 X51.479423 Y68.646587 Z0.000000 I-1.466770 J-0.281811
G03 X51.537050 Y68.303967 Z0.000000 I0.829657 J-0.036611
G03 X51.792881 Y67.855965 Z0.000000 I1.700534 J0.674039
G02 X52.095392 Y67.422165 Z0.000000 I-4.073918 J-3.163336
G02 X52.122505 Y67.327458 Z0.000000 I-0.151850 J-0.094707
G03 X52.152219 Y67.253174 Z0.000000 I0.107713 J-0.000000
G03 X52.221555 Y67.223458 Z0.000000 I0.069337 J0.066034
G02 X52.306696 Y67.194806 Z0.000000 I-0.000000 J-0.140828
G02 X52.467345 Y67.036915 Z0.000000 I-0.535460 J-0.705490
G01 X52.614077 Y66.850372 Z0.000000
G01 X52.578428 Y67.123658 Z0.000000
G02 X52.544649 Y67.397168 Z0.000000 I20.127721 J2.624591
G02 X52.463528 Y68.109031 Z0.000000 I135.793160 J15.835166
G03 X52.359574 Y68.805495 Z0.000000 I-9.377459 J-1.043676
G03 X52.322781 Y68.859122 Z0.000000 I-0.079116 J-0.014846
G02 X52.281999 Y68.908673 Z0.000000 I0.052316 J0.084615
G02 X52.261291 Y69.022403 Z0.000000 I0.301956 J0.113729
G03 X52.237477 Y69.142102 Z0.000000 I-0.312725 J0.000001
G03 X51.949018 Y69.776136 Z0.000000 I-9.412675 J-3.899730
G02 X51.677298 Y70.483141 Z0.000000 I3.604196 J1.790903
G02 X51.731374 Y70.554413 Z0.000000 I0.054075 J0.015122
G02 X52.017153 Y70.403464 Z0.000000 I-0.000001 J-0.345997
G02 X52.786080 Y69.009081 Z0.000000 I-6.937088 J-4.734635
G03 X52.939156 Y68.728744 Z0.000000 I1.616826 J0.700896
G01 X52.976459 Y68.725098 Z0.000000
G01 X53.024848 Y68.729688 Z0.000000
G02 X53.436422 Y68.412793 Z0.000000 I-2.444597 J-3.600689
G03 X53.858111 Y68.087317 Z0.000000 I2.987888 J3.435212
G03 X53.935522 Y68.072220 Z0.000000 I0.056256 J0.082442
G02 X54.003723 Y68.053624 Z0.000000 I0.016268 J-0.074699
G02 X54.112914 Y67.908070 Z0.000000 I-0.344491 J-0.372161
G03 X54.224496 Y67.743279 Z0.000000 I0.676366 J0.337804
G03 X54.375388 Y67.613105 Z0.000000 I0.566498 J0.504121
G02 X54.681929 Y67.308646 Z0.000000 I-0.590251 J-0.900835
G02 X55.337460 Y66.166394 Z0.000000 I-8.332521 J-5.541204
G03 X55.545637 Y65.780802 Z0.000000 I4.934074 J2.414858
G03 X55.596894 Y65.728580 Z0.000000 I0.131806 J0.078105
G02 X55.641266 Y65.676950 Z0.000000 I-0.059177 J-0.095742
G02 X55.663933 Y65.571224 Z0.000000 I-0.261298 J-0.111313
G03 X55.690021 Y65.462733 Z0.000000 I0.262288 J0.005689
G03 X55.796157 Y65.298161 Z0.000000 I0.721333 J0.348694
G03 X55.945379 Y65.197196 Z0.000000 I0.249741 J0.208351
G03 X56.142265 Y65.185683 Z0.000000 I0.120454 J0.370658
G03 X56.371173 Y65.314183 Z0.000000 I-0.083308 J0.416541
G03 X56.356914 Y65.418351 Z0.000000 I-0.050082 J0.046204
G02 X56.203641 Y65.741534 Z0.000000 I0.173069 J0.280017
G02 X56.450806 Y66.127931 Z0.000000 I0.536566 J-0.070973
G02 X56.522180 Y66.131172 Z0.000000 I0.038525 J-0.060896
G02 X56.667839 Y66.016768 Z0.000000 I-0.220721 J-0.430952
G03 X56.821036 Y65.874550 Z0.000000 I0.720436 J0.622429
G03 X57.049532 Y65.733615 Z0.000000 I0.935678 J1.261306
G02 X57.283292 Y65.597901 Z0.000000 I-1.032436 J-2.047507
G02 X57.444949 Y65.471741 Z0.000000 I-0.729299 J-1.101147
G03 X57.619019 Y65.389285 Z0.000000 I0.221270 J0.242151
G03 X58.318424 Y65.344732 Z0.000000 I0.624875 J4.297403
G02 X59.032315 Y65.323264 Z0.000000 I0.130273 J-7.548399
G02 X59.219764 Y65.274909 Z0.000000 I-0.042959 J-0.554040
G03 X59.392693 Y65.265116 Z0.000000 I0.099054 J0.217399
G03 X59.744652 Y65.445586 Z0.000000 I-0.385225 J1.184716
G02 X60.099528 Y65.680516 Z0.000000 I2.599612 J-3.541372
G02 X60.405428 Y65.838369 Z0.000000 I1.468470 J-2.470396
G03 X60.709009 Y65.992855 Z0.000000 I-1.270510 J2.872200
G03 X60.763382 Y66.045695 Z0.000000 I-0.077984 J0.134642
G02 X60.818367 Y66.089212 Z0.000000 I0.087499 J-0.054062
G02 X60.965716 Y66.113114 Z0.000000 I0.147347 J-0.442214
G03 X61.123321 Y66.130942 Z0.000000 I0.000002 J0.705543
G03 X61.424166 Y66.218178 Z0.000000 I-0.614651 J2.682081
G02 X61.725590 Y66.275128 Z0.000000 I0.336053 J-0.952501
G02 X62.144190 Y66.242876 Z0.000000 I0.064864 J-1.890780
G03 X62.567315 Y66.176107 Z0.000000 I1.268588 J6.665176
G03 X62.715385 Y66.171134 Z0.000000 I0.101175 J0.805598
G02 X62.830377 Y66.133496 Z0.000000 I0.009480 J-0.165518
G02 X62.906003 Y66.013782 Z0.000000 I-0.144321 J-0.174916
G03 X62.990070 Y65.893679 Z0.000000 I0.199278 J0.050013
G03 X63.218694 Y65.802010 Z0.000000 I0.325253 J0.480253
G02 X63.476893 Y65.725981 Z0.000000 I-0.188943 J-1.118109
G02 X63.718160 Y65.587687 Z0.000000 I-0.477191 J-1.112111
G03 X63.951535 Y65.434193 Z0.000000 I1.540444 J2.087954
G03 X64.007171 Y65.419156 Z0.000000 I0.055636 J0.095408
G02 X64.436016 Y65.246809 Z0.000000 I-0.000002 J-0.619718
G02 X64.612319 Y64.839056 Z0.000000 I-0.396176 J-0.413289
G02 X64.563348 Y64.765888 Z0.000000 I-0.078061 J-0.000726
G02 X64.363617 Y64.739206 Z0.000000 I-0.152321 J0.379333
G03 X64.241644 Y64.718187 Z0.000000 I-0.025359 J-0.217253
G01 X64.238091 Y64.677407 Z0.000000
G03 X64.369800 Y64.607306 Z0.000000 I0.310631 J0.424850
G03 X64.505392 Y64.580776 Z0.000000 I0.153442 J0.424468
G02 X64.881227 Y64.536653 Z0.000000 I-0.096281 J-2.442814
G02 X65.342217 Y64.416092 Z0.000000 I-0.749094 J-3.805937
G03 X65.689236 Y64.302302 Z0.000000 I142.444730 J433.822324
G03 X66.015876 Y64.195492 Z0.000000 I127.489470 J389.325932
G03 X66.339247 Y64.116519 Z0.000000 I0.679590 J2.081191
G03 X66.410016 Y64.130510 Z0.000000 I0.016721 J0.101397
G02 X66.477833 Y64.136500 Z0.000000 I0.039865 J-0.064455
G02 X66.832378 Y63.962935 Z0.000000 I-0.940127 J-2.369332
G03 X67.194924 Y63.781656 Z0.000000 I1.491149 J2.529014
G03 X67.334911 Y63.753674 Z0.000000 I0.139988 J0.336175
G02 X67.471755 Y63.725713 Z0.000000 I-0.000001 J-0.348853
G02 X67.614064 Y63.634631 Z0.000000 I-0.200272 J-0.469623
G03 X67.758742 Y63.549144 Z0.000000 I0.281226 J0.310777
G03 X67.966506 Y63.513189 Z0.000000 I0.214939 J0.623758
G02 X68.137980 Y63.465611 Z0.000000 I-0.003950 J-0.347024
G02 X68.177763 Y63.389347 Z0.000000 I-0.040924 J-0.069856
G03 X68.212637 Y63.309030 Z0.000000 I0.092830 J-0.007422
G03 X68.330452 Y63.267903 Z0.000000 I0.117816 J0.148186
G02 X68.477360 Y63.239730 Z0.000000 I-0.000001 J-0.397120
G02 X68.548276 Y63.181162 Z0.000000 I-0.055528 J-0.139454
G03 X68.619570 Y63.123286 Z0.000000 I0.123027 J0.078700
G03 X68.777257 Y63.094422 Z0.000000 I0.157688 J0.416298
G02 X68.905913 Y63.049554 Z0.000000 I-0.000001 J-0.206895
G02 X68.950870 Y62.956558 Z0.000000 I-0.073928 J-0.093103
G03 X68.989189 Y62.850300 Z0.000000 I0.166484 J-0.000000
G03 X69.086766 Y62.792549 Z0.000000 I0.129347 J0.107238
G02 X69.392972 Y62.680946 Z0.000000 I-0.194299 J-1.008975
G02 X69.609996 Y62.500732 Z0.000000 I-0.375050 J-0.672439
G03 X69.873644 Y62.303843 Z0.000000 I0.541538 J0.450188
