%
(Header)
(Generated by gcodetools from Inkscape.)
(Using default header. To add your own header create file "header" in the output dir.)
M3
(Header end.)
G21 (All units in mm)

(Start cutting path id: path846)
(Change tool to Cylindrical cutter)

G00 Z5.000000
G00 X123.256062 Y0.594086

G01 Z0.000000 F1000.0(Penetrate)
G02 X121.520376 Y0.715428 Z0.000000 I0.613426 J21.248868 F1100.000000
G02 X121.449123 Y0.795043 Z0.000000 I0.008852 J0.079614
G02 X121.459257 Y0.835271 Z0.000000 I0.084917 J-0.000000
G02 X121.633764 Y1.138282 Z0.000000 I5.313039 J-2.858086
G03 X121.936817 Y2.087014 Z0.000000 I-1.766838 J1.087148
G03 X121.775372 Y3.256081 Z0.000000 I-2.906205 J0.194342
G02 X121.810209 Y3.681869 Z0.000000 I0.490486 J0.174189
G02 X122.123544 Y3.886626 Z0.000000 I0.349784 J-0.193143
G03 X122.620623 Y3.967568 Z0.000000 I-0.327929 J3.580677
G03 X122.745785 Y4.033283 Z0.000000 I-0.065049 J0.275943
G02 X122.862429 Y4.116328 Z0.000000 I0.411248 J-0.454198
G02 X122.927635 Y4.133032 Z0.000000 I0.065205 J-0.118909
G03 X123.396991 Y4.341317 Z0.000000 I0.000002 J0.632969
G03 X123.698388 Y4.984983 Z0.000000 I-0.898805 J0.813263
G03 X123.705789 Y5.042635 Z0.000000 I-0.984527 J0.155685
G03 X123.714589 Y5.139913 Z0.000000 I-5.858446 J0.578993
G02 X123.749032 Y5.209030 Z0.000000 I0.106514 J-0.009938
G02 X123.822139 Y5.237352 Z0.000000 I0.073107 J-0.080192
G03 X124.093014 Y5.364070 Z0.000000 I0.000001 J0.352871
G03 X124.413361 Y5.945517 Z0.000000 I-1.334620 J1.114278
G03 X124.630324 Y6.781964 Z0.000000 I-7.135302 J2.297163
G03 X124.606135 Y6.915868 Z0.000000 I-0.182265 J0.036212
G02 X124.601827 Y6.971117 Z0.000000 I0.051548 J0.031812
G02 X124.665335 Y7.056826 Z0.000000 I0.206556 J-0.086669
G01 X124.714015 Y7.034862 Z0.000000
G02 X124.762024 Y3.843891 Z0.000000 I-105.997822 J-3.190590
G01 X124.762012 Y0.550681 Z0.000000
G01 X123.256062 Y0.594086 Z0.000000
G00 Z5.000000

(End cutting path id: path846)


(Start cutting path id: path846)
(Change tool to Cylindrical cutter)

G00 Z5.000000
G00 X121.385577 Y1.922793

G01 Z0.000000 F1000.0(Penetrate)
G02 X121.240779 Y1.441761 Z0.000000 I-1.519175 J0.194985 F1100.000000
G02 X120.883633 Y0.902275 Z0.000000 I-2.280237 J1.121582
G01 X120.702132 Y0.692155 Z0.000000
G01 X118.590932 Y0.688163 Z0.000000
G02 X116.479748 Y0.686285 Z0.000000 I-2.188274 J1273.126305
G02 X116.266562 Y0.687351 Z0.000000 I-0.001275 J21.049944
G02 X116.105067 Y0.828792 Z0.000000 I0.002766 J0.166075
G02 X116.175965 Y1.291692 Z0.000000 I0.781443 J0.117194
G03 X116.435800 Y2.080297 Z0.000000 I-2.783308 J1.354173
G03 X116.533172 Y3.213686 Z0.000000 I-5.712305 J1.061632
G03 X116.483330 Y4.137568 Z0.000000 I-11.013066 J-0.130846
G03 X116.419496 Y4.400524 Z0.000000 I-0.950021 J-0.091398
G02 X116.395419 Y4.711349 Z0.000000 I0.484564 J0.193880
G02 X116.536118 Y4.907765 Z0.000000 I0.305506 J-0.070240
G02 X116.766419 Y4.967107 Z0.000000 I0.210594 J-0.340743
G02 X116.837018 Y4.892944 Z0.000000 I-0.003653 J-0.074162
G03 X116.930029 Y4.618715 Z0.000000 I0.450764 J-0.000002
G03 X117.618644 Y3.873256 Z0.000000 I4.393841 J3.368012
G02 X117.751779 Y3.693918 Z0.000000 I-0.378110 J-0.419783
G02 X117.771403 Y3.548453 Z0.000000 I-0.220794 J-0.103843
G03 X117.767994 Y3.391684 Z0.000000 I0.518813 J-0.089703
G03 X117.804202 Y3.294380 Z0.000000 I0.227294 J0.029190
G03 X118.166323 Y3.071553 Z0.000000 I0.420519 J0.277735
G03 X118.641352 Y3.196717 Z0.000000 I0.077951 J0.668164
G03 X118.689280 Y3.292249 Z0.000000 I-0.069030 J0.094421
G03 X118.638353 Y3.512458 Z0.000000 I-0.523034 J-0.004967
G02 X118.541305 Y3.751658 Z0.000000 I1.963474 J0.935902
G02 X118.525944 Y3.845048 Z0.000000 I0.276202 J0.093389
G03 X118.490544 Y3.912877 Z0.000000 I-0.082681 J0.000000
G03 X118.331054 Y3.980884 Z0.000000 I-0.242717 J-0.348197
G02 X118.153382 Y4.034258 Z0.000000 I0.193040 J0.965000
G01 X118.135345 Y4.060465 Z0.000000
G03 X118.121249 Y4.095695 Z0.000000 I-0.055618 J-0.001818
G03 X117.583187 Y4.678722 Z0.000000 I-17.635514 J-15.735610
G02 X117.045633 Y5.261606 Z0.000000 I16.773785 J16.008606
G01 X117.033309 Y5.295845 Z0.000000
G02 X117.044244 Y5.331871 Z0.000000 I0.072886 J-0.002451
G02 X117.154510 Y5.491079 Z0.000000 I1.647476 J-1.023229
G01 X117.274270 Y5.646847 Z0.000000
G01 X117.867279 Y5.247476 Z0.000000
G03 X118.463335 Y4.858063 Z0.000000 I14.232356 J21.133932
G03 X118.497657 Y4.848105 Z0.000000 I0.034323 J0.054174
G02 X118.531955 Y4.838501 Z0.000000 I-0.000000 J-0.066045
G02 X118.818267 Y4.653223 Z0.000000 I-3.129357 J-5.149671
G03 X119.106541 Y4.474533 Z0.000000 I2.014184 J2.927530
G03 X119.169016 Y4.458342 Z0.000000 I0.062475 J0.112441
G02 X119.233265 Y4.445319 Z0.000000 I-0.000001 J-0.165000
G02 X119.514586 Y4.312236 Z0.000000 I-1.446649 J-3.421905
G03 X120.108051 Y4.053657 Z0.000000 I2.067937 J3.935812
G03 X120.389714 Y4.004595 Z0.000000 I0.287626 J0.818202
G02 X120.519566 Y3.981389 Z0.000000 I-0.002696 J-0.389992
G02 X120.572194 Y3.938654 Z0.000000 I-0.035016 J-0.096896
G03 X120.626332 Y3.898747 Z0.000000 I0.076788 J0.047495
G03 X120.822874 Y3.873693 Z0.000000 I0.196545 J0.758413
G02 X121.087009 Y3.771387 Z0.000000 I-0.000001 J-0.392130
G02 X121.189313 Y3.539733 Z0.000000 I-0.211122 J-0.231653
G03 X121.211196 Y3.373866 Z0.000000 I0.639537 J-0.000002
G03 X121.246612 Y3.326267 Z0.000000 I0.077760 J0.020882
G02 X121.281669 Y3.276866 Z0.000000 I-0.040930 J-0.066185
G02 X121.350440 Y2.856392 Z0.000000 I-3.765222 J-0.831689
G03 X121.401100 Y2.422677 Z0.000000 I22.719067 J2.433842
G03 X121.414338 Y2.352047 Z0.000000 I0.599863 J0.075883
G02 X121.420969 Y2.281405 Z0.000000 I-0.214463 J-0.055762
G02 X121.385637 Y1.923283 Z0.000000 I-5.766028 J0.388068
G01 X121.385577 Y1.922793 Z0.000000
G00 Z5.000000

(End cutting path id: path846)


(Start cutting path id: path846)
(Change tool to Cylindrical cutter)

G00 Z5.000000
G00 X115.926178 Y2.184263

G01 Z0.000000 F1000.0(Penetrate)
G03 X115.874094 Y2.021750 Z0.000000 I28.550924 J-9.239998 F1100.000000
G03 X115.733436 Y1.577213 Z0.000000 I258.306845 J-81.976575
G02 X115.578564 Y1.138901 Z0.000000 I-6.479196 J2.042824
G02 X115.478643 Y0.927624 Z0.000000 I-1.603429 J0.629052
G01 X115.364113 Y0.722665 Z0.000000
G01 X113.292163 Y0.709972 Z0.000000
G02 X111.238979 Y0.746500 Z0.000000 I-0.263837 J42.891781
G02 X111.105373 Y0.801180 Z0.000000 I0.008861 J0.212219
G02 X111.008601 Y0.913434 Z0.000000 I0.402953 J0.445218
G02 X110.988694 Y0.976250 Z0.000000 I0.098926 J0.065914
G03 X110.966560 Y1.039060 Z0.000000 I-0.107858 J-0.002703
G03 X110.690745 Y1.366162 Z0.000000 I-3.542671 J-2.707384
G02 X110.195892 Y2.067548 Z0.000000 I2.351218 J2.184131
G02 X110.081099 Y2.536340 Z0.000000 I0.899821 J0.468789
G02 X110.108798 Y2.875577 Z0.000000 I2.091306 J-0.000008
G02 X110.146101 Y2.931226 Z0.000000 I0.079710 J-0.013104
G03 X110.189402 Y2.983434 Z0.000000 I-0.055954 J0.090470
G03 X110.211101 Y3.100047 Z0.000000 I-0.302502 J0.116615
G02 X110.291380 Y3.427700 Z0.000000 I0.708794 J-0.000003
G02 X110.674574 Y3.989087 Z0.000000 I2.551500 J-1.330142
G03 X110.798789 Y4.263283 Z0.000000 I-0.394045 J0.343741
G03 X110.730776 Y4.407903 Z0.000000 I-0.146082 J0.019602
G02 X110.706593 Y4.512123 Z0.000000 I0.040108 J0.064222
G02 X110.842637 Y4.587708 Z0.000000 I0.136043 J-0.084637
G03 X112.152032 Y4.786114 Z0.000000 I0.000016 J4.419825
G03 X113.010859 Y5.260250 Z0.000000 I-0.718436 J2.316226
G02 X113.143473 Y5.346406 Z0.000000 I0.390947 J-0.456617
G02 X113.235629 Y5.367218 Z0.000000 I0.092156 J-0.193625
G03 X113.331690 Y5.383644 Z0.000000 I0.000001 J0.289091
G03 X113.604370 Y5.497137 Z0.000000 I-0.881730 J2.502784
G02 X113.875754 Y5.616272 Z0.000000 I1.770267 J-3.663936
G02 X113.932250 Y5.627056 Z0.000000 I0.056495 J-0.142590
G03 X113.986766 Y5.640836 Z0.000000 I0.000000 J0.114720
G03 X114.176521 Y5.759000 Z0.000000 I-0.860517 J1.593318
G02 X114.343764 Y5.813990 Z0.000000 I0.172157 J-0.241769
G02 X114.430141 Y5.763199 Z0.000000 I0.001592 J-0.096136
G02 X114.487196 Y5.632699 Z0.000000 I-0.791043 J-0.423568
G02 X114.498440 Y5.565731 Z0.000000 I-0.193795 J-0.066968
G02 X114.450250 Y5.438892 Z0.000000 I-0.191021 J0.000001
G02 X113.637717 Y4.596503 Z0.000000 I-10.625839 J9.436182
G03 X113.158011 Y4.105532 Z0.000000 I6.817755 J-7.141155
G03 X113.133465 Y4.043176 Z0.000000 I0.069562 J-0.063392
G02 X113.107831 Y3.984069 Z0.000000 I-0.084573 J0.001566
G02 X112.909124 Y3.825734 Z0.000000 I-0.903722 J0.930296
G03 X112.636318 Y3.516866 Z0.000000 I0.416073 J-0.642405
G03 X112.653842 Y3.298468 Z0.000000 I0.194719 J-0.094278
G03 X112.770472 Y3.194214 Z0.000000 I0.280590 J0.196533
G03 X112.910591 Y3.158505 Z0.000000 I0.140120 J0.257054
G03 X113.221818 Y3.265828 Z0.000000 I0.000002 J0.504919
G03 X113.329143 Y3.486132 Z0.000000 I-0.172448 J0.220305
G02 X113.350522 Y3.545063 Z0.000000 I0.091912 J-0.000000
G02 X113.670194 Y3.894331 Z0.000000 I4.024113 J-3.362203
G03 X114.002625 Y4.242316 Z0.000000 I-7.150075 J7.163264
G03 X114.185346 Y4.459902 Z0.000000 I-2.610511 J2.377728
G02 X114.363797 Y4.681492 Z0.000000 I5.758018 J-4.454386
G02 X114.607588 Y4.963655 Z0.000000 I9.493686 J-7.956217
G01 X114.855719 Y5.242248 Z0.000000
G01 X115.034358 Y5.086016 Z0.000000
G02 X115.174497 Y4.832184 Z0.000000 I-0.280066 J-0.320223
G02 X115.143956 Y4.392309 Z0.000000 I-0.971728 J-0.153530
G03 X115.083462 Y4.163353 Z0.000000 I3.042774 J-0.926416
G03 X115.019954 Y3.840578 Z0.000000 I5.988475 J-1.345911
G02 X114.800743 Y2.984252 Z0.000000 I-5.253248 J0.888556
G02 X114.601799 Y2.634015 Z0.000000 I-1.046114 J0.362601
G03 X114.447481 Y2.428856 Z0.000000 I1.795564 J-1.511220
G03 X114.433469 Y2.382757 Z0.000000 I0.068824 J-0.046100
G03 X114.546718 Y2.102454 Z0.000000 I0.403510 J-0.000001
G03 X114.813487 Y1.989217 Z0.000000 I0.266771 J0.257618
G03 X115.103721 Y2.103537 Z0.000000 I0.000002 J0.425576
G03 X115.165858 Y2.317797 Z0.000000 I-0.148436 J0.159188
G02 X115.156461 Y2.450246 Z0.000000 I0.348730 J0.091299
G02 X115.196859 Y2.594363 Z0.000000 I0.469865 J-0.053988
G03 X115.314787 Y2.928266 Z0.000000 I-1.650989 J0.770872
G03 X115.512734 Y3.873056 Z0.000000 I-13.146021 J3.247410
G02 X115.635374 Y4.484739 Z0.000000 I11.425634 J-1.972666
G02 X115.681107 Y4.609248 Z0.000000 I0.509542 J-0.116503
G02 X115.755913 Y4.656411 Z0.000000 I0.077712 J-0.040354
G02 X115.867737 Y4.615447 Z0.000000 I0.005270 J-0.158725
G02 X115.936961 Y4.478127 Z0.000000 I-0.143302 J-0.158349
G02 X115.985572 Y3.424534 Z0.000000 I-9.996628 J-0.989146
G02 X115.956410 Y2.350091 Z0.000000 I-26.364946 J0.177964
G02 X115.926168 Y2.184133 Z0.000000 I-0.636607 J0.030274
G01 X115.926178 Y2.184263 Z0.000000
G00 Z5.000000

(End cutting path id: path846)


(Start cutting path id: path846)
(Change tool to Cylindrical cutter)

G00 Z5.000000
G00 X116.825023 Y6.309225

G01 Z0.000000 F1000.0(Penetrate)
G03 X116.770195 Y6.048402 Z0.000000 I5.971344 J-1.391409 F1100.000000
G03 X116.746521 Y5.891045 Z0.000000 I2.164883 J-0.406159
G02 X116.550525 Y5.519647 Z0.000000 I-0.573294 J0.065127
G02 X116.022329 Y5.265086 Z0.000000 I-0.735618 J0.851093
G02 X115.200842 Y5.511753 Z0.000000 I-0.172191 J0.917797
G02 X114.828233 Y6.420325 Z0.000000 I0.851115 J0.879736
G02 X114.903992 Y6.871347 Z0.000000 I1.605683 J-0.037837
G02 X115.115526 Y7.319373 Z0.000000 I1.795037 J-0.573570
G02 X115.192020 Y7.408914 Z0.000000 I0.369413 J-0.238139
G02 X115.398257 Y7.572137 Z0.000000 I1.462816 J-1.636410
G02 X115.630053 Y7.658935 Z0.000000 I0.284988 J-0.408157
G02 X116.050438 Y7.642224 Z0.000000 I0.153680 J-1.430006
G02 X116.632523 Y7.354157 Z0.000000 I-0.223272 J-1.183289
G02 X116.850895 Y6.922122 Z0.000000 I-0.447435 J-0.497361
G02 X116.860476 Y6.570641 Z0.000000 I-2.473670 J-0.243299
G02 X116.824993 Y6.309216 Z0.000000 I-1.444373 J0.062923
G01 X116.825023 Y6.309225 Z0.000000
G00 Z5.000000

(End cutting path id: path846)


(Start cutting path id: path846)
(Change tool to Cylindrical cutter)

G00 Z5.000000
G00 X114.940719 Y7.919610

G01 Z0.000000 F1000.0(Penetrate)
G01 X114.788098 Y7.776230 Z0.000000 F1100.000000
G01 X114.497089 Y8.005984 Z0.000000
G02 X114.209062 Y8.239339 Z0.000000 I9.118738 J11.549517
G02 X113.855641 Y8.539210 Z0.000000 I14.679743 J17.659456
G03 X113.500698 Y8.836826 Z0.000000 I-9.519357 J-10.992502
G03 X113.361742 Y8.940123 Z0.000000 I-1.281215 J-1.578396
G02 X113.225862 Y9.046696 Z0.000000 I0.709207 J1.044150
G02 X112.911304 Y9.346126 Z0.000000 I5.345209 J5.930209
G03 X112.586965 Y9.616701 Z0.000000 I-1.617856 J-1.609645
G03 X112.447045 Y9.665516 Z0.000000 I-0.159219 J-0.231437
G03 X112.148425 Y9.594897 Z0.000000 I-0.035544 J-0.516382
G03 X112.048244 Y9.430150 Z0.000000 I0.103866 J-0.175993
G03 X112.154748 Y9.066476 Z0.000000 I0.567627 J-0.031200
G03 X112.401612 Y8.940126 Z0.000000 I0.246866 J0.177993
G02 X112.634957 Y8.868428 Z0.000000 I-0.000001 J-0.415570
G02 X113.296250 Y8.333043 Z0.000000 I-2.834984 J-4.177792
G03 X113.565974 Y8.094765 Z0.000000 I3.010283 J3.135762
G03 X113.913768 Y7.831454 Z0.000000 I4.028557 J4.959759
G02 X114.455639 Y7.397260 Z0.000000 I-3.247254 J-4.607770
G02 X114.498406 Y7.300668 Z0.000000 I-0.087694 J-0.096592
G02 X114.477225 Y7.212705 Z0.000000 I-0.193243 J0.000001
G02 X114.417206 Y7.141644 Z0.000000 I-0.182602 J0.093352
G02 X112.846676 Y6.629251 Z0.000000 I-1.546456 J2.076920
G02 X112.113456 Y7.162962 Z0.000000 I0.007256 J0.780478
G03 X112.083383 Y7.229212 Z0.000000 I-0.331997 J-0.110751
G03 X112.000966 Y7.354769 Z0.000000 I-1.280103 J-0.750449
G03 X111.904283 Y7.403955 Z0.000000 I-0.096894 J-0.070845
G03 X111.777346 Y7.355162 Z0.000000 I-0.000332 J-0.188648
G02 X111.632386 Y7.257269 Z0.000000 I-0.415802 J0.459449
G02 X111.495396 Y7.218156 Z0.000000 I-0.179607 J0.369599
G03 X111.347987 Y7.201593 Z0.000000 I0.866420 J-8.375684
G03 X111.299116 Y7.194476 Z0.000000 I0.124313 J-1.024974
G01 X111.271268 Y7.168530 Z0.000000
G03 X111.250415 Y6.996062 Z0.000000 I0.702805 J-0.172470
G03 X111.428627 Y6.767447 Z0.000000 I0.235742 J-0.000001
G03 X112.965894 Y6.564370 Z0.000000 I1.646258 J6.541971
G02 X114.239136 Y6.508281 Z0.000000 I-0.369538 J-22.868093
G02 X114.305853 Y6.467875 Z0.000000 I-0.006153 J-0.085445
G02 X114.297883 Y6.266564 Z0.000000 I-0.153329 J-0.094743
G02 X114.020022 Y6.078020 Z0.000000 I-0.403764 J0.296018
G03 X113.753107 Y6.002404 Z0.000000 I1.589986 J-6.121413
G03 X113.296661 Y5.855866 Z0.000000 I5.561578 J-18.107678
G02 X112.840578 Y5.707833 Z0.000000 I-8.053752 J24.036606
G02 X112.375670 Y5.566533 Z0.000000 I-7.803291 J24.839164
G03 X111.913553 Y5.418375 Z0.000000 I2.786717 J-9.486727
G03 X111.661109 Y5.317955 Z0.000000 I1.019323 J-2.929980
G02 X111.407326 Y5.230803 Z0.000000 I-0.601187 J1.337552
G02 X111.185449 Y5.201974 Z0.000000 I-0.241491 J0.990355
G03 X110.958791 Y5.188289 Z0.000000 I0.052998 J-2.761728
G03 X110.258088 Y5.107607 Z0.000000 I2.700230 J-26.533819
G02 X109.482784 Y5.104632 Z0.000000 I-0.399586 J3.108304
G02 X108.869469 Y5.275296 Z0.000000 I0.253321 J2.097722
G02 X108.657787 Y5.476632 Z0.000000 I0.180809 J0.402048
G02 X108.457012 Y6.081874 Z0.000000 I1.869839 J0.956199
G02 X108.455401 Y6.365636 Z0.000000 I0.866212 J0.146802
G02 X108.539414 Y6.603957 Z0.000000 I0.688090 J-0.108595
G01 X108.671415 Y6.833721 Z0.000000
G01 X108.495685 Y7.023339 Z0.000000
G02 X108.379333 Y7.234722 Z0.000000 I0.365940 J0.339139
G02 X108.338147 Y7.618064 Z0.000000 I1.231343 J0.326177
G03 X108.337795 Y8.015702 Z0.000000 I-4.343697 J0.194969
G03 X108.316849 Y8.062671 Z0.000000 I-0.070512 J-0.003290
G02 X108.259395 Y8.312876 Z0.000000 I0.170956 J0.170955
G02 X108.707923 Y9.189923 Z0.000000 I3.364121 J-1.167222
G03 X108.813566 Y9.369973 Z0.000000 I-1.057423 J0.741451
G03 X108.905965 Y9.600215 Z0.000000 I-1.642454 J0.792796
G02 X109.006495 Y9.815863 Z0.000000 I0.923897 J-0.299443
G02 X109.077376 Y9.874257 Z0.000000 I0.122766 J-0.076802
G03 X109.141339 Y9.931487 Z0.000000 I-0.043182 J0.112622
G03 X109.172676 Y10.058641 Z0.000000 I-0.249287 J0.128876
G02 X109.296845 Y10.248312 Z0.000000 I0.209216 J-0.001484
G02 X109.858277 Y10.363627 Z0.000000 I0.543433 J-1.221437
G03 X112.143057 Y10.548132 Z0.000000 I0.164322 J12.203900
G03 X112.902099 Y10.900625 Z0.000000 I-0.282648 J1.602132
G02 X113.039833 Y10.892421 Z0.000000 I0.064500 J-0.077424
G02 X113.134258 Y10.655057 Z0.000000 I-0.251126 J-0.237363
G03 X113.200266 Y10.371583 Z0.000000 I0.641695 J-0.000002
G03 X113.677544 Y9.551742 Z0.000000 I6.114907 J3.011008
G03 X114.489051 Y8.525959 Z0.000000 I7.472452 J5.077642
G03 X114.982089 Y8.128013 Z0.000000 I1.563262 J1.432417
G02 X115.015322 Y8.054153 Z0.000000 I-0.035227 J-0.060257
G02 X114.940689 Y7.919589 Z0.000000 I-0.247182 J0.049118
G01 X114.940719 Y7.919610 Z0.000000
G00 Z5.000000

(End cutting path id: path846)


(Start cutting path id: path846)
(Change tool to Cylindrical cutter)

G00 Z5.000000
G00 X114.758241 Y11.408604

G01 Z0.000000 F1000.0(Penetrate)
G03 X114.712300 Y11.389596 Z0.000000 I-0.000000 J-0.065021 F1100.000000
G03 X114.693241 Y11.343634 Z0.000000 I0.045889 J-0.045962
G03 X114.712251 Y11.297728 Z0.000000 I0.064932 J-0.000000
G03 X114.758241 Y11.278674 Z0.000000 I0.045990 J0.045974
G03 X114.804185 Y11.297682 Z0.000000 I0.000000 J0.065028
G03 X114.823241 Y11.343634 Z0.000000 I-0.045876 J0.045952
G03 X114.804232 Y11.389546 Z0.000000 I-0.064949 J0.000000
G03 X114.758241 Y11.408604 Z0.000000 I-0.045991 J-0.045963
G01 X114.758241 Y11.408604 Z0.000000
G00 Z5.000000

(End cutting path id: path846)


(Start cutting path id: path846)
(Change tool to Cylindrical cutter)

G00 Z5.000000
G00 X115.034347 Y13.145385

G01 Z0.000000 F1000.0(Penetrate)
G02 X114.983992 Y13.124700 Z0.000000 I-0.152100 J0.298630 F1100.000000
G02 X114.693307 Y13.036707 Z0.000000 I-3.174493 J9.962866
G03 X114.402431 Y12.948550 Z0.000000 I2.818269 J-9.822836
G03 X114.271066 Y12.901841 Z0.000000 I0.653153 J-2.045011
G02 X113.793707 Y12.755143 Z0.000000 I-1.203074 J3.064815
G02 X113.149406 Y12.648379 Z0.000000 I-1.241059 J5.492070
G03 X112.552703 Y12.568853 Z0.000000 I1.210978 J-11.364630
G03 X112.477025 Y12.540697 Z0.000000 I0.032569 J-0.203321
G03 X112.410464 Y12.384180 Z0.000000 I0.077483 J-0.125363
G03 X112.607303 Y11.938504 Z0.000000 I1.181600 J0.255564
G02 X112.712687 Y11.507700 Z0.000000 I-0.488393 J-0.347763
G02 X112.524101 Y11.343653 Z0.000000 I-0.188586 J0.026374
G03 X112.383547 Y11.326461 Z0.000000 I-0.000002 J-0.583141
G03 X112.327981 Y11.294934 Z0.000000 I0.028589 J-0.115118
G02 X112.271169 Y11.262466 Z0.000000 I-0.087076 J0.086427
G02 X111.846190 Y11.172278 Z0.000000 I-1.335294 J5.245752
G03 X111.413198 Y11.096062 Z0.000000 I7.039926 J-41.262443
G03 X110.828150 Y10.987553 Z0.000000 I13.631172 J-75.126820
G02 X110.240225 Y10.919283 Z0.000000 I-0.769270 J4.059113
G02 X109.139189 Y10.913339 Z0.000000 I-0.627655 J14.285257
G02 X108.036925 Y10.965355 Z0.000000 I1.299323 J39.239022
G02 X107.856220 Y10.991964 Z0.000000 I0.065810 J1.073832
G03 X107.741112 Y10.953803 Z0.000000 I-0.026528 J-0.112667
G03 X107.677589 Y10.779597 Z0.000000 I0.207112 J-0.174207
G03 X107.698341 Y10.532987 Z0.000000 I1.475601 J-0.000005
G03 X107.731288 Y10.463464 Z0.000000 I0.139847 J0.023705
G02 X108.280911 Y9.305219 Z0.000000 I-1.795740 J-1.561663
G02 X108.095180 Y8.347938 Z0.000000 I-1.356895 J-0.233395
G02 X107.970315 Y8.288011 Z0.000000 I-0.109189 J0.067459
G02 X107.681930 Y8.398779 Z0.000000 I0.078002 J0.633864
G03 X107.537340 Y8.436240 Z0.000000 I-0.122435 J-0.174800
G03 X107.417390 Y8.371170 Z0.000000 I0.018494 J-0.177185
G03 X107.339330 Y8.204631 Z0.000000 I0.297529 J-0.241020
G03 X107.195256 Y7.251197 Z0.000000 I10.332054 J-2.048889
G02 X107.143535 Y7.018610 Z0.000000 I-1.036222 J0.108383
G01 X107.105255 Y6.991357 Z0.000000
G02 X107.057727 Y7.005053 Z0.000000 I0.000000 J0.089319
G02 X106.924356 Y7.105038 Z0.000000 I0.540202 J0.859528
G03 X106.308211 Y7.609804 Z0.000000 I-6.752361 J-7.613861
G03 X106.215318 Y7.640961 Z0.000000 I-0.092894 J-0.122905
G02 X106.177681 Y7.651140 Z0.000000 I0.000000 J0.074669
G02 X105.902948 Y7.823325 Z0.000000 I2.589199 J4.436512
G03 X105.023460 Y8.292442 Z0.000000 I-2.745132 J-4.087518
G03 X104.705540 Y8.313589 Z0.000000 I-0.190633 J-0.465602
G03 X104.589511 Y8.246995 Z0.000000 I0.064498 J-0.246754
G03 X104.481109 Y8.088731 Z0.000000 I0.371397 J-0.370643
G02 X104.384601 Y7.921318 Z0.000000 I-0.830269 J0.367098
G01 X104.344288 Y7.900809 Z0.000000
G02 X104.294456 Y7.913558 Z0.000000 I0.000000 J0.103768
G02 X104.018039 Y8.079451 Z0.000000 I1.954529 J3.569954
G03 X103.744274 Y8.256253 Z0.000000 I-13.452682 J-20.530070
G03 X103.616570 Y8.334960 Z0.000000 I-2.785725 J-4.376964
G03 X103.487646 Y8.411769 Z0.000000 I-123.335935 J-206.871281
G03 X102.968041 Y8.721007 Z0.000000 I-987.890306 J-1659.335892
G02 X102.453076 Y9.035801 Z0.000000 I12.874896 J21.640453
G02 X102.415883 Y9.067694 Z0.000000 I0.088236 J0.140531
G03 X102.377863 Y9.097803 Z0.000000 I-0.097671 J-0.084272
G03 X101.928684 Y9.321836 Z0.000000 I-6.426500 J-12.322665
G02 X101.474662 Y9.539896 Z0.000000 I34.404775 J72.215546
G02 X101.361175 Y9.596609 Z0.000000 I2.206713 J4.557752
G03 X101.132161 Y9.624154 Z0.000000 I-0.151524 J-0.293993
G03 X101.051724 Y9.522030 Z0.000000 I0.024612 J-0.102124
G03 X101.139886 Y9.231275 Z0.000000 I0.523524 J-0.000002
G03 X101.700611 Y8.550413 Z0.000000 I3.669193 J2.450442
G02 X102.073738 Y8.120646 Z0.000000 I-2.709642 J-2.729397
G02 X102.626606 Y7.309043 Z0.000000 I-9.174324 J-6.843700
G03 X102.738572 Y7.144923 Z0.000000 I1.929533 J1.196119
G03 X102.821045 Y7.049201 Z0.000000 I0.736643 J0.551292
G02 X102.951413 Y6.816549 Z0.000000 I-0.356744 J-0.352755
G02 X103.227159 Y5.402070 Z0.000000 I-14.222475 J-3.506728
G02 X103.302352 Y4.688217 Z0.000000 I-9.222640 J-1.332343
G02 X103.311355 Y4.136079 Z0.000000 I-5.499204 J-0.365806
G02 X103.241396 Y3.626341 Z0.000000 I-2.505564 J0.084207
G02 X103.170653 Y3.559057 Z0.000000 I-0.087712 J0.021389
G02 X103.057768 Y3.559325 Z0.000000 I-0.055750 J0.291553
G02 X103.008253 Y3.590807 Z0.000000 I0.015510 J0.079074
G03 X102.960927 Y3.638042 Z0.000000 I-0.175603 J-0.128616
G03 X102.812923 Y3.733229 Z0.000000 I-0.883995 J-1.211842
G03 X102.657829 Y3.820517 Z0.000000 I-373.192212 J-662.951506
G03 X102.423164 Y3.952516 Z0.000000 I-584.584832 J-1038.918664
G03 X101.009011 Y4.575077 Z0.000000 I-3.887513 J-6.913119
G03 X100.811856 Y4.481384 Z0.000000 I-0.049365 J-0.150403
G03 X100.794670 Y4.295269 Z0.000000 I0.321858 J-0.123572
G03 X101.024212 Y3.329906 Z0.000000 I9.566743 J1.764788
G02 X101.032271 Y2.995311 Z0.000000 I-0.623860 J-0.182421
G02 X100.927911 Y2.930007 Z0.000000 I-0.085496 J0.020589
G03 X100.748855 Y2.856138 Z0.000000 I-0.036398 J-0.165719
G03 X100.615669 Y2.445053 Z0.000000 I0.710049 J-0.457165
G02 X100.490191 Y1.803492 Z0.000000 I-2.361045 J0.128728
G02 X100.376516 Y1.750759 Z0.000000 I-0.082209 J0.028326
G02 X100.308367 Y1.785971 Z0.000000 I0.131374 J0.337814
G02 X99.755680 Y2.160151 Z0.000000 I15.046008 J22.819148
G02 X98.766064 Y3.041372 Z0.000000 I3.152929 J4.537036
G02 X98.071836 Y4.068178 Z0.000000 I3.624467 J3.198609
G02 X97.704373 Y4.818870 Z0.000000 I34.788704 J17.494318
G02 X97.607769 Y5.042582 Z0.000000 I2.986167 J1.422205
G03 X97.268743 Y5.696693 Z0.000000 I-3.203074 J-1.245240
G03 X96.462982 Y6.768802 Z0.000000 I-9.489600 J-6.293217
G03 X96.164848 Y7.077699 Z0.000000 I-2.548620 J-2.161500
G03 X95.856882 Y7.320966 Z0.000000 I-1.881660 J-2.065529
G02 X95.568219 Y7.563627 Z0.000000 I1.055310 J1.548395
G02 X95.530174 Y7.657234 Z0.000000 I0.096502 J0.093757
G02 X95.583932 Y7.720276 Z0.000000 I0.063843 J-0.000000
G02 X95.745437 Y7.691653 Z0.000000 I0.039513 J-0.247008
G03 X96.830454 Y7.444262 Z0.000000 I0.964243 J1.725958
G03 X98.111564 Y7.836467 Z0.000000 I-0.175053 J2.860228
G02 X98.336945 Y7.909823 Z0.000000 I0.277974 J-0.471140
G01 X98.388293 Y7.863196 Z0.000000
G03 X98.428610 Y7.810462 Z0.000000 I0.054646 J-0.000000
G03 X98.599414 Y7.805825 Z0.000000 I0.094951 J0.349419
G03 X98.807680 Y7.854308 Z0.000000 I-1.262860 J5.896394
G01 X98.813621 Y7.859704 Z0.000000
G02 X98.816979 Y7.868323 Z0.000000 I0.140174 J-0.049646
G02 X98.892542 Y8.045046 Z0.000000 I60.729260 J-25.862022
G03 X98.914115 Y8.203293 Z0.000000 I-0.275166 J0.118106
G03 X98.860473 Y8.282116 Z0.000000 I-0.105755 J-0.014306
G02 X98.832889 Y8.359350 Z0.000000 I0.030448 J0.054417
G02 X99.027258 Y8.706307 Z0.000000 I1.364490 J-0.536481
G02 X99.326038 Y9.021731 Z0.000000 I1.556749 J-1.175384
G02 X99.458408 Y9.070116 Z0.000000 I0.132369 J-0.156869
G03 X99.601983 Y9.093218 Z0.000000 I0.000002 J0.457684
G03 X99.655018 Y9.135075 Z0.000000 I-0.030984 J0.093785
G01 X99.650950 Y9.175377 Z0.000000
G03 X99.593888 Y9.200045 Z0.000000 I-0.057062 J-0.053664
G02 X99.446920 Y9.332830 Z0.000000 I0.000001 J0.147726
G02 X99.557579 Y9.557328 Z0.000000 I0.234655 J0.023856
G03 X99.600446 Y9.609957 Z0.000000 I-0.054461 J0.088129
G03 X99.624140 Y9.739801 Z0.000000 I-0.368063 J0.134249
G02 X99.641989 Y9.879386 Z0.000000 I0.615163 J-0.007728
G02 X99.754061 Y10.265732 Z0.000000 I4.819142 J-1.188519
G03 X99.860499 Y10.652899 Z0.000000 I-3.492307 J1.168298
G03 X99.882386 Y10.856918 Z0.000000 I-0.939952 J0.204023
G03 X99.718349 Y11.633731 Z0.000000 I-1.921319 J0.000007
G03 X99.168146 Y12.472668 Z0.000000 I-2.806052 J-1.240414
G02 X99.146466 Y12.802891 Z0.000000 I0.193693 J0.178539
G02 X99.721969 Y13.259027 Z0.000000 I1.060488 J-0.746887
G02 X100.401963 Y13.439144 Z0.000000 I1.060920 J-2.631641
G02 X100.685578 Y13.389572 Z0.000000 I0.063812 J-0.471020
G03 X100.875969 Y13.310152 Z0.000000 I0.559113 J1.072427
G03 X100.988878 Y13.292520 Z0.000000 I0.112911 J0.352720
G02 X101.102359 Y13.276079 Z0.000000 I-0.000001 J-0.399869
G02 X101.290018 Y13.203389 Z0.000000 I-0.349487 J-1.180823
G03 X101.473963 Y13.114374 Z0.000000 I72.746199 J150.091567
G03 X101.928636 Y12.894827 Z0.000000 I451.731937 J934.937679
G02 X102.371316 Y12.663712 Z0.000000 I-3.440233 J-7.128960
G02 X102.405005 Y12.626667 Z0.000000 I-0.039032 J-0.069339
G03 X102.436059 Y12.592428 Z0.000000 I0.067400 J0.029927
G03 X102.491005 Y12.577947 Z0.000000 I0.054947 J0.097003
G02 X102.731529 Y12.491338 Z0.000000 I-0.000001 J-0.377292
G02 X104.277040 Y11.100098 Z0.000000 I-15.915099 J-19.233934
G03 X104.965683 Y10.454425 Z0.000000 I15.450179 J15.788338
G03 X105.018328 Y10.434253 Z0.000000 I0.052645 J0.058610
G02 X105.090508 Y10.348963 Z0.000000 I-0.000000 J-0.073189
G02 X104.981727 Y10.215882 Z0.000000 I-0.170834 J0.028642
G03 X104.903680 Y10.165181 Z0.000000 I0.080102 J-0.208727
G03 X104.884326 Y10.118432 Z0.000000 I0.046785 J-0.046749
G03 X104.981098 Y9.992289 Z0.000000 I0.130600 J-0.000000
G03 X105.168016 Y10.042351 Z0.000000 I0.050114 J0.186869
G02 X105.244561 Y10.086616 Z0.000000 I0.121105 J-0.121106
G02 X105.416996 Y10.109440 Z0.000000 I0.172433 J-0.639934
G03 X105.570378 Y10.137965 Z0.000000 I0.000002 J0.426630
G01 X105.598887 Y10.179500 Z0.000000
G03 X105.229249 Y11.108381 Z0.000000 I-1.351924 J0.000005
G03 X103.520165 Y12.377745 Z0.000000 I-4.454388 J-4.212187
G02 X103.228064 Y12.524574 Z0.000000 I50.343689 J100.517662
G02 X103.065445 Y12.607148 Z0.000000 I15.679724 J31.080526
G03 X102.902235 Y12.688451 Z0.000000 I-3.989029 J-7.803224
G03 X102.578246 Y12.843571 Z0.000000 I-14.978802 J-30.869405
G02 X102.258301 Y13.003573 Z0.000000 I3.405099 J7.208831
G02 X102.220967 Y13.032372 Z0.000000 I0.064772 J0.122568
G03 X102.163777 Y13.075324 Z0.000000 I-0.143875 J-0.132016
G03 X101.128039 Y13.573858 Z0.000000 I-22.414003 J-45.241460
G02 X101.063841 Y13.652891 Z0.000000 I0.049420 J0.105734
G02 X101.091739 Y13.728305 Z0.000000 I0.070862 J0.016653
G02 X101.211733 Y13.796000 Z0.000000 I0.346429 J-0.473874
G02 X101.292350 Y13.812174 Z0.000000 I0.080616 J-0.192811
G03 X101.375334 Y13.824029 Z0.000000 I0.000001 J0.296378
G03 X101.491050 Y13.870144 Z0.000000 I-0.182990 J0.627417
G02 X101.605364 Y13.924675 Z0.000000 I0.970774 J-1.887970
G02 X101.782490 Y13.998671 Z0.000000 I1.981447 J-4.494042
G03 X101.885978 Y14.106112 Z0.000000 I-0.066016 J0.167147
G01 X101.838491 Y14.157712 Z0.000000
G02 X101.727348 Y14.154210 Z0.000000 I-0.063247 J0.241798
G02 X101.676521 Y14.189373 Z0.000000 I0.014776 J0.075673
G02 X101.646119 Y14.553972 Z0.000000 I0.343748 J0.212230
G02 X102.025724 Y15.046417 Z0.000000 I1.079522 J-0.439626
G03 X102.062965 Y15.084611 Z0.000000 I-0.104181 J0.138831
G03 X102.400826 Y15.573513 Z0.000000 I-17.576524 J12.507649
G02 X102.767956 Y16.038181 Z0.000000 I3.165909 J-2.123987
G02 X103.692611 Y16.970152 Z0.000000 I13.754364 J-12.721724
G03 X105.420152 Y18.660392 Z0.000000 I-40.998016 J43.630710
G03 X105.468938 Y18.779733 Z0.000000 I-0.121576 J0.119342
G03 X105.388595 Y18.829955 Z0.000000 I-0.055867 J0.000000
G03 X104.754756 Y18.431686 Z0.000000 I1.527849 J-3.135056
G02 X104.188208 Y17.984565 Z0.000000 I-525.905410 J665.794690
G02 X104.033894 Y17.863287 Z0.000000 I-37.954738 J48.134697
G03 X102.418107 Y16.430161 Z0.000000 I10.919826 J-13.939055
G03 X102.285778 Y16.110988 Z0.000000 I0.320768 J-0.320008
G02 X102.270737 Y16.058104 Z0.000000 I-0.101165 J0.000192
G02 X102.030047 Y15.696018 Z0.000000 I-5.386519 J3.319557
G03 X101.511762 Y14.860810 Z0.000000 I6.091785 J-4.358645
G03 X101.284051 Y14.296507 Z0.000000 I2.533244 J-1.350322
G02 X101.207719 Y14.205043 Z0.000000 I-0.141049 J0.040130
G02 X100.840381 Y14.078295 Z0.000000 I-0.688804 J1.400594
G03 X100.435989 Y13.986881 Z0.000000 I2.866826 J-13.622243
G03 X100.117940 Y13.903647 Z0.000000 I2.059873 J-8.520310
G02 X99.804288 Y13.835394 Z0.000000 I-0.720482 J2.556118
G02 X99.749469 Y13.846488 Z0.000000 I-0.012376 J0.079832
G01 X99.738429 Y13.887295 Z0.000000
G02 X100.016682 Y14.348806 Z0.000000 I4.435191 J-2.359419
G03 X100.286531 Y14.839819 Z0.000000 I-2.477303 J1.681126
G03 X100.438745 Y15.323053 Z0.000000 I-2.246457 J0.973203
G03 X100.446176 Y16.800016 Z0.000000 I-3.706654 J0.757149
G03 X99.981827 Y17.681109 Z0.000000 I-1.689349 J-0.327407
G02 X99.853858 Y17.818440 Z0.000000 I2.339335 J2.308149
G02 X99.596697 Y18.118831 Z0.000000 I10.959091 J9.642179
G03 X99.114343 Y18.519985 Z0.000000 I-1.327448 J-1.105575
G03 X98.417447 Y18.780255 Z0.000000 I-1.188287 J-2.118612
G02 X97.924775 Y18.882664 Z0.000000 I41.088201 J198.904668
G02 X97.880382 Y18.892601 Z0.000000 I0.331936 J1.587019
G03 X97.835662 Y18.896159 Z0.000000 I-0.033499 J-0.138194
G03 X97.362423 Y18.851772 Z0.000000 I1.291375 J-16.313231
G03 X96.883352 Y18.747752 Z0.000000 I0.250461 J-2.308709
G03 X95.741159 Y18.315291 Z0.000000 I4.527572 J-13.682575
G01 X95.693104 Y18.330779 Z0.000000
G02 X95.659959 Y18.449896 Z0.000000 I0.197465 J0.119115
G02 X95.701269 Y18.577935 Z0.000000 I0.219089 J-0.000001
G02 X95.781930 Y18.619245 Z0.000000 I0.080661 J-0.058094
G03 X95.892815 Y18.642836 Z0.000000 I0.000001 J0.272391
G03 X95.975491 Y18.705514 Z0.000000 I-0.092855 J0.208346
G03 X96.091934 Y18.967974 Z0.000000 I-0.406645 J0.337472
G03 X96.209972 Y20.340690 Z0.000000 I-12.042844 J1.726981
G02 X96.411890 Y23.281905 Z0.000000 I37.385862 J-1.089037
G02 X96.568999 Y23.653145 Z0.000000 I0.695215 J-0.075352
G03 X96.617469 Y23.735251 Z0.000000 I-0.231090 J0.191781
G03 X96.652880 Y23.866980 Z0.000000 I-0.571860 J0.224349
G02 X96.692186 Y23.996934 Z0.000000 I0.473368 J-0.072253
G02 X96.771531 Y24.121721 Z0.000000 I0.515401 J-0.240098
G03 X96.967318 Y24.444184 Z0.000000 I-0.960261 J0.803701
G03 X97.024143 Y24.728553 Z0.000000 I-0.683129 J0.284372
G02 X97.105062 Y24.778301 Z0.000000 I0.055752 J-0.000000
G02 X97.543824 Y24.465653 Z0.000000 I-0.809619 J-1.600396
G03 X97.955357 Y24.099561 Z0.000000 I4.474860 J4.615939
G03 X98.020929 Y24.076520 Z0.000000 I0.064714 J0.079346
G03 X98.084822 Y24.102016 Z0.000000 I-0.000745 J0.094673
G03 X98.498906 Y24.523078 Z0.000000 I-4.771133 J5.106209
G02 X99.107053 Y24.827669 Z0.000000 I0.694767 J-0.627767
G02 X99.773892 Y24.641531 Z0.000000 I0.089748 J-0.966021
G02 X101.296879 Y22.898335 Z0.000000 I-3.217015 J-4.347521
G02 X101.994174 Y20.600510 Z0.000000 I-5.100946 J-2.802641
G03 X102.069087 Y20.090846 Z0.000000 I4.348288 J0.378792
G03 X102.133172 Y19.932378 Z0.000000 I0.469170 J0.097543
G01 X102.226971 Y19.783929 Z0.000000
G01 X102.412642 Y19.916136 Z0.000000
G02 X102.604282 Y20.029833 Z0.000000 I0.776561 J-1.090569
G02 X102.685722 Y20.048773 Z0.000000 I0.082357 J-0.169561
G03 X102.767619 Y20.067207 Z0.000000 I-0.001104 J0.196050
G03 X102.968013 Y20.180723 Z0.000000 I-0.623691 J1.334653
G02 X103.167442 Y20.304297 Z0.000000 I1.683585 J-2.494331
G02 X103.390264 Y20.420131 Z0.000000 I1.704243 J-3.006118
G03 X103.611773 Y20.537842 Z0.000000 I-1.183969 J2.495279
G03 X103.812504 Y20.669722 Z0.000000 I-1.289733 J2.181767
G02 X104.971925 Y21.372595 Z0.000000 I4.767455 J-6.556439
G02 X106.053628 Y21.783617 Z0.000000 I2.628282 J-5.288065
G02 X107.082055 Y21.866787 Z0.000000 I0.737300 J-2.716963
G02 X108.632427 Y21.515502 Z0.000000 I-0.691066 J-6.646843
G03 X109.099669 Y21.378623 Z0.000000 I1.431984 J4.022209
G03 X109.194267 Y21.385182 Z0.000000 I0.036589 J0.157737
G02 X109.281920 Y21.326403 Z0.000000 I0.023124 J-0.060262
G02 X109.203266 Y20.994616 Z0.000000 I-0.673758 J-0.015493
G03 X109.056269 Y20.687309 Z0.000000 I3.527433 J-1.876119
G03 X109.040414 Y20.613287 Z0.000000 I0.181929 J-0.077675
G02 X109.021785 Y20.541641 Z0.000000 I-0.157570 J0.002727
G02 X108.911933 Y20.373123 Z0.000000 I-1.029898 J0.551291
G03 X108.811071 Y20.201544 Z0.000000 I0.592773 J-0.463895
G03 X108.783452 Y20.068397 Z0.000000 I0.324484 J-0.136746
G02 X108.759884 Y19.938540 Z0.000000 I-0.389843 J0.003687
G02 X108.717052 Y19.885924 Z0.000000 I-0.097323 J0.035484
G03 X108.674033 Y19.833563 Z0.000000 I0.055141 J-0.089156
G03 X108.652051 Y19.712295 Z0.000000 I0.323520 J-0.121269
G02 X108.547325 Y19.385391 Z0.000000 I-0.562585 J0.000002
G02 X107.897637 Y18.655680 Z0.000000 I-3.709037 J2.648209
G03 X107.448585 Y18.207452 Z0.000000 I4.389076 J-4.846202
G03 X107.417805 Y18.127832 Z0.000000 I0.087589 J-0.079620
G03 X107.459587 Y18.076360 Z0.000000 I0.052596 J-0.000000
G03 X107.861695 Y18.034571 Z0.000000 I0.402115 J1.913789
G03 X108.297463 Y18.054180 Z0.000000 I0.000017 J4.851388
G03 X108.349605 Y18.078579 Z0.000000 I-0.007587 J0.084129
G02 X108.478698 Y18.160748 Z0.000000 I0.249427 J-0.249377
G02 X109.561487 Y18.518431 Z0.000000 I6.682419 J-18.411453
G03 X109.852017 Y18.611035 Z0.000000 I-2.341595 J7.848377
G03 X110.266318 Y18.757636 Z0.000000 I-5.464883 J16.102724
G01 X110.678828 Y18.909630 Z0.000000
G01 X110.785998 Y18.777273 Z0.000000
G03 X110.929696 Y18.651352 Z0.000000 I0.437444 J0.354250
G03 X111.575256 Y18.294440 Z0.000000 I4.378770 J7.157760
G03 X112.941501 Y17.894343 Z0.000000 I1.806753 J3.636905
G03 X113.361665 Y18.099511 Z0.000000 I0.047520 J0.435494
G02 X113.567890 Y18.200733 Z0.000000 I0.183633 J-0.113436
G02 X113.978785 Y18.034539 Z0.000000 I-0.084083 J-0.798926
G03 X114.148956 Y17.929640 Z0.000000 I0.553458 J0.707363
G03 X114.251024 Y17.906062 Z0.000000 I0.105312 J0.223177
G02 X114.326290 Y17.792220 Z0.000000 I-0.001102 J-0.082530
G02 X114.039813 Y17.390878 Z0.000000 I-0.997159 J0.408856
G03 X113.634644 Y17.018307 Z0.000000 I7.736107 J-8.819566
G03 X113.136399 Y16.520168 Z0.000000 I13.342821 J-13.843866
G02 X112.624219 Y16.044847 Z0.000000 I-4.529609 J4.367255
G02 X112.371007 Y15.885186 Z0.000000 I-0.737408 J0.888866
G03 X112.138411 Y15.729876 Z0.000000 I0.377048 J-0.816501
G03 X112.094926 Y15.630634 Z0.000000 I0.091505 J-0.099242
G03 X112.176441 Y15.528250 Z0.000000 I0.105056 J-0.000000
G03 X113.004366 Y15.421526 Z0.000000 I0.957828 J4.165751
G02 X113.608369 Y15.350517 Z0.000000 I-0.106849 J-3.513167
G02 X113.995015 Y15.216943 Z0.000000 I-0.321604 J-1.557304
G02 X114.316728 Y14.999036 Z0.000000 I-0.649148 J-1.304825
G02 X114.368534 Y14.883297 Z0.000000 I-0.103380 J-0.115738
G02 X114.337344 Y14.756927 Z0.000000 I-0.271601 J0.000001
G02 X114.271133 Y14.698079 Z0.000000 I-0.111220 J0.058462
G03 X114.199612 Y14.642877 Z0.000000 I0.056433 J-0.147051
G03 X114.173732 Y14.562447 Z0.000000 I0.112047 J-0.080431
G02 X114.140444 Y14.490151 Z0.000000 I-0.095151 J0.000000
G02 X114.011332 Y14.423446 Z0.000000 I-0.206420 J0.241231
G03 X113.907637 Y14.259642 Z0.000000 I0.034231 J-0.136393
G03 X114.092530 Y14.014852 Z0.000000 I0.345357 J0.068632
G02 X114.328606 Y13.878022 Z0.000000 I-1.194702 J-2.333306
G02 X114.709649 Y13.612857 Z0.000000 I-4.139904 J-6.355422
G02 X115.060862 Y13.250457 Z0.000000 I-0.929648 J-1.252338
G02 X115.034447 Y13.145382 Z0.000000 I-0.059035 J-0.041017
G01 X115.034347 Y13.145385 Z0.000000
G00 Z5.000000

(End cutting path id: path846)


(Start cutting path id: path846)
(Change tool to Cylindrical cutter)

G00 Z5.000000
G00 X118.262246 Y12.831511

G01 Z0.000000 F1000.0(Penetrate)
G03 X118.232847 Y12.746484 Z0.000000 I0.174886 J-0.108066 F1100.000000
G03 X118.246046 Y12.687719 Z0.000000 I0.091481 J-0.010317
G01 X118.282391 Y12.673845 Z0.000000
G03 X118.334946 Y12.713989 Z0.000000 I-0.026252 J0.088841
G03 X118.364345 Y12.799017 Z0.000000 I-0.174886 J0.108066
G03 X118.351146 Y12.857781 Z0.000000 I-0.091481 J0.010317
G01 X118.314801 Y12.871656 Z0.000000
G03 X118.262246 Y12.831511 Z0.000000 I0.026252 J-0.088841
G01 X118.262246 Y12.831511 Z0.000000
G00 Z5.000000

(End cutting path id: path846)


(Start cutting path id: path846)
(Change tool to Cylindrical cutter)

G00 Z5.000000
G00 X118.168644 Y12.253074

G01 Z0.000000 F1000.0(Penetrate)
G03 X118.099768 Y12.224530 Z0.000000 I-0.000000 J-0.097372 F1100.000000
G03 X118.071244 Y12.155634 Z0.000000 I0.068944 J-0.068897
G03 X118.124899 Y12.079494 Z0.000000 I0.080850 J-0.000000
G03 X118.222814 Y12.101503 Z0.000000 I0.031566 J0.088376
G03 X118.244844 Y12.199436 Z0.000000 I-0.066318 J0.066363
G03 X118.168714 Y12.253077 Z0.000000 I-0.076130 J-0.027204
G01 X118.168644 Y12.253074 Z0.000000
G00 Z5.000000

(End cutting path id: path846)


(Start cutting path id: path846)
(Change tool to Cylindrical cutter)

G00 Z5.000000
G00 X120.563662 Y14.582679

G01 Z0.000000 F1000.0(Penetrate)
G02 X120.132282 Y14.064842 Z0.000000 I-2.817675 J1.908648 F1100.000000
G02 X119.740690 Y13.773333 Z0.000000 I-1.252041 J1.273128
G02 X119.387022 Y13.649487 Z0.000000 I-0.546464 J0.993637
G02 X118.655939 Y13.586182 Z0.000000 I-0.739373 J4.285538
G01 X117.908899 Y13.584785 Z0.000000
G01 X117.424030 Y13.909862 Z0.000000
G02 X116.981216 Y14.308456 Z0.000000 I1.169546 J1.744564
G02 X116.646103 Y14.841754 Z0.000000 I1.801975 J1.504258
G01 X116.517734 Y15.124317 Z0.000000
G01 X116.671066 Y15.426396 Z0.000000
G03 X117.192350 Y16.645319 Z0.000000 I-9.019824 J4.578345
G03 X117.490784 Y17.754467 Z0.000000 I-7.162427 J2.521888
G02 X117.754534 Y17.889070 Z0.000000 I0.184002 J-0.034841
G02 X118.425962 Y17.314331 Z0.000000 I-0.710452 J-1.509534
G02 X118.818479 Y16.640915 Z0.000000 I-4.820192 J-3.260665
G02 X118.862939 Y16.433937 Z0.000000 I-0.384560 J-0.190870
G03 X119.073401 Y16.004999 Z0.000000 I0.503661 J-0.018976
G03 X119.422428 Y16.033778 Z0.000000 I0.157537 J0.220274
G03 X119.490095 Y16.263122 Z0.000000 I-0.176823 J0.176825
G03 X119.311080 Y16.551999 Z0.000000 I-0.493738 J-0.106060
G02 X119.154099 Y16.726949 Z0.000000 I0.441745 J0.554278
G02 X118.958522 Y17.108453 Z0.000000 I1.992220 J1.262191
G03 X118.657410 Y17.728761 Z0.000000 I-4.622640 J-1.860693
G03 X118.464155 Y17.969594 Z0.000000 I-0.866908 J-0.497694
G02 X118.208406 Y18.300598 Z0.000000 I0.816363 J0.895061
G02 X118.136217 Y18.592855 Z0.000000 I0.555493 J0.292254
G02 X118.260339 Y18.664902 Z0.000000 I0.082972 J-0.000000
G02 X119.175585 Y17.999220 Z0.000000 I-2.558984 J-4.480369
G03 X119.347534 Y17.865080 Z0.000000 I0.962716 J1.056791
G03 X119.607334 Y17.712513 Z0.000000 I1.511460 J2.276326
G02 X119.857301 Y17.548133 Z0.000000 I-0.647846 J-1.257402
G02 X120.202512 Y17.223647 Z0.000000 I-2.252441 J-2.742181
G02 X120.630205 Y16.515512 Z0.000000 I-1.478947 J-1.376467
G02 X120.799576 Y15.520303 Z0.000000 I-2.839139 J-0.995198
G02 X120.729113 Y14.952549 Z0.000000 I-2.322631 J0.000008
G02 X120.563612 Y14.582707 Z0.000000 I-1.135920 J0.286361
G01 X120.563662 Y14.582679 Z0.000000
G00 Z5.000000

(End cutting path id: path846)


(Start cutting path id: path846)
(Change tool to Cylindrical cutter)

G00 Z5.000000
G00 X121.968802 Y11.668419

G01 Z0.000000 F1000.0(Penetrate)
G03 X121.922861 Y11.649411 Z0.000000 I-0.000000 J-0.065021 F1100.000000
G03 X121.903802 Y11.603449 Z0.000000 I0.045889 J-0.045962
G03 X121.922812 Y11.557543 Z0.000000 I0.064932 J-0.000000
G03 X121.968802 Y11.538489 Z0.000000 I0.045990 J0.045974
G03 X122.014746 Y11.557497 Z0.000000 I0.000000 J0.065028
G03 X122.033802 Y11.603449 Z0.000000 I-0.045876 J0.045952
G03 X122.014793 Y11.649361 Z0.000000 I-0.064949 J0.000000
G03 X121.968802 Y11.668419 Z0.000000 I-0.045991 J-0.045963
G01 X121.968802 Y11.668419 Z0.000000
G00 Z5.000000

(End cutting path id: path846)


(Start cutting path id: path846)
(Change tool to Cylindrical cutter)

G00 Z5.000000
G00 X124.648405 Y12.600492

G01 Z0.000000 F1000.0(Penetrate)
G03 X124.093712 Y12.192890 Z0.000000 I3.153668 J-4.872958 F1100.000000
G03 X123.261411 Y11.448628 Z0.000000 I9.756570 J-11.748195
G02 X122.594876 Y11.088002 Z0.000000 I-0.984172 J1.022735
G02 X121.839630 Y11.122169 Z0.000000 I-0.316113 J1.376722
G02 X121.266983 Y11.448212 Z0.000000 I0.511895 J1.564978
G02 X120.870643 Y11.970410 Z0.000000 I1.073382 J1.226187
G03 X120.217339 Y12.973268 Z0.000000 I-4.141809 J-1.983928
G03 X120.004987 Y12.981482 Z0.000000 I-0.109977 J-0.094160
G01 X119.858246 Y12.834741 Z0.000000
G01 X120.030215 Y12.495183 Z0.000000
G02 X120.192618 Y12.151469 Z0.000000 I-6.175623 J-3.128176
G02 X120.313583 Y11.850245 Z0.000000 I-4.633150 J-2.035465
G03 X120.447100 Y11.559745 Z0.000000 I1.858919 J0.678446
G03 X120.547291 Y11.434175 Z0.000000 I0.434820 J0.244185
G02 X120.576186 Y11.263132 Z0.000000 I-0.093974 J-0.103837
G02 X120.361040 Y11.093658 Z0.000000 I-0.306288 J0.167529
G03 X120.056355 Y11.000467 Z0.000000 I1.272673 J-4.705632
G03 X119.939679 Y10.949557 Z0.000000 I0.251699 J-0.736007
G02 X119.823406 Y10.902837 Z0.000000 I-0.266665 J0.495604
G02 X119.720979 Y10.888898 Z0.000000 I-0.102425 J0.369355
G02 X119.667009 Y10.928398 Z0.000000 I0.000000 J0.056621
G02 X119.664380 Y11.067538 Z0.000000 I0.233288 J0.074003
G03 X119.697069 Y11.248754 Z0.000000 I-0.980240 J0.270380
G03 X119.740783 Y11.935905 Z0.000000 I-14.132181 J1.244000
G03 X119.703861 Y12.578130 Z0.000000 I-3.325794 J0.130974
G03 X119.627866 Y12.662264 Z0.000000 I-0.102150 J-0.015879
G03 X119.488773 Y12.681734 Z0.000000 I-0.152458 J-0.582585
G03 X119.405236 Y12.667165 Z0.000000 I-0.004860 J-0.218918
G03 X119.314489 Y12.555451 Z0.000000 I0.051700 J-0.134711
G03 X119.241042 Y11.650079 Z0.000000 I5.673059 J-0.915885
G02 X119.033134 Y10.702983 Z0.000000 I-2.279152 J0.003954
G02 X118.265214 Y9.524688 Z0.000000 I-4.359234 J2.001624
G03 X118.125082 Y9.359280 Z0.000000 I3.700267 J-3.276906
G03 X117.950133 Y9.135831 Z0.000000 I6.612378 J-5.357360
G02 X117.623664 Y8.727591 Z0.000000 I-7.712254 J5.832810
G02 X117.188080 Y8.234004 Z0.000000 I-11.712845 J9.897452
G01 X116.922109 Y7.945334 Z0.000000
G01 X116.570959 Y8.061987 Z0.000000
G03 X116.219192 Y8.176507 Z0.000000 I-9.777392 J-29.435462
G03 X116.140970 Y8.199124 Z0.000000 I-0.453097 J-1.420489
G01 X116.104276 Y8.242465 Z0.000000
G02 X116.123070 Y8.401191 Z0.000000 I0.388694 J0.034452
G03 X116.171409 Y8.585720 Z0.000000 I-1.341792 J0.450091
G03 X116.250743 Y9.069973 Z0.000000 I-9.138033 J1.745673
G02 X116.464843 Y10.363716 Z0.000000 I23.318342 J-3.194341
G02 X116.549018 Y10.605462 Z0.000000 I0.880372 J-0.171016
G03 X116.596591 Y10.806379 Z0.000000 I-0.376323 J0.195197
G03 X116.544020 Y10.978982 Z0.000000 I-0.323983 J-0.004372
G03 X116.381469 Y11.107077 Z0.000000 I-0.272393 J-0.178481
G03 X116.058000 Y11.153115 Z0.000000 I-0.273760 J-0.764074
G03 X115.695301 Y10.916462 Z0.000000 I0.026839 J-0.437401
G03 X115.798158 Y10.648903 Z0.000000 I0.170654 J-0.087946
G02 X115.945974 Y10.542802 Z0.000000 I-0.124202 J-0.329048
G02 X115.993037 Y10.411134 Z0.000000 I-0.160646 J-0.131667
G02 X115.971484 Y10.258950 Z0.000000 I-0.548065 J0.000002
G02 X115.935237 Y10.211214 Z0.000000 I-0.080016 J0.023128
G03 X115.896214 Y10.162853 Z0.000000 I0.049154 J-0.079589
G03 X115.836036 Y9.931299 Z0.000000 I1.311145 J-0.464345
G03 X115.676491 Y8.867763 Z0.000000 I27.416811 J-4.656623
G03 X115.656191 Y8.551207 Z0.000000 I2.401929 J-0.312962
G02 X115.571228 Y8.246056 Z0.000000 I-0.583645 J-0.001900
G02 X115.419129 Y8.160534 Z0.000000 I-0.152098 J0.092491
G02 X115.223191 Y8.235144 Z0.000000 I0.000001 J0.294593
G02 X115.148580 Y8.401516 Z0.000000 I0.148188 J0.166371
G03 X115.126336 Y8.479288 Z0.000000 I-0.147078 J0.000001
G03 X114.802552 Y8.956927 Z0.000000 I-6.350556 J-3.956385
G02 X113.908608 Y10.273503 Z0.000000 I16.958349 J12.476353
G02 X113.736998 Y10.661507 Z0.000000 I1.268691 J0.793081
G02 X113.678065 Y10.924140 Z0.000000 I2.424344 J0.681939
G02 X113.599891 Y11.473509 Z0.000000 I10.553517 J1.781979
G02 X113.665834 Y12.055526 Z0.000000 I1.286006 J0.149040
G02 X113.853514 Y12.188069 Z0.000000 I0.187679 J-0.066604
G03 X114.023122 Y12.212243 Z0.000000 I0.000002 J0.607058
G03 X114.076754 Y12.253038 Z0.000000 I-0.026226 J0.090132
G02 X114.128945 Y12.296447 Z0.000000 I0.090924 J-0.056239
G02 X114.243874 Y12.317998 Z0.000000 I0.114928 J-0.295677
G03 X114.367320 Y12.332564 Z0.000000 I0.000002 J0.530342
G03 X114.483635 Y12.375377 Z0.000000 I-0.122767 J0.512947
G02 X114.597725 Y12.429859 Z0.000000 I1.132428 J-2.224689
G02 X114.791315 Y12.512876 Z0.000000 I2.848225 J-6.374692
G03 X115.353028 Y12.792957 Z0.000000 I-1.647383 J4.007194
G03 X115.716997 Y13.061536 Z0.000000 I-1.147304 J1.935693
G03 X115.870745 Y13.361675 Z0.000000 I-0.320627 J0.353692
G03 X115.770799 Y13.538106 Z0.000000 I-0.171516 J0.019363
G02 X115.619291 Y13.619012 Z0.000000 I0.566790 J1.243704
G02 X115.494719 Y13.708676 Z0.000000 I0.572381 J0.926586
G03 X115.373604 Y13.804480 Z0.000000 I-1.956381 J-2.348791
G03 X115.099890 Y14.005105 Z0.000000 I-8.886660 J-11.837130
G02 X114.846531 Y14.214324 Z0.000000 I1.382960 J1.932746
G02 X114.823821 Y14.267200 Z0.000000 I0.050200 J0.052876
G01 X114.852748 Y14.302892 Z0.000000
G02 X115.132382 Y14.332539 Z0.000000 I0.283173 J-1.337355
G03 X115.430229 Y14.373394 Z0.000000 I-0.002754 J1.126195
G03 X115.728282 Y14.497564 Z0.000000 I-0.346886 J1.252455
G02 X116.018060 Y14.630043 Z0.000000 I0.874914 J-1.530580
G02 X116.101463 Y14.628871 Z0.000000 I0.040107 J-0.113992
G02 X116.167226 Y14.575583 Z0.000000 I-0.049042 J-0.127746
G02 X116.291172 Y14.336329 Z0.000000 I-1.162640 J-0.754041
G03 X116.659749 Y13.806338 Z0.000000 I1.331179 J0.532600
G03 X117.545528 Y13.200006 Z0.000000 I2.661524 J2.937988
G03 X118.664096 Y12.949803 Z0.000000 I1.060929 J2.117570
G03 X119.924988 Y13.257927 Z0.000000 I-0.073916 J3.036418
G03 X120.524930 Y13.670324 Z0.000000 I-1.090706 J2.229311
G03 X120.935011 Y14.197755 Z0.000000 I-1.423851 J1.530191
G02 X121.040899 Y14.382893 Z0.000000 I4.866934 J-2.660737
G02 X121.146122 Y14.550962 Z0.000000 I4.128669 J-2.467877
G03 X121.225563 Y14.725665 Z0.000000 I-0.525974 J0.344582
G03 X121.254874 Y14.938612 Z0.000000 I-0.758911 J0.212950
G02 X121.384364 Y15.220891 Z0.000000 I0.372420 J-0.000001
G02 X121.634145 Y15.265013 Z0.000000 I0.162049 J-0.188298
G03 X121.803776 Y15.246304 Z0.000000 I0.121296 J0.321401
G03 X122.002465 Y15.317362 Z0.000000 I-0.073887 J0.519911
G02 X122.625095 Y15.442491 Z0.000000 I0.484095 J-0.797172
G02 X123.910974 Y15.030697 Z0.000000 I-0.626197 J-4.168936
G03 X124.530110 Y14.831293 Z0.000000 I0.930616 J1.828611
G03 X124.664824 Y14.914914 Z0.000000 I0.018508 J0.120506
G03 X124.424049 Y15.537821 Z0.000000 I-0.508657 J0.161373
G03 X122.871517 Y15.955736 Z0.000000 I-1.552542 J-2.674868
G02 X122.620610 Y16.100791 Z0.000000 I0.000001 J0.289531
G02 X122.508560 Y16.586081 Z0.000000 I0.740991 J0.426671
G02 X122.671758 Y17.272580 Z0.000000 I2.146268 J-0.147575
G02 X123.012054 Y17.783157 Z0.000000 I1.499381 J-0.630636
G03 X123.617721 Y18.548878 Z0.000000 I-3.214323 J3.164846
G03 X123.723368 Y18.915733 Z0.000000 I-0.584125 J0.366857
G02 X123.755037 Y18.967708 Z0.000000 I0.058486 J-0.000000
G02 X124.031939 Y19.074953 Z0.000000 I0.638575 J-1.237669
G03 X124.333141 Y19.171489 Z0.000000 I-0.866271 J3.221042
G03 X124.402209 Y19.213315 Z0.000000 I-0.076038 J0.203502
G02 X124.470908 Y19.250332 Z0.000000 I0.110717 J-0.123222
G02 X124.613329 Y19.268694 Z0.000000 I0.142420 J-0.543117
G01 X124.762739 Y19.268694 Z0.000000
G01 X124.762730 Y16.718394 Z0.000000
G02 X124.702622 Y14.201370 Z0.000000 I-52.738015 J0.000190
G02 X124.637191 Y14.089704 Z0.000000 I-0.139366 J0.006660
G02 X124.505741 Y14.055100 Z0.000000 I-0.121483 J0.194508
G02 X124.180871 Y14.109556 Z0.000000 I0.058524 J1.345422
G03 X123.845642 Y14.179655 Z0.000000 I-0.591039 J-1.989864
G03 X123.283271 Y14.221043 Z0.000000 I-0.694014 J-5.588669
G03 X122.774188 Y14.175182 Z0.000000 I-0.052873 J-2.261577
G03 X122.716471 Y14.104371 Z0.000000 I0.014580 J-0.070811
G03 X122.757657 Y14.011461 Z0.000000 I0.125389 J-0.000000
G03 X122.878870 Y13.957155 Z0.000000 I0.143917 J0.158798
G02 X123.039952 Y13.932793 Z0.000000 I-0.195413 J-1.836820
G02 X123.268630 Y13.880483 Z0.000000 I-0.738243 J-3.753312
G03 X123.497442 Y13.827843 Z0.000000 I1.013301 J3.880903
G03 X123.966949 Y13.741198 Z0.000000 I3.251067 J16.301314
G02 X124.388744 Y13.619743 Z0.000000 I-0.327798 J-1.931533
G02 X124.437919 Y13.546154 Z0.000000 I-0.030475 J-0.073588
G02 X124.402904 Y13.457564 Z0.000000 I-0.129580 J0.000000
G02 X124.291758 Y13.390091 Z0.000000 I-0.176340 J0.165198
G03 X122.871123 Y12.831556 Z0.000000 I2.031833 J-7.253935
G03 X122.716465 Y12.577799 Z0.000000 I0.130849 J-0.253758
G03 X122.872002 Y12.446545 Z0.000000 I0.133149 J-0.000000
G03 X123.942286 Y12.786899 Z0.000000 I-0.681745 J3.996830
G02 X124.630942 Y12.970748 Z0.000000 I0.832978 J-1.738440
G02 X124.762716 Y12.848496 Z0.000000 I0.009178 J-0.122252
G02 X124.728655 Y12.692502 Z0.000000 I-0.374247 J0.000001
G02 X124.649035 Y12.600434 Z0.000000 I-0.198065 J0.090825
G01 X124.648405 Y12.600492 Z0.000000
G00 Z5.000000

(End cutting path id: path846)


(Start cutting path id: path846)
(Change tool to Cylindrical cutter)

G00 Z5.000000
G00 X124.609587 Y7.623093

G01 Z0.000000 F1000.0(Penetrate)
G02 X124.467357 Y7.673629 Z0.000000 I0.093299 J0.488006 F1100.000000
G02 X124.292078 Y7.794029 Z0.000000 I0.467613 J0.868541
G02 X124.139476 Y7.966778 Z0.000000 I0.548361 J0.638185
G02 X123.735991 Y8.631526 Z0.000000 I7.976765 J5.296519
G02 X123.565732 Y9.024907 Z0.000000 I1.947239 J1.076317
G02 X123.437434 Y9.557209 Z0.000000 I3.455575 J1.114492
G02 X123.442613 Y10.202892 Z0.000000 I1.892530 J0.307685
G02 X123.689179 Y10.964040 Z0.000000 I2.902986 J-0.519885
G02 X124.135073 Y11.663367 Z0.000000 I3.169425 J-1.529021
G02 X124.613404 Y12.093636 Z0.000000 I1.638798 J-1.340837
G01 X124.762134 Y12.191086 Z0.000000
G01 X124.762126 Y9.892512 Z0.000000
G01 X124.762117 Y7.593937 Z0.000000
G01 X124.609587 Y7.623093 Z0.000000
G00 Z5.000000

(End cutting path id: path846)


(Start cutting path id: path846)
(Change tool to Cylindrical cutter)

G00 Z5.000000
G00 X124.247845 Y6.980457

G01 Z0.000000 F1000.0(Penetrate)
G03 X124.209525 Y6.940591 Z0.000000 I0.021391 J-0.058912 F1100.000000
G03 X124.106144 Y6.536563 Z0.000000 I3.411299 J-1.088113
G02 X123.974557 Y6.136383 Z0.000000 I-1.650353 J0.320944
G02 X123.705160 Y5.692136 Z0.000000 I-2.308540 J1.096116
G02 X122.845176 Y4.695163 Z0.000000 I-8.110543 J6.126726
G02 X122.557336 Y4.523889 Z0.000000 I-0.469155 J0.460946
G02 X122.385523 Y4.489946 Z0.000000 I-0.287127 J1.001568
G02 X121.700966 Y4.428522 Z0.000000 I-1.776280 J15.950937
G02 X121.019570 Y4.430847 Z0.000000 I-0.324462 J4.760230
G02 X120.598136 Y4.511256 Z0.000000 I0.141504 J1.886231
G02 X120.187646 Y4.653260 Z0.000000 I2.093052 J6.714657
G02 X119.987597 Y4.743811 Z0.000000 I0.639886 J1.679920
G03 X119.789042 Y4.832125 Z0.000000 I-0.750300 J-1.419532
G03 X119.705097 Y4.847195 Z0.000000 I-0.085055 J-0.232444
G02 X119.411179 Y4.916458 Z0.000000 I0.003108 J0.671444
G02 X119.017189 Y5.186513 Z0.000000 I0.743133 J1.506607
G03 X118.885945 Y5.288730 Z0.000000 I-0.691004 J-0.751864
G03 X118.840419 Y5.302319 Z0.000000 I-0.045526 J-0.069463
G02 X118.792771 Y5.314234 Z0.000000 I0.000000 J0.101233
G02 X118.316750 Y5.581648 Z0.000000 I5.901419 J11.062439
G03 X117.840166 Y5.853190 Z0.000000 I-8.886951 J-15.043523
G03 X117.726121 Y5.905991 Z0.000000 I-0.441301 J-0.803598
G01 X117.735009 Y5.988626 Z0.000000
G02 X118.736252 Y6.059430 Z0.000000 I0.941386 J-6.197476
G02 X119.747034 Y5.996697 Z0.000000 I-0.092868 J-9.670888
G02 X119.812821 Y5.935723 Z0.000000 I-0.008651 J-0.075310
G03 X119.864666 Y5.851370 Z0.000000 I0.137496 J0.026399
G03 X120.008601 Y5.784281 Z0.000000 I0.220496 J0.285115
G02 X120.180551 Y5.740066 Z0.000000 I-0.502491 J-2.310599
G02 X120.357200 Y5.680539 Z0.000000 I-0.743024 J-2.496847
G03 X120.573421 Y5.701808 Z0.000000 I0.086588 J0.229426
G03 X120.668731 Y5.874549 Z0.000000 I-0.106893 J0.171643
G03 X120.395927 Y6.253277 Z0.000000 I-0.402319 J-0.002180
G03 X118.737124 Y6.531337 Z0.000000 I-1.681859 J-4.946422
G02 X117.583188 Y6.568017 Z0.000000 I0.090524 J21.016823
G01 X117.551604 Y6.601531 Z0.000000
G02 X117.569121 Y6.648961 Z0.000000 I0.072970 J-0.000000
G02 X117.607204 Y6.666501 Z0.000000 I0.038083 J-0.032573
G03 X117.656255 Y6.683625 Z0.000000 I0.000000 J0.078811
G03 X118.078165 Y7.040929 Z0.000000 I-5.569645 J7.004485
G02 X118.504176 Y7.399906 Z0.000000 I5.588317 J-6.199577
G02 X118.664767 Y7.502650 Z0.000000 I0.604585 J-0.768107
G03 X118.827146 Y7.602919 Z0.000000 I-0.529984 J1.039886
G03 X119.087008 Y7.813745 Z0.000000 I-2.132619 J2.894209
G02 X120.379805 Y8.852154 Z0.000000 I10.735537 J-12.041564
G02 X120.650082 Y8.942159 Z0.000000 I0.278670 J-0.386011
G03 X120.888123 Y9.053389 Z0.000000 I-0.005758 J0.322650
G03 X120.992464 Y9.337014 Z0.000000 I-0.322458 J0.279632
G03 X120.877146 Y9.672508 Z0.000000 I-0.563149 J-0.006003
G03 X120.650755 Y9.784576 Z0.000000 I-0.226392 J-0.172637
G03 X120.349469 Y9.650123 Z0.000000 I-0.000001 J-0.404789
G03 X120.215013 Y9.298948 Z0.000000 I0.391380 J-0.351177
G02 X120.130435 Y9.089634 Z0.000000 I-0.301297 J0.000001
G02 X119.931162 Y9.005057 Z0.000000 I-0.199272 J0.192464
G03 X119.844404 Y8.984513 Z0.000000 I-0.000001 J-0.193460
G03 X119.788732 Y8.933558 Z0.000000 I0.062064 J-0.123699
G02 X119.732900 Y8.873448 Z0.000000 I-0.180119 J0.111315
G02 X119.216491 Y8.518663 Z0.000000 I-7.251954 J10.002405
G03 X118.695837 Y8.165809 Z0.000000 I9.010813 J-13.856476
G03 X118.558519 Y8.054244 Z0.000000 I0.754617 J-1.069098
G02 X117.663552 Y7.334575 Z0.000000 I-5.386830 J5.782646
G02 X117.395986 Y7.251143 Z0.000000 I-0.267564 J0.387320
G02 X117.335417 Y7.284582 Z0.000000 I0.000000 J0.071575
G02 X117.267117 Y7.455751 Z0.000000 I0.430234 J0.270885
G02 X117.300218 Y7.635986 Z0.000000 I0.242891 J0.048548
G02 X117.617349 Y8.014337 Z0.000000 I1.530210 J-0.960526
G03 X118.341464 Y8.766723 Z0.000000 I-5.080161 J5.613917
G03 X118.991255 Y9.654663 Z0.000000 I-6.444689 J5.397927
G02 X119.567672 Y10.187250 Z0.000000 I1.294759 J-0.823092
G02 X120.767178 Y10.595684 Z0.000000 I1.872695 J-3.534211
G03 X121.015503 Y10.663866 Z0.000000 I-0.219549 J1.285919
G03 X121.135199 Y10.737090 Z0.000000 I-0.138880 J0.361462
G02 X121.247590 Y10.778546 Z0.000000 I0.108430 J-0.120884
G02 X121.401359 Y10.730589 Z0.000000 I-0.007162 J-0.293462
G03 X121.885508 Y10.507256 Z0.000000 I0.992012 J1.514077
G03 X122.410588 Y10.435583 Z0.000000 I0.501717 J1.716387
G03 X122.513297 Y10.459253 Z0.000000 I-0.003209 J0.248603
G03 X122.683498 Y10.564057 Z0.000000 I-0.381458 J0.810087
G02 X122.974330 Y10.665907 Z0.000000 I0.295596 J-0.377914
G02 X123.073258 Y10.567956 Z0.000000 I0.000973 J-0.097951
G02 X123.050583 Y10.454519 Z0.000000 I-0.295092 J0.000001
G02 X123.002557 Y10.398209 Z0.000000 I-0.111428 J0.046400
G03 X122.936125 Y10.274398 Z0.000000 I0.073691 J-0.119268
G03 X123.046453 Y9.045004 Z0.000000 I10.810241 J0.350480
G03 X123.307357 Y8.323848 Z0.000000 I1.902747 J0.280613
G03 X124.063857 Y7.377401 Z0.000000 I4.100108 J2.501678
G02 X124.283985 Y7.067372 Z0.000000 I-0.725809 J-0.748506
G02 X124.247845 Y6.980484 Z0.000000 I-0.057944 J-0.026859
G01 X124.247845 Y6.980457 Z0.000000
G00 Z5.000000

(End cutting path id: path846)


(Start cutting path id: path846)
(Change tool to Cylindrical cutter)

G00 Z5.000000
G00 X123.287869 Y19.171928

G01 Z0.000000 F1000.0(Penetrate)
G02 X122.763845 Y18.229647 Z0.000000 I-2.526681 J0.788293 F1100.000000
G02 X121.987694 Y17.667345 Z0.000000 I-1.582450 J1.367456
G02 X121.337912 Y17.564218 Z0.000000 I-0.537087 J1.285439
G02 X120.572214 Y17.782229 Z0.000000 I0.165014 J2.033208
G02 X118.553723 Y18.994351 Z0.000000 I8.021004 J15.643720
G02 X118.396059 Y19.296094 Z0.000000 I0.209910 J0.301741
G02 X118.500784 Y19.455956 Z0.000000 I0.174379 J-0.000001
G02 X118.798910 Y19.471622 Z0.000000 I0.169974 J-0.390103
G03 X119.881224 Y19.263608 Z0.000000 I1.433561 J4.539227
G03 X120.275880 Y19.362343 Z0.000000 I0.047858 J0.646816
G02 X120.356837 Y19.370832 Z0.000000 I0.049051 J-0.077505
G02 X120.438279 Y19.302082 Z0.000000 I-0.054692 J-0.147403
G03 X120.804827 Y19.017597 Z0.000000 I0.532491 J0.307709
G03 X121.026439 Y19.137268 Z0.000000 I0.048894 J0.174486
G03 X120.915809 Y19.521974 Z0.000000 I-0.344244 J0.109265
G03 X120.443091 Y19.632038 Z0.000000 I-0.343458 J-0.404950
G02 X120.284724 Y19.618309 Z0.000000 I-0.121856 J0.485356
G02 X120.167011 Y19.652219 Z0.000000 I0.021697 J0.296579
G03 X120.046880 Y19.696419 Z0.000000 I-0.222705 J-0.419943
G03 X119.402941 Y19.821059 Z0.000000 I-2.690472 J-12.174253
G02 X118.563941 Y20.046224 Z0.000000 I0.733872 J4.410228
G02 X118.441063 Y20.182562 Z0.000000 I0.070215 J0.186827
G02 X118.492031 Y20.398934 Z0.000000 I0.229564 J0.060114
G02 X118.721364 Y20.503004 Z0.000000 I0.229332 J-0.200649
G03 X118.920788 Y20.534030 Z0.000000 I0.000002 J0.656402
G03 X119.714565 Y20.819712 Z0.000000 I-3.485063 J10.928975
G02 X119.899037 Y20.878276 Z0.000000 I0.481960 J-1.198316
G02 X120.023125 Y20.892761 Z0.000000 I0.124087 J-0.524262
G03 X120.117823 Y20.924936 Z0.000000 I0.000001 J0.155444
G03 X120.149986 Y20.990200 Z0.000000 I-0.050137 J0.065265
G03 X119.990958 Y21.149145 Z0.000000 I-0.158944 J0.000001
G03 X119.196836 Y20.989690 Z0.000000 I0.001086 J-2.062582
G02 X118.957187 Y20.911633 Z0.000000 I-0.601380 J1.439442
G02 X118.614275 Y20.850827 Z0.000000 I-0.690513 J2.896771
G02 X118.501995 Y20.982065 Z0.000000 I-0.012138 J0.103264
G02 X118.737107 Y21.290544 Z0.000000 I0.505024 J-0.141075
G03 X119.203443 Y21.580464 Z0.000000 I-9.115307 J15.181948
G03 X119.606879 Y21.850154 Z0.000000 I-7.488584 J11.638942
G02 X120.011367 Y22.108904 Z0.000000 I3.632711 J-5.233287
G02 X120.077850 Y22.126996 Z0.000000 I0.066482 J-0.113103
G03 X120.131259 Y22.145717 Z0.000000 I0.000000 J0.085542
G01 X120.149950 Y22.184585 Z0.000000
G01 X120.173412 Y22.222464 Z0.000000
G02 X120.328590 Y22.273465 Z0.000000 I0.253302 J-0.509134
G03 X120.664484 Y22.357894 Z0.000000 I-0.410492 J2.343488
G03 X121.286751 Y22.590041 Z0.000000 I-2.744410 J8.306402
G02 X121.420185 Y22.631921 Z0.000000 I0.297090 J-0.713062
G02 X121.833692 Y22.708568 Z0.000000 I1.475523 J-6.806559
G02 X122.244250 Y22.724109 Z0.000000 I0.272387 J-1.765157
G02 X122.515772 Y22.655646 Z0.000000 I-0.064188 J-0.827226
G02 X122.734768 Y22.498055 Z0.000000 I-0.265245 J-0.599556
G02 X122.855010 Y22.283960 Z0.000000 I-0.401105 J-0.366087
G03 X122.935349 Y22.031624 Z0.000000 I5.183410 J1.511340
G03 X123.066128 Y21.673179 Z0.000000 I10.554941 J3.647900
G02 X123.173177 Y21.311252 Z0.000000 I-2.226118 J-0.855225
G02 X123.203436 Y21.023576 Z0.000000 I-1.368810 J-0.289405
G03 X123.220254 Y20.732482 Z0.000000 I2.527445 J-0.000009
G03 X123.263434 Y20.502977 Z0.000000 I1.645557 J0.190788
G02 X123.369013 Y19.739664 Z0.000000 I-3.135606 J-0.822667
G02 X123.287829 Y19.171914 Z0.000000 I-1.795849 J-0.032886
G01 X123.287869 Y19.171928 Z0.000000
G00 Z5.000000

(End cutting path id: path846)


(Start cutting path id: path846)
(Change tool to Cylindrical cutter)

G00 Z5.000000
G00 X124.323647 Y21.413318

G01 Z0.000000 F1000.0(Penetrate)
G02 X123.737965 Y21.545821 Z0.000000 I0.002799 J1.373029 F1100.000000
G02 X123.529318 Y21.790145 Z0.000000 I0.168457 J0.355110
G03 X123.184858 Y22.674122 Z0.000000 I-5.309042 J-1.559682
G03 X122.925553 Y23.016805 Z0.000000 I-1.018822 J-0.501483
G03 X122.493820 Y23.249779 Z0.000000 I-0.696492 J-0.774182
G03 X121.937434 Y23.276558 Z0.000000 I-0.341333 J-1.298448
G02 X121.724288 Y23.268043 Z0.000000 I-0.141614 J0.872874
G02 X121.675534 Y23.297899 Z0.000000 I0.005121 J0.063098
G02 X121.658640 Y23.464045 Z0.000000 I0.162450 J0.100449
G02 X122.237729 Y24.832753 Z0.000000 I14.211323 J-5.205833
G03 X122.609471 Y25.624238 Z0.000000 I-38.309561 J18.476131
G03 X122.618462 Y25.665529 Z0.000000 I-0.090315 J0.041291
G02 X122.629498 Y25.705442 Z0.000000 I0.077702 J-0.000000
G02 X122.818744 Y25.999971 Z0.000000 I4.747204 J-2.842200
G03 X123.120247 Y26.469756 Z0.000000 I-7.169166 J4.932732
G03 X123.553438 Y27.229787 Z0.000000 I-18.354442 J10.964868
G02 X123.643261 Y27.348925 Z0.000000 I0.442252 J-0.240002
G02 X124.080330 Y27.746888 Z0.000000 I5.541190 J-5.646702
G03 X124.532380 Y28.133308 Z0.000000 I-31.728034 J37.574430
G03 X124.620632 Y28.214424 Z0.000000 I-1.308966 J1.512670
G02 X124.709794 Y28.290140 Z0.000000 I0.590350 J-0.604834
G01 X124.734312 Y28.298194 Z0.000000
G01 X124.748336 Y28.284400 Z0.000000
G02 X124.762106 Y26.625088 Z0.000000 I-99.927849 J-1.658953
G01 X124.762100 Y24.951982 Z0.000000
G01 X124.562250 Y24.863513 Z0.000000
G03 X124.409335 Y24.646944 Z0.000000 I0.104479 J-0.236040
G03 X124.523948 Y24.357237 Z0.000000 I0.355479 J-0.026891
G01 X124.762087 Y24.138992 Z0.000000
G01 X124.762082 Y22.775705 Z0.000000
G01 X124.762077 Y21.412416 Z0.000000
G01 X124.323597 Y21.413318 Z0.000000
G01 X124.323647 Y21.413318 Z0.000000
G00 Z5.000000

(End cutting path id: path846)


(Start cutting path id: path846)
(Change tool to Cylindrical cutter)

G00 Z5.000000
G00 X121.259617 Y21.344640

G01 Z0.000000 F1000.0(Penetrate)
G03 X121.147117 Y21.348327 Z0.000000 I-0.059983 J-0.112079 F1100.000000
G03 X120.967296 Y21.212024 Z0.000000 I0.211021 J-0.465162
G03 X120.790799 Y20.619517 Z0.000000 I0.593364 J-0.499293
G03 X121.068873 Y20.373080 Z0.000000 I0.278075 J0.033669
G03 X121.537484 Y20.758631 Z0.000000 I0.000002 J0.477555
G03 X121.259617 Y21.344640 Z0.000000 I-0.535244 J0.105087
G01 X121.259617 Y21.344640 Z0.000000
G00 Z5.000000

(End cutting path id: path846)


(Start cutting path id: path846)
(Change tool to Cylindrical cutter)

G00 Z5.000000
G00 X120.664443 Y23.101408

G01 Z0.000000 F1000.0(Penetrate)
G02 X120.570228 Y22.969271 Z0.000000 I-0.290207 J0.107266 F1100.000000
G02 X120.231082 Y22.746637 Z0.000000 I-1.224560 J1.495780
G03 X119.864890 Y22.541972 Z0.000000 I2.838918 J-5.509390
G03 X119.182840 Y22.113279 Z0.000000 I11.811415 J-19.548875
G02 X118.503668 Y21.686663 Z0.000000 I-12.242446 J18.736019
G02 X118.452038 Y21.672293 Z0.000000 I-0.051630 J0.085561
G01 X118.406034 Y21.718867 Z0.000000
G02 X118.454039 Y21.837941 Z0.000000 I0.177100 J-0.002184
G03 X118.497727 Y21.908187 Z0.000000 I-0.153186 J0.143979
G03 X118.788272 Y22.730599 Z0.000000 I-21.783333 J8.158226
G02 X119.103994 Y23.533725 Z0.000000 I7.623236 J-2.533201
G02 X119.225485 Y23.688256 Z0.000000 I0.379281 J-0.173165
G03 X119.357453 Y24.064925 Z0.000000 I-0.229606 J0.291896
G03 X119.056548 Y24.408779 Z0.000000 I-0.473883 J-0.111105
G03 X118.905892 Y24.431832 Z0.000000 I-0.129016 J-0.339349
G03 X118.810278 Y24.394060 Z0.000000 I0.009842 J-0.164816
G03 X118.691580 Y24.159545 Z0.000000 I0.210796 J-0.253990
G03 X118.785676 Y23.978376 Z0.000000 I0.198829 J-0.011751
G02 X118.884112 Y23.772726 Z0.000000 I-0.110917 J-0.179474
G02 X118.720674 Y23.458696 Z0.000000 I-0.504649 J0.063099
G03 X118.613361 Y23.331077 Z0.000000 I0.411203 J-0.454705
G03 X118.590754 Y23.252865 Z0.000000 I0.123987 J-0.078213
G02 X118.578943 Y23.167427 Z0.000000 I-0.314929 J0.000001
G02 X118.534053 Y23.051814 Z0.000000 I-0.625156 J0.176211
G03 X118.107272 Y22.122361 Z0.000000 I12.911507 J-6.491343
G03 X118.071079 Y21.941527 Z0.000000 I0.433672 J-0.180835
G02 X118.049262 Y21.822086 Z0.000000 I-0.337870 J0.000001
G02 X118.006078 Y21.769735 Z0.000000 I-0.098409 J0.037191
G03 X117.962107 Y21.717899 Z0.000000 I0.057988 J-0.093758
G03 X117.941078 Y21.611454 Z0.000000 I0.258892 J-0.106445
G02 X117.917572 Y21.504328 Z0.000000 I-0.255866 J0.000001
G02 X117.852977 Y21.420172 Z0.000000 I-0.218157 J0.100579
G02 X117.542572 Y21.335814 Z0.000000 I-0.247814 J0.298599
G02 X117.334927 Y21.504834 Z0.000000 I0.043367 J0.265336
G02 X117.324827 Y21.584261 Z0.000000 I0.157580 J0.060394
G02 X117.390729 Y22.000985 Z0.000000 I4.784880 J-0.543123
G03 X117.468496 Y22.420685 Z0.000000 I-11.181763 J2.288947
G03 X117.557223 Y23.003976 Z0.000000 I-21.465796 J3.563638
G02 X117.694520 Y23.562603 Z0.000000 I2.755002 J-0.380927
G02 X117.854556 Y23.832404 Z0.000000 I0.778532 J-0.279433
G03 X118.032268 Y24.165114 Z0.000000 I-0.604189 J0.536536
G03 X118.003798 Y24.404887 Z0.000000 I-0.320429 J0.083529
G03 X117.836818 Y24.488844 Z0.000000 I-0.143108 J-0.076595
G03 X117.542158 Y24.336249 Z0.000000 I0.075251 J-0.506100
G03 X117.404921 Y24.122535 Z0.000000 I0.481318 J-0.459998
G03 X117.356476 Y23.869902 Z0.000000 I0.634507 J-0.252636
G02 X117.339205 Y23.600429 Z0.000000 I-2.110956 J0.000008
G02 X117.295674 Y23.398350 Z0.000000 I-1.219448 J0.156956
G03 X117.089116 Y22.623761 Z0.000000 I10.891975 J-3.319378
G03 X116.989269 Y22.062056 Z0.000000 I5.622027 J-1.289078
G02 X116.861207 Y21.610084 Z0.000000 I-1.561638 J0.198349
G02 X116.759018 Y21.554398 Z0.000000 I-0.088028 J0.039933
G02 X116.650022 Y21.616276 Z0.000000 I0.025459 J0.171779
G02 X116.387789 Y22.008625 Z0.000000 I1.904484 J1.556700
G03 X116.138630 Y22.430819 Z0.000000 I-5.395331 J-2.899458
G03 X116.005911 Y22.600245 Z0.000000 I-0.991414 J-0.639919
G02 X115.884036 Y22.771477 Z0.000000 I0.559809 J0.527437
G02 X115.825313 Y22.946000 Z0.000000 I0.522104 J0.272819
G03 X115.792941 Y23.133803 Z0.000000 I-31.932429 J-5.407444
G03 X115.730515 Y23.486874 Z0.000000 I-128.987841 J-22.624374
G02 X115.652160 Y24.448157 Z0.000000 I4.983917 J0.890073
G02 X115.754521 Y25.195782 Z0.000000 I3.099948 J-0.043606
G02 X116.067259 Y25.815295 Z0.000000 I1.612023 J-0.425076
G02 X116.368573 Y25.959666 Z0.000000 I0.301313 J-0.242248
G03 X116.453953 Y25.977719 Z0.000000 I0.000001 J0.210918
G03 X116.631914 Y26.076232 Z0.000000 I-0.464115 J1.048410
G02 X117.048385 Y26.311395 Z0.000000 I1.666938 J-2.465773
G02 X117.631276 Y26.538924 Z0.000000 I2.140893 J-4.624204
G02 X118.651314 Y26.690127 Z0.000000 I0.968140 J-3.014950
G02 X119.370275 Y26.510437 Z0.000000 I-0.026808 J-1.635436
G02 X119.504620 Y26.399380 Z0.000000 I-0.184401 J-0.359853
G02 X119.711014 Y26.073861 Z0.000000 I-1.557626 J-1.215799
G03 X119.907205 Y25.734093 Z0.000000 I3.116529 J1.573043
G03 X120.019842 Y25.602401 Z0.000000 I0.569200 J0.372824
G02 X120.173259 Y25.403111 Z0.000000 I-0.473574 J-0.523262
G02 X120.596688 Y24.486005 Z0.000000 I-10.113104 J-5.225534
G02 X120.762338 Y23.739723 Z0.000000 I-2.094536 J-0.856442
G02 X120.664183 Y23.101405 Z0.000000 I-1.613280 J-0.078631
G01 X120.664443 Y23.101408 Z0.000000
G00 Z5.000000

(End cutting path id: path846)


(Start cutting path id: path846)
(Change tool to Cylindrical cutter)

G00 Z5.000000
G00 X118.200498 Y27.174891

G01 Z0.000000 F1000.0(Penetrate)
G02 X118.057138 Y27.252437 Z0.000000 I-0.030196 J0.115464 F1100.000000
G02 X118.008670 Y27.747367 Z0.000000 I1.053529 J0.353011
G03 X118.063519 Y28.201058 Z0.000000 I-29.405639 J3.785163
G03 X118.069172 Y28.281988 Z0.000000 I-0.940525 J0.106357
G02 X118.162600 Y28.360802 Z0.000000 I0.081633 J-0.001986
G02 X118.291512 Y28.249507 Z0.000000 I-0.022893 J-0.156823
G02 X118.311901 Y28.133845 Z0.000000 I-0.485517 J-0.145218
G02 X118.325210 Y27.671626 Z0.000000 I-7.806442 J-0.456065
G02 X118.272659 Y27.247766 Z0.000000 I-1.735682 J0.000006
G02 X118.200448 Y27.174892 Z0.000000 I-0.097709 J0.024606
G01 X118.200498 Y27.174891 Z0.000000
G00 Z5.000000

(End cutting path id: path846)


(Start cutting path id: path846)
(Change tool to Cylindrical cutter)

G00 Z5.000000
G00 X116.983197 Y26.924218

G01 Z0.000000 F1000.0(Penetrate)
G02 X116.605958 Y26.690712 Z0.000000 I-1.007689 J1.206490 F1100.000000
G02 X116.496836 Y26.711284 Z0.000000 I-0.039494 J0.090208
G01 X116.484722 Y26.744997 Z0.000000
G02 X116.553938 Y27.307819 Z0.000000 I10.485521 J-1.003858
G03 X116.624454 Y27.877262 Z0.000000 I-10.878719 J1.636220
G03 X116.647242 Y28.265752 Z0.000000 I-5.027308 J0.489808
G02 X116.758649 Y28.347435 Z0.000000 I0.086936 J-0.001756
G02 X116.868732 Y28.200791 Z0.000000 I-0.043115 J-0.147006
G03 X116.912601 Y27.496470 Z0.000000 I5.846404 J0.010626
G03 X116.983648 Y27.265128 Z0.000000 I0.688332 J0.084812
G02 X117.037553 Y27.040540 Z0.000000 I-0.436420 J-0.223510
G02 X116.982917 Y26.924217 Z0.000000 I-0.151859 J0.000334
G01 X116.983197 Y26.924218 Z0.000000
G00 Z5.000000

(End cutting path id: path846)


(Start cutting path id: path846)
(Change tool to Cylindrical cutter)

G00 Z5.000000
G00 X115.297372 Y25.496780

G01 Z0.000000 F1000.0(Penetrate)
G02 X115.210921 Y25.322701 Z0.000000 I-1.376152 J0.574916 F1100.000000
G01 X115.188981 Y25.310071 Z0.000000
G01 X115.165210 Y25.321889 Z0.000000
G02 X115.024072 Y25.527855 Z0.000000 I2.104706 J1.593588
G02 X114.947773 Y25.758307 Z0.000000 I0.445528 J0.275363
G02 X114.958375 Y26.291137 Z0.000000 I2.515270 J0.216476
G03 X115.001843 Y26.837944 Z0.000000 I-5.874877 J0.742155
G03 X115.006480 Y27.746078 Z0.000000 I-16.274414 J0.537174
G01 X114.985683 Y28.655520 Z0.000000
G01 X115.198223 Y28.675979 Z0.000000
G01 X115.410763 Y28.696439 Z0.000000
G01 X115.393058 Y27.189964 Z0.000000
G02 X115.341868 Y25.690393 Z0.000000 I-33.530863 J0.393966
G02 X115.297352 Y25.496778 Z0.000000 I-0.587931 J0.033252
G01 X115.297372 Y25.496780 Z0.000000
G00 Z5.000000

(End cutting path id: path846)


(Start cutting path id: path846)
(Change tool to Cylindrical cutter)

G00 Z5.000000
G00 X113.803734 Y26.024638

G01 Z0.000000 F1000.0(Penetrate)
G02 X113.763911 Y26.038165 Z0.000000 I0.000000 J0.065381 F1100.000000
G02 X113.576374 Y26.199192 Z0.000000 I1.379985 J1.796895
G02 X113.447843 Y26.396653 Z0.000000 I0.357797 J0.373460
G02 X113.394176 Y26.702659 Z0.000000 I0.845562 J0.306002
G03 X113.374483 Y27.029539 Z0.000000 I-2.722537 J0.000010
G03 X113.300079 Y27.481556 Z0.000000 I-5.315828 J-0.642874
G02 X113.225018 Y27.928223 Z0.000000 I5.566910 J1.165136
G02 X113.236381 Y27.980859 Z0.000000 I0.080257 J0.010220
G02 X113.275578 Y28.020687 Z0.000000 I0.107425 J-0.066523
G02 X113.475661 Y28.134335 Z0.000000 I1.154351 J-1.799334
G02 X113.670345 Y28.180432 Z0.000000 I0.195661 J-0.392188
G02 X113.760141 Y28.134973 Z0.000000 I0.000247 J-0.110929
G02 X113.802795 Y28.025280 Z0.000000 I-0.184502 J-0.134881
G02 X113.790440 Y27.861752 Z0.000000 I-0.441078 J-0.048907
G03 X113.768241 Y27.690661 Z0.000000 I0.629917 J-0.168718
G03 X113.792439 Y27.361776 Z0.000000 I2.364099 J0.008604
G02 X113.886935 Y26.108347 Z0.000000 I-9.344204 J-1.334741
G02 X113.803934 Y26.024627 Z0.000000 I-0.083001 J-0.000715
G01 X113.803734 Y26.024638 Z0.000000
G00 Z5.000000

(End cutting path id: path846)


(Start cutting path id: path846)
(Change tool to Cylindrical cutter)

G00 Z5.000000
G00 X112.452247 Y24.270719

G01 Z0.000000 F1000.0(Penetrate)
G02 X112.384785 Y24.322776 Z0.000000 I0.000000 J0.069742 F1100.000000
G02 X112.394148 Y24.492394 Z0.000000 I0.268058 J0.070271
G02 X112.479994 Y24.521502 Z0.000000 I0.055010 J-0.021095
G02 X112.549738 Y24.396814 Z0.000000 I-0.076587 J-0.124687
G02 X112.517667 Y24.302818 Z0.000000 I-0.153784 J0.000001
G02 X112.452337 Y24.270727 Z0.000000 I-0.065330 J0.050453
G01 X112.452247 Y24.270719 Z0.000000
G00 Z5.000000

(End cutting path id: path846)


(Start cutting path id: path846)
(Change tool to Cylindrical cutter)

G00 Z5.000000
G00 X111.562946 Y23.788698

G01 Z0.000000 F1000.0(Penetrate)
G02 X111.422353 Y23.707987 Z0.000000 I-0.516998 J0.737765 F1100.000000
G01 X111.397295 Y23.712469 Z0.000000
G02 X111.246700 Y24.177892 Z0.000000 I0.379641 J0.379915
G02 X111.508248 Y24.400640 Z0.000000 I0.261547 J-0.042178
G02 X111.628639 Y24.323976 Z0.000000 I-0.000000 J-0.132863
G02 X111.705186 Y23.979025 Z0.000000 I-0.738957 J-0.344948
G02 X111.679490 Y23.901708 Z0.000000 I-0.129167 J0.000000
G02 X111.562946 Y23.788695 Z0.000000 I-0.410540 J0.306770
G01 X111.562946 Y23.788698 Z0.000000
G00 Z5.000000

(End cutting path id: path846)


(Start cutting path id: path846)
(Change tool to Cylindrical cutter)

G00 Z5.000000
G00 X109.682045 Y23.630244

G01 Z0.000000 F1000.0(Penetrate)
G02 X109.609295 Y23.450709 Z0.000000 I-0.887229 J0.255009 F1100.000000
G01 X109.584244 Y23.446958 Z0.000000
G02 X109.520453 Y23.672901 Z0.000000 I0.170156 J0.170018
G02 X109.696566 Y23.916537 Z0.000000 I0.383358 J-0.091642
G01 X109.726846 Y23.898630 Z0.000000
G02 X109.682065 Y23.630244 Z0.000000 I-1.188983 J0.060457
G01 X109.682045 Y23.630244 Z0.000000
G00 Z5.000000

(End cutting path id: path846)


(Start cutting path id: path846)
(Change tool to Cylindrical cutter)

G00 Z5.000000
G00 X108.430412 Y22.792891

G01 Z0.000000 F1000.0(Penetrate)
G02 X108.336311 Y22.360526 Z0.000000 I-2.521048 J0.322265 F1100.000000
G02 X108.283890 Y22.321929 Z0.000000 I-0.052420 J0.016299
G02 X107.943113 Y22.711736 Z0.000000 I0.000001 J0.343862
G02 X108.414034 Y23.288314 Z0.000000 I0.704769 J-0.095019
G01 X108.452462 Y23.261950 Z0.000000
G02 X108.430432 Y22.792891 Z0.000000 I-2.934369 J-0.097229
G01 X108.430412 Y22.792891 Z0.000000
G00 Z5.000000

(End cutting path id: path846)


(Start cutting path id: path846)
(Change tool to Cylindrical cutter)

G00 Z5.000000
G00 X109.380279 Y21.916875

G01 Z0.000000 F1000.0(Penetrate)
G02 X109.298142 Y21.887914 Z0.000000 I-0.079889 J0.095620 F1100.000000
G02 X109.223289 Y21.919676 Z0.000000 I0.001961 J0.108707
G02 X109.194688 Y22.001065 Z0.000000 I0.070472 J0.070484
G02 X109.258390 Y22.238475 Z0.000000 I0.804110 J-0.088508
G03 X109.354158 Y22.488303 Z0.000000 I-2.519248 J1.108982
G03 X109.424492 Y22.744071 Z0.000000 I-2.568505 J0.843873
G01 X109.451404 Y22.743725 Z0.000000
G02 X109.473291 Y22.495418 Z0.000000 I-1.158106 J-0.227198
G02 X109.429519 Y22.003519 Z0.000000 I-3.511756 J0.064599
G02 X109.380189 Y21.916778 Z0.000000 I-0.140598 J0.022561
G01 X109.380279 Y21.916875 Z0.000000
G00 Z5.000000

(End cutting path id: path846)


(Start cutting path id: path846)
(Change tool to Cylindrical cutter)

G00 Z5.000000
G00 X110.167769 Y19.247143

G01 Z0.000000 F1000.0(Penetrate)
G02 X110.119013 Y19.217004 Z0.000000 I-0.088119 J0.088046 F1100.000000
G02 X110.037849 Y19.203844 Z0.000000 I-0.081162 J0.243689
G02 X109.901011 Y19.335346 Z0.000000 I0.000000 J0.136947
G02 X110.023450 Y19.565614 Z0.000000 I0.258413 J0.010281
G02 X110.215072 Y19.507201 Z0.000000 I0.070125 J-0.113469
G02 X110.167759 Y19.247149 Z0.000000 I-0.211514 J-0.095848
G01 X110.167769 Y19.247143 Z0.000000
G00 Z5.000000

(End cutting path id: path846)


(Start cutting path id: path846)
(Change tool to Cylindrical cutter)

G00 Z5.000000
G00 X109.815623 Y14.607909

G01 Z0.000000 F1000.0(Penetrate)
G03 X109.609049 Y14.695756 Z0.000000 I-0.482449 J-0.847675 F1100.000000
G03 X109.430113 Y14.721590 Z0.000000 I-0.178939 J-0.606798
G02 X109.256787 Y14.743923 Z0.000000 I0.000002 J0.683775
G02 X109.208423 Y14.779691 Z0.000000 I0.020529 J0.078341
G03 X109.159592 Y14.817854 Z0.000000 I-0.076266 J-0.047263
G03 X108.928514 Y14.869552 Z0.000000 I-0.399922 J-1.245281
G02 X108.684798 Y14.903458 Z0.000000 I1.806822 J13.880178
G02 X108.034904 Y15.001901 Z0.000000 I14.553527 J98.272843
G03 X106.574183 Y15.190157 Z0.000000 I-4.429426 J-28.607729
G03 X106.183535 Y15.192767 Z0.000000 I-0.208866 J-2.025965
G03 X104.647736 Y15.039334 Z0.000000 I6.757418 J-75.402214
G03 X104.234734 Y14.977989 Z0.000000 I0.606933 J-5.507023
G02 X103.877209 Y14.912382 Z0.000000 I-9.195920 J49.106690
G02 X103.650094 Y14.872907 Z0.000000 I-3.545822 J19.727137
G03 X103.430472 Y14.821526 Z0.000000 I0.293604 J-1.750047
G03 X103.390253 Y14.794408 Z0.000000 I0.023749 J-0.078604
G02 X103.201852 Y14.644263 Z0.000000 I-0.429694 J0.345904
G02 X102.973533 Y14.591678 Z0.000000 I-0.228317 J0.469374
G03 X102.725137 Y14.492675 Z0.000000 I-0.000001 J-0.361106
G03 X102.704902 Y14.337114 Z0.000000 I0.085500 J-0.090218
G03 X102.757573 Y14.311635 Z0.000000 I0.046387 J0.028713
G03 X104.104812 Y14.499431 Z0.000000 I-3.396419 J29.292191
G02 X106.992319 Y14.704840 Z0.000000 I2.574835 J-15.797294
G02 X109.415902 Y14.395660 Z0.000000 I-0.222730 J-11.399422
G03 X109.932017 Y14.359547 Z0.000000 I0.366892 J1.537354
G03 X110.015772 Y14.452528 Z0.000000 I-0.008732 J0.092079
G01 X109.999859 Y14.484985 Z0.000000
G03 X109.815623 Y14.607887 Z0.000000 I-0.958432 J-1.237204
G01 X109.815623 Y14.607909 Z0.000000
G00 Z5.000000

(End cutting path id: path846)


(Start cutting path id: path846)
(Change tool to Cylindrical cutter)

G00 Z5.000000
G00 X109.496495 Y12.480465

G01 Z0.000000 F1000.0(Penetrate)
G03 X109.463855 Y12.428258 Z0.000000 I0.036632 J-0.059209 F1100.000000
G03 X109.485195 Y12.368361 Z0.000000 I0.073794 J-0.007460
G03 X109.553796 Y12.334744 Z0.000000 I0.083345 J0.083274
G03 X109.626434 Y12.350540 Z0.000000 I0.013963 J0.110701
G03 X109.659072 Y12.402752 Z0.000000 I-0.036648 J0.059216
G03 X109.637735 Y12.462645 Z0.000000 I-0.073790 J0.007460
G03 X109.569133 Y12.496262 Z0.000000 I-0.083345 J-0.083274
G03 X109.496495 Y12.480466 Z0.000000 I-0.013963 J-0.110701
G01 X109.496495 Y12.480465 Z0.000000
G00 Z5.000000

(End cutting path id: path846)


(Start cutting path id: path846)
(Change tool to Cylindrical cutter)

G00 Z5.000000
G00 X110.142262 Y11.798381

G01 Z0.000000 F1000.0(Penetrate)
G03 X110.099609 Y11.779945 Z0.000000 I-0.000000 J-0.058558 F1100.000000
G03 X110.081162 Y11.733412 Z0.000000 I0.049469 J-0.046534
G01 X110.104131 Y11.691394 Z0.000000
G03 X110.182432 Y11.668441 Z0.000000 I0.078302 J0.122086
G03 X110.239467 Y11.693095 Z0.000000 I0.000000 J0.078300
G01 X110.243532 Y11.733411 Z0.000000
G03 X110.194750 Y11.782997 Z0.000000 I-0.133565 J-0.082613
G03 X110.142262 Y11.798381 Z0.000000 I-0.052487 J-0.081842
G01 X110.142262 Y11.798381 Z0.000000
G00 Z5.000000

(End cutting path id: path846)


(Start cutting path id: path846)
(Change tool to Cylindrical cutter)

G00 Z5.000000
G00 X108.557007 Y10.151638

G01 Z0.000000 F1000.0(Penetrate)
G02 X108.418202 Y10.118814 Z0.000000 I-0.089279 J0.067642 F1100.000000
G02 X108.327387 Y10.264831 Z0.000000 I0.071978 J0.146017
G02 X108.400053 Y10.417226 Z0.000000 I0.196134 J-0.000001
G02 X108.530818 Y10.429653 Z0.000000 I0.074740 J-0.092251
G02 X108.604554 Y10.318729 Z0.000000 I-0.066430 J-0.124130
G02 X108.557017 Y10.151638 Z0.000000 I-0.238458 J-0.022466
G01 X108.557007 Y10.151638 Z0.000000
G00 Z5.000000

(End cutting path id: path846)


(Start cutting path id: path846)
(Change tool to Cylindrical cutter)

G00 Z5.000000
G00 X105.696313 Y9.135031

G01 Z0.000000 F1000.0(Penetrate)
G03 X105.620591 Y9.113264 Z0.000000 I-0.000001 J-0.142585 F1100.000000
G01 X105.598813 Y9.073912 Z0.000000
G03 X105.657165 Y8.972757 Z0.000000 I0.116853 J-0.000000
G03 X105.752152 Y8.985231 Z0.000000 I0.039372 J0.068080
G03 X105.773137 Y9.081665 Z0.000000 I-0.064500 J0.064536
G03 X105.696253 Y9.135039 Z0.000000 I-0.076885 J-0.028688
G01 X105.696313 Y9.135031 Z0.000000
G00 Z5.000000

(End cutting path id: path846)


(Start cutting path id: path846)
(Change tool to Cylindrical cutter)

G00 Z5.000000
G00 X102.685830 Y8.199392

G01 Z0.000000 F1000.0(Penetrate)
G02 X102.627296 Y8.190836 Z0.000000 I-0.039162 J0.063412 F1100.000000
G02 X102.576230 Y8.228863 Z0.000000 I0.022469 J0.083475
G02 X102.592328 Y8.315843 Z0.000000 I0.056023 J0.034611
G02 X102.682430 Y8.309802 Z0.000000 I0.041596 J-0.054560
G02 X102.710269 Y8.245225 Z0.000000 I-0.067177 J-0.067249
G02 X102.685430 Y8.199394 Z0.000000 I-0.052003 J-0.001462
G01 X102.685830 Y8.199392 Z0.000000
G00 Z5.000000

(End cutting path id: path846)


(Start cutting path id: path846)
(Change tool to Cylindrical cutter)

G00 Z5.000000
G00 X101.051660 Y8.258086

G01 Z0.000000 F1000.0(Penetrate)
G02 X101.007547 Y8.309838 Z0.000000 I0.058443 J0.094492 F1100.000000
G02 X100.986660 Y8.414253 Z0.000000 I0.250543 J0.104414
G03 X100.959660 Y8.518307 Z0.000000 I-0.213999 J0.000001
G03 X100.856741 Y8.647848 Z0.000000 I-0.443819 J-0.246956
G02 X100.753976 Y8.777495 Z0.000000 I0.337278 J0.372896
G02 X100.726822 Y8.882746 Z0.000000 I0.190401 J0.105251
G03 X100.612062 Y9.150211 Z0.000000 I-0.369059 J0.000001
G03 X100.324813 Y9.264971 Z0.000000 I-0.287250 J-0.302120
G03 X100.236490 Y9.174405 Z0.000000 I-0.000000 J-0.088351
G03 X100.337012 Y8.777770 Z0.000000 I0.924240 J0.023180
G02 X100.465041 Y8.274345 Z0.000000 I-1.048818 J-0.534725
G02 X100.364708 Y7.736910 Z0.000000 I-1.303804 J-0.034677
G03 X100.406196 Y7.517490 Z0.000000 I0.187231 J-0.078230
G03 X100.686927 Y7.404306 Z0.000000 I0.267767 J0.259400
G03 X100.844954 Y7.498411 Z0.000000 I-0.006602 J0.190823
G03 X100.873708 Y7.722165 Z0.000000 I-0.247775 J0.145565
G02 X100.884446 Y7.803612 Z0.000000 I0.099892 J0.028262
G02 X100.941208 Y7.835846 Z0.000000 I0.056762 J-0.033862
G03 X101.154673 Y8.000663 Z0.000000 I0.000001 J0.220644
G03 X101.051640 Y8.258086 Z0.000000 I-0.225652 J0.059014
G01 X101.051660 Y8.258086 Z0.000000
G00 Z5.000000

(End cutting path id: path846)


(Start cutting path id: path846)
(Change tool to Cylindrical cutter)

G00 Z5.000000
G00 X99.347070 Y7.316170

G01 Z0.000000 F1000.0(Penetrate)
G01 X99.317095 Y7.277397 Z0.000000 F1100.000000
G03 X99.390530 Y7.149129 Z0.000000 I0.272686 J0.070961
G03 X99.461539 Y7.135397 Z0.000000 I0.045663 J0.045661
G01 X99.477530 Y7.186259 Z0.000000
G03 X99.387210 Y7.299600 Z0.000000 I-0.537189 J-0.335421
G03 X99.347064 Y7.316179 Z0.000000 I-0.040145 J-0.040316
G01 X99.347070 Y7.316170 Z0.000000
G00 Z5.000000

(End cutting path id: path846)


(Start cutting path id: path846)
(Change tool to Cylindrical cutter)

G00 Z5.000000
G00 X98.940453 Y7.455837

G01 Z0.000000 F1000.0(Penetrate)
G03 X98.891399 Y7.438269 Z0.000000 I-0.000000 J-0.077269 F1100.000000
G03 X98.855463 Y7.386007 Z0.000000 I0.072695 J-0.088472
G01 X98.868117 Y7.342083 Z0.000000
G03 X98.940452 Y7.316177 Z0.000000 I0.072336 J0.088036
G03 X99.012784 Y7.342084 Z0.000000 I0.000000 J0.113927
G01 X99.025443 Y7.386007 Z0.000000
G03 X98.989501 Y7.438268 Z0.000000 I-0.108688 J-0.036257
G03 X98.940453 Y7.455837 Z0.000000 I-0.049049 J-0.059683
G01 X98.940453 Y7.455837 Z0.000000
G00 Z5.000000

(End cutting path id: path846)


(Start cutting path id: path846)
(Change tool to Cylindrical cutter)

G00 Z5.000000
G00 X98.623257 Y7.972071

G01 Z0.000000 F1000.0(Penetrate)
G02 X98.546859 Y7.948929 Z0.000000 I-0.065674 J0.079133 F1100.000000
G02 X98.499819 Y7.985021 Z0.000000 I0.005915 J0.056409
G02 X98.504794 Y8.059626 Z0.000000 I0.083181 J0.031920
G02 X98.589669 Y8.149630 Z0.000000 I0.214043 J-0.116823
G02 X98.682209 Y8.170989 Z0.000000 I0.077312 J-0.123818
G01 X98.713107 Y8.136680 Z0.000000
G02 X98.692593 Y8.056277 Z0.000000 I-0.167823 J0.000001
G02 X98.623257 Y7.972071 Z0.000000 I-0.254500 J0.138910
G01 X98.623257 Y7.972071 Z0.000000
G00 Z5.000000

(End cutting path id: path846)


(Start cutting path id: path846)
(Change tool to Cylindrical cutter)

G00 Z5.000000
G00 X98.534411 Y11.392452

G01 Z0.000000 F1000.0(Penetrate)
G01 X98.484051 Y11.376706 Z0.000000 F1100.000000
G03 X98.453211 Y11.284152 Z0.000000 I0.123464 J-0.092555
G03 X98.487186 Y11.182789 Z0.000000 I0.168191 J-0.000001
G03 X98.555412 Y11.148817 Z0.000000 I0.068227 J0.051526
G03 X98.647429 Y11.249107 Z0.000000 I0.000000 J0.092358
G03 X98.534403 Y11.392448 Z0.000000 I-0.165498 J-0.014265
G01 X98.534411 Y11.392452 Z0.000000
G00 Z5.000000

(End cutting path id: path846)


(Start cutting path id: path846)
(Change tool to Cylindrical cutter)

G00 Z5.000000
G00 X97.928120 Y12.058265

G01 Z0.000000 F1000.0(Penetrate)
G03 X97.857757 Y11.976769 Z0.000000 I-0.000000 J-0.071124 F1100.000000
G03 X97.955160 Y11.874862 Z0.000000 I0.120614 J0.017781
G03 X98.031632 Y11.892438 Z0.000000 I0.018422 J0.094999
G03 X98.063450 Y11.956062 Z0.000000 I-0.047704 J0.063624
G03 X98.029472 Y12.024297 Z0.000000 I-0.085502 J0.000000
G03 X97.928118 Y12.058264 Z0.000000 I-0.101354 J-0.134226
G01 X97.928120 Y12.058265 Z0.000000
G00 Z5.000000

(End cutting path id: path846)


(Start cutting path id: path846)
(Change tool to Cylindrical cutter)

G00 Z5.000000
G00 X94.355804 Y12.519885

G01 Z0.000000 F1000.0(Penetrate)
G02 X94.209472 Y12.308508 Z0.000000 I-1.892908 J1.154081 F1100.000000
G02 X94.000307 Y12.065167 Z0.000000 I-2.720726 J2.127041
G02 X93.753061 Y11.892794 Z0.000000 I-0.537172 J0.506995
G02 X93.462073 Y11.835471 Z0.000000 I-0.280726 J0.657812
G02 X92.903914 Y11.972370 Z0.000000 I0.018240 J1.280660
G02 X92.571893 Y12.284022 Z0.000000 I0.362026 J0.718375
G02 X92.456048 Y12.568531 Z0.000000 I0.927259 J0.543397
G02 X92.416920 Y12.908474 Z0.000000 I1.294039 J0.321167
G02 X92.529274 Y13.477869 Z0.000000 I1.613660 J-0.022626
G02 X92.823457 Y13.939477 Z0.000000 I1.335773 J-0.526745
G02 X93.096653 Y14.145836 Z0.000000 I0.757430 J-0.718730
G02 X93.324924 Y14.201967 Z0.000000 I0.228269 J-0.436090
G02 X93.728903 Y14.117641 Z0.000000 I-0.000004 J-1.009846
G02 X94.182624 Y13.827586 Z0.000000 I-0.687866 J-1.575895
G02 X94.504015 Y13.222443 Z0.000000 I-0.651646 J-0.734005
G02 X94.355804 Y12.519885 Z0.000000 I-1.068495 J-0.141504
G01 X94.355804 Y12.519885 Z0.000000
G00 Z5.000000

(End cutting path id: path846)


(Start cutting path id: path846)
(Change tool to Cylindrical cutter)

G00 Z5.000000
G00 X93.260235 Y10.174438

G01 Z0.000000 F1000.0(Penetrate)
G03 X93.156049 Y10.108914 Z0.000000 I-0.000000 J-0.115591 F1100.000000
G03 X93.163254 Y9.972624 Z0.000000 I0.128109 J-0.061563
G01 X93.207972 Y9.952203 Z0.000000
G03 X93.263528 Y9.988863 Z0.000000 I-0.012961 J0.080068
G03 X93.303590 Y10.131754 Z0.000000 I-0.218166 J0.138228
G01 X93.260129 Y10.174438 Z0.000000
G01 X93.260235 Y10.174438 Z0.000000
G00 Z5.000000

(End cutting path id: path846)


(Start cutting path id: path846)
(Change tool to Cylindrical cutter)

G00 Z5.000000
G00 X93.938469 Y8.420512

G01 Z0.000000 F1000.0(Penetrate)
G03 X93.826384 Y8.354459 Z0.000000 I-0.000000 J-0.128125 F1100.000000
G03 X93.815499 Y8.198465 Z0.000000 I0.161930 J-0.089677
G03 X93.939795 Y8.104654 Z0.000000 I0.137325 J0.052701
G03 X94.057846 Y8.176914 Z0.000000 I0.010293 J0.115745
G03 X94.051602 Y8.349967 Z0.000000 I-0.197111 J0.079526
G03 X93.938469 Y8.420516 Z0.000000 I-0.113133 J-0.055436
G01 X93.938469 Y8.420512 Z0.000000
G00 Z5.000000

(End cutting path id: path846)


(Start cutting path id: path846)
(Change tool to Cylindrical cutter)

G00 Z5.000000
G00 X92.799388 Y8.290597

G01 Z0.000000 F1000.0(Penetrate)
G03 X92.693547 Y8.268804 Z0.000000 I-0.000001 J-0.267901 F1100.000000
G01 X92.671754 Y8.235707 Z0.000000
G03 X92.787378 Y8.004925 Z0.000000 I0.288128 J-0.000001
G03 X92.992636 Y7.995856 Z0.000000 I0.109289 J0.146211
G03 X93.030371 Y8.165836 Z0.000000 I-0.063878 J0.103359
G03 X92.799388 Y8.290600 Z0.000000 I-0.230988 J-0.151443
G01 X92.799388 Y8.290597 Z0.000000
G00 Z5.000000

(End cutting path id: path846)


(Start cutting path id: path846)
(Change tool to Cylindrical cutter)

G00 Z5.000000
G00 X93.646206 Y5.140027

G01 Z0.000000 F1000.0(Penetrate)
G01 X93.601924 Y5.143094 Z0.000000 F1100.000000
G01 X93.581245 Y5.111377 Z0.000000
G03 X93.600815 Y5.062153 Z0.000000 I0.071692 J-0.000000
G03 X93.646205 Y5.042587 Z0.000000 I0.045391 J0.042866
G03 X93.699864 Y5.053892 Z0.000000 I0.000000 J0.132994
G01 X93.711165 Y5.071227 Z0.000000
G01 X93.701847 Y5.094669 Z0.000000
G03 X93.646206 Y5.140017 Z0.000000 I-0.200863 J-0.189648
G01 X93.646206 Y5.140027 Z0.000000
G00 Z5.000000

(End cutting path id: path846)


(Start cutting path id: path846)
(Change tool to Cylindrical cutter)

G00 Z5.000000
G00 X91.721220 Y4.328032

G01 Z0.000000 F1000.0(Penetrate)
G02 X91.561654 Y3.784403 Z0.000000 I-2.148654 J0.335438 F1100.000000
G02 X91.331189 Y3.445502 Z0.000000 I-1.040824 J0.459987
G01 X91.035485 Y3.145552 Z0.000000
G01 X90.538182 Y3.179094 Z0.000000
G02 X89.854212 Y3.270017 Z0.000000 I0.358391 J5.314057
G02 X89.228871 Y3.440378 Z0.000000 I0.919944 J4.609720
G03 X88.935074 Y3.537477 Z0.000000 I-3.216846 J-9.240350
G03 X88.559960 Y3.649784 Z0.000000 I-4.686915 J-14.971979
G02 X88.215542 Y3.771092 Z0.000000 I0.833151 J2.915073
G01 X88.205582 Y3.799139 Z0.000000
G03 X88.226956 Y3.841258 Z0.000000 I-1.040466 J0.554496
G03 X88.418750 Y4.240907 Z0.000000 I-93.480314 J45.107737
G01 X88.609696 Y4.640969 Z0.000000
G01 X89.003900 Y4.683188 Z0.000000
G02 X89.398514 Y4.711773 Z0.000000 I0.612927 J-5.723249
G02 X89.724016 Y4.710525 Z0.000000 I0.147822 J-3.894629
G03 X90.044635 Y4.716163 Z0.000000 I0.115838 J2.532002
G03 X90.126599 Y4.743034 Z0.000000 I-0.014908 J0.183916
G03 X90.203539 Y4.923890 Z0.000000 I-0.089550 J0.144890
G03 X90.007835 Y5.292801 Z0.000000 I-0.751647 J-0.162376
G03 X89.688683 Y5.464496 Z0.000000 I-0.423466 J-0.404680
G03 X89.457961 Y5.392323 Z0.000000 I-0.046419 J-0.256480
G02 X89.339739 Y5.311338 Z0.000000 I-0.275733 J0.275735
G02 X89.082600 Y5.226578 Z0.000000 I-0.562319 J1.273500
G02 X88.834447 Y5.227247 Z0.000000 I-0.122607 J0.545714
G02 X88.697204 Y5.315340 Z0.000000 I0.054232 J0.235443
G02 X88.600838 Y5.471364 Z0.000000 I0.710022 J0.546306
G02 X88.580721 Y5.556009 Z0.000000 I0.181520 J0.087853
G02 X88.729577 Y5.964951 Z0.000000 I0.611236 J0.009071
G02 X89.306614 Y6.394861 Z0.000000 I1.261403 J-1.090875
G02 X89.350511 Y6.394786 Z0.000000 I0.021865 J-0.048602
G02 X89.534207 Y6.291521 Z0.000000 I-0.507512 J-1.117817
G03 X90.773085 Y5.559543 Z0.000000 I6.293378 J9.237208
G03 X91.421822 Y5.334477 Z0.000000 I1.150993 J2.270148
G02 X91.696285 Y5.157471 Z0.000000 I-0.088177 J-0.438019
G02 X91.708905 Y4.935606 Z0.000000 I-0.167891 J-0.120841
G03 X91.677383 Y4.826216 Z0.000000 I0.218298 J-0.122141
G03 X91.693224 Y4.627908 Z0.000000 I0.762208 J-0.038903
G02 X91.724229 Y4.425129 Z0.000000 I-1.710256 J-0.365264
G02 X91.721233 Y4.328028 Z0.000000 I-0.391357 J-0.036519
G01 X91.721220 Y4.328032 Z0.000000
G00 Z5.000000

(End cutting path id: path846)


(Start cutting path id: path846)
(Change tool to Cylindrical cutter)

G00 Z5.000000
G00 X90.546142 Y1.177464

G01 Z0.000000 F1000.0(Penetrate)
G02 X90.199284 Y0.690951 Z0.000000 I-0.708244 J0.138039 F1100.000000
G02 X89.137023 Y0.362119 Z0.000000 I-1.251627 J2.163080
G02 X88.437436 Y0.354451 Z0.000000 I-0.408758 J5.375818
G02 X88.228833 Y0.411222 Z0.000000 I0.027745 J0.513583
G02 X87.479542 Y0.950118 Z0.000000 I1.454793 J2.813136
G02 X87.345062 Y1.267726 Z0.000000 I0.307808 J0.317606
G03 X87.322223 Y1.314441 Z0.000000 I-0.059196 J0.000000
G03 X87.207659 Y1.374766 Z0.000000 I-0.226214 J-0.290657
G02 X87.132120 Y1.457724 Z0.000000 I0.033898 J0.106738
G02 X87.118490 Y1.785146 Z0.000000 I0.933574 J0.202857
G03 X87.155563 Y2.152807 Z0.000000 I-6.059623 J0.796716
G03 X87.185434 Y2.736548 Z0.000000 I-15.238211 J1.072390
G02 X87.245053 Y3.286732 Z0.000000 I3.646121 J-0.116782
G02 X87.297726 Y3.340390 Z0.000000 I0.066211 J-0.012313
G02 X87.879360 Y3.157771 Z0.000000 I0.126278 J-0.615360
G02 X88.231867 Y2.357477 Z0.000000 I-0.937078 J-0.890539
G02 X88.241348 Y2.216826 Z0.000000 I-29.353040 J-2.049104
G02 X88.248107 Y2.107562 Z0.000000 I-17.478134 J-1.136013
G03 X88.348017 Y1.985248 Z0.000000 I0.134516 J0.007915
G03 X88.803678 Y1.959970 Z0.000000 I0.288831 J1.086948
G03 X89.006986 Y2.168258 Z0.000000 I-0.035706 J0.238220
G03 X88.876370 Y2.540419 Z0.000000 I-0.438896 J0.054964
G02 X88.603117 Y2.897957 Z0.000000 I1.069978 J1.100931
G01 X88.641994 Y2.963905 Z0.000000
G02 X88.951319 Y2.915111 Z0.000000 I-0.000004 J-1.004883
G02 X89.425914 Y2.710273 Z0.000000 I-0.842753 J-2.604825
G03 X89.529444 Y2.666429 Z0.000000 I0.267588 J0.487710
G03 X89.750714 Y2.610031 Z0.000000 I0.676503 J2.191898
G02 X90.135862 Y2.463884 Z0.000000 I-0.251543 J-1.243476
G02 X90.348067 Y2.263501 Z0.000000 I-0.319875 J-0.551300
G02 X90.549663 Y1.761265 Z0.000000 I-1.129710 J-0.745040
G02 X90.546134 Y1.177494 Z0.000000 I-1.549132 J-0.282532
G01 X90.546142 Y1.177464 Z0.000000
G00 Z5.000000

(End cutting path id: path846)


(Start cutting path id: path846)
(Change tool to Cylindrical cutter)

G00 Z5.000000
G00 X87.056526 Y0.390417

G01 Z0.000000 F1000.0(Penetrate)
G02 X86.786562 Y0.471390 Z0.000000 I-0.082581 J0.215191 F1100.000000
G02 X86.765344 Y0.796938 Z0.000000 I0.251062 J0.179829
G01 X86.848044 Y0.951477 Z0.000000
G01 X86.999109 Y0.809547 Z0.000000
G02 X87.141366 Y0.533863 Z0.000000 I-0.318269 J-0.338777
G02 X87.056527 Y0.390417 Z0.000000 I-0.132903 J-0.018208
G01 X87.056526 Y0.390417 Z0.000000
G00 Z5.000000

(End cutting path id: path846)


(Start cutting path id: path846)
(Change tool to Cylindrical cutter)

G00 Z5.000000
G00 X86.660388 Y2.639089

G01 Z0.000000 F1000.0(Penetrate)
G03 X86.593554 Y2.344098 Z0.000000 I2.496999 J-0.720791 F1100.000000
G03 X86.570776 Y2.099338 Z0.000000 I1.690596 J-0.280773
G02 X86.539171 Y1.856534 Z0.000000 I-1.126595 J0.023183
G02 X86.370663 Y1.274929 Z0.000000 I-6.732885 J1.635507
G03 X86.191669 Y0.695328 Z0.000000 I10.968142 J-3.704652
G03 X86.175782 Y0.579810 Z0.000000 I0.412063 J-0.115520
G02 X86.057510 Y0.370913 Z0.000000 I-0.243619 J0.000001
G02 X85.771934 Y0.337481 Z0.000000 I-0.179830 J0.299697
G03 X85.561470 Y0.374246 Z0.000000 I-0.241249 J-0.760257
G03 X83.562805 Y0.422889 Z0.000000 I-2.703394 J-69.992834
G01 X82.801192 Y0.430892 Z0.000000
G01 X82.702092 Y0.622532 Z0.000000
G02 X82.639054 Y0.822910 Z0.000000 I0.543722 J0.281158
G02 X82.604805 Y1.353343 Z0.000000 I3.884166 J0.517115
G01 X82.606507 Y1.892493 Z0.000000
G01 X83.044944 Y2.412166 Z0.000000
G02 X83.511047 Y2.897542 Z0.000000 I3.999310 J-3.374027
G02 X83.789986 Y3.094249 Z0.000000 I0.909158 J-0.993095
G03 X84.069537 Y3.272985 Z0.000000 I-0.950620 J1.794794
G03 X84.096782 Y3.327780 Z0.000000 I-0.041852 J0.054981
G02 X84.178484 Y3.487983 Z0.000000 I0.197917 J-0.000001
G02 X84.519212 Y3.634559 Z0.000000 I0.496067 J-0.683838
G03 X84.713501 Y3.673708 Z0.000000 I-1.309264 J6.999316
G03 X84.882560 Y3.713057 Z0.000000 I-1.150307 J5.324942
G02 X85.037578 Y3.701912 Z0.000000 I0.060483 J-0.242363
G02 X85.270831 Y3.554345 Z0.000000 I-0.298350 J-0.729721
G01 X85.490629 Y3.353588 Z0.000000
G01 X85.350146 Y3.077755 Z0.000000
G03 X85.210754 Y2.801366 Z0.000000 I34.633046 J-17.639935
G03 X84.930859 Y2.238104 Z0.000000 I144.532220 J-72.171869
G02 X84.614029 Y1.749848 Z0.000000 I-2.246496 J1.110831
G02 X84.488193 Y1.703936 Z0.000000 I-0.102191 J0.084684
G03 X84.257840 Y1.636175 Z0.000000 I-0.047736 J-0.263144
G03 X84.142857 Y1.381267 Z0.000000 I0.247869 J-0.265195
G03 X84.242429 Y1.112668 Z0.000000 I0.382756 J-0.010865
G03 X84.495863 Y0.993386 Z0.000000 I0.270782 J0.246447
G03 X84.673748 Y1.050193 Z0.000000 I0.013367 J0.265062
G03 X84.853359 Y1.275355 Z0.000000 I-0.393502 J0.498114
G02 X85.004693 Y1.559325 Z0.000000 I3.228866 J-1.538430
G02 X85.080720 Y1.659304 Z0.000000 I0.468879 J-0.277653
G03 X85.156472 Y1.760007 Z0.000000 I-0.380547 J0.365101
G03 X85.532312 Y2.438831 Z0.000000 I-17.202346 J9.967761
G01 X85.895812 Y3.126721 Z0.000000
G01 X86.310946 Y3.126719 Z0.000000
G02 X86.602158 Y2.977193 Z0.000000 I-0.000001 J-0.358343
G02 X86.660301 Y2.639515 Z0.000000 I-0.319054 J-0.228780
G01 X86.660388 Y2.639089 Z0.000000
G00 Z5.000000

(End cutting path id: path846)


(Start cutting path id: path846)
(Change tool to Cylindrical cutter)

G00 Z5.000000
G00 X88.016047 Y4.786741

G01 Z0.000000 F1000.0(Penetrate)
G02 X87.693571 Y4.061791 Z0.000000 I-2.461354 J0.660675 F1100.000000
G02 X87.466403 Y3.938286 Z0.000000 I-0.227167 J0.147165
G03 X87.406362 Y3.926943 Z0.000000 I-0.000001 J-0.164574
G03 X87.134860 Y3.808367 Z0.000000 I1.410305 J-3.599286
G02 X86.487481 Y3.634308 Z0.000000 I-0.782613 J1.619838
G02 X86.273234 Y3.743400 Z0.000000 I-0.017396 J0.230761
G03 X86.218594 Y3.782369 Z0.000000 I-0.073694 J-0.045540
G03 X85.985035 Y3.808371 Z0.000000 I-0.233563 J-1.035956
G02 X85.745774 Y3.905272 Z0.000000 I0.000001 J0.343837
G02 X85.474144 Y4.303382 Z0.000000 I0.834025 J0.860773
G01 X85.334960 Y4.635992 Z0.000000
G01 X85.463057 Y4.901125 Z0.000000
G03 X85.577049 Y5.169551 Z0.000000 I-2.707127 J1.308056
G03 X85.591847 Y5.250598 Z0.000000 I-0.225208 J0.082993
G02 X85.705846 Y5.511462 Z0.000000 I0.362413 J-0.003035
G02 X86.192789 Y5.816246 Z0.000000 I1.011293 J-1.074334
G02 X86.962009 Y5.848474 Z0.000000 I0.433002 J-1.138910
G02 X87.906625 Y5.324229 Z0.000000 I-0.662037 J-2.306055
G01 X88.110879 Y5.140047 Z0.000000
G01 X88.016047 Y4.786741 Z0.000000
G00 Z5.000000

(End cutting path id: path846)


(Start cutting path id: path846)
(Change tool to Cylindrical cutter)

G00 Z5.000000
G00 X85.311813 Y5.887097

G01 Z0.000000 F1000.0(Penetrate)
G02 X85.233448 Y5.902279 Z0.000000 I0.000001 J0.209845 F1100.000000
G02 X85.165654 Y5.945937 Z0.000000 I0.079965 J0.198635
G03 X85.064762 Y6.021832 Z0.000000 I-0.374252 J-0.392515
G03 X84.331026 Y6.433025 Z0.000000 I-12.137109 J-20.797267
G02 X84.110158 Y6.598591 Z0.000000 I0.437468 J0.813698
G02 X83.989117 Y6.780306 Z0.000000 I0.411963 J0.405578
G03 X83.868797 Y6.943820 Z0.000000 I-0.399069 J-0.167625
G03 X83.738319 Y6.991427 Z0.000000 I-0.130479 J-0.155002
G03 X83.336966 Y6.842082 Z0.000000 I-0.000002 J-0.613971
G03 X83.187617 Y6.515721 Z0.000000 I0.281917 J-0.326363
G03 X83.282912 Y6.344762 Z0.000000 I0.200996 J-0.000001
G03 X83.563692 Y6.283198 Z0.000000 I0.227989 J0.368739
G02 X83.733382 Y6.255102 Z0.000000 I0.037102 J-0.302406
G02 X84.333623 Y5.911051 Z0.000000 I-2.145389 J-4.438531
G03 X84.763025 Y5.647636 Z0.000000 I3.467437 J5.170670
G03 X84.841226 Y5.627260 Z0.000000 I0.078202 J0.139879
G02 X84.915957 Y5.606667 Z0.000000 I-0.000001 J-0.145896
G02 X85.008336 Y5.527599 Z0.000000 I-0.183921 J-0.308383
G02 X85.046724 Y5.423456 Z0.000000 I-0.128227 J-0.106412
G02 X85.011735 Y5.279645 Z0.000000 I-0.296446 J-0.004038
G02 X84.896295 Y5.194893 Z0.000000 I-0.146329 J0.078319
G02 X84.368584 Y5.157816 Z0.000000 I-0.421498 J2.225147
G02 X83.830606 Y5.231845 Z0.000000 I0.142017 J3.023858
G02 X83.715669 Y5.308332 Z0.000000 I0.043946 J0.190640
G03 X83.264253 Y5.486997 Z0.000000 I-0.364799 J-0.262093
G03 X82.901745 Y5.148382 Z0.000000 I0.090430 J-0.460163
G03 X82.889127 Y4.903344 Z0.000000 I0.566480 J-0.152014
G03 X82.964943 Y4.754938 Z0.000000 I0.267160 J0.042915
G03 X83.231134 Y4.651661 Z0.000000 I0.250205 J0.250203
G03 X83.491620 Y4.778756 Z0.000000 I-0.016473 J0.364246
G02 X83.611582 Y4.842343 Z0.000000 I0.140685 J-0.120462
G02 X83.780076 Y4.811235 Z0.000000 I0.033003 J-0.293115
G03 X83.968525 Y4.749681 Z0.000000 I0.283210 J0.547799
G03 X84.380816 Y4.717813 Z0.000000 I0.412301 J2.651248
G02 X84.735469 Y4.598803 Z0.000000 I-0.000002 J-0.587951
G02 X84.824024 Y4.382618 Z0.000000 I-0.138316 J-0.182887
G02 X84.753501 Y4.248416 Z0.000000 I-0.226139 J0.033205
G02 X84.625550 Y4.198131 Z0.000000 I-0.127950 J0.137644
G03 X84.455381 Y4.185250 Z0.000000 I-0.000004 J-1.130350
G03 X83.772331 Y4.068213 Z0.000000 I2.807750 J-18.438442
G02 X82.510872 Y3.944886 Z0.000000 I-1.307745 J6.863226
G02 X82.131484 Y4.057339 Z0.000000 I-0.004512 J0.680986
G02 X81.964395 Y4.189775 Z0.000000 I0.673198 J1.020975
G02 X81.599571 Y4.560354 Z0.000000 I5.001097 J5.288278
G02 X81.149805 Y5.269496 Z0.000000 I1.761734 J1.614564
G02 X81.167602 Y5.615433 Z0.000000 I0.376309 J0.154067
G03 X81.213933 Y5.754931 Z0.000000 I-0.381304 J0.204082
G03 X81.239874 Y6.093948 Z0.000000 I-2.288367 J0.345606
G02 X81.264430 Y6.435228 Z0.000000 I2.519630 J-0.009773
G02 X81.321076 Y6.668456 Z0.000000 I1.208613 J-0.170050
G02 X81.680532 Y7.372982 Z0.000000 I2.771220 J-0.969942
G02 X81.989110 Y7.630643 Z0.000000 I0.623077 J-0.432597
G02 X83.947600 Y7.962922 Z0.000000 I1.605130 J-3.522900
G02 X84.661731 Y7.385686 Z0.000000 I-0.075506 J-0.823777
G03 X84.779298 Y7.098696 Z0.000000 I1.719600 J0.536868
G03 X85.020834 Y6.687380 Z0.000000 I3.790283 J1.949183
G02 X85.186961 Y6.411454 Z0.000000 I-2.979870 J-1.982068
G02 X85.201463 Y6.354294 Z0.000000 I-0.105398 J-0.057160
G03 X85.218081 Y6.300568 Z0.000000 I0.095157 J-0.000000
G03 X85.298892 Y6.211883 Z0.000000 I0.357288 J0.244406
G02 X85.409307 Y5.988472 Z0.000000 I-0.195577 J-0.235648
G02 X85.311891 Y5.887083 Z0.000000 I-0.097415 J-0.003896
G01 X85.311813 Y5.887097 Z0.000000
G00 Z5.000000

(End cutting path id: path846)


(Start cutting path id: path846)
(Change tool to Cylindrical cutter)

G00 Z5.000000
G00 X82.776581 Y2.992597

G01 Z0.000000 F1000.0(Penetrate)
G03 X82.297450 Y2.433953 Z0.000000 I2.843169 J-2.923285 F1100.000000
G03 X82.039506 Y1.957025 Z0.000000 I1.803448 J-1.283601
