%
(Header)
(Generated by gcodetools from Inkscape.)
(Using default header. To add your own header create file "header" in the output dir.)
M3
(Header end.)
G21 (All units in mm)

(Start cutting path id: path4873)
(Change tool to Cylindrical cutter)

G00 Z5.000000
G00 X20.597418 Y21.692285

G01 Z-0.125000 F1000.0(Penetrate)
G01 X20.740664 Y21.549038 Z-0.125000 F1100.000000
G03 X20.977613 Y21.611432 Z-0.125000 I0.100282 J0.100282
G03 X20.870615 Y22.017771 Z-0.125000 I-0.401912 J0.111425
G01 X20.733740 Y22.154646 Z-0.125000
G02 X20.538262 Y22.649466 Z-0.125000 I0.472803 J0.472803
G02 X20.752836 Y22.734234 Z-0.125000 I0.125666 J-0.004140
G01 X20.772667 Y22.714402 Z-0.125000
G03 X20.976852 Y22.809559 Z-0.125000 I0.084763 J0.084763
G03 X20.715596 Y23.370158 Z-0.125000 I-0.900203 J-0.078347
G01 X20.707422 Y23.378331 Z-0.125000
G02 X20.472710 Y23.912385 Z-0.125000 I0.568420 J0.568420
G02 X20.680659 Y24.003777 Z-0.125000 I0.121768 J0.005210
G01 X20.698609 Y23.985828 Z-0.125000
G03 X20.905143 Y24.078635 Z-0.125000 I0.085637 J0.085637
G03 X20.660862 Y24.622258 Z-0.125000 I-0.837582 J-0.049677
G01 X20.649299 Y24.633821 Z-0.125000
G02 X20.429040 Y25.153422 Z-0.125000 I0.531999 J0.531999
G02 X20.639266 Y25.242537 Z-0.125000 I0.123141 J0.002029
G01 X20.650829 Y25.230974 Z-0.125000
G03 X20.857947 Y25.323198 Z-0.125000 I0.085860 J0.085860
G03 X20.617671 Y25.862815 Z-0.125000 I-0.823087 J-0.043194
G01 X20.606275 Y25.874211 Z-0.125000
G02 X20.385728 Y26.394099 Z-0.125000 I0.532702 J0.532708
G02 X20.595909 Y26.483262 Z-0.125000 I0.123114 J0.002095
G01 X20.609591 Y26.469574 Z-0.125000
G03 X20.816710 Y26.561798 Z-0.125000 I0.085860 J0.085861
G03 X20.576433 Y27.101416 Z-0.125000 I-0.823085 J-0.043194
G01 X20.562751 Y27.115104 Z-0.125000
G02 X20.346129 Y27.631069 Z-0.125000 I0.523061 J0.523057
G02 X20.556957 Y27.719584 Z-0.125000 I0.123498 J0.001184
G01 X20.567258 Y27.709283 Z-0.125000
G03 X20.775257 Y27.800627 Z-0.125000 I0.086201 J0.086201
G03 X20.540862 Y28.334363 Z-0.125000 I-0.801995 J-0.033867
G01 X20.530615 Y28.344608 Z-0.125000
G02 X20.313992 Y28.860570 Z-0.125000 I0.523050 J0.523054
G02 X20.524821 Y28.949085 Z-0.125000 I0.123499 J0.001184
G01 X20.535980 Y28.937937 Z-0.125000
G03 X20.743991 Y29.029266 Z-0.125000 I0.086206 J0.086205
G03 X20.509691 Y29.562907 Z-0.125000 I-0.801656 J-0.033718
G01 X20.497660 Y29.574930 Z-0.125000
G02 X20.284093 Y30.087845 Z-0.125000 I0.515597 J0.515604
G02 X20.495430 Y30.175838 Z-0.125000 I0.123797 J0.000456
G01 X20.507461 Y30.163815 Z-0.125000
G03 X20.715474 Y30.255144 Z-0.125000 I0.086206 J0.086206
G03 X20.481172 Y30.788787 Z-0.125000 I-0.801655 J-0.033716
G01 X20.469141 Y30.800810 Z-0.125000
G02 X20.255580 Y31.313735 Z-0.125000 I0.515616 J0.515603
G02 X20.466911 Y31.401718 Z-0.125000 I0.123791 J0.000455
G01 X20.506951 Y31.361679 Z-0.125000
G00 Z5.000000

(End cutting path id: path4873)


(Start cutting path id: path4873)
(Change tool to Cylindrical cutter)

G00 Z5.000000
G00 X21.097965 Y31.968045

G01 Z-0.125000 F1000.0(Penetrate)
G01 X23.339801 Y29.726210 Z-0.125000 F1100.000000
G03 X23.618384 Y29.746969 Z-0.125000 I0.130351 J0.130351
G03 X23.594281 Y30.070413 Z-0.125000 I-0.199817 J0.147730
G01 X21.299550 Y32.365145 Z-0.125000
G02 X21.075980 Y32.888056 Z-0.125000 I0.540218 J0.540218
G02 X21.285670 Y32.977709 Z-0.125000 I0.122820 J0.002783
G01 X23.823022 Y30.440356 Z-0.125000
G03 X24.070353 Y30.492367 Z-0.125000 I0.106697 J0.106697
G03 X23.990642 Y30.871419 Z-0.125000 I-0.330318 J0.128445
G01 X21.271789 Y33.590272 Z-0.125000
G02 X21.048220 Y34.113183 Z-0.125000 I0.540218 J0.540218
G02 X21.257910 Y34.202835 Z-0.125000 I0.122820 J0.002783
G01 X24.130071 Y31.330674 Z-0.125000
G03 X24.369503 Y31.390585 Z-0.125000 I0.101751 J0.101751
G03 X24.269604 Y31.789827 Z-0.125000 I-0.382808 J0.116333
G01 X21.244030 Y34.815399 Z-0.125000
G02 X21.020459 Y35.338312 Z-0.125000 I0.540220 J0.540220
G02 X21.230150 Y35.427965 Z-0.125000 I0.122821 J0.002783
G01 X24.368042 Y32.290071 Z-0.125000
G03 X24.599642 Y32.357814 Z-0.125000 I0.097259 J0.097259
G03 X24.475886 Y32.780912 Z-0.125000 I-0.448346 J0.098508
G01 X21.216270 Y36.040528 Z-0.125000
G02 X20.993930 Y36.562210 Z-0.125000 I0.537156 J0.537156
G02 X21.203818 Y36.651664 Z-0.125000 I0.122939 J0.002505
G01 X24.580432 Y33.275050 Z-0.125000
G03 X24.810028 Y33.344795 Z-0.125000 I0.096176 J0.096176
G03 X24.679421 Y33.774744 Z-0.125000 I-0.467871 J0.092685
G01 X21.194296 Y37.259869 Z-0.125000
G02 X20.974475 Y37.779032 Z-0.125000 I0.530916 J0.530916
G02 X21.184774 Y37.868075 Z-0.125000 I0.123184 J0.001929
G01 X24.776401 Y34.276447 Z-0.125000
G03 X25.005554 Y34.346637 Z-0.125000 I0.095940 J0.095940
G03 X24.873380 Y34.778154 Z-0.125000 I-0.472380 J0.091311
G01 X21.175251 Y38.476281 Z-0.125000
G02 X20.955431 Y38.995443 Z-0.125000 I0.530916 J0.530916
G02 X21.165729 Y39.084487 Z-0.125000 I0.123184 J0.001929
G01 X24.970360 Y35.279857 Z-0.125000
G03 X25.199512 Y35.350047 Z-0.125000 I0.095939 J0.095939
G03 X25.067340 Y35.781561 Z-0.125000 I-0.472376 J0.091311
G01 X21.156207 Y39.692693 Z-0.125000
G02 X20.936386 Y40.211855 Z-0.125000 I0.530916 J0.530916
G02 X21.146685 Y40.300898 Z-0.125000 I0.123184 J0.001929
G01 X25.161872 Y36.285712 Z-0.125000
G03 X25.390283 Y36.356642 Z-0.125000 I0.095548 J0.095548
G03 X25.255457 Y36.790810 Z-0.125000 I-0.480050 J0.088944
G01 X21.137163 Y40.909104 Z-0.125000
G02 X20.917342 Y41.428267 Z-0.125000 I0.530916 J0.530916
G02 X21.127641 Y41.517310 Z-0.125000 I0.123184 J0.001929
G01 X25.349042 Y37.295909 Z-0.125000
G03 X25.577454 Y37.366840 Z-0.125000 I0.095548 J0.095548
G03 X25.442627 Y37.801008 Z-0.125000 I-0.480050 J0.088944
G01 X23.268536 Y39.975101 Z-0.125000
G02 X23.095498 Y40.447480 Z-0.125000 I0.422735 J0.422735
G02 X23.314586 Y40.527735 Z-0.125000 I0.128155 J-0.010679
G01 X25.536212 Y38.306107 Z-0.125000
G03 X25.764249 Y38.377412 Z-0.125000 I0.095351 J0.095351
G03 X25.628063 Y38.812941 Z-0.125000 I-0.484002 J0.087713
G01 X23.360636 Y41.080368 Z-0.125000
G02 X23.187598 Y41.552747 Z-0.125000 I0.422735 J0.422735
G02 X23.406685 Y41.633001 Z-0.125000 I0.128155 J-0.010679
G01 X25.719385 Y39.320303 Z-0.125000
G03 X25.947308 Y39.391722 Z-0.125000 I0.095292 J0.095292
G03 X25.810707 Y39.827665 Z-0.125000 I-0.485210 J0.087335
G01 X23.452735 Y42.185635 Z-0.125000
G02 X23.279697 Y42.658017 Z-0.125000 I0.422737 J0.422737
G02 X23.498785 Y42.738271 Z-0.125000 I0.128155 J-0.010679
G01 X25.902028 Y40.335028 Z-0.125000
G03 X26.129126 Y40.407271 Z-0.125000 I0.094862 J0.094862
G03 X25.989476 Y40.846265 Z-0.125000 I-0.494126 J0.084521
G01 X23.544835 Y43.290905 Z-0.125000
G02 X23.371798 Y43.763284 Z-0.125000 I0.422735 J0.422735
G02 X23.590885 Y43.843538 Z-0.125000 I0.128155 J-0.010679
G01 X26.075956 Y41.358467 Z-0.125000
G03 X26.302851 Y41.430915 Z-0.125000 I0.094758 J0.094758
G03 X26.162436 Y41.870672 Z-0.125000 I-0.496367 J0.083806
G01 X23.636909 Y44.396200 Z-0.125000
G02 X23.464074 Y44.868375 Z-0.125000 I0.422296 J0.422296
G02 X23.683205 Y44.948585 Z-0.125000 I0.128178 J-0.010743
G01 X26.243964 Y42.387827 Z-0.125000
G03 X26.469133 Y42.461999 Z-0.125000 I0.093877 J0.093877
G03 X26.322093 Y42.908381 Z-0.125000 I-0.515979 J0.077443
G01 X23.729502 Y45.500973 Z-0.125000
G02 X23.556667 Y45.973150 Z-0.125000 I0.422298 J0.422298
G02 X23.775798 Y46.053361 Z-0.125000 I0.128178 J-0.010743
G01 X26.400223 Y43.428937 Z-0.125000
G03 X26.623264 Y43.505237 Z-0.125000 I0.092819 J0.092819
G03 X26.467617 Y43.960226 Z-0.125000 I-0.541896 J0.068740
G01 X23.822095 Y46.605749 Z-0.125000
G02 X23.649261 Y47.077923 Z-0.125000 I0.422296 J0.422296
G02 X23.868391 Y47.158134 Z-0.125000 I0.128178 J-0.010743
G01 X26.533995 Y44.492531 Z-0.125000
G03 X26.755537 Y44.570331 Z-0.125000 I0.092092 J0.092092
G03 X26.593519 Y45.031691 Z-0.125000 I-0.561399 J0.061980
G01 X23.915705 Y47.709506 Z-0.125000
G02 X23.746244 Y48.178308 Z-0.125000 I0.415067 J0.415067
G02 X23.966108 Y48.257784 Z-0.125000 I0.128569 J-0.011819
G01 X26.646954 Y45.576939 Z-0.125000
G03 X26.872608 Y45.650627 Z-0.125000 I0.094122 J0.094122
G03 X26.727454 Y46.095124 Z-0.125000 I-0.510365 J0.079285
G01 X24.016512 Y48.806066 Z-0.125000
G02 X23.847130 Y49.274790 Z-0.125000 I0.414897 J0.414897
G02 X24.067013 Y49.354249 Z-0.125000 I0.128579 J-0.011845
G01 X26.740986 Y46.680275 Z-0.125000
G03 X26.959504 Y46.761099 Z-0.125000 I0.090670 J0.090670
G03 X26.783797 Y47.236148 Z-0.125000 I-0.604223 J0.046534
G01 X24.119132 Y49.900814 Z-0.125000
G02 X23.933774 Y50.385514 Z-0.125000 I0.449806 J0.449806
G02 X24.150309 Y50.468321 Z-0.125000 I0.126764 J-0.006964
G01 X26.822184 Y47.796444 Z-0.125000
G03 X27.039640 Y47.878331 Z-0.125000 I0.090185 J0.090185
G03 X26.858829 Y48.358484 Z-0.125000 I-0.620505 J0.040458
G01 X24.219695 Y50.997617 Z-0.125000
G02 X24.047914 Y51.468741 Z-0.125000 I0.420032 J0.420032
G02 X24.267273 Y51.548724 Z-0.125000 I0.128300 J-0.011076
G01 X26.895475 Y48.920521 Z-0.125000
G03 X27.112344 Y49.002994 Z-0.125000 I0.089921 J0.089921
G03 X26.928653 Y49.486027 Z-0.125000 I-0.629775 J0.036949
G01 X24.314850 Y52.099831 Z-0.125000
G02 X24.142885 Y52.571138 Z-0.125000 I0.420427 J0.420427
G02 X24.362204 Y52.651160 Z-0.125000 I0.128278 J-0.011018
G01 X26.961101 Y50.052263 Z-0.125000
G03 X27.177059 Y50.135646 Z-0.125000 I0.089515 J0.089515
G03 X26.988792 Y50.623255 Z-0.125000 I-0.644616 J0.031262
G01 X24.406293 Y53.205755 Z-0.125000
G02 X24.231640 Y53.679750 Z-0.125000 I0.426226 J0.426226
G02 X24.450382 Y53.760350 Z-0.125000 I0.127969 J-0.010173
G01 X27.014448 Y51.196285 Z-0.125000
G03 X27.228991 Y51.281083 Z-0.125000 I0.088895 J0.088895
G03 X27.033351 Y51.776065 Z-0.125000 I-0.668817 J0.021806
G01 X24.494472 Y54.314942 Z-0.125000
G02 X24.319820 Y54.788938 Z-0.125000 I0.426231 J0.426226
G02 X24.538561 Y54.869537 Z-0.125000 I0.127968 J-0.010173
G01 X27.050183 Y52.357914 Z-0.125000
G03 X27.262875 Y52.444566 Z-0.125000 I0.088103 J0.088103
G03 X27.057080 Y52.949703 Z-0.125000 I-0.702743 J0.008190
G01 X24.582650 Y55.424132 Z-0.125000
G02 X24.407997 Y55.898127 Z-0.125000 I0.426226 J0.426226
G02 X24.626739 Y55.978727 Z-0.125000 I0.127969 J-0.010173
G01 X27.096178 Y53.509288 Z-0.125000
G03 X27.302488 Y53.602320 Z-0.125000 I0.085552 J0.085552
G03 X27.056645 Y54.147505 Z-0.125000 I-0.843261 J-0.052233
G01 X24.656815 Y56.547334 Z-0.125000
G02 X24.485444 Y57.018047 Z-0.125000 I0.419150 J0.419150
G02 X24.704893 Y57.097941 Z-0.125000 I0.128348 J-0.011207
G01 X27.047100 Y54.755734 Z-0.125000
G03 X27.256640 Y54.845537 Z-0.125000 I0.086809 J0.086809
G03 X27.032132 Y55.369386 Z-0.125000 I-0.767067 J-0.018710
G01 X24.736837 Y57.664680 Z-0.125000
G02 X24.545462 Y58.155397 Z-0.125000 I0.463396 J0.463396
G02 X24.760817 Y58.239383 Z-0.125000 I0.126107 J-0.005262
G01 X27.010999 Y55.989203 Z-0.125000
G03 X27.219322 Y56.080222 Z-0.125000 I0.086327 J0.086327
G03 X26.987053 Y56.611833 Z-0.125000 I-0.794435 J-0.030555
G01 X24.772336 Y58.826549 Z-0.125000
G02 X24.557250 Y59.340978 Z-0.125000 I0.519302 J0.519302
G02 X24.768337 Y59.429235 Z-0.125000 I0.123651 J0.000821
G01 X26.957739 Y57.239831 Z-0.125000
G03 X27.165148 Y57.331764 Z-0.125000 I0.085972 J0.085972
G03 X26.926834 Y57.869421 Z-0.125000 I-0.816027 J-0.040056
G01 X20.997465 Y63.798789 Z-0.125000
G02 X20.800593 Y64.295003 Z-0.125000 I0.476022 J0.476022
G02 X21.014907 Y64.380031 Z-0.125000 I0.125518 J-0.003767
G01 X26.891121 Y58.503817 Z-0.125000
G03 X27.097619 Y58.596660 Z-0.125000 I0.085623 J0.085623
G03 X26.853089 Y59.140530 Z-0.125000 I-0.838483 J-0.050084
G01 X21.051540 Y64.942079 Z-0.125000
G02 X20.895444 Y65.397519 Z-0.125000 I0.387167 J0.387167
G02 X21.118379 Y65.473927 Z-0.125000 I0.130168 J-0.016358
G01 X26.815058 Y59.777246 Z-0.125000
G03 X27.020738 Y59.870908 Z-0.125000 I0.085315 J0.085315
G03 X26.770448 Y60.420541 Z-0.125000 I-0.859526 J-0.059604
G01 X21.259157 Y65.931830 Z-0.125000
G02 X21.197295 Y66.293034 Z-0.125000 I0.224317 J0.224317
G02 X21.452866 Y66.336805 Z-0.125000 I0.143271 J-0.068530
G01 X26.722860 Y61.066810 Z-0.125000
G03 X26.928177 Y61.160835 Z-0.125000 I0.085180 J0.085180
G03 X26.675275 Y61.713079 Z-0.125000 I-0.869141 J-0.063995
G01 X21.682586 Y66.705768 Z-0.125000
G02 X21.699453 Y66.988243 Z-0.125000 I0.133754 J0.133754
G02 X22.017805 Y66.969234 Z-0.125000 I0.148464 J-0.188897
G01 X26.611569 Y62.375468 Z-0.125000
G03 X26.822089 Y62.464290 Z-0.125000 I0.087205 J0.087205
G03 X26.603619 Y62.982102 Z-0.125000 I-0.746063 J-0.009778
G01 X22.463272 Y67.122449 Z-0.125000
G02 X22.532592 Y67.352470 Z-0.125000 I0.096403 J0.096403
G02 X22.961058 Y67.223346 Z-0.125000 I0.093972 J-0.463618
G01 X26.627224 Y63.557181 Z-0.125000
G00 Z5.000000

(End cutting path id: path4873)


(Start cutting path id: path4848)
(Change tool to Cylindrical cutter)

G00 Z5.000000
G00 X24.286321 Y60.419017

G01 Z-0.125000 F1000.0(Penetrate)
G03 X24.108252 Y60.621230 Z-0.125000 I-1.475889 J-1.120157 F1100.000000
G03 X23.188743 Y61.496216 Z-0.125000 I-28.800028 J-29.344835
G01 X22.254676 Y62.357974 Z-0.125000
G01 X22.713610 Y61.442354 Z-0.125000
G03 X23.220877 Y60.605022 Z-0.125000 I5.472471 J2.742974
G03 X23.373845 Y60.526735 Z-0.125000 I0.152968 J0.110302
G02 X23.505850 Y60.443270 Z-0.125000 I-0.000000 J-0.146119
G02 X23.706174 Y59.826556 Z-0.125000 I-2.275534 J-1.080042
G02 X24.023600 Y52.928860 Z-0.125000 I-24.491633 J-4.583237
G02 X22.930696 Y51.514169 Z-0.125000 I-1.662869 J0.155131
G03 X22.830152 Y51.374613 Z-0.125000 I0.052119 J-0.143546
G03 X22.767388 Y45.266412 Z-0.125000 I192.546199 J-5.032903
G03 X22.835225 Y39.845905 Z-0.125000 I390.972964 J2.182286
G01 X22.872837 Y39.844506 Z-0.125000
G03 X22.939768 Y40.598901 Z-0.125000 I-70.423060 J6.628199
G03 X23.276761 Y44.691904 Z-0.125000 I-2072.146651 J172.668236
G02 X23.620653 Y48.784185 Z-0.125000 I764.755489 J-62.205090
G02 X23.699021 Y49.560601 Z-0.125000 I27.605182 J-2.394196
G03 X23.925579 Y51.834889 Z-0.125000 I-73.760580 J8.496235
G03 X24.313223 Y56.864255 Z-0.125000 I-360.402323 J30.308026
G03 X24.412577 Y60.048465 Z-0.125000 I-41.006415 J2.873135
G03 X24.286322 Y60.419017 Z-0.125000 I-0.620687 J-0.004697
G01 X24.286321 Y60.419017 Z-0.125000
G00 Z5.000000

(End cutting path id: path4848)


(Start cutting path id: path4848)
(Change tool to Cylindrical cutter)

G00 Z5.000000
G00 X21.014571 Y67.213754

G01 Z-0.125000 F1000.0(Penetrate)
G02 X20.889158 Y67.189684 Z-0.125000 I-0.073766 J0.045590 F1100.000000
G02 X20.730622 Y67.424277 Z-0.125000 I0.253891 J0.342444
G03 X20.549081 Y67.749059 Z-0.125000 I-0.716510 J-0.187374
G03 X20.401701 Y67.767849 Z-0.125000 I-0.085299 J-0.081662
G02 X19.992256 Y67.984085 Z-0.125000 I-0.141182 J0.228433
G02 X20.319511 Y69.575632 Z-0.125000 I3.303328 J0.150186
G02 X20.709462 Y69.826448 Z-0.125000 I0.400351 J-0.193896
G02 X20.904768 Y69.589320 Z-0.125000 I0.004566 J-0.195234
G03 X20.851641 Y68.959383 Z-0.125000 I2.344435 J-0.514933
G03 X20.970661 Y68.215552 Z-0.125000 I3.404395 J0.163298
G02 X21.085721 Y67.486838 Z-0.125000 I-3.158950 J-0.872223
G02 X21.014571 Y67.213759 Z-0.125000 I-0.479035 J-0.020997
G01 X21.014571 Y67.213754 Z-0.125000
G00 Z5.000000

(End cutting path id: path4848)


(Start cutting path id: path4873)
(Change tool to Cylindrical cutter)

G00 Z5.000000
G00 X20.933187 Y67.455079

G01 Z-0.125000 F1000.0(Penetrate)
G01 X20.495259 Y67.893009 Z-0.125000 F1100.000000
G02 X20.273381 Y68.414229 Z-0.125000 I0.536010 J0.536010
G02 X20.483344 Y68.503608 Z-0.125000 I0.122984 J0.002400
G01 X20.648066 Y68.338886 Z-0.125000
G03 X20.846664 Y68.439629 Z-0.125000 I0.082833 J0.082832
G03 X20.538488 Y69.047148 Z-0.125000 I-1.083299 J-0.167601
G01 X20.454479 Y69.131157 Z-0.125000
G02 X20.383513 Y69.501463 Z-0.125000 I0.237459 J0.237460
G02 X20.634715 Y69.549603 Z-0.125000 I0.141929 J-0.061132
G01 X20.744079 Y69.440239 Z-0.125000
G00 Z5.000000

(End cutting path id: path4873)


(Start cutting path id: path4873)
(Change tool to Cylindrical cutter)

G00 Z5.000000
G00 X21.146479 Y70.833971

G01 Z-0.125000 F1000.0(Penetrate)
G01 X22.147589 Y69.832861 Z-0.125000 F1100.000000
G03 X22.661152 Y69.618640 Z-0.125000 I0.517195 J0.517195
G03 X22.749260 Y69.829869 Z-0.125000 I0.000614 J0.123734
G01 X21.170253 Y71.408874 Z-0.125000
G02 X20.862498 Y72.015972 Z-0.125000 I0.773832 J0.773832
G02 X21.061142 Y72.116671 Z-0.125000 I0.115796 J0.017851
G01 X23.350931 Y69.826880 Z-0.125000
G03 X23.864494 Y69.612660 Z-0.125000 I0.517195 J0.517195
G03 X23.952602 Y69.823889 Z-0.125000 I0.000614 J0.123734
G01 X21.013409 Y72.763081 Z-0.125000
G02 X20.780516 Y73.295315 Z-0.125000 I0.563759 J0.563759
G02 X20.988743 Y73.386431 Z-0.125000 I0.121937 J0.004825
G01 X24.554273 Y69.820903 Z-0.125000
G03 X25.067835 Y69.606682 Z-0.125000 I0.517196 J0.517196
G03 X25.155944 Y69.817911 Z-0.125000 I0.000615 J0.123734
G01 X20.976962 Y73.996894 Z-0.125000
G02 X20.761662 Y74.511536 Z-0.125000 I0.519824 J0.519824
G02 X20.972711 Y74.599828 Z-0.125000 I0.123629 J0.000872
G01 X25.757615 Y69.814925 Z-0.125000
G03 X26.271178 Y69.600705 Z-0.125000 I0.517196 J0.517196
G03 X26.359286 Y69.811934 Z-0.125000 I0.000615 J0.123734
G01 X20.978186 Y75.193034 Z-0.125000
G02 X20.771184 Y75.699378 Z-0.125000 I0.499820 J0.499820
G02 X20.983661 Y75.786242 Z-0.125000 I0.124464 J-0.001149
G01 X25.303346 Y71.466560 Z-0.125000
G03 X25.487249 Y71.581999 Z-0.125000 I0.078750 J0.078750
G03 X24.982532 Y72.386057 Z-0.125000 I-2.010100 J-0.701325
G01 X20.989136 Y76.379454 Z-0.125000
G02 X20.785840 Y76.882091 Z-0.125000 I0.491034 J0.491034
G02 X20.998977 Y76.968296 Z-0.125000 I0.124846 J-0.002086
G01 X22.325097 Y75.642176 Z-0.125000
G03 X22.627265 Y75.639346 Z-0.125000 I0.152526 J0.152526
G03 X22.630045 Y75.935913 Z-0.125000 I-0.144144 J0.149648
G01 X21.010475 Y77.555482 Z-0.125000
G02 X20.808582 Y78.056716 Z-0.125000 I0.487731 J0.487731
G02 X21.021972 Y78.142668 Z-0.125000 I0.124991 J-0.002447
G01 X22.936730 Y76.227912 Z-0.125000
G03 X23.240131 Y76.223860 Z-0.125000 I0.153781 J0.153781
G03 X23.244073 Y76.519253 Z-0.125000 I-0.141829 J0.149615
G01 X21.033470 Y78.729854 Z-0.125000
G02 X20.831428 Y79.231239 Z-0.125000 I0.488081 J0.488081
G02 X21.044793 Y79.317218 Z-0.125000 I0.124976 J-0.002409
G01 X23.539663 Y76.822345 Z-0.125000
G03 X23.816872 Y76.844479 Z-0.125000 I0.129174 J0.129174
G03 X23.790896 Y77.169797 Z-0.125000 I-0.203876 J0.147417
G01 X21.055915 Y79.904776 Z-0.125000
G02 X20.853705 Y80.406328 Z-0.125000 I0.488477 J0.488477
G02 X21.067038 Y80.492338 Z-0.125000 I0.124958 J-0.002365
G01 X23.833108 Y77.726269 Z-0.125000
G03 X24.033739 Y77.824979 Z-0.125000 I0.083511 J0.083511
G03 X23.743826 Y78.414234 Z-0.125000 I-1.010278 J-0.131111
G01 X21.078160 Y81.079899 Z-0.125000
G02 X20.875950 Y81.581451 Z-0.125000 I0.488477 J0.488477
G02 X21.089283 Y81.667460 Z-0.125000 I0.124958 J-0.002365
G01 X23.657751 Y79.098992 Z-0.125000
G03 X23.860051 Y79.196035 Z-0.125000 I0.084088 J0.084088
G03 X23.584069 Y79.771359 Z-0.125000 I-0.956078 J-0.104773
G01 X21.100405 Y82.255021 Z-0.125000
G02 X20.898195 Y82.756574 Z-0.125000 I0.488477 J0.488477
G02 X21.111528 Y82.842583 Z-0.125000 I0.124958 J-0.002365
G01 X23.512905 Y80.441204 Z-0.125000
G03 X23.715484 Y80.537969 Z-0.125000 I0.084187 J0.084187
G03 X23.441742 Y81.111053 Z-0.125000 I-0.947486 J-0.100659
G01 X21.122650 Y83.430144 Z-0.125000
G02 X20.920440 Y83.931696 Z-0.125000 I0.488477 J0.488477
G02 X21.133773 Y84.017705 Z-0.125000 I0.124958 J-0.002365
G01 X23.376745 Y81.774733 Z-0.125000
G03 X23.580046 Y81.870774 Z-0.125000 I0.084444 J0.084444
G03 X23.312014 Y82.438147 Z-0.125000 I-0.925729 J-0.090325
G01 X21.144032 Y84.606130 Z-0.125000
G02 X20.939264 Y85.110240 Z-0.125000 I0.494512 J0.494512
G02 X21.152138 Y85.196708 Z-0.125000 I0.124693 J-0.001711
G01 X23.247284 Y83.101561 Z-0.125000
G03 X23.450585 Y83.197602 Z-0.125000 I0.084444 J0.084444
G03 X23.182554 Y83.764975 Z-0.125000 I-0.925729 J-0.090325
G01 X21.160243 Y85.787286 Z-0.125000
G02 X20.955475 Y86.291396 Z-0.125000 I0.494512 J0.494512
G02 X21.168349 Y86.377865 Z-0.125000 I0.124693 J-0.001711
G01 X23.120083 Y84.426131 Z-0.125000
G03 X23.323734 Y84.521821 Z-0.125000 I0.084570 J0.084570
G03 X23.058421 Y85.086475 Z-0.125000 I-0.915451 J-0.085483
G01 X21.173259 Y86.971638 Z-0.125000
G02 X20.964685 Y87.479554 Z-0.125000 I0.503574 J0.503574
G02 X21.176888 Y87.566695 Z-0.125000 I0.124305 J-0.000758
G01 X22.996760 Y85.746821 Z-0.125000
G03 X23.200412 Y85.842511 Z-0.125000 I0.084570 J0.084570
G03 X22.935098 Y86.407168 Z-0.125000 I-0.915454 J-0.085483
G01 X21.181270 Y88.160995 Z-0.125000
G02 X20.974037 Y88.667570 Z-0.125000 I0.500369 J0.500369
G02 X21.186474 Y88.754475 Z-0.125000 I0.124441 J-0.001091
G01 X22.873436 Y87.067514 Z-0.125000
G03 X23.077087 Y87.163204 Z-0.125000 I0.084570 J0.084570
G03 X22.811774 Y87.727858 Z-0.125000 I-0.915451 J-0.085483
G01 X21.191743 Y89.347890 Z-0.125000
G02 X20.988548 Y89.850426 Z-0.125000 I0.490797 J0.490797
G02 X21.201703 Y89.936614 Z-0.125000 I0.124856 J-0.002112
G01 X22.754990 Y88.383327 Z-0.125000
G03 X22.959257 Y88.478402 Z-0.125000 I0.084793 J0.084793
G03 X22.698617 Y89.038385 Z-0.125000 I-0.897895 J-0.077272
G01 X21.211661 Y90.525340 Z-0.125000
G02 X21.008466 Y91.027877 Z-0.125000 I0.490797 J0.490797
G02 X21.221621 Y91.114064 Z-0.125000 I0.124856 J-0.002112
G01 X22.645491 Y89.690194 Z-0.125000
G03 X22.850965 Y89.784063 Z-0.125000 I0.085238 J0.085238
G03 X22.599195 Y90.335176 Z-0.125000 I-0.864970 J-0.062086
G01 X21.212974 Y91.721395 Z-0.125000
G02 X21.027405 Y92.206307 Z-0.125000 I0.450279 J0.450279
G02 X21.243898 Y92.289156 Z-0.125000 I0.126741 J-0.006903
G01 X22.552899 Y90.980156 Z-0.125000
G03 X22.759685 Y91.072711 Z-0.125000 I0.085733 J0.085733
G03 X22.517143 Y91.614594 Z-0.125000 I-0.831274 J-0.046850
G01 X21.256743 Y92.874996 Z-0.125000
G02 X21.055989 Y93.375091 Z-0.125000 I0.485059 J0.485059
G02 X21.269586 Y93.460835 Z-0.125000 I0.125110 J-0.002743
G01 X22.482700 Y92.247720 Z-0.125000
G03 X22.690692 Y92.339071 Z-0.125000 I0.086198 J0.086198
G03 X22.456256 Y92.872851 Z-0.125000 I-0.802152 J-0.033934
G01 X21.282432 Y94.046672 Z-0.125000
G02 X21.081679 Y94.546768 Z-0.125000 I0.485059 J0.485059
G02 X21.295276 Y94.632512 Z-0.125000 I0.125110 J-0.002743
G01 X22.435288 Y93.492501 Z-0.125000
G03 X22.644824 Y93.582306 Z-0.125000 I0.086808 J0.086808
G03 X22.420299 Y94.106173 Z-0.125000 I-0.767129 J-0.018737
G01 X21.308121 Y95.218352 Z-0.125000
G02 X21.107367 Y95.718447 Z-0.125000 I0.485059 J0.485059
G02 X21.320965 Y95.804191 Z-0.125000 I0.125110 J-0.002743
G01 X22.414097 Y94.711057 Z-0.125000
G03 X22.625526 Y94.798972 Z-0.125000 I0.087577 J0.087577
G03 X22.412460 Y95.311381 Z-0.125000 I-0.727463 J-0.001985
G01 X21.333811 Y96.390031 Z-0.125000
G02 X21.133059 Y96.890124 Z-0.125000 I0.485057 J0.485057
G02 X21.346655 Y96.975868 Z-0.125000 I0.125109 J-0.002743
G01 X22.421815 Y95.900709 Z-0.125000
G03 X22.641334 Y95.980532 Z-0.125000 I0.091134 J0.091134
G03 X22.470285 Y96.450923 Z-0.125000 I-0.589508 J0.051932
G01 X21.359500 Y97.561708 Z-0.125000
G02 X21.158747 Y98.061803 Z-0.125000 I0.485059 J0.485059
G02 X21.372344 Y98.147547 Z-0.125000 I0.125110 J-0.002743
G01 X22.459825 Y97.060066 Z-0.125000
G03 X22.678554 Y97.140679 Z-0.125000 I0.090767 J0.090767
G03 X22.503839 Y97.614737 Z-0.125000 I-0.601077 J0.047696
G01 X21.386345 Y98.732230 Z-0.125000
G02 X21.187281 Y99.230636 Z-0.125000 I0.481113 J0.481113
G02 X21.401190 Y99.316072 Z-0.125000 I0.125288 J-0.003185
G01 X22.527877 Y98.189384 Z-0.125000
G03 X22.745949 Y98.270654 Z-0.125000 I0.090465 J0.090465
G03 X22.568119 Y98.747826 Z-0.125000 I-0.610974 J0.044027
G01 X21.416033 Y99.899910 Z-0.125000
G02 X21.216969 Y100.398316 Z-0.125000 I0.481113 J0.481113
G02 X21.430878 Y100.483752 Z-0.125000 I0.125288 J-0.003185
G01 X22.851327 Y99.063302 Z-0.125000
G00 Z5.000000

(End cutting path id: path4873)


(Start cutting path id: path4873)
(Change tool to Cylindrical cutter)

G00 Z5.000000
G00 X26.056388 Y98.851839

G01 Z-0.125000 F1000.0(Penetrate)
G01 X21.518170 Y103.390057 Z-0.125000 F1100.000000
G02 X21.324600 Y103.882970 Z-0.125000 I0.468415 J0.468415
G02 X21.539535 Y103.967376 Z-0.125000 I0.125870 J-0.004658
G01 X25.678864 Y99.828045 Z-0.125000
G03 X25.878170 Y99.928082 Z-0.125000 I0.083066 J0.083066
G03 X25.576512 Y100.529082 Z-0.125000 I-1.056977 J-0.154319
G01 X21.565789 Y104.539805 Z-0.125000
G02 X21.381778 Y105.023157 Z-0.125000 I0.446796 J0.446796
G02 X21.598584 Y105.105694 Z-0.125000 I0.126913 J-0.007355
G01 X25.539543 Y101.164734 Z-0.125000
G00 Z5.000000

(End cutting path id: path4873)


(Start cutting path id: path4873)
(Change tool to Cylindrical cutter)

G00 Z5.000000
G00 X25.656435 Y106.435858

G01 Z-0.125000 F1000.0(Penetrate)
G01 X26.176426 Y105.915867 Z-0.125000 F1100.000000
G00 Z5.000000

(End cutting path id: path4873)


(Start cutting path id: path4873)
(Change tool to Cylindrical cutter)

G00 Z5.000000
G00 X25.385927 Y107.305049

G01 Z-0.125000 F1000.0(Penetrate)
G01 X24.999511 Y107.691465 Z-0.125000 F1100.000000
G00 Z5.000000

(End cutting path id: path4873)


(Start cutting path id: path4873)
(Change tool to Cylindrical cutter)

G00 Z5.000000
G00 X23.815505 Y107.678102

G01 Z-0.125000 F1000.0(Penetrate)
G01 X22.779659 Y108.713950 Z-0.125000 F1100.000000
G02 X22.786651 Y109.006299 Z-0.125000 I0.142841 J0.142842
G02 X23.093329 Y108.998964 Z-0.125000 I0.149491 J-0.164521
G01 X23.687101 Y108.405191 Z-0.125000
G03 X24.006900 Y108.384734 Z-0.125000 I0.171526 J0.171526
G03 X24.024897 Y108.666080 Z-0.125000 I-0.114760 J0.148589
G01 X23.430026 Y109.260951 Z-0.125000
G02 X23.467534 Y109.522784 Z-0.125000 I0.116862 J0.116862
G02 X23.816926 Y109.472733 Z-0.125000 I0.141302 J-0.258141
G01 X24.443091 Y108.846569 Z-0.125000
G03 X24.836622 Y108.752380 Z-0.125000 I0.273497 J0.273497
G03 X24.894431 Y108.993912 Z-0.125000 I-0.045216 J0.138506
G01 X24.246420 Y109.641922 Z-0.125000
G02 X24.308866 Y109.878819 Z-0.125000 I0.100252 J0.100252
G02 X24.715362 Y109.771666 Z-0.125000 I0.111315 J-0.402335
G01 X25.365549 Y109.121476 Z-0.125000
G03 X25.783934 Y109.002434 Z-0.125000 I0.316053 J0.316053
G03 X25.850239 Y109.235472 Z-0.125000 I-0.031747 J0.134984
G01 X25.193762 Y109.891949 Z-0.125000
G02 X25.262912 Y110.122140 Z-0.125000 I0.096495 J0.096495
G02 X25.690788 Y109.993605 Z-0.125000 I0.094479 J-0.461932
G01 X26.345223 Y109.339171 Z-0.125000
G03 X26.771518 Y109.212219 Z-0.125000 I0.330465 J0.330465
G03 X26.840208 Y109.442871 Z-0.125000 I-0.028054 J0.133909
G01 X26.188291 Y110.094787 Z-0.125000
G02 X26.259889 Y110.322530 Z-0.125000 I0.095198 J0.095198
G02 X26.696490 Y110.185271 Z-0.125000 I0.086732 J-0.487129
G01 X27.342068 Y109.539693 Z-0.125000
G03 X27.776803 Y109.404300 Z-0.125000 I0.346302 J0.346302
G03 X27.847890 Y109.632555 Z-0.125000 I-0.024378 J0.132789
G01 X27.204212 Y110.276234 Z-0.125000
G02 X27.276295 Y110.503492 Z-0.125000 I0.094946 J0.094946
G02 X27.714689 Y110.364439 Z-0.125000 I0.085077 J-0.492370
G01 X28.353712 Y109.725418 Z-0.125000
G03 X28.788655 Y109.589816 Z-0.125000 I0.346700 J0.346700
G03 X28.859799 Y109.818012 Z-0.125000 I-0.024290 J0.132761
G01 X28.227143 Y110.450670 Z-0.125000
G02 X28.299643 Y110.677512 Z-0.125000 I0.094730 J0.094730
G02 X28.739597 Y110.536900 Z-0.125000 I0.083621 J-0.496945
G01 X29.366661 Y109.909836 Z-0.125000
G03 X29.802212 Y109.773627 Z-0.125000 I0.347859 J0.347859
G03 X29.873523 Y110.001657 Z-0.125000 I-0.024036 J0.132682
G01 X29.251574 Y110.623607 Z-0.125000
G02 X29.323859 Y110.850663 Z-0.125000 I0.094841 J0.094841
G02 X29.763005 Y110.710859 Z-0.125000 I0.084376 J-0.494575
G01 X30.380385 Y110.093478 Z-0.125000
G03 X30.815936 Y109.957270 Z-0.125000 I0.347857 J0.347857
G03 X30.887247 Y110.185302 Z-0.125000 I-0.024037 J0.132683
G01 X30.274435 Y110.798113 Z-0.125000
G02 X30.346720 Y111.025170 Z-0.125000 I0.094841 J0.094841
G02 X30.785866 Y110.885365 Z-0.125000 I0.084376 J-0.494575
G01 X31.393386 Y110.277845 Z-0.125000
G03 X31.826442 Y110.144131 Z-0.125000 I0.343114 J0.343114
G03 X31.897064 Y110.372853 Z-0.125000 I-0.025089 J0.133010
G01 X31.297297 Y110.972620 Z-0.125000
G02 X31.369581 Y111.199676 Z-0.125000 I0.094841 J0.094841
G02 X31.808727 Y111.059872 Z-0.125000 I0.084376 J-0.494575
G01 X32.400742 Y110.467857 Z-0.125000
G03 X32.833798 Y110.334143 Z-0.125000 I0.343114 J0.343114
G03 X32.904420 Y110.562864 Z-0.125000 I-0.025089 J0.133010
G01 X32.320158 Y111.147126 Z-0.125000
G02 X32.391220 Y111.375406 Z-0.125000 I0.095479 J0.095479
G02 X32.825863 Y111.240104 Z-0.125000 I0.088515 J-0.481431
G01 X33.408098 Y110.657869 Z-0.125000
G03 X33.842324 Y110.522985 Z-0.125000 I0.345334 J0.345334
G03 X33.913271 Y110.751380 Z-0.125000 I-0.024593 J0.132856
G01 X33.331993 Y111.332656 Z-0.125000
G02 X33.403147 Y111.560845 Z-0.125000 I0.095431 J0.095431
G02 X33.838123 Y111.425211 Z-0.125000 I0.088215 J-0.482395
G01 X34.430945 Y110.832389 Z-0.125000
G03 X34.864761 Y110.697915 Z-0.125000 I0.344556 J0.344556
G03 X34.935595 Y110.926423 Z-0.125000 I-0.024766 J0.132910
G01 X34.344252 Y111.517766 Z-0.125000
G02 X34.414787 Y111.746573 Z-0.125000 I0.095756 J0.095756
G02 X34.847533 Y111.613168 Z-0.125000 I0.090218 J-0.475932
G01 X35.460239 Y111.000461 Z-0.125000
G03 X36.266807 Y110.493236 Z-0.125000 I1.516372 J1.516372
G03 X36.382376 Y110.677009 Z-0.125000 I0.036849 J0.105052
G01 X35.349097 Y111.710290 Z-0.125000
G02 X35.419255 Y111.939472 Z-0.125000 I0.095955 J0.095955
G02 X35.850660 Y111.807408 Z-0.125000 I0.091406 J-0.472063
G01 X36.851413 Y110.806656 Z-0.125000
G03 X37.232327 Y110.725083 Z-0.125000 I0.253473 J0.253473
G03 X37.285125 Y110.971626 Z-0.125000 I-0.053388 J0.140358
G01 X36.354967 Y111.901786 Z-0.125000
G02 X36.426073 Y112.130021 Z-0.125000 I0.095455 J0.095455
G02 X36.860874 Y111.994561 Z-0.125000 I0.088371 J-0.481890
G01 X37.726546 Y111.128889 Z-0.125000
G03 X38.097033 Y111.057745 Z-0.125000 I0.237724 J0.237724
G03 X38.145255 Y111.308865 Z-0.125000 I-0.060995 J0.141903
G01 X37.366780 Y112.087338 Z-0.125000
G02 X37.437886 Y112.315575 Z-0.125000 I0.095456 J0.095456
G02 X37.872687 Y112.180116 Z-0.125000 I0.088373 J-0.481887
G01 X38.607708 Y111.445094 Z-0.125000
G03 X39.039375 Y111.312769 Z-0.125000 I0.340490 J0.340490
G03 X39.109607 Y111.541879 Z-0.125000 I-0.025685 J0.133193
G01 X38.383304 Y112.268184 Z-0.125000
G02 X38.455313 Y112.495516 Z-0.125000 I0.094984 J0.094984
G02 X38.893428 Y112.356742 Z-0.125000 I0.085335 J-0.491554
G01 X39.634810 Y111.615361 Z-0.125000
G03 X40.085528 Y111.463985 Z-0.125000 I0.377598 J0.377598
G03 X40.160787 Y111.688067 Z-0.125000 I-0.018074 J0.130749
G01 X39.403552 Y112.445303 Z-0.125000
G02 X39.475560 Y112.672636 Z-0.125000 I0.094984 J0.094984
G02 X39.913675 Y112.533862 Z-0.125000 I0.085335 J-0.491554
G01 X40.679161 Y111.768377 Z-0.125000
G03 X41.121049 Y111.625831 Z-0.125000 I0.360096 J0.360096
G03 X41.194060 Y111.852163 Z-0.125000 I-0.021457 J0.131864
G01 X40.423799 Y112.622423 Z-0.125000
G02 X40.495807 Y112.849758 Z-0.125000 I0.094985 J0.094985
G02 X40.933922 Y112.710985 Z-0.125000 I0.085337 J-0.491551
G01 X41.703928 Y111.940978 Z-0.125000
G03 X42.140765 Y111.803483 Z-0.125000 I0.350321 J0.350321
G03 X42.212427 Y112.031162 Z-0.125000 I-0.023502 J0.132515
G01 X41.444046 Y112.799543 Z-0.125000
G02 X41.516525 Y113.026406 Z-0.125000 I0.094741 J0.094741
G02 X41.956397 Y112.885875 Z-0.125000 I0.083696 J-0.496708
G01 X42.717567 Y112.124707 Z-0.125000
G03 X43.149899 Y111.991716 Z-0.125000 I0.341747 J0.341747
G03 X43.220319 Y112.220638 Z-0.125000 I-0.025398 J0.133104
G01 X42.470384 Y112.970573 Z-0.125000
G02 X42.543205 Y113.197094 Z-0.125000 I0.094565 J0.094565
G02 X42.984372 Y113.055270 Z-0.125000 I0.082477 J-0.500513
G01 X43.723253 Y112.316390 Z-0.125000
G03 X44.156012 Y112.182973 Z-0.125000 I0.342553 J0.342553
G03 X44.226551 Y112.411775 Z-0.125000 I-0.025215 J0.133049
G01 X43.498359 Y113.139965 Z-0.125000
G02 X43.571957 Y113.365710 Z-0.125000 I0.094168 J0.094168
G02 X44.016099 Y113.220909 Z-0.125000 I0.079627 J-0.509316
G01 X44.731301 Y112.505707 Z-0.125000
G03 X45.170151 Y112.366200 Z-0.125000 I0.354195 J0.354195
G03 X45.242356 Y112.593337 Z-0.125000 I-0.022678 J0.132254
G01 X44.533542 Y113.302150 Z-0.125000
G02 X44.606785 Y113.528248 Z-0.125000 I0.094349 J0.094349
G02 X45.049563 Y113.384813 Z-0.125000 I0.080941 J-0.505272
G01 X45.756292 Y112.678086 Z-0.125000
G03 X46.203595 Y112.530123 Z-0.125000 I0.370771 J0.370771
G03 X46.278002 Y112.755059 Z-0.125000 I-0.019353 J0.131177
G01 X45.575516 Y113.457544 Z-0.125000
G02 X45.650317 Y113.682086 Z-0.125000 I0.093562 J0.093562
G02 X46.099189 Y113.532556 Z-0.125000 I0.074977 J-0.523426
G01 X47.039560 Y112.592183 Z-0.125000
G00 Z5.000000

(End cutting path id: path4873)


(Start cutting path id: path4848)
(Change tool to Cylindrical cutter)

G00 Z5.000000
G00 X47.079150 Y112.447748

G01 Z-0.125000 F1000.0(Penetrate)
G03 X46.464625 Y112.398612 Z-0.125000 I0.000000 J-3.867442 F1100.000000
G03 X43.806407 Y111.921022 Z-0.125000 I11.793223 J-73.276349
G02 X41.147392 Y111.430479 Z-0.125000 I-19.455607 J98.008200
G02 X39.860380 Y111.248120 Z-0.125000 I-3.882143 J22.765701
G03 X38.596178 Y111.033363 Z-0.125000 I1.294953 J-11.451335
G03 X38.307877 Y110.894537 Z-0.125000 I0.159364 J-0.699725
G02 X38.041988 Y110.787458 Z-0.125000 I-0.311870 J0.390749
G02 X37.789852 Y110.846690 Z-0.125000 I-0.037542 J0.406455
G03 X37.681889 Y110.856043 Z-0.125000 I-0.063253 J-0.102349
G01 X37.661941 Y110.795492 Z-0.125000
G02 X37.592343 Y110.619792 Z-0.125000 I-0.100216 J-0.061937
G02 X32.535424 Y109.415721 Z-0.125000 I-23.166304 J86.073856
G03 X29.304943 Y108.740119 Z-0.125000 I212.826797 J-1025.721069
G03 X28.819086 Y108.632399 Z-0.125000 I4.913676 J-23.312065
G02 X28.547483 Y108.800530 Z-0.125000 I-0.051319 J0.220541
G02 X28.711366 Y109.085157 Z-0.125000 I0.232879 J0.055406
G02 X29.093126 Y109.178266 Z-0.125000 I1.066113 J-3.542028
G02 X31.027345 Y109.521162 Z-0.125000 I17.100267 J-90.832924
G03 X36.329622 Y110.539023 Z-0.125000 I-17.841297 J107.258837
G03 X36.337074 Y110.677839 Z-0.125000 I-0.015343 J0.070431
G03 X36.074109 Y110.702024 Z-0.125000 I-0.183119 J-0.549354
G03 X33.875899 Y110.335207 Z-0.125000 I5.686584 J-40.847715
G02 X31.671681 Y109.916952 Z-0.125000 I-44.248820 J227.175511
G02 X28.980666 Y109.430879 Z-0.125000 I-62.490512 J338.270561
G03 X24.531354 Y107.913314 Z-0.125000 I2.664165 J-15.092190
G03 X24.385796 Y107.023041 Z-0.125000 I0.261942 J-0.499863
G02 X24.822693 Y106.352891 Z-0.125000 I-1.559833 J-1.494407
G02 X24.927860 Y105.709909 Z-0.125000 I-1.324382 J-0.546709
G03 X24.933220 Y105.014744 Z-0.125000 I4.631255 J-0.311893
G03 X25.069292 Y104.002897 Z-0.125000 I9.977182 J0.826647
G02 X25.144235 Y103.029290 Z-0.125000 I-4.457915 J-0.832831
G02 X25.030920 Y102.767302 Z-0.125000 I-0.387332 J0.012029
G03 X24.967522 Y102.528292 Z-0.125000 I0.174094 J-0.174092
G03 X25.262359 Y101.920633 Z-0.125000 I1.771798 J0.484320
G02 X25.618066 Y101.255956 Z-0.125000 I-2.093914 J-1.548093
G02 X25.981568 Y99.926335 Z-0.125000 I-8.189477 J-2.953402
G03 X26.338590 Y98.735816 Z-0.125000 I5.896181 J1.119398
G03 X26.464897 Y98.767316 Z-0.125000 I0.060762 J0.025339
G02 X26.363920 Y100.277452 Z-0.125000 I27.957144 J2.627827
G02 X26.305407 Y102.771160 Z-0.125000 I76.207081 J3.035697
G01 X26.287677 Y105.266925 Z-0.125000
G01 X25.484203 Y106.477520 Z-0.125000
G02 X24.822121 Y107.657138 Z-0.125000 I7.571624 J5.025318
G02 X24.865453 Y107.802279 Z-0.125000 I0.103236 J0.048218
G02 X25.116173 Y107.753932 Z-0.125000 I0.099101 J-0.160349
G02 X26.625913 Y105.419110 Z-0.125000 I-17.977958 J-13.280419
G02 X26.884237 Y104.605173 Z-0.125000 I-1.833717 J-1.029939
G02 X27.064590 Y101.170404 Z-0.125000 I-33.939087 J-3.504191
G02 X27.009428 Y97.701665 Z-0.125000 I-96.706591 J-0.196908
G02 X26.934800 Y97.336226 Z-0.125000 I-1.117271 J0.037822
G03 X26.607822 Y94.999657 Z-0.125000 I4.825996 J-1.866510
G03 X27.671971 Y89.255044 Z-0.125000 I31.597567 J2.882357
G01 X27.746294 Y89.264153 Z-0.125000
G03 X27.737437 Y91.334638 Z-0.125000 I-28.951972 J0.911411
G01 X27.629590 Y94.027639 Z-0.125000
G01 X32.775509 Y93.972950 Z-0.125000
G02 X37.921362 Y93.913060 Z-0.125000 I-27.055445 J-2545.739882
G02 X41.291380 Y93.865232 Z-0.125000 I-13.817354 J-1092.332351
G01 X44.661330 Y93.812196 Z-0.125000
G01 X44.284396 Y94.350798 Z-0.125000
G02 X44.002012 Y94.902318 Z-0.125000 I1.853075 J1.296847
G02 X44.002420 Y95.158696 Z-0.125000 I0.365611 J0.127607
G03 X43.985955 Y95.349142 Z-0.125000 I-0.218510 J0.077044
G03 X43.851267 Y95.427998 Z-0.125000 I-0.134687 J-0.075597
G03 X43.728679 Y95.359128 Z-0.125000 I-0.000000 J-0.143540
G03 X43.729106 Y95.227445 Z-0.125000 I0.107523 J-0.065493
G02 X43.753882 Y95.050300 Z-0.125000 I-0.188851 J-0.116718
G02 X43.634102 Y94.891569 Z-0.125000 I-0.264037 J0.074686
G02 X43.488619 Y94.888029 Z-0.125000 I-0.075768 J0.122602
G02 X43.415139 Y95.012595 Z-0.125000 I0.068844 J0.124566
G03 X43.284517 Y95.134069 Z-0.125000 I-0.121794 J0.000000
G03 X41.368460 Y94.863852 Z-0.125000 I1.038835 J-14.294528
G02 X41.018022 Y94.893626 Z-0.125000 I-0.125769 J0.596923
G02 X40.991441 Y95.013204 Z-0.125000 I0.027255 J0.068802
G03 X41.340119 Y95.843636 Z-0.125000 I-0.933368 J0.880316
G03 X41.045300 Y96.397479 Z-0.125000 I-0.622154 J0.024208
G03 X40.925485 Y96.359114 Z-0.125000 I-0.043508 J-0.070400
G03 X40.829861 Y95.884306 Z-0.125000 I1.130987 J-0.474808
G02 X40.745235 Y95.285169 Z-0.125000 I-2.163217 J-0.000000
G02 X40.603185 Y95.097894 Z-0.125000 I-0.313675 J0.090414
G02 X40.490113 Y95.138364 Z-0.125000 I-0.040389 J0.065351
G02 X40.441606 Y95.569919 Z-0.125000 I0.950385 J0.325327
G03 X40.267990 Y95.956386 Z-0.125000 I-0.417995 J0.044451
G03 X39.644941 Y96.139158 Z-0.125000 I-0.573985 J-0.803308
G02 X35.603027 Y96.057467 Z-0.125000 I-3.404629 J68.420900
G02 X33.297943 Y96.198210 Z-0.125000 I0.207947 J22.352445
G03 X32.142868 Y96.219349 Z-0.125000 I-0.689221 J-6.092103
G03 X32.085098 Y96.105785 Z-0.125000 I0.005666 J-0.074358
G03 X32.280966 Y95.936492 Z-0.125000 I0.367312 J0.227016
G03 X32.655861 Y95.858878 Z-0.125000 I0.374894 J0.866608
G02 X32.951331 Y95.532691 Z-0.125000 I0.000000 J-0.296917
G02 X32.589285 Y95.186830 Z-0.125000 I-0.382412 J0.037883
G02 X30.098025 Y95.208126 Z-0.125000 I-1.072894 J20.218196
G02 X29.073237 Y95.433758 Z-0.125000 I0.251610 J3.582808
G02 X28.312314 Y96.196672 Z-0.125000 I0.466017 J1.225727
G02 X28.075180 Y98.079650 Z-0.125000 I3.806304 J1.435772
G03 X28.030473 Y98.330301 Z-0.125000 I-0.447497 J0.049495
G03 X27.936689 Y98.356968 Z-0.125000 I-0.059071 J-0.029501
G02 X27.844560 Y98.403264 Z-0.125000 I-0.031822 J0.051490
G02 X27.775432 Y100.229552 Z-0.125000 I18.946903 J1.631623
G03 X27.743786 Y102.211629 Z-0.125000 I-37.824074 J0.387392
G03 X27.631848 Y103.632666 Z-0.125000 I-19.546147 J-0.824768
G02 X27.630819 Y104.905845 Z-0.125000 I5.547479 J0.641070
G02 X27.793428 Y105.050980 Z-0.125000 I0.162608 J-0.018525
G02 X28.031799 Y104.963872 Z-0.125000 I-0.000000 J-0.369709
G02 X28.118908 Y104.776439 Z-0.125000 I-0.158098 J-0.187433
G03 X28.179891 Y104.535905 Z-0.125000 I0.504856 J0.000000
G03 X28.342592 Y104.363658 Z-0.125000 I0.404699 J0.219306
G03 X28.458052 Y104.416871 Z-0.125000 I0.040094 J0.064873
G03 X28.548952 Y105.697443 Z-0.125000 I-7.685265 J1.189038
G02 X28.691426 Y107.701065 Z-0.125000 I12.149459 J0.142949
G02 X28.933327 Y108.177787 Z-0.125000 I0.850410 J-0.131784
G02 X29.399637 Y108.436061 Z-0.125000 I0.682936 J-0.682939
G02 X33.798363 Y109.367128 Z-0.125000 I28.604987 J-124.285053
G02 X38.240140 Y110.141768 Z-0.125000 I23.385911 J-120.972546
G02 X38.492297 Y110.025688 Z-0.125000 I0.038600 J-0.248067
G02 X38.591227 Y109.775323 Z-0.125000 I-0.649359 J-0.401319
G02 X38.568453 Y109.648176 Z-0.125000 I-0.172279 J-0.034754
G03 X38.590952 Y109.572510 Z-0.125000 I0.044983 J-0.027803
G03 X38.905827 Y109.489703 Z-0.125000 I0.382425 J0.814118
G03 X39.243149 Y109.543146 Z-0.125000 I0.055737 J0.739475
G03 X39.321781 Y109.660419 Z-0.125000 I-0.048135 J0.117273
G03 X39.257797 Y109.798487 Z-0.125000 I-0.180956 J0.000000
G03 X39.083292 Y109.862471 Z-0.125000 I-0.174505 J-0.205978
G02 X38.963839 Y109.944292 Z-0.125000 I0.000000 J0.128106
G02 X38.963468 Y110.171710 Z-0.125000 I0.294702 J0.114190
G03 X38.969118 Y110.431964 Z-0.125000 I-0.359609 J0.137995
G03 X38.824938 Y110.585580 Z-0.125000 I-0.239247 J-0.080080
G01 X38.826559 Y110.643304 Z-0.125000
G02 X39.179791 Y110.707221 Z-0.125000 I0.386332 J-1.127026
G03 X39.786741 Y110.769067 Z-0.125000 I-0.114761 J4.135455
G03 X43.580252 Y111.486815 Z-0.125000 I-28.917449 J163.221100
G02 X47.361769 Y112.167412 Z-0.125000 I18.435949 J-91.587676
G02 X47.665210 Y112.135601 Z-0.125000 I0.092399 J-0.581769
G03 X47.809137 Y112.148223 Z-0.125000 I0.059028 J0.153820
G03 X47.830132 Y112.234777 Z-0.125000 I-0.032257 J0.053647
G03 X47.653947 Y112.367820 Z-0.125000 I-0.259375 J-0.160302
G03 X47.079151 Y112.447748 Z-0.125000 I-0.574796 J-2.026851
G01 X47.079150 Y112.447748 Z-0.125000
G00 Z5.000000

(End cutting path id: path4848)


(Start cutting path id: path4873)
(Change tool to Cylindrical cutter)

G00 Z5.000000
G00 X47.618172 Y112.014201

G01 Z-0.125000 F1000.0(Penetrate)
G01 X48.541924 Y111.090448 Z-0.125000 F1100.000000
G03 X48.752547 Y111.179167 Z-0.125000 I0.087247 J0.087247
G03 X48.534694 Y111.696362 Z-0.125000 I-0.743927 J-0.008878
G01 X46.643028 Y113.588027 Z-0.125000
G02 X46.735364 Y113.795032 Z-0.125000 I0.085817 J0.085817
G02 X47.275748 Y113.553991 Z-0.125000 I-0.044425 J-0.825850
G01 X48.446617 Y112.383121 Z-0.125000
G00 Z5.000000

(End cutting path id: path4873)


(Start cutting path id: path4848)
(Change tool to Cylindrical cutter)

G00 Z5.000000
G00 X46.147556 Y117.530417

G01 Z-0.125000 F1000.0(Penetrate)
G02 X45.574336 Y117.172414 Z-0.125000 I-1.061147 J1.061154 F1100.000000
G02 X43.616137 Y116.660078 Z-0.125000 I-4.376710 J12.729842
G03 X41.585672 Y116.279612 Z-0.125000 I40.463794 J-221.555159
G03 X38.352301 Y115.648737 Z-0.125000 I108.060643 J-562.435492
G02 X31.623909 Y114.359189 Z-0.125000 I-107.227631 J541.276533
G02 X27.257147 Y113.593589 Z-0.125000 I-42.084532 J227.202115
G02 X26.777002 Y113.615612 Z-0.125000 I-0.188360 J1.138471
G02 X26.744549 Y113.727560 Z-0.125000 I0.017158 J0.065652
G02 X27.030621 Y113.908026 Z-0.125000 I0.486158 J-0.453681
G02 X28.898948 Y114.407315 Z-0.125000 I6.540845 J-20.730415
G03 X30.811386 Y114.830669 Z-0.125000 I-172.738624 J784.851731
G03 X32.319984 Y115.168996 Z-0.125000 I-109.006475 J489.592082
G02 X33.831702 Y115.488189 Z-0.125000 I12.100285 J-53.568318
G02 X34.366663 Y115.571154 Z-0.125000 I1.299832 J-6.615126
G03 X37.293544 Y116.048858 Z-0.125000 I-3.499958 J30.649536
G03 X37.921421 Y116.328345 Z-0.125000 I-0.345167 J1.620442
G02 X38.354046 Y116.534659 Z-0.125000 I0.774478 J-1.067279
G02 X40.642237 Y117.058660 Z-0.125000 I8.200051 J-30.549687
G03 X40.935254 Y117.124666 Z-0.125000 I-0.835881 J4.394104
G03 X41.809008 Y117.362983 Z-0.125000 I-10.269547 J39.372580
G02 X42.690477 Y117.549107 Z-0.125000 I1.781424 J-6.256355
G02 X43.996625 Y117.668571 Z-0.125000 I1.907426 J-13.654629
G03 X45.173775 Y117.799646 Z-0.125000 I-0.384234 J8.802073
G03 X45.213023 Y117.887606 Z-0.125000 I-0.010326 J0.057344
G02 X45.281833 Y118.050656 Z-0.125000 I0.092382 J0.057057
G02 X46.054277 Y118.074700 Z-0.125000 I0.449511 J-2.021207
G03 X46.160459 Y118.114020 Z-0.125000 I0.018042 J0.114309
G03 X46.215857 Y118.264624 Z-0.125000 I-0.177017 J0.150604
G02 X46.278958 Y118.416966 Z-0.125000 I0.215445 J-0.000000
G02 X46.431297 Y118.480067 Z-0.125000 I0.152339 J-0.152337
G02 X46.588313 Y118.269278 Z-0.125000 I0.000000 J-0.163875
G02 X46.147556 Y117.530417 Z-0.125000 I-1.682260 J0.502635
G01 X46.147556 Y117.530417 Z-0.125000
G00 Z5.000000

(End cutting path id: path4848)


(Start cutting path id: path4848)
(Change tool to Cylindrical cutter)

G00 Z5.000000
G00 X46.438057 Y118.695504

G01 Z-0.125000 F1000.0(Penetrate)
G02 X46.339753 Y118.771370 Z-0.125000 I-0.000000 J0.101622 F1100.000000
G02 X46.353387 Y119.018665 Z-0.125000 I0.391065 J0.102462
G02 X46.500458 Y119.308273 Z-0.125000 I1.467932 J-0.563312
G02 X46.562066 Y119.341827 Z-0.125000 I0.061608 J-0.039782
G01 X46.609855 Y119.304947 Z-0.125000
G02 X46.646736 Y119.018665 Z-0.125000 I-1.092639 J-0.286281
G02 X46.573157 Y118.769084 Z-0.125000 I-0.460083 J-0.000000
G02 X46.438057 Y118.695504 Z-0.125000 I-0.135100 J0.087240
G01 X46.438057 Y118.695504 Z-0.125000
G00 Z5.000000

(End cutting path id: path4848)


(Start cutting path id: path4848)
(Change tool to Cylindrical cutter)

G00 Z5.000000
G00 X47.336316 Y119.772704

G01 Z-0.125000 F1000.0(Penetrate)
G03 X47.243926 Y119.696730 Z-0.125000 I0.000000 J-0.094164 F1100.000000
G03 X47.198458 Y119.072525 Z-0.125000 I2.529320 J-0.497995
G02 X47.173348 Y118.959458 Z-0.125000 I-0.218818 J-0.010726
G01 X47.141548 Y118.964806 Z-0.125000
G03 X46.696231 Y119.417433 Z-0.125000 I-0.536688 J-0.082644
G03 X45.879460 Y119.180243 Z-0.125000 I-0.163935 J-0.960367
G02 X45.423128 Y118.889596 Z-0.125000 I-1.089241 J1.206612
G02 X44.824044 Y118.734109 Z-0.125000 I-0.828271 J1.959426
G03 X44.202834 Y118.604613 Z-0.125000 I0.350959 J-3.238344
G03 X43.273926 Y118.249370 Z-0.125000 I2.387844 J-7.635969
G02 X42.344432 Y117.912961 Z-0.125000 I-2.557458 J5.613927
G02 X41.757298 Y117.834430 Z-0.125000 I-0.584632 J2.136875
G03 X41.161190 Y117.775745 Z-0.125000 I-0.005104 J-3.005056
G03 X39.644940 Y117.411060 Z-0.125000 I4.028675 J-20.084415
G02 X34.849225 Y116.171052 Z-0.125000 I-31.802767 J113.103062
G02 X32.858584 Y115.808173 Z-0.125000 I-4.506413 J19.079352
G03 X32.111647 Y115.678779 Z-0.125000 I1.135334 J-8.774362
G03 X31.458225 Y115.503272 Z-0.125000 I1.499337 J-6.886215
G02 X28.022630 Y114.767335 Z-0.125000 I-5.407592 J16.857224
G02 X26.905504 Y114.992966 Z-0.125000 I-0.207483 J1.851059
G02 X26.828479 Y115.190875 Z-0.125000 I0.081522 J0.145671
G02 X27.046404 Y115.420603 Z-0.125000 I0.352471 J-0.116134
G02 X28.331282 Y115.821601 Z-0.125000 I3.564925 J-9.163724
G02 X34.905262 Y117.294008 Z-0.125000 I57.119452 J-239.614192
G03 X36.410669 Y117.622256 Z-0.125000 I-19.700542 J93.966536
G03 X40.183540 Y118.489355 Z-0.125000 I-133.942978 J591.446829
G02 X43.963310 Y119.292879 Z-0.125000 I22.356263 J-95.871888
G02 X44.866813 Y119.389257 Z-0.125000 I1.027042 J-5.344910
G03 X45.722243 Y119.536023 Z-0.125000 I-0.067146 J2.957698
G03 X46.138981 Y119.806791 Z-0.125000 I-0.302497 J0.921658
G02 X47.124830 Y120.324356 Z-0.125000 I1.197949 J-1.084133
G02 X47.508496 Y119.988147 Z-0.125000 I0.044522 J-0.336210
G02 X47.452581 Y119.828619 Z-0.125000 I-0.255527 J0.000000
G02 X47.336316 Y119.772704 Z-0.125000 I-0.116264 J0.092917
G01 X47.336316 Y119.772704 Z-0.125000
G00 Z5.000000

(End cutting path id: path4848)


(Start cutting path id: path4848)
(Change tool to Cylindrical cutter)

G00 Z5.000000
G00 X46.700596 Y120.505217

G01 Z-0.125000 F1000.0(Penetrate)
G03 X46.124980 Y120.326634 Z-0.125000 I0.935520 J-4.032363 F1100.000000
G03 X45.677257 Y120.103948 Z-0.125000 I1.040283 J-2.652984
G02 X45.223883 Y119.901241 Z-0.125000 I-1.008381 J1.646976
G02 X44.303806 Y119.691844 Z-0.125000 I-2.003414 J6.676821
G03 X43.366744 Y119.515827 Z-0.125000 I2.500765 J-15.895585
G03 X40.749048 Y118.914427 Z-0.125000 I27.279608 J-124.736833
G02 X28.196394 Y116.020110 Z-0.125000 I-155.017847 J643.644983
G02 X27.045262 Y115.894787 Z-0.125000 I-1.151132 J5.224099
G03 X26.705736 Y115.798711 Z-0.125000 I-0.000000 J-0.647964
G03 X26.607529 Y115.625488 Z-0.125000 I0.108123 J-0.175750
G02 X26.541252 Y115.574584 Z-0.125000 I-0.053187 J0.000652
G02 X26.395387 Y115.679347 Z-0.125000 I0.060449 J0.238093
G03 X26.283407 Y115.663512 Z-0.125000 I-0.052328 J-0.033817
G03 X26.168105 Y114.925306 Z-0.125000 I2.603429 J-0.784743
G02 X25.945309 Y113.606076 Z-0.125000 I-4.470316 J0.076532
G02 X25.743335 Y113.632669 Z-0.125000 I-0.098477 J0.032360
G02 X25.733928 Y115.524430 Z-0.125000 I18.637628 J1.038580
G02 X25.866573 Y116.325667 Z-0.125000 I3.435829 J-0.157204
G02 X26.045088 Y116.543734 Z-0.125000 I0.344569 J-0.099972
G02 X26.565576 Y116.690626 Z-0.125000 I0.611507 J-1.171204
G03 X27.164427 Y116.775621 Z-0.125000 I-0.289084 J4.188931
G03 X34.377360 Y118.380764 Z-0.125000 I-132.623055 J612.968933
G02 X41.584204 Y120.027755 Z-0.125000 I4430.189088 J-19369.077627
G02 X44.268847 Y120.639344 Z-0.125000 I613.142397 J-2685.255798
G02 X46.942116 Y121.179466 Z-0.125000 I12.528425 J-55.122279
G02 X47.123425 Y121.144753 Z-0.125000 I0.045152 J-0.255019
G02 X47.189388 Y120.844883 Z-0.125000 I-0.112434 J-0.181922
G02 X46.700596 Y120.505217 Z-0.125000 I-0.670441 J0.443263
G01 X46.700596 Y120.505217 Z-0.125000
G00 Z5.000000

(End cutting path id: path4848)


(Start cutting path id: path4873)
(Change tool to Cylindrical cutter)

G00 Z5.000000
G00 X49.452076 Y117.963225

G01 Z-0.125000 F1000.0(Penetrate)
G01 X49.241997 Y118.173303 Z-0.125000 F1100.000000
G00 Z5.000000

(End cutting path id: path4873)


(Start cutting path id: path4848)
(Change tool to Cylindrical cutter)

G00 Z5.000000
G00 X49.734698 Y117.977373

G01 Z-0.125000 F1000.0(Penetrate)
G02 X49.285189 Y117.900524 Z-0.125000 I-0.279026 J0.279025 F1100.000000
G02 X49.125710 Y118.269111 Z-0.125000 I0.132222 J0.276004
G03 X49.044941 Y118.359375 Z-0.125000 I-0.067042 J0.021278
G03 X48.703460 Y118.185091 Z-0.125000 I0.137528 J-0.691145
G02 X47.200428 Y117.188729 Z-0.125000 I-3.799449 J4.099684
G02 X46.696898 Y117.280882 Z-0.125000 I-0.185045 J0.410638
G02 X46.678838 Y117.424702 Z-0.125000 I0.083534 J0.083534
G02 X47.001750 Y117.794620 Z-0.125000 I1.165885 J-0.691837
G03 X47.649848 Y118.677471 Z-0.125000 I-1.292864 J1.628395
G03 X47.942307 Y120.243281 Z-0.125000 I-4.105856 J1.577101
G02 X47.990686 Y121.382470 Z-0.125000 I14.360669 J-0.039250
G02 X48.077412 Y121.881872 Z-0.125000 I2.816795 J-0.231928
G02 X48.815832 Y122.887472 Z-0.125000 I1.659213 J-0.444461
G02 X49.669213 Y122.892673 Z-0.125000 I0.430842 J-0.678488
G02 X49.787204 Y122.696284 Z-0.125000 I-0.131379 J-0.212573
G02 X49.874355 Y120.466447 Z-0.125000 I-43.258098 J-2.807315
G02 X49.847611 Y118.236204 Z-0.125000 I-44.057514 J-0.586967
G02 X49.734698 Y117.977373 Z-0.125000 I-0.386152 J0.014412
G01 X49.734698 Y117.977373 Z-0.125000
G00 Z5.000000

(End cutting path id: path4848)


(Start cutting path id: path4873)
(Change tool to Cylindrical cutter)

G00 Z5.000000
G00 X52.136591 Y124.258784

G01 Z-0.125000 F1000.0(Penetrate)
G01 X51.879344 Y124.516033 Z-0.125000 F1100.000000
G02 X51.896962 Y124.797757 Z-0.125000 I0.133090 J0.133090
G02 X52.216273 Y124.777788 Z-0.125000 I0.148339 J-0.190941
G01 X53.601670 Y123.392390 Z-0.125000
G02 X53.520280 Y123.174439 Z-0.125000 I-0.090410 J-0.090410
G02 X53.042528 Y123.352848 Z-0.125000 I-0.043338 J0.612823
G01 X53.042528 Y123.352848 Z-0.125000
G02 X53.211339 Y123.782725 Z-0.125000 I0.178133 J0.178132
G02 X54.197139 Y123.395605 Z-0.125000 I0.049025 J-1.323885
G01 X54.650020 Y122.942726 Z-0.125000
G03 X55.201955 Y122.989474 Z-0.125000 I0.256243 J0.256243
G03 X55.146554 Y123.643557 Z-0.125000 I-0.415268 J0.294215
G01 X53.797994 Y124.992119 Z-0.125000
G03 X53.289372 Y125.201403 Z-0.125000 I-0.505276 J-0.505276
G03 X53.202086 Y124.989297 Z-0.125000 I0.000582 J-0.124252
G01 X54.550867 Y123.640517 Z-0.125000
G00 Z5.000000

(End cutting path id: path4873)


(Start cutting path id: path4848)
(Change tool to Cylindrical cutter)

G00 Z5.000000
G00 X55.386417 Y122.867194

G01 Z-0.125000 F1000.0(Penetrate)
G03 X54.908191 Y123.078150 Z-0.125000 I-0.491926 J-0.467638 F1100.000000
G03 X54.808892 Y122.878850 Z-0.125000 I-0.002486 J-0.123148
G02 X55.191285 Y122.274564 Z-0.125000 I-2.751154 J-2.164065
G02 X55.264332 Y121.963891 Z-0.125000 I-0.624131 J-0.310672
G02 X55.089459 Y121.902800 Z-0.125000 I-0.098107 J0.000000
G02 X53.911107 Y123.664320 Z-0.125000 I10.048483 J7.996723
G03 X53.510329 Y124.233743 Z-0.125000 I-2.868137 J-1.592932
G03 X53.409151 Y124.237073 Z-0.125000 I-0.052148 J-0.045702
G03 X53.381148 Y124.109569 Z-0.125000 I0.085638 J-0.085635
G03 X53.660503 Y123.554851 Z-0.125000 I2.572412 J0.947759
G02 X53.939697 Y123.000145 Z-0.125000 I-2.288495 J-1.499457
G02 X53.911606 Y122.872382 Z-0.125000 I-0.113932 J-0.041920
G02 X53.454615 Y122.834206 Z-0.125000 I-0.251063 J0.251062
G02 X52.584001 Y123.817595 Z-0.125000 I1.689170 J2.372538
G03 X52.352111 Y124.036069 Z-0.125000 I-0.447827 J-0.243025
G03 X52.250248 Y123.973760 Z-0.125000 I-0.030334 J-0.064829
G02 X52.151898 Y123.875246 Z-0.125000 I-0.102114 J0.003594
G02 X51.990682 Y123.964192 Z-0.125000 I-0.006584 J0.178641
G03 X51.765849 Y124.093697 Z-0.125000 I-0.224833 J-0.130413
G03 X51.572220 Y123.964192 Z-0.125000 I-0.000000 J-0.209505
G01 X51.496027 Y123.965319 Z-0.125000
G02 X51.446140 Y124.296907 Z-0.125000 I0.742020 J0.281182
G02 X51.705220 Y124.868136 Z-0.125000 I0.883217 J-0.056214
G02 X52.394048 Y125.239823 Z-0.125000 I0.971905 J-0.977052
G02 X53.883457 Y125.065941 Z-0.125000 I0.485050 J-2.311045
G02 X55.172764 Y123.933966 Z-0.125000 I-1.314838 J-2.797828
G02 X55.565535 Y122.960153 Z-0.125000 I-2.395158 J-1.532163
G02 X55.386417 Y122.867158 Z-0.125000 I-0.102991 J-0.020626
G01 X55.386417 Y122.867194 Z-0.125000
G00 Z5.000000

(End cutting path id: path4848)


(Start cutting path id: path4873)
(Change tool to Cylindrical cutter)

G00 Z5.000000
G00 X56.848025 Y122.540615

G01 Z-0.125000 F1000.0(Penetrate)
G01 X57.022484 Y122.366154 Z-0.125000 F1100.000000
G03 X57.581470 Y122.106511 Z-0.125000 I0.634522 J0.634522
G03 X57.676412 Y122.310912 Z-0.125000 I0.010100 J0.119559
G01 X56.037535 Y123.949788 Z-0.125000
G02 X56.093227 Y124.193437 Z-0.125000 I0.104340 J0.104340
G02 X56.481264 Y124.104742 Z-0.125000 I0.123390 J-0.353342
G01 X58.139333 Y122.446672 Z-0.125000
G03 X58.579869 Y122.305478 Z-0.125000 I0.357463 J0.357463
G03 X58.652523 Y122.532166 Z-0.125000 I-0.021996 J0.132037
G01 X57.007187 Y124.177504 Z-0.125000
G02 X57.084887 Y124.399146 Z-0.125000 I0.092139 J0.092139
G02 X57.545813 Y124.237561 Z-0.125000 I0.062447 J-0.560064
G01 X57.997172 Y123.786200 Z-0.125000
G03 X58.316000 Y123.766716 Z-0.125000 I0.170424 J0.170424
G03 X58.333240 Y124.048819 Z-0.125000 I-0.116185 J0.148679
G01 X58.093359 Y124.288700 Z-0.125000
G02 X58.172957 Y124.508442 Z-0.125000 I0.091238 J0.091238
G02 X58.642315 Y124.338425 Z-0.125000 I0.053105 J-0.586271
G01 X58.816466 Y124.164277 Z-0.125000
G03 X59.265690 Y124.014393 Z-0.125000 I0.374602 J0.374602
G03 X59.340578 Y124.238845 Z-0.125000 I-0.018629 J0.130935
G01 X59.195618 Y124.383809 Z-0.125000
G02 X59.275989 Y124.602779 Z-0.125000 I0.090879 J0.090879
G02 X59.748917 Y124.429193 Z-0.125000 I0.049010 J-0.597503
G01 X59.880938 Y124.297169 Z-0.125000
G03 X60.346722 Y124.130727 Z-0.125000 I0.408660 J0.408660
G03 X60.425528 Y124.351263 Z-0.125000 I-0.012806 J0.128924
G01 X60.304085 Y124.472706 Z-0.125000
G02 X60.385094 Y124.691040 Z-0.125000 I0.090585 J0.090585
G02 X60.861025 Y124.514452 Z-0.125000 I0.045500 J-0.607018
G01 X60.966020 Y124.409457 Z-0.125000
G03 X61.418635 Y124.256184 Z-0.125000 I0.381424 J0.381424
G03 X61.494360 Y124.479801 Z-0.125000 I-0.017377 J0.130515
G01 X61.417965 Y124.556196 Z-0.125000
G02 X61.498975 Y124.774528 Z-0.125000 I0.090585 J0.090585
G02 X61.974905 Y124.597939 Z-0.125000 I0.045497 J-0.607022
G01 X62.020050 Y124.552795 Z-0.125000
G03 X62.454191 Y124.417995 Z-0.125000 I0.345174 J0.345174
G03 X62.525114 Y124.646414 Z-0.125000 I-0.024628 J0.132867
G01 X62.503073 Y124.668455 Z-0.125000
G02 X62.584083 Y124.886787 Z-0.125000 I0.090585 J0.090584
G02 X63.060013 Y124.710199 Z-0.125000 I0.045497 J-0.607021
G01 X63.065912 Y124.704300 Z-0.125000
G03 X63.532135 Y124.537420 Z-0.125000 I0.409585 J0.409585
G03 X63.611038 Y124.757858 Z-0.125000 I-0.012662 J0.128872
G01 X63.610191 Y124.758704 Z-0.125000
G02 X63.691201 Y124.977036 Z-0.125000 I0.090585 J0.090584
G02 X64.167131 Y124.800448 Z-0.125000 I0.045497 J-0.607021
G01 X64.167131 Y124.800448 Z-0.125000
G03 X64.644017 Y124.622903 Z-0.125000 I0.432519 J0.432519
G03 X64.725229 Y124.841037 Z-0.125000 I-0.009282 J0.127640
G01 X64.724664 Y124.841601 Z-0.125000
G02 X64.805561 Y125.060044 Z-0.125000 I0.090635 J0.090636
G02 X65.280961 Y124.883986 Z-0.125000 I0.046120 J-0.605338
G01 X65.286464 Y124.878482 Z-0.125000
G03 X65.770977 Y124.693312 Z-0.125000 I0.449388 J0.449393
G03 X65.853748 Y124.909885 Z-0.125000 I-0.007018 J0.126785
G01 X65.848244 Y124.915388 Z-0.125000
G02 X65.929143 Y125.133832 Z-0.125000 I0.090636 J0.090636
G02 X66.404544 Y124.957773 Z-0.125000 I0.046121 J-0.605340
G01 X66.412305 Y124.950011 Z-0.125000
G03 X66.904504 Y124.757152 Z-0.125000 I0.466782 J0.466777
G03 X66.988775 Y124.972222 Z-0.125000 I-0.004853 J0.125946
G01 X66.978700 Y124.982298 Z-0.125000
G02 X67.059598 Y125.200741 Z-0.125000 I0.090636 J0.090636
G02 X67.534999 Y125.024682 Z-0.125000 I0.046121 J-0.605340
G01 X67.549167 Y125.010542 Z-0.125000
G03 X68.041180 Y124.817869 Z-0.125000 I0.466360 J0.466360
G03 X68.125419 Y125.032979 Z-0.125000 I-0.004903 J0.125970
G01 X68.097338 Y125.061060 Z-0.125000
G02 X68.178236 Y125.279504 Z-0.125000 I0.090636 J0.090636
G02 X68.653638 Y125.103444 Z-0.125000 I0.046121 J-0.605340
G01 X68.701438 Y125.055642 Z-0.125000
G03 X69.193257 Y124.863165 Z-0.125000 I0.465909 J0.465909
G03 X69.277451 Y125.078304 Z-0.125000 I-0.004958 J0.125984
G01 X69.208348 Y125.147409 Z-0.125000
G02 X69.288639 Y125.366460 Z-0.125000 I0.090916 J0.090916
G02 X69.761188 Y125.193253 Z-0.125000 I0.049449 J-0.596307
G01 X69.848056 Y125.106385 Z-0.125000
G03 X70.329589 Y124.924194 Z-0.125000 I0.442751 J0.442751
G03 X70.411758 Y125.141367 Z-0.125000 I-0.007888 J0.127116
G01 X70.314027 Y125.239097 Z-0.125000
G02 X70.393403 Y125.459062 Z-0.125000 I0.091342 J0.091342
G02 X70.861750 Y125.290055 Z-0.125000 I0.054250 J-0.583104
G01 X70.975791 Y125.176018 Z-0.125000
G03 X71.445512 Y125.005638 Z-0.125000 I0.417028 J0.417028
G03 X71.525190 Y125.225302 Z-0.125000 I-0.011524 J0.128463
G01 X71.406987 Y125.343505 Z-0.125000
G02 X71.485720 Y125.564112 Z-0.125000 I0.091645 J0.091645
G02 X71.951182 Y125.397991 Z-0.125000 I0.057480 J-0.574102
G01 X72.062352 Y125.286824 Z-0.125000
G03 X72.447352 Y125.201166 Z-0.125000 I0.259841 J0.259841
G03 X72.501831 Y125.446028 Z-0.125000 I-0.050628 J0.139756
G01 X72.498783 Y125.449076 Z-0.125000
G02 X72.580712 Y125.666489 Z-0.125000 I0.090166 J0.090166
G02 X73.061071 Y125.485472 Z-0.125000 I0.040207 J-0.621170
G01 X73.061071 Y125.485472 Z-0.125000
G03 X73.581342 Y125.264540 Z-0.125000 I0.533664 J0.533664
G03 X73.670572 Y125.474663 Z-0.125000 I0.002184 J0.123080
G01 X73.648108 Y125.497127 Z-0.125000
G02 X73.731644 Y125.712934 Z-0.125000 I0.089447 J0.089447
G02 X74.220039 Y125.523882 Z-0.125000 I0.030273 J-0.647179
G01 X74.287660 Y125.456262 Z-0.125000
G03 X74.816857 Y125.226408 Z-0.125000 I0.556021 J0.556021
G03 X74.907496 Y125.435095 Z-0.125000 I0.004171 J0.122215
G01 X74.796732 Y125.545859 Z-0.125000
G02 X74.881262 Y125.760673 Z-0.125000 I0.089012 J0.089012
G02 X75.374819 Y125.566461 Z-0.125000 I0.023664 J-0.664115
G01 X75.504591 Y125.436687 Z-0.125000
G03 X75.883287 Y125.357332 Z-0.125000 I0.250063 J0.250063
G03 X75.935146 Y125.604815 Z-0.125000 I-0.054937 J0.140687
G01 X75.935146 Y125.604815 Z-0.125000
G02 X76.020713 Y125.818592 Z-0.125000 I0.088564 J0.088564
G02 X76.519837 Y125.618813 Z-0.125000 I0.016339 J-0.682569
G01 X76.644198 Y125.494452 Z-0.125000
G03 X77.150062 Y125.287931 Z-0.125000 I0.498674 J0.498674
G03 X77.236840 Y125.500491 Z-0.125000 I-0.001269 J0.124512
G01 X77.121874 Y125.615458 Z-0.125000
G02 X77.207376 Y125.829293 Z-0.125000 I0.088589 J0.088589
G02 X77.706156 Y125.629851 Z-0.125000 I0.016793 J-0.681415
G01 X77.803604 Y125.532402 Z-0.125000
G03 X78.301466 Y125.333881 Z-0.125000 I0.479851 J0.479851
G03 X78.386808 Y125.547896 Z-0.125000 I-0.003328 J0.125351
G01 X78.290435 Y125.644270 Z-0.125000
G02 X78.375937 Y125.858105 Z-0.125000 I0.088589 J0.088589
G02 X78.874716 Y125.658663 Z-0.125000 I0.016793 J-0.681415
G01 X78.970014 Y125.563365 Z-0.125000
G03 X79.467877 Y125.364843 Z-0.125000 I0.479851 J0.479851
G03 X79.553218 Y125.578859 Z-0.125000 I-0.003328 J0.125351
G01 X79.458995 Y125.673082 Z-0.125000
G02 X79.545203 Y125.886216 Z-0.125000 I0.088290 J0.088290
G02 X80.047858 Y125.682903 Z-0.125000 I0.011581 J-0.694386
G01 X80.140283 Y125.590478 Z-0.125000
G03 X80.644497 Y125.385605 Z-0.125000 I0.494761 J0.494761
G03 X80.730988 Y125.598465 Z-0.125000 I-0.001685 J0.124686
G01 X80.637999 Y125.691454 Z-0.125000
G02 X80.724401 Y125.904397 Z-0.125000 I0.088209 J0.088209
G02 X81.228139 Y125.700006 Z-0.125000 I0.010108 J-0.698035
G01 X81.321690 Y125.606455 Z-0.125000
G03 X81.825904 Y125.401582 Z-0.125000 I0.494761 J0.494761
G03 X81.912396 Y125.614442 Z-0.125000 I-0.001685 J0.124686
G01 X81.818280 Y125.708557 Z-0.125000
G02 X81.904683 Y125.921499 Z-0.125000 I0.088209 J0.088209
G02 X82.408421 Y125.717108 Z-0.125000 I0.010108 J-0.698035
G01 X82.503101 Y125.622431 Z-0.125000
G03 X83.009850 Y125.415022 Z-0.125000 I0.500791 J0.500791
G03 X83.096786 Y125.627427 Z-0.125000 I-0.001047 J0.124422
G01 X82.998562 Y125.725651 Z-0.125000
G02 X83.084965 Y125.938594 Z-0.125000 I0.088209 J0.088209
G02 X83.588702 Y125.734203 Z-0.125000 I0.010108 J-0.698035
G01 X83.692083 Y125.630822 Z-0.125000
G03 X84.200204 Y125.422042 Z-0.125000 I0.504066 J0.504066
G03 X84.287380 Y125.634208 Z-0.125000 I-0.000707 J0.124283
G01 X84.182859 Y125.738732 Z-0.125000
G02 X84.270009 Y125.950922 Z-0.125000 I0.087893 J0.087893
G02 X84.777981 Y125.742288 Z-0.125000 I0.004261 J-0.712336
G01 X84.882677 Y125.637589 Z-0.125000
G03 X85.390801 Y125.428809 Z-0.125000 I0.504068 J0.504068
G03 X85.477977 Y125.640976 Z-0.125000 I-0.000707 J0.124284
G01 X85.373103 Y125.745850 Z-0.125000
G02 X85.460253 Y125.958039 Z-0.125000 I0.087893 J0.087893
G02 X85.968225 Y125.749406 Z-0.125000 I0.004259 J-0.712342
G01 X86.098392 Y125.619242 Z-0.125000
G03 X86.587944 Y125.429032 Z-0.125000 I0.460746 J0.460746
G03 X86.671706 Y125.644614 Z-0.125000 I-0.005586 J0.126234
G01 X86.563350 Y125.752970 Z-0.125000
G02 X86.650500 Y125.965160 Z-0.125000 I0.087893 J0.087893
G02 X87.158472 Y125.756526 Z-0.125000 I0.004261 J-0.712336
G01 X87.270915 Y125.644081 Z-0.125000
G03 X87.782391 Y125.431952 Z-0.125000 I0.512124 J0.512124
G03 X87.870126 Y125.643516 Z-0.125000 I0.000111 J0.123928
G01 X87.753594 Y125.760048 Z-0.125000
G02 X87.841296 Y125.971687 Z-0.125000 I0.087664 J0.087664
G02 X88.352458 Y125.759865 Z-0.125000 I-0.000222 J-0.723206
G01 X88.469335 Y125.642988 Z-0.125000
G03 X88.980811 Y125.430860 Z-0.125000 I0.512124 J0.512124
G03 X89.068546 Y125.642424 Z-0.125000 I0.000111 J0.123928
G01 X88.952979 Y125.757988 Z-0.125000
G02 X89.040912 Y125.969343 Z-0.125000 I0.087546 J0.087546
G02 X89.553500 Y125.756013 Z-0.125000 I-0.002273 J-0.727949
G01 X89.667755 Y125.641758 Z-0.125000
G03 X90.179216 Y125.429645 Z-0.125000 I0.512086 J0.512086
G03 X90.266935 Y125.641193 Z-0.125000 I0.000107 J0.123916
G01 X90.154021 Y125.754108 Z-0.125000
G02 X90.241954 Y125.965462 Z-0.125000 I0.087546 J0.087546
G02 X90.754542 Y125.752132 Z-0.125000 I-0.002276 J-0.727956
G01 X90.873298 Y125.633376 Z-0.125000
G03 X91.390877 Y125.415138 Z-0.125000 I0.527016 J0.527016
G03 X91.479661 Y125.625699 Z-0.125000 I0.001562 J0.123340
G01 X91.355060 Y125.750298 Z-0.125000
G02 X91.442993 Y125.961652 Z-0.125000 I0.087546 J0.087546
G02 X91.955581 Y125.748322 Z-0.125000 I-0.002276 J-0.727956
G01 X92.086024 Y125.617882 Z-0.125000
G03 X92.603603 Y125.399644 Z-0.125000 I0.527016 J0.527016
G03 X92.692387 Y125.610205 Z-0.125000 I0.001562 J0.123340
G01 X92.561334 Y125.741258 Z-0.125000
G02 X92.650030 Y125.951907 Z-0.125000 I0.087257 J0.087257
G02 X93.167082 Y125.734203 Z-0.125000 I-0.008667 J-0.743438
G01 X93.305063 Y125.596221 Z-0.125000
G03 X93.834366 Y125.366259 Z-0.125000 I0.556296 J0.556296
G03 X93.925032 Y125.574942 Z-0.125000 I0.004196 J0.122214
G01 X93.772830 Y125.727144 Z-0.125000
G02 X93.862187 Y125.937125 Z-0.125000 I0.086987 J0.086987
G02 X94.383274 Y125.715375 Z-0.125000 I-0.014597 J-0.757424
G01 X94.671710 Y125.426942 Z-0.125000
G02 X94.993085 Y124.806222 Z-0.125000 I-0.816101 J-0.816087
G02 X94.795860 Y124.704108 Z-0.125000 I-0.114835 J-0.019724
G01 X94.795860 Y124.704108 Z-0.125000
G02 X94.863037 Y124.936272 Z-0.125000 I0.097568 J0.097569
G02 X95.284265 Y124.814387 Z-0.125000 I0.100042 J-0.443072
G01 X95.341446 Y124.757206 Z-0.125000
G03 X95.855951 Y124.542044 Z-0.125000 I0.519486 J0.519486
G03 X95.944216 Y124.753113 Z-0.125000 I0.000838 J0.123640
G01 X94.993785 Y125.703545 Z-0.125000
G02 X95.083419 Y125.913253 Z-0.125000 I0.086877 J0.086877
G02 X95.606219 Y125.689801 Z-0.125000 I-0.017137 J-0.763404
G01 X95.988901 Y125.307118 Z-0.125000
G03 X96.439522 Y125.155839 Z-0.125000 I0.377402 J0.377402
G03 X96.514757 Y125.379946 Z-0.125000 I-0.018110 J0.130762
G01 X96.223456 Y125.671247 Z-0.125000
G02 X96.313750 Y125.880299 Z-0.125000 I0.086615 J0.086615
G02 X96.840692 Y125.652705 Z-0.125000 I-0.023380 J-0.777937
G01 X97.098827 Y125.394571 Z-0.125000
G03 X97.619092 Y125.173649 Z-0.125000 I0.533639 J0.533639
G03 X97.708311 Y125.383762 Z-0.125000 I0.002181 J0.123073
G01 X97.468242 Y125.623834 Z-0.125000
G02 X97.559954 Y125.831464 Z-0.125000 I0.086058 J0.086058
G02 X98.096127 Y125.594632 Z-0.125000 I-0.037704 J-0.810709
G01 X98.339055 Y125.351704 Z-0.125000
G03 X98.898221 Y125.091878 Z-0.125000 I0.635023 J0.635023
G03 X98.993187 Y125.296253 Z-0.125000 I0.010134 J0.119542
G01 X98.738942 Y125.550501 Z-0.125000
G02 X98.826598 Y125.762186 Z-0.125000 I0.087682 J0.087682
G02 X99.337496 Y125.550628 Z-0.125000 I0.000153 J-0.722302
G01 X100.223041 Y124.665083 Z-0.125000
G03 X100.491588 Y124.695878 Z-0.125000 I0.122044 J0.122044
G03 X100.452815 Y125.033992 Z-0.125000 I-0.232238 J0.144649
G01 X100.030752 Y125.456056 Z-0.125000
G02 X100.125072 Y125.661077 Z-0.125000 I0.085070 J0.085070
G02 X100.679459 Y125.406032 Z-0.125000 I-0.067633 J-0.877066
G01 X101.047347 Y125.038147 Z-0.125000
G03 X101.558243 Y124.826592 Z-0.125000 I0.510739 J0.510739
G03 X101.645898 Y125.038276 Z-0.125000 I-0.000027 J0.124002
G01 X101.335702 Y125.348472 Z-0.125000
G02 X101.430878 Y125.552638 Z-0.125000 I0.084756 J0.084756
G02 X101.991621 Y125.291238 Z-0.125000 I-0.078598 J-0.900741
G01 X102.260624 Y125.022235 Z-0.125000
G03 X102.802009 Y124.780191 Z-0.125000 I0.587428 J0.587428
G03 X102.894492 Y124.987050 Z-0.125000 I0.006722 J0.121098
G01 X102.647542 Y125.234003 Z-0.125000
G02 X102.742718 Y125.438169 Z-0.125000 I0.084756 J0.084756
G02 X103.303460 Y125.176768 Z-0.125000 I-0.078598 J-0.900741
G01 X103.689955 Y124.790271 Z-0.125000
G02 X103.955437 Y124.225452 Z-0.125000 I-0.650577 J-0.650594
G02 X103.751804 Y124.129738 Z-0.125000 I-0.119071 J-0.011149
G01 X103.751804 Y124.129738 Z-0.125000
G02 X103.840171 Y124.340719 Z-0.125000 I0.087394 J0.087392
G02 X104.355232 Y124.124997 Z-0.125000 I-0.005794 J-0.736578
G01 X104.396713 Y124.083516 Z-0.125000
G03 X104.599850 Y124.179722 Z-0.125000 I0.084385 J0.084385
G03 X104.330532 Y124.748383 Z-0.125000 I-0.930614 J-0.092634
G01 X103.962573 Y125.116342 Z-0.125000
G02 X104.058809 Y125.319448 Z-0.125000 I0.084374 J0.084374
G02 X104.627703 Y125.049895 Z-0.125000 I-0.093057 J-0.931504
G01 X104.979321 Y124.698278 Z-0.125000
G02 X105.241268 Y124.136987 Z-0.125000 I-0.640842 J-0.640842
G02 X105.037174 Y124.041738 Z-0.125000 I-0.119364 J-0.010518
G01 X105.037174 Y124.041738 Z-0.125000
G02 X105.121698 Y124.256556 Z-0.125000 I0.089014 J0.089013
G02 X105.615227 Y124.062369 Z-0.125000 I0.023699 J-0.664017
G01 X105.900703 Y123.776893 Z-0.125000
G00 Z5.000000

(End cutting path id: path4873)


(Start cutting path id: path4873)
(Change tool to Cylindrical cutter)

G00 Z5.000000
G00 X108.508253 Y123.564190

G01 Z-0.125000 F1000.0(Penetrate)
G01 X107.303709 Y124.768737 Z-0.125000 F1100.000000
G02 X107.403639 Y124.968147 Z-0.125000 I0.083100 J0.083100
G02 X108.003676 Y124.667453 Z-0.125000 I-0.152385 J-1.053124
G01 X108.253237 Y124.417893 Z-0.125000
G00 Z5.000000

(End cutting path id: path4873)


(Start cutting path id: path4873)
(Change tool to Cylindrical cutter)

G00 Z5.000000
G00 X112.663086 Y124.198829

G01 Z-0.125000 F1000.0(Penetrate)
G01 X112.710384 Y124.151529 Z-0.125000 F1100.000000
G03 X112.903645 Y124.257601 Z-0.125000 I0.081182 J0.081182
G03 X112.539479 Y124.921120 Z-0.125000 I-1.321118 J-0.293389
G01 X112.421168 Y125.039428 Z-0.125000
G02 X112.489037 Y125.570245 Z-0.125000 I0.239168 J0.239168
G02 X113.175489 Y125.482477 Z-0.125000 I0.286476 J-0.487744
G01 X113.175489 Y125.482477 Z-0.125000
G03 X113.367569 Y125.589738 Z-0.125000 I0.080843 J0.080843
G03 X112.989025 Y126.267622 Z-0.125000 I-1.385461 J-0.329033
G01 X112.418479 Y126.838168 Z-0.125000
G03 X112.111659 Y126.845648 Z-0.125000 I-0.157336 J-0.157334
G03 X112.104538 Y126.553429 Z-0.125000 I0.135595 J-0.149501
G01 X112.104538 Y126.553429 Z-0.125000
G02 X112.480753 Y125.877872 Z-0.125000 I-0.998716 J-0.998716
G02 X112.288484 Y125.770798 Z-0.125000 I-0.111371 J-0.026176
G01 X112.055078 Y126.004202 Z-0.125000
G00 Z5.000000

(End cutting path id: path4873)


(Start cutting path id: path4873)
(Change tool to Cylindrical cutter)

G00 Z5.000000
G00 X112.897331 Y126.958000

G01 Z-0.125000 F1000.0(Penetrate)
G01 X112.640088 Y127.215243 Z-0.125000 F1100.000000
G02 X112.663856 Y127.490818 Z-0.125000 I0.127791 J0.127791
G02 X112.991455 Y127.462562 Z-0.125000 I0.147005 J-0.208849
G01 X113.039280 Y127.414737 Z-0.125000
G00 Z5.000000

(End cutting path id: path4873)


(Start cutting path id: path4848)
(Change tool to Cylindrical cutter)

G00 Z5.000000
G00 X113.002224 Y121.711664

G01 Z-0.125000 F1000.0(Penetrate)
G02 X112.849882 Y121.774766 Z-0.125000 I0.000000 J0.215445 F1100.000000
G02 X112.786782 Y121.927104 Z-0.125000 I0.152337 J0.152338
G02 X112.849882 Y122.079442 Z-0.125000 I0.215438 J0.000000
G02 X113.002224 Y122.142544 Z-0.125000 I0.152342 J-0.152343
G02 X113.154560 Y122.079444 Z-0.125000 I-0.000000 J-0.215435
G02 X113.217662 Y121.927104 Z-0.125000 I-0.152341 J-0.152340
G02 X113.154560 Y121.774764 Z-0.125000 I-0.215442 J-0.000000
G02 X113.002224 Y121.711664 Z-0.125000 I-0.152336 J0.152335
G01 X113.002224 Y121.711664 Z-0.125000
G00 Z5.000000

(End cutting path id: path4848)


(Start cutting path id: path4873)
(Change tool to Cylindrical cutter)

G00 Z5.000000
G00 X118.136295 Y124.113767

G01 Z-0.125000 F1000.0(Penetrate)
G01 X117.892594 Y124.357469 Z-0.125000 F1100.000000
G02 X117.989419 Y124.559985 Z-0.125000 I0.084165 J0.084165
G02 X118.562996 Y124.285751 Z-0.125000 I-0.101562 J-0.949373
G01 X118.875046 Y123.973700 Z-0.125000
G03 X119.386339 Y123.761739 Z-0.125000 I0.511720 J0.511720
G03 X119.474113 Y123.973418 Z-0.125000 I0.000073 J0.124008
G01 X119.328704 Y124.118827 Z-0.125000
G02 X119.443593 Y124.303281 Z-0.125000 I0.078877 J0.078877
G02 X120.237307 Y123.808908 Z-0.125000 I-0.666802 J-1.954889
G01 X120.276068 Y123.770148 Z-0.125000
G03 X121.143421 Y123.202136 Z-0.125000 I1.795504 J1.795504
G03 X121.261878 Y123.383020 Z-0.125000 I0.040367 J0.102794
G01 X121.113678 Y123.531224 Z-0.125000
G00 Z5.000000

(End cutting path id: path4873)


(Start cutting path id: path4848)
(Change tool to Cylindrical cutter)

G00 Z5.000000
G00 X121.861569 Y123.004304

G01 Z-0.125000 F1000.0(Penetrate)
G02 X121.678480 Y123.034454 Z-0.125000 I-0.000000 J0.570990 F1100.000000
G02 X120.865074 Y123.341641 Z-0.125000 I4.020690 J11.876956
G03 X120.042447 Y123.581282 Z-0.125000 I-1.473636 J-3.526868
G03 X119.294030 Y123.613187 Z-0.125000 I-0.497624 J-2.879074
G02 X118.606912 Y123.663856 Z-0.125000 I-0.186123 J2.160322
G02 X118.440884 Y123.815789 Z-0.125000 I0.053455 J0.225097
G03 X118.313391 Y123.979274 Z-0.125000 I-0.294401 J-0.098132
G03 X118.183172 Y123.980206 Z-0.125000 I-0.065851 J-0.103217
G02 X118.029374 Y123.978129 Z-0.125000 I-0.078631 J0.127228
G02 X117.629582 Y124.302024 Z-0.125000 I0.841132 J1.446918
G02 X117.567899 Y124.583338 Z-0.125000 I0.214987 J0.194560
G02 X117.762368 Y124.725492 Z-0.125000 I0.193557 J-0.060693
G02 X119.046985 Y124.526750 Z-0.125000 I-0.019779 J-4.378925
G02 X121.160614 Y123.665073 Z-0.125000 I-4.021405 J-12.887339
G02 X121.913337 Y123.134689 Z-0.125000 I-1.477611 J-2.896356
G02 X121.861569 Y123.004304 Z-0.125000 I-0.051768 J-0.054916
G01 X121.861569 Y123.004304 Z-0.125000
G00 Z5.000000

(End cutting path id: path4848)


(Start cutting path id: path4848)
(Change tool to Cylindrical cutter)

G00 Z5.000000
G00 X122.814030 Y120.344681

G01 Z-0.125000 F1000.0(Penetrate)
G03 X122.551575 Y120.168992 Z-0.125000 I0.255270 J-0.665220 F1100.000000
G03 X122.481578 Y119.993083 Z-0.125000 I0.186041 J-0.175910
G03 X122.564084 Y119.917854 Z-0.125000 I0.075549 J0.000000
G03 X122.902662 Y120.032024 Z-0.125000 I-0.071247 J0.770409
G03 X122.989406 Y120.256899 Z-0.125000 I-0.106267 J0.170160
G03 X122.814030 Y120.344681 Z-0.125000 I-0.127789 J-0.036226
G01 X122.814030 Y120.344681 Z-0.125000
G00 Z5.000000

(End cutting path id: path4848)


(Start cutting path id: path4848)
(Change tool to Cylindrical cutter)

G00 Z5.000000
G00 X123.720356 Y120.346264

G01 Z-0.125000 F1000.0(Penetrate)
G01 X123.720355 Y120.289884 Z-0.125000 F1100.000000
G03 X123.989658 Y120.237600 Z-0.125000 I0.269302 J0.667410
G03 X124.258957 Y120.289885 Z-0.125000 I-0.000000 J0.719674
G01 X124.258957 Y120.346264 Z-0.125000
G03 X123.989656 Y120.398549 Z-0.125000 I-0.269301 J-0.667396
G03 X123.720356 Y120.346264 Z-0.125000 I-0.000000 J-0.719680
G01 X123.720356 Y120.346264 Z-0.125000
G00 Z5.000000

(End cutting path id: path4848)


(Start cutting path id: path4848)
(Change tool to Cylindrical cutter)

G00 Z5.000000
G00 X124.528259 Y119.981546

G01 Z-0.125000 F1000.0(Penetrate)
G01 X124.495430 Y119.927674 Z-0.125000 F1100.000000
G03 X124.635975 Y119.772704 Z-0.125000 I0.361048 J0.186224
G03 X124.970404 Y119.602063 Z-0.125000 I1.001516 J1.549780
G03 X125.174576 Y119.563865 Z-0.125000 I0.204172 J0.526561
G01 X125.207404 Y119.617736 Z-0.125000
G03 X125.066855 Y119.772704 Z-0.125000 I-0.361042 J-0.186229
G03 X124.732426 Y119.943349 Z-0.125000 I-1.001413 J-1.549533
G03 X124.528259 Y119.981546 Z-0.125000 I-0.204167 J-0.526555
G01 X124.528259 Y119.981546 Z-0.125000
G00 Z5.000000

(End cutting path id: path4848)


(Start cutting path id: path4848)
(Change tool to Cylindrical cutter)

G00 Z5.000000
G00 X124.141245 Y119.148708

G01 Z-0.125000 F1000.0(Penetrate)
G03 X124.158256 Y119.018018 Z-0.125000 I0.058799 J-0.058799 F1100.000000
G03 X124.539029 Y118.917497 Z-0.125000 I0.373114 J0.641914
G03 X124.793803 Y119.024572 Z-0.125000 I-0.003778 J0.365633
G03 X124.776792 Y119.155261 Z-0.125000 I-0.058797 J0.058798
G03 X124.396022 Y119.255786 Z-0.125000 I-0.373119 J-0.641901
G03 X124.141245 Y119.148713 Z-0.125000 I0.003768 J-0.365622
G01 X124.141245 Y119.148708 Z-0.125000
G00 Z5.000000

(End cutting path id: path4848)


(Start cutting path id: path4873)
(Change tool to Cylindrical cutter)

G00 Z5.000000
G00 X124.636045 Y118.811486

G01 Z-0.125000 F1000.0(Penetrate)
G01 X134.356095 Y109.091437 Z-0.125000 F1100.000000
G03 X134.810554 Y108.936320 Z-0.125000 I0.385168 J0.385168
G03 X134.886726 Y109.159489 Z-0.125000 I-0.016709 J0.130287
G01 X123.900910 Y120.145305 Z-0.125000
G00 Z5.000000

(End cutting path id: path4873)


(Start cutting path id: path4848)
(Change tool to Cylindrical cutter)

G00 Z5.000000
G00 X125.928617 Y119.988147

G01 Z-0.125000 F1000.0(Penetrate)
G03 X125.535112 Y119.950771 Z-0.125000 I0.000000 J-2.090165 F1100.000000
G01 X125.497737 Y119.905552 Z-0.125000
G03 X125.533289 Y119.850409 Z-0.125000 I0.060541 J0.000000
G03 X125.928617 Y119.710279 Z-0.125000 I1.021381 J2.253781
G03 X126.281543 Y119.698558 Z-0.125000 I0.202356 J0.773797
G03 X126.359497 Y119.792874 Z-0.125000 I-0.018079 J0.094316
G03 X126.282952 Y119.911603 Z-0.125000 I-0.130352 J-0.000000
G03 X125.928617 Y119.988147 Z-0.125000 I-0.354335 J-0.781865
G01 X125.928617 Y119.988147 Z-0.125000
G00 Z5.000000

(End cutting path id: path4848)


(Start cutting path id: path4848)
(Change tool to Cylindrical cutter)

G00 Z5.000000
G00 X127.221254 Y119.083983

G01 Z-0.125000 F1000.0(Penetrate)
G03 X126.648010 Y118.967015 Z-0.125000 I0.178015 J-2.335617 F1100.000000
G03 X126.574935 Y118.865120 Z-0.125000 I0.034503 J-0.101896
G03 X126.681640 Y118.753853 Z-0.125000 I0.111364 J0.000000
G03 X127.382835 Y118.831295 Z-0.125000 I0.097552 J2.329919
G03 X127.438746 Y118.975437 Z-0.125000 I-0.024798 J0.092533
G03 X127.221254 Y119.083983 Z-0.125000 I-0.199500 J-0.127570
G01 X127.221254 Y119.083983 Z-0.125000
G00 Z5.000000

(End cutting path id: path4848)


(Start cutting path id: path4848)
(Change tool to Cylindrical cutter)

G00 Z5.000000
G00 X128.236515 Y118.935181

G01 Z-0.125000 F1000.0(Penetrate)
G03 X128.203360 Y118.781048 Z-0.125000 I0.102731 J-0.102731 F1100.000000
G03 X128.327179 Y118.695504 Z-0.125000 I0.123819 J0.046838
G03 X128.637329 Y118.744248 Z-0.125000 I0.000000 J1.011091
G03 X128.814613 Y118.852597 Z-0.125000 I-0.135832 J0.421466
G03 X128.841809 Y118.979024 Z-0.125000 I-0.084264 J0.084264
G03 X128.723950 Y119.092275 Z-0.125000 I-0.178064 J-0.067357
G03 X128.495416 Y119.093409 Z-0.125000 I-0.115996 J-0.347996
G03 X128.236515 Y118.935181 Z-0.125000 I0.198439 J-0.615626
G01 X128.236515 Y118.935181 Z-0.125000
G00 Z5.000000

(End cutting path id: path4848)


(Start cutting path id: path4848)
(Change tool to Cylindrical cutter)

G00 Z5.000000
G00 X129.335265 Y118.842674

G01 Z-0.125000 F1000.0(Penetrate)
G01 X129.321509 Y118.775628 Z-0.125000 F1100.000000
G03 X129.465429 Y118.712514 Z-0.125000 I0.152815 J0.152816
G03 X129.734433 Y118.758622 Z-0.125000 I0.026795 J0.651432
G01 X129.748190 Y118.825668 Z-0.125000
G03 X129.604270 Y118.888782 Z-0.125000 I-0.152814 J-0.152814
G03 X129.335265 Y118.842686 Z-0.125000 I-0.026829 J-0.651399
G01 X129.335265 Y118.842674 Z-0.125000
G00 Z5.000000

(End cutting path id: path4848)


(Start cutting path id: path4848)
(Change tool to Cylindrical cutter)

G00 Z5.000000
G00 X130.843340 Y118.842674

G01 Z-0.125000 F1000.0(Penetrate)
G01 X130.829582 Y118.775627 Z-0.125000 F1100.000000
G03 X130.973501 Y118.712514 Z-0.125000 I0.152812 J0.152812
G03 X131.242507 Y118.758623 Z-0.125000 I0.026795 J0.651436
G01 X131.256265 Y118.825668 Z-0.125000
G03 X131.112345 Y118.888782 Z-0.125000 I-0.152814 J-0.152814
G03 X130.843340 Y118.842686 Z-0.125000 I-0.026829 J-0.651399
G01 X130.843340 Y118.842674 Z-0.125000
G00 Z5.000000

(End cutting path id: path4848)


(Start cutting path id: path4873)
(Change tool to Cylindrical cutter)

G00 Z5.000000
G00 X131.364768 Y118.668193

G01 Z-0.125000 F1000.0(Penetrate)
G01 X140.771150 Y109.261811 Z-0.125000 F1100.000000
G03 X140.991737 Y109.340566 Z-0.125000 I0.091636 J0.091636
G03 X140.825523 Y109.806122 Z-0.125000 I-0.574392 J0.057378
G01 X128.871332 Y121.760313 Z-0.125000
G02 X128.964661 Y121.966326 Z-0.125000 I0.085441 J0.085440
G02 X129.511931 Y121.718400 Z-0.125000 I-0.055671 J-0.850872
G01 X132.110399 Y119.119930 Z-0.125000
G03 X132.500646 Y119.029024 Z-0.125000 I0.268183 J0.268183
G03 X132.557202 Y119.271810 Z-0.125000 I-0.047245 J0.138986
G01 X132.206967 Y119.622045 Z-0.125000
G02 X132.378247 Y120.049448 Z-0.125000 I0.177064 J0.177064
G02 X133.377294 Y119.649082 Z-0.125000 I0.031603 J-1.367802
G01 X141.055686 Y111.970690 Z-0.125000
G02 X141.254345 Y111.472690 Z-0.125000 I-0.480170 J-0.480170
G02 X141.040362 Y111.387329 Z-0.125000 I-0.125331 J0.003292
G01 X133.440270 Y118.987423 Z-0.125000
G03 X133.215333 Y118.913017 Z-0.125000 I-0.093760 J-0.093760
G03 X133.363296 Y118.465710 Z-0.125000 I0.518736 J-0.076534
G01 X141.013757 Y110.815250 Z-0.125000
G02 X141.137083 Y110.392582 Z-0.125000 I-0.323807 J-0.323807
G02 X140.905355 Y110.324968 Z-0.125000 I-0.134399 J0.029716
G01 X132.764836 Y118.465487 Z-0.125000
G00 Z5.000000

(End cutting path id: path4873)


(Start cutting path id: path4848)
(Change tool to Cylindrical cutter)

G00 Z5.000000
G00 X132.795296 Y118.896283

G01 Z-0.125000 F1000.0(Penetrate)
G02 X132.376236 Y118.796729 Z-0.125000 I-0.398047 J0.743771 F1100.000000
G02 X132.175906 Y118.911720 Z-0.125000 I0.006043 J0.242525
G03 X132.014792 Y119.015314 Z-0.125000 I-0.188948 J-0.116779
G03 X131.877015 Y118.949473 Z-0.125000 I-0.017690 J-0.140057
G03 X132.066001 Y118.496505 Z-0.125000 I0.256855 J-0.158744
G03 X132.940750 Y118.704101 Z-0.125000 I0.227721 J0.987217
G03 X132.958828 Y118.860453 Z-0.125000 I-0.072727 J0.087630
G03 X132.795296 Y118.896297 Z-0.125000 I-0.102737 J-0.077752
G01 X132.795296 Y118.896283 Z-0.125000
G00 Z5.000000

(End cutting path id: path4848)


(Start cutting path id: path4848)
(Change tool to Cylindrical cutter)

G00 Z5.000000
G00 X132.919222 Y119.639467

G01 Z-0.125000 F1000.0(Penetrate)
G03 X132.742868 Y119.636890 Z-0.125000 I-0.084961 J-0.221402 F1100.000000
G03 X132.716499 Y119.554797 Z-0.125000 I0.021842 J-0.052297
G03 X132.876456 Y119.392651 Z-0.125000 I0.434139 J0.268304
G03 X133.050848 Y119.341827 Z-0.125000 I0.174392 J0.273785
G03 X133.120185 Y119.448304 Z-0.125000 I0.000000 J0.075814
G03 X132.919222 Y119.639467 Z-0.125000 I-0.330380 J-0.146103
G01 X132.919222 Y119.639467 Z-0.125000
G00 Z5.000000

(End cutting path id: path4848)


(Start cutting path id: path4848)
(Change tool to Cylindrical cutter)

G00 Z5.000000
G00 X132.230233 Y120.178096

G01 Z-0.125000 F1000.0(Penetrate)
G03 X131.635448 Y120.089637 Z-0.125000 I0.048852 J-2.372308 F1100.000000
G01 X131.637773 Y120.011122 Z-0.125000
G03 X133.247630 Y119.885340 Z-0.125000 I1.259335 J5.752925
G03 X133.469014 Y120.120317 Z-0.125000 I-0.014011 J0.234977
G01 X133.428760 Y120.162492 Z-0.125000
G03 X132.230233 Y120.178096 Z-0.125000 I-0.831448 J-17.825887
G01 X132.230233 Y120.178096 Z-0.125000
G00 Z5.000000

(End cutting path id: path4848)


(Start cutting path id: path4873)
(Change tool to Cylindrical cutter)

G00 Z5.000000
G00 X129.928017 Y121.900990

G01 Z-0.125000 F1000.0(Penetrate)
G01 X131.344755 Y120.484251 Z-0.125000 F1100.000000
G03 X131.828884 Y120.299465 Z-0.125000 I0.448527 J0.448527
G03 X131.911576 Y120.516114 Z-0.125000 I-0.007129 J0.126827
G01 X130.797258 Y121.630432 Z-0.125000
G02 X130.891270 Y121.835763 Z-0.125000 I0.085185 J0.085185
G02 X131.443415 Y121.582962 Z-0.125000 I-0.063824 J-0.868770
G01 X132.479105 Y120.547269 Z-0.125000
G03 X133.517850 Y120.107201 Z-0.125000 I1.062885 J1.062885
G03 X133.696017 Y120.527739 Z-0.125000 I0.003957 J0.246334
G01 X132.740271 Y121.483481 Z-0.125000
G03 X132.184127 Y121.740283 Z-0.125000 I-0.626780 J-0.626780
G03 X132.089568 Y121.535501 Z-0.125000 I-0.009577 J-0.119801
G01 X134.451734 Y119.173335 Z-0.125000
G03 X134.866464 Y119.357288 Z-0.125000 I0.171910 J0.171910
G03 X134.389247 Y120.433189 Z-0.125000 I-1.634169 J-0.081052
G01 X133.395825 Y121.426614 Z-0.125000
G02 X133.490958 Y121.630821 Z-0.125000 I0.084771 J0.084771
G02 X134.051377 Y121.369743 Z-0.125000 I-0.078037 J-0.899534
G01 X135.041119 Y120.380001 Z-0.125000
G03 X135.575286 Y120.145176 Z-0.125000 I0.568709 J0.568709
G03 X135.666692 Y120.353105 Z-0.125000 I0.005234 J0.121755
G01 X134.704080 Y121.315720 Z-0.125000
G02 X134.810330 Y121.508812 Z-0.125000 I0.081134 J0.081134
G02 X135.475907 Y121.142577 Z-0.125000 I-0.298407 J-1.330220
G01 X136.502993 Y120.115491 Z-0.125000
G02 X136.800644 Y119.219156 Z-0.125000 I-0.744977 J-0.744977
G02 X136.351206 Y119.069909 Z-0.125000 I-0.262137 J0.038054
G01 X136.351206 Y119.069909 Z-0.125000
G02 X136.455681 Y119.264777 Z-0.125000 I0.081663 J0.081658
G02 X137.100954 Y118.918846 Z-0.125000 I-0.250151 J-1.241402
G01 X141.044990 Y114.974810 Z-0.125000
G02 X141.270217 Y114.450241 Z-0.125000 I-0.544360 J-0.544360
G02 X141.060795 Y114.360325 Z-0.125000 I-0.122660 J-0.003154
G01 X137.034821 Y118.386299 Z-0.125000
G03 X136.743086 Y118.378688 Z-0.125000 I-0.142256 J-0.142256
G03 X136.751106 Y118.071330 Z-0.125000 I0.165920 J-0.149454
G01 X141.071595 Y113.750838 Z-0.125000
G02 X141.283233 Y113.239859 Z-0.125000 I-0.510939 J-0.510939
G02 X141.071561 Y113.152188 Z-0.125000 I-0.123994 J0.000007
G01 X136.440856 Y117.782896 Z-0.125000
G03 X136.113734 Y117.810677 Z-0.125000 I-0.180030 J-0.180030
G03 X136.090302 Y117.534766 Z-0.125000 I0.104642 J-0.147837
G01 X141.291745 Y112.333321 Z-0.125000
G00 Z5.000000

(End cutting path id: path4873)


(Start cutting path id: path4848)
(Change tool to Cylindrical cutter)

G00 Z5.000000
G00 X141.332535 Y110.257410

G01 Z-0.125000 F1000.0(Penetrate)
G03 X141.022388 Y109.546298 Z-0.125000 I0.750528 J-0.750528 F1100.000000
G03 X140.821479 Y96.505198 Z-0.125000 I299.788198 J-11.140602
G02 X140.839810 Y88.866001 Z-0.125000 I-970.531237 J-6.148599
G02 X140.784256 Y72.268210 Z-0.125000 I-4581.925733 J7.037055
G02 X140.672458 Y66.243511 Z-0.125000 I-224.848842 J1.159064
G02 X140.557745 Y65.181212 Z-0.125000 I-7.068409 J0.225943
G03 X140.478783 Y64.156850 Z-0.125000 I4.762849 J-0.882361
G03 X140.596965 Y63.843837 Z-0.125000 I0.513498 J0.015060
G02 X140.721584 Y63.532946 Z-0.125000 I-0.420479 J-0.348969
G02 X140.673783 Y62.744121 Z-0.125000 I-3.034514 J-0.211976
G03 X140.519028 Y61.247963 Z-0.125000 I8.429244 J-1.627960
G03 X140.289095 Y37.690109 Z-0.125000 I2105.819729 J-32.333660
G01 X140.211441 Y19.054556 Z-0.125000
G01 X139.740435 Y18.164877 Z-0.125000
G02 X138.819943 Y17.065118 Z-0.125000 I-3.040186 J1.609515
G02 X136.764766 Y15.836758 Z-0.125000 I-5.908012 J7.551291
G02 X134.962731 Y15.189231 Z-0.125000 I-5.615512 J12.796424
G02 X133.317726 Y14.858982 Z-0.125000 I-2.927797 J10.321591
G02 X127.822700 Y14.386495 Z-0.125000 I-9.676876 J80.352226
G02 X120.675833 Y14.204894 Z-0.125000 I-7.026542 J135.805488
G01 X118.116046 Y14.207152 Z-0.125000
G01 X118.256110 Y15.122771 Z-0.125000
G03 X118.723498 Y19.298940 Z-0.125000 I-51.503711 J7.878422
G03 X119.240004 Y28.934421 Z-0.125000 I-274.021999 J19.520442
G02 X119.486618 Y34.485458 Z-0.125000 I330.304246 J-11.893315
G02 X119.539685 Y34.604584 Z-0.125000 I0.181816 J-0.009609
G02 X119.657369 Y34.647585 Z-0.125000 I0.105101 J-0.105101
G02 X121.393038 Y34.447166 Z-0.125000 I-2.449479 J-28.828877
G03 X123.058738 Y34.463041 Z-0.125000 I0.781959 J5.347818
G03 X123.162154 Y34.740387 Z-0.125000 I-0.027905 J0.168359
G02 X123.038794 Y35.075484 Z-0.125000 I0.411987 J0.341920
G02 X122.969876 Y49.826409 Z-0.125000 I913.582459 J11.644004
G03 X122.928126 Y64.528387 Z-0.125000 I-1178.251315 J4.005112
G03 X122.835547 Y64.620114 Z-0.125000 I-0.092564 J-0.000840
G02 X122.749970 Y64.688180 Z-0.125000 I-0.000015 J0.087810
G02 X122.766219 Y64.920551 Z-0.125000 I0.388290 J0.089603
G03 X122.827837 Y65.231196 Z-0.125000 I-0.870856 J0.334172
G03 X122.932016 Y71.491469 Z-0.125000 I-364.471229 J9.196279
G02 X123.059322 Y77.684486 Z-0.125000 I247.743922 J-1.994930
G02 X123.139359 Y77.761919 Z-0.125000 I0.080036 J-0.002647
G03 X123.223277 Y77.835952 Z-0.125000 I0.000000 J0.084579
G03 X123.317466 Y79.179124 Z-0.125000 I-12.148978 J1.526828
G02 X123.384893 Y80.582833 Z-0.125000 I21.288555 J-0.319112
G02 X123.446685 Y80.770998 Z-0.125000 I0.421625 J-0.034229
G03 X123.954135 Y82.476496 Z-0.125000 I-2.896352 J1.790016
G03 X123.520195 Y83.731814 Z-0.125000 I-1.896461 J0.047090
G02 X123.414315 Y84.019375 Z-0.125000 I0.356541 J0.294552
G02 X123.502246 Y84.918389 Z-0.125000 I4.018544 J0.060760
G03 X123.626424 Y85.852387 Z-0.125000 I-5.916606 J1.261890
G03 X123.739518 Y89.289611 Z-0.125000 I-80.482399 J4.368562
G02 X124.031329 Y101.115717 Z-0.125000 I450.945016 J-5.210466
G02 X124.203624 Y101.566258 Z-0.125000 I0.749286 J-0.028326
G03 X124.141033 Y101.703515 Z-0.125000 I-0.064467 J0.053502
G03 X123.327847 Y101.585872 Z-0.125000 I-0.055645 J-2.484679
G02 X122.361741 Y101.340550 Z-0.125000 I-2.488707 J7.775830
G02 X121.145772 Y101.171663 Z-0.125000 I-2.309650 J12.167368
G01 X119.917693 Y101.062779 Z-0.125000
G01 X119.808044 Y101.961730 Z-0.125000
G02 X119.733601 Y102.863405 Z-0.125000 I11.517457 J1.404805
G02 X119.460454 Y109.970195 Z-0.125000 I716.180113 J31.084798
G03 X119.056430 Y118.064165 Z-0.125000 I-246.649398 J-8.254833
G03 X118.691635 Y121.550089 Z-0.125000 I-46.059827 J-3.058019
G01 X118.545086 Y122.573429 Z-0.125000
G01 X119.489988 Y122.569704 Z-0.125000
G02 X129.871275 Y122.227251 Z-0.125000 I-0.708344 J-178.996014
G02 X134.761642 Y121.621694 Z-0.125000 I-2.495553 J-40.203270
G02 X137.704021 Y120.765412 Z-0.125000 I-2.848449 J-15.271400
G02 X139.967951 Y119.530227 Z-0.125000 I-4.101443 J-10.209730
G02 X140.871593 Y118.192070 Z-0.125000 I-1.326168 J-1.869734
G02 X141.440285 Y113.354234 Z-0.125000 I-20.293296 J-4.837836
G02 X141.388671 Y110.386547 Z-0.125000 I-85.343302 J0.000000
G02 X141.332532 Y110.257415 Z-0.125000 I-0.191949 J0.006679
G01 X141.332535 Y110.257410 Z-0.125000
G00 Z5.000000

(End cutting path id: path4848)


(Start cutting path id: path4848)
(Change tool to Cylindrical cutter)

G00 Z5.000000
G00 X136.176897 Y109.006369

G01 Z-0.125000 F1000.0(Penetrate)
G02 X134.498753 Y108.621442 Z-0.125000 I-2.226460 J5.856042 F1100.000000
G02 X128.621616 Y108.342577 Z-0.125000 I-6.403527 J72.885361
G03 X126.910775 Y108.241476 Z-0.125000 I0.118801 J-16.536402
G01 X126.898096 Y108.150722 Z-0.125000
G02 X127.979554 Y106.781591 Z-0.125000 I-0.672375 J-1.642779
G02 X128.195277 Y99.836980 Z-0.125000 I-27.812991 J-4.339622
G03 X128.308902 Y99.504616 Z-0.125000 I0.426863 J-0.039673
G03 X128.502490 Y99.508203 Z-0.125000 I0.095179 J0.088936
G02 X128.888940 Y99.809186 Z-0.125000 I0.956579 J-0.829623
G02 X129.054833 Y99.786736 Z-0.125000 I0.066594 J-0.132061
G01 X129.110611 Y99.805839 Z-0.125000
G03 X129.093582 Y100.006094 Z-0.125000 I-0.385402 J0.068077
G02 X129.206023 Y100.229788 Z-0.125000 I0.162635 J0.058357
G02 X129.448414 Y100.113815 Z-0.125000 I0.057818 J-0.190450
G01 X129.510469 Y100.109323 Z-0.125000
G03 X129.574085 Y100.329255 Z-0.125000 I-0.405233 J0.236380
G02 X129.699493 Y100.701734 Z-0.125000 I0.687670 J-0.024178
G02 X129.916079 Y100.813997 Z-0.125000 I0.216586 J-0.152794
G03 X130.042540 Y100.924074 Z-0.125000 I0.000000 J0.127681
G03 X129.975314 Y101.239529 Z-0.125000 I-0.468026 J0.065151
G02 X129.907002 Y101.628599 Z-0.125000 I0.446687 J0.278961
G02 X130.135069 Y101.986718 Z-0.125000 I0.594931 J-0.127199
G02 X130.585240 Y102.237617 Z-0.125000 I1.122895 J-1.485425
G02 X130.991453 Y102.318521 Z-0.125000 I0.434538 J-1.121557
G03 X131.407429 Y102.377826 Z-0.125000 I-0.041800 J1.781707
G03 X131.705560 Y102.508273 Z-0.125000 I-0.274801 J1.033951
G02 X132.660918 Y102.667426 Z-0.125000 I0.665860 J-1.050033
G02 X133.038134 Y102.189238 Z-0.125000 I-0.114486 J-0.478188
G03 X133.107130 Y101.960194 Z-0.125000 I0.414671 J0.000000
G03 X133.235622 Y101.891194 Z-0.125000 I0.128492 J0.085138
G02 X133.380342 Y101.815756 Z-0.125000 I0.000000 J-0.176535
G02 X133.649489 Y101.298736 Z-0.125000 I-1.845926 J-1.289506
G03 X133.766375 Y101.294789 Z-0.125000 I0.059240 J0.021636
G03 X133.882881 Y101.824618 Z-0.125000 I-1.240300 J0.550460
G02 X134.239076 Y102.888478 Z-0.125000 I1.850965 J-0.028168
G02 X134.660175 Y102.888568 Z-0.125000 I0.210582 J-0.153844
G03 X134.876483 Y102.816797 Z-0.125000 I0.158520 J0.115914
G03 X135.078062 Y103.017233 Z-0.125000 I-0.089906 J0.292001
G03 X135.217423 Y103.510386 Z-0.125000 I-8.447149 J2.653374
G03 X135.282577 Y103.830151 Z-0.125000 I-3.481557 J0.875901
G02 X135.353780 Y104.148212 Z-0.125000 I2.487092 J-0.389774
G02 X135.629724 Y105.015072 Z-0.125000 I18.841842 J-5.520505
G03 X135.866458 Y105.880836 Z-0.125000 I-6.590818 J2.267436
G03 X135.867189 Y106.171783 Z-0.125000 I-0.717383 J0.147276
G02 X135.930383 Y107.752054 Z-0.125000 I3.296899 J0.659559
G02 X136.617025 Y108.805300 Z-0.125000 I2.043660 J-0.581878
G03 X136.592108 Y108.992827 Z-0.125000 I-0.071325 J0.085942
G03 X136.176897 Y109.006369 Z-0.125000 I-0.223805 J-0.489895
G01 X136.176897 Y109.006369 Z-0.125000
G00 Z5.000000

(End cutting path id: path4848)


(Start cutting path id: path4873)
(Change tool to Cylindrical cutter)

G00 Z5.000000
G00 X135.647933 Y108.996966

G01 Z-0.125000 F1000.0(Penetrate)
G01 X125.373927 Y119.270972 Z-0.125000 F1100.000000
G02 X125.538339 Y119.705240 Z-0.125000 I0.180080 J0.180080
G02 X126.501783 Y119.340483 Z-0.125000 I0.077111 J-1.251089
G01 X126.501783 Y119.340483 Z-0.125000
G03 X126.935845 Y119.205763 Z-0.125000 I0.345023 J0.345023
G03 X127.006746 Y119.434204 Z-0.125000 I-0.024662 J0.132877
G01 X124.419860 Y122.021089 Z-0.125000
G03 X123.880658 Y122.260950 Z-0.125000 I-0.581731 J-0.581731
G03 X123.788495 Y122.053771 Z-0.125000 I-0.006279 J-0.121296
G01 X125.720891 Y120.121375 Z-0.125000
G00 Z5.000000

(End cutting path id: path4873)


(Start cutting path id: path4873)
(Change tool to Cylindrical cutter)

G00 Z5.000000
G00 X125.459694 Y122.178623

G01 Z-0.125000 F1000.0(Penetrate)
G01 X126.971609 Y120.666708 Z-0.125000 F1100.000000
G03 X127.429856 Y120.507803 Z-0.125000 I0.392931 J0.392931
G03 X127.506931 Y120.730069 Z-0.125000 I-0.015366 J0.129826
G01 X126.320302 Y121.916698 Z-0.125000
G02 X126.413068 Y122.123274 Z-0.125000 I0.085653 J0.085653
G02 X126.956403 Y121.879281 Z-0.125000 I-0.049207 J-0.836534
G01 X140.694642 Y108.140952 Z-0.125000
G03 X140.912084 Y108.222852 Z-0.125000 I0.090179 J0.090179
G03 X140.731210 Y108.703068 Z-0.125000 I-0.620711 J0.040379
G01 X127.592515 Y121.841763 Z-0.125000
G02 X127.685548 Y122.048073 Z-0.125000 I0.085552 J0.085552
G02 X128.230738 Y121.802226 Z-0.125000 I-0.052239 J-0.843276
G01 X131.004381 Y119.028580 Z-0.125000
G00 Z5.000000

(End cutting path id: path4873)


(Start cutting path id: path4848)
(Change tool to Cylindrical cutter)

G00 Z5.000000
G00 X127.813715 Y120.365729

G01 Z-0.125000 F1000.0(Penetrate)
G03 X127.598720 Y120.282963 Z-0.125000 I-0.005366 J-0.306684 F1100.000000
G03 X127.618172 Y120.182657 Z-0.125000 I0.041233 J-0.044043
G03 X128.115904 Y120.062083 Z-0.125000 I0.704068 J1.818795
G03 X128.318351 Y120.108162 Z-0.125000 I0.033914 J0.318764
G03 X128.312924 Y120.241057 Z-0.125000 I-0.040122 J0.064920
G03 X127.813715 Y120.365729 Z-0.125000 I-0.519233 J-1.017302
G01 X127.813715 Y120.365729 Z-0.125000
G00 Z5.000000

(End cutting path id: path4848)


(Start cutting path id: path4873)
(Change tool to Cylindrical cutter)

G00 Z5.000000
G00 X124.826717 Y122.212916

G01 Z-0.125000 F1000.0(Penetrate)
G01 X127.851403 Y119.188233 Z-0.125000 F1100.000000
G03 X128.177510 Y119.161467 Z-0.125000 I0.178830 J0.178830
G03 X128.200216 Y119.438101 Z-0.125000 I-0.105981 J0.147948
G01 X127.681615 Y119.956702 Z-0.125000
G02 X127.792151 Y120.145509 Z-0.125000 I0.079952 J0.079952
G02 X128.514225 Y119.722776 Z-0.125000 I-0.447302 J-1.592098
G01 X129.266841 Y118.970160 Z-0.125000
G00 Z5.000000

(End cutting path id: path4873)


(Start cutting path id: path4848)
(Change tool to Cylindrical cutter)

G00 Z5.000000
G00 X134.882086 Y118.910947

G01 Z-0.125000 F1000.0(Penetrate)
G03 X134.804318 Y118.880031 Z-0.125000 I0.000000 J-0.113271 F1100.000000
G03 X134.653930 Y118.695504 Z-0.125000 I0.629308 J-0.666429
G03 X134.643762 Y118.548634 Z-0.125000 I0.134451 J-0.083095
G03 X134.748937 Y118.480067 Z-0.125000 I0.105175 J0.046381
G03 X134.912193 Y118.544965 Z-0.125000 I-0.000000 J0.237791
G03 X134.977091 Y118.695504 Z-0.125000 I-0.142148 J0.150540
G03 X134.939598 Y118.873453 Z-0.125000 I-0.441034 J-0.000000
G03 X134.882086 Y118.910947 Z-0.125000 I-0.057511 J-0.025361
G01 X134.882086 Y118.910947 Z-0.125000
G00 Z5.000000

(End cutting path id: path4848)


(Start cutting path id: path4873)
(Change tool to Cylindrical cutter)

G00 Z5.000000
G00 X135.087451 Y118.537615

G01 Z-0.125000 F1000.0(Penetrate)
G01 X135.317420 Y118.307649 Z-0.125000 F1100.000000
G03 X135.608149 Y118.316262 Z-0.125000 I0.141306 J0.141306
G03 X135.599010 Y118.624742 Z-0.125000 I-0.168228 J0.149392
G01 X134.717525 Y119.506224 Z-0.125000
G02 X134.828922 Y119.694171 Z-0.125000 I0.079730 J0.079730
G02 X135.563873 Y119.258563 Z-0.125000 I-0.484230 J-1.654789
G01 X136.124005 Y118.698428 Z-0.125000
G00 Z5.000000

(End cutting path id: path4873)


(Start cutting path id: path4848)
(Change tool to Cylindrical cutter)

G00 Z5.000000
G00 X137.346931 Y119.557264

G01 Z-0.125000 F1000.0(Penetrate)
G03 X136.859814 Y119.852378 Z-0.125000 I-0.844715 J-0.844715 F1100.000000
G03 X135.973502 Y119.988147 Z-0.125000 I-0.886312 J-2.825082
G02 X135.033812 Y120.022449 Z-0.125000 I0.000000 J12.888471
G02 X134.303841 Y120.110208 Z-0.125000 I0.574447 J7.857947
G03 X133.913857 Y120.102908 Z-0.125000 I-0.175492 J-1.045390
G01 X133.899891 Y120.026743 Z-0.125000
G03 X134.242588 Y119.872363 Z-0.125000 I0.706808 J1.111434
G03 X135.139586 Y119.670153 Z-0.125000 I2.178851 J7.574682
G02 X135.896180 Y119.446325 Z-0.125000 I-0.517611 J-3.140301
G02 X135.934770 Y119.322734 Z-0.125000 I-0.034311 J-0.078533
G03 X135.931150 Y119.192023 Z-0.125000 I0.110801 J-0.068474
G03 X136.041574 Y119.126384 Z-0.125000 I0.110424 J0.060063
G03 X136.198541 Y119.198452 Z-0.125000 I0.000000 J0.206975
G03 X136.273030 Y119.395686 Z-0.125000 I-0.233882 J0.201012
G02 X136.340006 Y119.447317 Z-0.125000 I0.053910 J-0.000676
G02 X136.488676 Y119.341827 Z-0.125000 I-0.060718 J-0.243079
G02 X136.508971 Y119.042823 Z-0.125000 I-0.254892 J-0.167491
G02 X136.051099 Y118.426205 Z-0.125000 I-1.807321 J0.863726
G03 X135.597064 Y117.909632 Z-0.125000 I2.099458 J-2.303114
G01 X135.636585 Y117.833747 Z-0.125000
G03 X136.935321 Y118.402714 Z-0.125000 I-0.000000 J1.766745
G03 X137.025245 Y119.339439 Z-0.125000 I-0.572067 J0.527597
G02 X137.014205 Y119.488361 Z-0.125000 I0.137653 J0.085075
G02 X137.118777 Y119.557264 Z-0.125000 I0.104572 J-0.044901
G02 X137.261190 Y119.471528 Z-0.125000 I0.000000 J-0.161147
G02 X137.346931 Y119.126384 Z-0.125000 I-0.651807 J-0.345144
G03 X137.429221 Y118.777793 Z-0.125000 I0.779476 J0.000000
G03 X137.562368 Y118.695504 Z-0.125000 I0.133146 J0.066573
G03 X137.720315 Y118.897799 Z-0.125000 I0.000000 J0.162808
G03 X137.346931 Y119.557264 Z-0.125000 I-1.377124 J-0.344280
G01 X137.346931 Y119.557264 Z-0.125000
G00 Z5.000000

(End cutting path id: path4848)


(Start cutting path id: path4873)
(Change tool to Cylindrical cutter)

G00 Z5.000000
G00 X137.871356 Y118.747128

G01 Z-0.125000 F1000.0(Penetrate)
G01 X141.008448 Y115.610039 Z-0.125000 F1100.000000
G03 X141.212535 Y115.705293 Z-0.125000 I0.084727 J0.084727
G03 X140.950544 Y116.266623 Z-0.125000 I-0.902952 J-0.079630
G01 X136.304509 Y120.912662 Z-0.125000
G02 X136.414292 Y121.102220 Z-0.125000 I0.080150 J0.080150
G02 X137.125578 Y120.690276 Z-0.125000 I-0.417232 J-1.540461
G01 X140.863806 Y116.952045 Z-0.125000
G03 X141.058913 Y117.056282 Z-0.125000 I0.081732 J0.081732
G03 X140.715535 Y117.699003 Z-0.125000 I-1.230316 J-0.244218
G01 X138.224337 Y120.190201 Z-0.125000
G02 X138.342954 Y120.370926 Z-0.125000 I0.078057 J0.078057
G02 X139.213989 Y119.799233 Z-0.125000 I-0.942168 J-2.384896
G01 X140.745386 Y118.267836 Z-0.125000
G00 Z5.000000

(End cutting path id: path4873)


(Start cutting path id: path4873)
(Change tool to Cylindrical cutter)

G00 Z5.000000
G00 X134.044883 Y108.803965

G01 Z-0.125000 F1000.0(Penetrate)
G01 X123.175494 Y119.673350 Z-0.125000 F1100.000000
G02 X123.191375 Y119.956814 Z-0.125000 I0.134634 J0.134634
G02 X123.508483 Y119.939049 Z-0.125000 I0.148617 J-0.186256
G01 X124.126027 Y119.321504 Z-0.125000
G00 Z5.000000

(End cutting path id: path4873)


(Start cutting path id: path4848)
(Change tool to Cylindrical cutter)

G00 Z5.000000
G00 X122.032240 Y119.146196

G01 Z-0.125000 F1000.0(Penetrate)
G03 X121.837502 Y118.994506 Z-0.125000 I0.164952 J-0.412611 F1100.000000
G01 X121.871495 Y118.924601 Z-0.125000
G03 X122.780676 Y119.079006 Z-0.125000 I0.085514 J2.250429
G03 X122.775385 Y119.279794 Z-0.125000 I-0.039074 J0.099435
G03 X122.554089 Y119.295746 Z-0.125000 I-0.141910 J-0.425720
G03 X122.032240 Y119.146196 Z-0.125000 I0.475025 J-2.642841
G01 X122.032240 Y119.146196 Z-0.125000
G00 Z5.000000

(End cutting path id: path4848)


(Start cutting path id: path4848)
(Change tool to Cylindrical cutter)

G00 Z5.000000
G00 X120.973498 Y120.203584

G01 Z-0.125000 F1000.0(Penetrate)
G03 X120.821158 Y120.140483 Z-0.125000 I-0.000000 J-0.215442 F1100.000000
G03 X120.758058 Y119.988147 Z-0.125000 I0.152335 J-0.152336
G03 X120.821160 Y119.835805 Z-0.125000 I0.215445 J0.000000
G03 X120.973498 Y119.772704 Z-0.125000 I0.152338 J0.152337
G03 X121.125839 Y119.835806 Z-0.125000 I-0.000000 J0.215443
G03 X121.188941 Y119.988147 Z-0.125000 I-0.152341 J0.152341
G03 X121.125841 Y120.140482 Z-0.125000 I-0.215433 J0.000000
G03 X120.973498 Y120.203584 Z-0.125000 I-0.152343 J-0.152345
G01 X120.973498 Y120.203584 Z-0.125000
G00 Z5.000000

(End cutting path id: path4848)


(Start cutting path id: path4848)
(Change tool to Cylindrical cutter)

G00 Z5.000000
G00 X119.950160 Y120.567535

G01 Z-0.125000 F1000.0(Penetrate)
G01 X119.950160 Y120.517456 Z-0.125000 F1100.000000
G03 X120.327178 Y120.469005 Z-0.125000 I0.377018 J1.442656
G03 X120.704199 Y120.517456 Z-0.125000 I-0.000000 J1.491125
G01 X120.704199 Y120.567535 Z-0.125000
G03 X120.327179 Y120.615982 Z-0.125000 I-0.377019 J-1.442766
G03 X119.950160 Y120.567535 Z-0.125000 I-0.000000 J-1.491214
G01 X119.950160 Y120.567535 Z-0.125000
G00 Z5.000000

(End cutting path id: path4848)


