%
(Header)
(Generated by gcodetools from Inkscape.)
(Using default header. To add your own header create file "header" in the output dir.)
M3
(Header end.)
G21 (All units in mm)

(Start cutting path id: path4873)
(Change tool to Cylindrical cutter)

G00 Z5.000000
G00 X11.069039 Y11.698285

G01 Z-0.125000 F1000.0(Penetrate)
G01 X11.194892 Y11.572432 Z-0.125000 F1100.000000
G03 X11.403069 Y11.627249 Z-0.125000 I0.088106 J0.088106
G03 X11.309064 Y11.984249 Z-0.125000 I-0.353110 J0.097896
G01 X11.188809 Y12.104504 Z-0.125000
G02 X11.017066 Y12.539241 Z-0.125000 I0.415393 J0.415393
G02 X11.205586 Y12.613716 Z-0.125000 I0.110407 J-0.003638
G01 X11.223009 Y12.596292 Z-0.125000
G03 X11.402401 Y12.679895 Z-0.125000 I0.074471 J0.074471
G03 X11.172867 Y13.172424 Z-0.125000 I-0.790897 J-0.068833
G01 X11.165687 Y13.179604 Z-0.125000
G02 X10.959474 Y13.648812 Z-0.125000 I0.499400 J0.499400
G02 X11.142173 Y13.729106 Z-0.125000 I0.106982 J0.004578
G01 X11.157943 Y13.713337 Z-0.125000
G03 X11.339399 Y13.794875 Z-0.125000 I0.075239 J0.075239
G03 X11.124780 Y14.272489 Z-0.125000 I-0.735879 J-0.043645
G01 X11.114621 Y14.282648 Z-0.125000
G02 X10.921107 Y14.739157 Z-0.125000 I0.467402 J0.467402
G02 X11.105806 Y14.817451 Z-0.125000 I0.108188 J0.001783
G01 X11.115965 Y14.807292 Z-0.125000
G03 X11.297934 Y14.888318 Z-0.125000 I0.075435 J0.075435
G03 X11.086833 Y15.362413 Z-0.125000 I-0.723144 J-0.037949
G01 X11.076821 Y15.372426 Z-0.125000
G02 X10.883053 Y15.829186 Z-0.125000 I0.468019 J0.468024
G02 X11.067714 Y15.907523 Z-0.125000 I0.108165 J0.001841
G01 X11.079734 Y15.895497 Z-0.125000
G03 X11.261704 Y15.976523 Z-0.125000 I0.075435 J0.075435
G03 X11.050603 Y16.450618 Z-0.125000 I-0.723143 J-0.037949
G01 X11.038582 Y16.462644 Z-0.125000
G02 X10.848263 Y16.915958 Z-0.125000 I0.459549 J0.459545
G02 X11.033492 Y16.993726 Z-0.125000 I0.108503 J0.001040
G01 X11.042542 Y16.984676 Z-0.125000
G03 X11.225284 Y17.064929 Z-0.125000 I0.075734 J0.075734
G03 X11.019351 Y17.533856 Z-0.125000 I-0.704614 J-0.029755
G01 X11.010348 Y17.542857 Z-0.125000
G02 X10.820028 Y17.996168 Z-0.125000 I0.459539 J0.459543
G02 X11.005257 Y18.073936 Z-0.125000 I0.108503 J0.001040
G01 X11.015061 Y18.064142 Z-0.125000
G03 X11.197815 Y18.144381 Z-0.125000 I0.075738 J0.075738
G03 X10.991964 Y18.613226 Z-0.125000 I-0.704316 J-0.029624
G01 X10.981394 Y18.623788 Z-0.125000
G02 X10.793759 Y19.074423 Z-0.125000 I0.452991 J0.452997
G02 X10.979435 Y19.151731 Z-0.125000 I0.108765 J0.000401
G01 X10.990005 Y19.141169 Z-0.125000
G03 X11.172760 Y19.221408 Z-0.125000 I0.075739 J0.075739
G03 X10.966909 Y19.690255 Z-0.125000 I-0.704315 J-0.029622
G01 X10.956338 Y19.700817 Z-0.125000
G02 X10.768709 Y20.151461 Z-0.125000 I0.453008 J0.452996
G02 X10.954379 Y20.228760 Z-0.125000 I0.108760 J0.000399
G01 X10.989558 Y20.193583 Z-0.125000
G00 Z5.000000

(End cutting path id: path4873)


(Start cutting path id: path4873)
(Change tool to Cylindrical cutter)

G00 Z5.000000
G00 X11.508808 Y20.726322

G01 Z-0.125000 F1000.0(Penetrate)
G01 X13.478432 Y18.756699 Z-0.125000 F1100.000000
G03 X13.723188 Y18.774938 Z-0.125000 I0.114523 J0.114523
G03 X13.702012 Y19.059108 Z-0.125000 I-0.175554 J0.129792
G01 X11.685916 Y21.075205 Z-0.125000
G02 X11.489493 Y21.534622 Z-0.125000 I0.474622 J0.474622
G02 X11.673721 Y21.613388 Z-0.125000 I0.107907 J0.002445
G01 X13.902978 Y19.384131 Z-0.125000
G03 X14.120277 Y19.429827 Z-0.125000 I0.093741 J0.093741
G03 X14.050245 Y19.762853 Z-0.125000 I-0.290209 J0.112849
G01 X11.661526 Y22.151572 Z-0.125000
G02 X11.465103 Y22.610989 Z-0.125000 I0.474622 J0.474622
G02 X11.649332 Y22.689755 Z-0.125000 I0.107907 J0.002445
G01 X14.172744 Y20.166343 Z-0.125000
G03 X14.383103 Y20.218979 Z-0.125000 I0.089396 J0.089396
G03 X14.295334 Y20.569744 Z-0.125000 I-0.336326 J0.102207
G01 X11.637137 Y23.227939 Z-0.125000
G02 X11.440713 Y23.687358 Z-0.125000 I0.474624 J0.474624
G02 X11.624943 Y23.766125 Z-0.125000 I0.107908 J0.002445
G01 X14.381819 Y21.009247 Z-0.125000
G03 X14.585297 Y21.068764 Z-0.125000 I0.085450 J0.085450
G03 X14.476569 Y21.440488 Z-0.125000 I-0.393906 J0.086546
G01 X11.612748 Y24.304308 Z-0.125000
G02 X11.417406 Y24.762645 Z-0.125000 I0.471932 J0.471932
G02 X11.601808 Y24.841237 Z-0.125000 I0.108011 J0.002201
G01 X14.568420 Y21.874625 Z-0.125000
G03 X14.770138 Y21.935902 Z-0.125000 I0.084498 J0.084498
G03 X14.655389 Y22.313644 Z-0.125000 I-0.411060 J0.081431
G01 X11.593442 Y25.375592 Z-0.125000
G02 X11.400313 Y25.831716 Z-0.125000 I0.466450 J0.466450
G02 X11.585076 Y25.909948 Z-0.125000 I0.108226 J0.001694
G01 X14.740594 Y22.754429 Z-0.125000
G03 X14.941922 Y22.816096 Z-0.125000 I0.084290 J0.084290
G03 X14.825798 Y23.195217 Z-0.125000 I-0.415021 J0.080224
G01 X11.576710 Y26.444303 Z-0.125000
G02 X11.383581 Y26.900426 Z-0.125000 I0.466450 J0.466450
G02 X11.568344 Y26.978658 Z-0.125000 I0.108226 J0.001694
G01 X14.911002 Y23.636001 Z-0.125000
G03 X15.112330 Y23.697668 Z-0.125000 I0.084290 J0.084290
G03 X14.996206 Y24.076786 Z-0.125000 I-0.415018 J0.080223
G01 X11.559978 Y27.513013 Z-0.125000
G02 X11.366849 Y27.969137 Z-0.125000 I0.466450 J0.466450
G02 X11.551612 Y28.047368 Z-0.125000 I0.108226 J0.001694
G01 X15.079260 Y24.519721 Z-0.125000
G03 X15.279936 Y24.582039 Z-0.125000 I0.083946 J0.083946
G03 X15.161481 Y24.963488 Z-0.125000 I-0.421761 J0.078144
G01 X11.543246 Y28.581723 Z-0.125000
G02 X11.350117 Y29.037847 Z-0.125000 I0.466450 J0.466450
G02 X11.534880 Y29.116078 Z-0.125000 I0.108226 J0.001694
G01 X15.243703 Y25.407256 Z-0.125000
G03 X15.444380 Y25.469574 Z-0.125000 I0.083946 J0.083946
G03 X15.325924 Y25.851024 Z-0.125000 I-0.421761 J0.078144
G01 X13.415820 Y27.761130 Z-0.125000
G02 X13.263793 Y28.176151 Z-0.125000 I0.371405 J0.371405
G02 X13.456278 Y28.246661 Z-0.125000 I0.112594 J-0.009382
G01 X15.408146 Y26.294792 Z-0.125000
G03 X15.608494 Y26.357439 Z-0.125000 I0.083773 J0.083773
G03 X15.488844 Y26.740084 Z-0.125000 I-0.425233 J0.077063
G01 X13.496736 Y28.732191 Z-0.125000
G02 X13.344710 Y29.147212 Z-0.125000 I0.371405 J0.371405
G02 X13.537195 Y29.217722 Z-0.125000 I0.112594 J-0.009382
G01 X15.569077 Y27.185840 Z-0.125000
G03 X15.769325 Y27.248587 Z-0.125000 I0.083721 J0.083721
G03 X15.649310 Y27.631597 Z-0.125000 I-0.426294 J0.076730
G01 X13.577653 Y29.703252 Z-0.125000
G02 X13.425625 Y30.118276 Z-0.125000 I0.371407 J0.371407
G02 X13.618111 Y30.188785 Z-0.125000 I0.112594 J-0.009382
G01 X15.729543 Y28.077353 Z-0.125000
G03 X15.929065 Y28.140824 Z-0.125000 I0.083344 J0.083344
G03 X15.806372 Y28.526514 Z-0.125000 I-0.434127 J0.074258
G01 X13.658570 Y30.674316 Z-0.125000
G02 X13.506543 Y31.089337 Z-0.125000 I0.371405 J0.371405
G02 X13.699028 Y31.159846 Z-0.125000 I0.112594 J-0.009382
G01 X15.882352 Y28.976522 Z-0.125000
G03 X16.081696 Y29.040173 Z-0.125000 I0.083252 J0.083252
G03 X15.958331 Y29.426534 Z-0.125000 I-0.436096 J0.073630
G01 X13.739463 Y31.645402 Z-0.125000
G02 X13.587615 Y32.060243 Z-0.125000 I0.371019 J0.371019
G02 X13.780138 Y32.130714 Z-0.125000 I0.112614 J-0.009438
G01 X16.029959 Y29.880894 Z-0.125000
G03 X16.227788 Y29.946059 Z-0.125000 I0.082478 J0.082478
G03 X16.098602 Y30.338239 Z-0.125000 I-0.453327 J0.068039
G01 X13.820813 Y32.616029 Z-0.125000
G02 X13.668964 Y33.030873 Z-0.125000 I0.371021 J0.371021
G02 X13.861488 Y33.101344 Z-0.125000 I0.112614 J-0.009438
G01 X16.167245 Y30.795588 Z-0.125000
G03 X16.363204 Y30.862623 Z-0.125000 I0.081549 J0.081549
G03 X16.226456 Y31.262365 Z-0.125000 I-0.476097 J0.060393
G01 X13.902163 Y33.586659 Z-0.125000
G02 X13.750315 Y34.001500 Z-0.125000 I0.371019 J0.371019
G02 X13.942838 Y34.071971 Z-0.125000 I0.112614 J-0.009438
G01 X16.284774 Y31.730036 Z-0.125000
G03 X16.479416 Y31.798389 Z-0.125000 I0.080909 J0.080909
G03 X16.337070 Y32.203729 Z-0.125000 I-0.493231 J0.054454
G01 X13.984407 Y34.556393 Z-0.125000
G02 X13.835522 Y34.968272 Z-0.125000 I0.364668 J0.364668
G02 X14.028690 Y35.038098 Z-0.125000 I0.112958 J-0.010384
G01 X16.384018 Y32.682771 Z-0.125000
G03 X16.582271 Y32.747512 Z-0.125000 I0.082694 J0.082694
G03 X16.454743 Y33.138036 Z-0.125000 I-0.448395 J0.069658
G01 X14.072973 Y35.519805 Z-0.125000
G02 X13.924158 Y35.931615 Z-0.125000 I0.364519 J0.364519
G02 X14.117343 Y36.001425 Z-0.125000 I0.112967 J-0.010407
G01 X16.466632 Y33.652136 Z-0.125000
G03 X16.658616 Y33.723146 Z-0.125000 I0.079660 J0.079660
G03 X16.504244 Y34.140513 Z-0.125000 I-0.530856 J0.040884
G01 X14.163133 Y36.481625 Z-0.125000
G02 X14.000282 Y36.907470 Z-0.125000 I0.395189 J0.395189
G02 X14.190524 Y36.980222 Z-0.125000 I0.111372 J-0.006118
G01 X16.537970 Y34.632775 Z-0.125000
G03 X16.729021 Y34.704719 Z-0.125000 I0.079234 J0.079234
G03 X16.570166 Y35.126570 Z-0.125000 I-0.545161 J0.035545
G01 X14.251486 Y37.445250 Z-0.125000
G02 X14.100562 Y37.859168 Z-0.125000 I0.369030 J0.369030
G02 X14.293286 Y37.929439 Z-0.125000 I0.112721 J-0.009731
G01 X16.602362 Y35.620362 Z-0.125000
G03 X16.792898 Y35.692821 Z-0.125000 I0.079002 J0.079002
G03 X16.631511 Y36.117202 Z-0.125000 I-0.553305 J0.032463
G01 X14.335087 Y38.413628 Z-0.125000
G02 X14.184002 Y38.827707 Z-0.125000 I0.369377 J0.369377
G02 X14.376690 Y38.898013 Z-0.125000 I0.112702 J-0.009680
G01 X16.660019 Y36.614684 Z-0.125000
G03 X16.849755 Y36.687942 Z-0.125000 I0.078645 J0.078645
G03 X16.684347 Y37.116344 Z-0.125000 I-0.566344 J0.027466
G01 X14.415426 Y39.385267 Z-0.125000
G02 X14.261980 Y39.801707 Z-0.125000 I0.374472 J0.374472
G02 X14.454162 Y39.872520 Z-0.125000 I0.112430 J-0.008938
G01 X16.706888 Y37.619794 Z-0.125000
G03 X16.895381 Y37.694296 Z-0.125000 I0.078101 J0.078101
G03 X16.723496 Y38.129175 Z-0.125000 I-0.587607 J0.019158
G01 X14.492897 Y40.359772 Z-0.125000
G02 X14.339453 Y40.776213 Z-0.125000 I0.374476 J0.374472
G02 X14.531633 Y40.847026 Z-0.125000 I0.112430 J-0.008938
G01 X16.738285 Y38.640374 Z-0.125000
G03 X16.925150 Y38.716504 Z-0.125000 I0.077405 J0.077405
G03 X16.744344 Y39.160306 Z-0.125000 I-0.617413 J0.007195
G01 X14.570369 Y41.334279 Z-0.125000
G02 X14.416923 Y41.750720 Z-0.125000 I0.374472 J0.374472
G02 X14.609104 Y41.821533 Z-0.125000 I0.112430 J-0.008938
G01 X16.778694 Y39.651943 Z-0.125000
G03 X16.959953 Y39.733679 Z-0.125000 I0.075164 J0.075164
G03 X16.743962 Y40.212666 Z-0.125000 I-0.740869 J-0.045891
G01 X14.635528 Y42.321098 Z-0.125000
G02 X14.484966 Y42.734655 Z-0.125000 I0.368255 J0.368255
G02 X14.677769 Y42.804848 Z-0.125000 I0.112763 J-0.009846
G01 X16.735576 Y40.747041 Z-0.125000
G03 X16.919672 Y40.825939 Z-0.125000 I0.076269 J0.076269
G03 X16.722425 Y41.286181 Z-0.125000 I-0.673927 J-0.016438
G01 X14.705834 Y43.302771 Z-0.125000
G02 X14.537696 Y43.733903 Z-0.125000 I0.407128 J0.407128
G02 X14.726903 Y43.807692 Z-0.125000 I0.110794 J-0.004623
G01 X16.703859 Y41.830737 Z-0.125000
G03 X16.886886 Y41.910705 Z-0.125000 I0.075845 J0.075845
G03 X16.682820 Y42.377765 Z-0.125000 I-0.697971 J-0.026845
G01 X14.737022 Y44.323562 Z-0.125000
G02 X14.548053 Y44.775527 Z-0.125000 I0.456247 J0.456247
G02 X14.733509 Y44.853067 Z-0.125000 I0.108637 J0.000721
G01 X16.657065 Y42.929509 Z-0.125000
G03 X16.839290 Y43.010280 Z-0.125000 I0.075533 J0.075533
G03 X16.629913 Y43.482652 Z-0.125000 I-0.716942 J-0.035193
G01 X11.420511 Y48.692053 Z-0.125000
G02 X11.247544 Y49.128015 Z-0.125000 I0.418222 J0.418222
G02 X11.435835 Y49.202718 Z-0.125000 I0.110277 J-0.003309
G01 X16.598537 Y44.040017 Z-0.125000
G03 X16.779960 Y44.121587 Z-0.125000 I0.075227 J0.075227
G03 X16.565123 Y44.599418 Z-0.125000 I-0.736671 J-0.044003
G01 X11.468020 Y49.696520 Z-0.125000
G02 X11.330878 Y50.096659 Z-0.125000 I0.340155 J0.340155
G02 X11.526743 Y50.163789 Z-0.125000 I0.114363 J-0.014372
G01 X16.531709 Y45.158821 Z-0.125000
G03 X16.712415 Y45.241111 Z-0.125000 I0.074956 J0.074956
G03 X16.492516 Y45.724005 Z-0.125000 I-0.755159 J-0.052367
G01 X11.650427 Y50.566092 Z-0.125000
G02 X11.596077 Y50.883437 Z-0.125000 I0.197080 J0.197080
G02 X11.820616 Y50.921893 Z-0.125000 I0.125874 J-0.060209
G01 X16.450706 Y46.291801 Z-0.125000
G03 X16.631093 Y46.374410 Z-0.125000 I0.074837 J0.074837
G03 X16.408899 Y46.859598 Z-0.125000 I-0.763606 J-0.056225
G01 X12.022442 Y51.246055 Z-0.125000
G02 X12.037261 Y51.494231 Z-0.125000 I0.117513 J0.117513
G02 X12.316957 Y51.477530 Z-0.125000 I0.130437 J-0.165961
G01 X16.352929 Y47.441558 Z-0.125000
G03 X16.537887 Y47.519594 Z-0.125000 I0.076616 J0.076616
G03 X16.345944 Y47.974532 Z-0.125000 I-0.655473 J-0.008591
G01 X12.708334 Y51.612141 Z-0.125000
G02 X12.769237 Y51.814233 Z-0.125000 I0.084698 J0.084698
G02 X13.145677 Y51.700787 Z-0.125000 I0.082561 J-0.407323
G01 X16.366683 Y48.479782 Z-0.125000
G00 Z5.000000

(End cutting path id: path4873)


(Start cutting path id: path4848)
(Change tool to Cylindrical cutter)

G00 Z5.000000
G00 X14.310022 Y45.722666

G01 Z-0.125000 F1000.0(Penetrate)
G03 X14.153574 Y45.900326 Z-0.125000 I-1.296681 J-0.984143 F1100.000000
G03 X13.345716 Y46.669068 Z-0.125000 I-25.303016 J-25.781671
G01 X12.525066 Y47.426187 Z-0.125000
G01 X12.928275 Y46.621746 Z-0.125000
G03 X13.373948 Y45.886086 Z-0.125000 I4.807982 J2.409911
G03 X13.508342 Y45.817305 Z-0.125000 I0.134394 J0.096909
G02 X13.624318 Y45.743974 Z-0.125000 I0.000000 J-0.128377
G02 X13.800318 Y45.202144 Z-0.125000 I-1.999229 J-0.948899
G02 X14.079201 Y39.141993 Z-0.125000 I-21.517763 J-4.026722
G02 X13.119002 Y37.899079 Z-0.125000 I-1.460957 J0.136294
G03 X13.030666 Y37.776469 Z-0.125000 I0.045791 J-0.126116
G03 X12.975523 Y32.409950 Z-0.125000 I169.166488 J-4.421788
G03 X13.035123 Y27.647622 Z-0.125000 I343.499502 J1.917305
G01 X13.068168 Y27.646392 Z-0.125000
G03 X13.126972 Y28.309186 Z-0.125000 I-61.872017 J5.823377
G03 X13.423046 Y31.905200 Z-0.125000 I-1820.538523 J151.702190
G02 X13.725181 Y35.500581 Z-0.125000 I671.895895 J-54.651906
G02 X13.794034 Y36.182721 Z-0.125000 I24.253253 J-2.103483
G03 X13.993082 Y38.180857 Z-0.125000 I-64.804283 J7.464589
G03 X14.333657 Y42.599538 Z-0.125000 I-316.640867 J26.627908
G03 X14.420946 Y45.397108 Z-0.125000 I-36.027256 J2.524267
G03 X14.310022 Y45.722666 Z-0.125000 I-0.545321 J-0.004127
G01 X14.310022 Y45.722666 Z-0.125000
G00 Z5.000000

(End cutting path id: path4848)


(Start cutting path id: path4848)
(Change tool to Cylindrical cutter)

G00 Z5.000000
G00 X11.435540 Y51.692359

G01 Z-0.125000 F1000.0(Penetrate)
G02 X11.325356 Y51.671212 Z-0.125000 I-0.064809 J0.040055 F1100.000000
G02 X11.186069 Y51.877320 Z-0.125000 I0.223063 J0.300863
G03 X11.026572 Y52.162666 Z-0.125000 I-0.629508 J-0.164622
G03 X10.897087 Y52.179174 Z-0.125000 I-0.074942 J-0.071746
G02 X10.537358 Y52.369154 Z-0.125000 I-0.124039 J0.200696
G02 X10.824877 Y53.767449 Z-0.125000 I2.902225 J0.131950
G02 X11.167479 Y53.987810 Z-0.125000 I0.351739 J-0.170352
G02 X11.339070 Y53.779475 Z-0.125000 I0.004011 J-0.171528
G03 X11.292393 Y53.226027 Z-0.125000 I2.059764 J-0.452408
G03 X11.396961 Y52.572516 Z-0.125000 I2.991020 J0.143470
G02 X11.498051 Y51.932285 Z-0.125000 I-2.775378 J-0.766314
G02 X11.435540 Y51.692364 Z-0.125000 I-0.420869 J-0.018448
G01 X11.435540 Y51.692359 Z-0.125000
G00 Z5.000000

(End cutting path id: path4848)


(Start cutting path id: path4873)
(Change tool to Cylindrical cutter)

G00 Z5.000000
G00 X11.364038 Y51.904382

G01 Z-0.125000 F1000.0(Penetrate)
G01 X10.979285 Y52.289137 Z-0.125000 F1100.000000
G02 X10.784348 Y52.747068 Z-0.125000 I0.470926 J0.470926
G02 X10.968817 Y52.825595 Z-0.125000 I0.108051 J0.002109
G01 X11.113537 Y52.680874 Z-0.125000
G03 X11.288021 Y52.769384 Z-0.125000 I0.072775 J0.072775
G03 X11.017265 Y53.303136 Z-0.125000 I-0.951761 J-0.147250
G01 X10.943456 Y53.376944 Z-0.125000
G02 X10.881108 Y53.702286 Z-0.125000 I0.208626 J0.208626
G02 X11.101808 Y53.744580 Z-0.125000 I0.124695 J-0.053709
G01 X11.197892 Y53.648496 Z-0.125000
G00 Z5.000000

(End cutting path id: path4873)


(Start cutting path id: path4873)
(Change tool to Cylindrical cutter)

G00 Z5.000000
G00 X11.551431 Y54.872995

G01 Z-0.125000 F1000.0(Penetrate)
G01 X12.430982 Y53.993444 Z-0.125000 F1100.000000
G03 X12.882187 Y53.805235 Z-0.125000 I0.454395 J0.454395
G03 X12.959596 Y53.990816 Z-0.125000 I0.000540 J0.108710
G01 X11.572319 Y55.378092 Z-0.125000
G02 X11.301932 Y55.911474 Z-0.125000 I0.679870 J0.679870
G02 X11.476456 Y55.999945 Z-0.125000 I0.101736 J0.015683
G01 X13.488210 Y53.988190 Z-0.125000
G03 X13.939414 Y53.799981 Z-0.125000 I0.454395 J0.454395
G03 X14.016824 Y53.985562 Z-0.125000 I0.000540 J0.108710
G01 X11.434519 Y56.567865 Z-0.125000
G02 X11.229905 Y57.035474 Z-0.125000 I0.495305 J0.495305
G02 X11.412848 Y57.115526 Z-0.125000 I0.107131 J0.004239
G01 X14.545438 Y53.982938 Z-0.125000
G03 X14.996641 Y53.794729 Z-0.125000 I0.454396 J0.454396
G03 X15.074052 Y53.980310 Z-0.125000 I0.000540 J0.108710
G01 X11.402497 Y57.651865 Z-0.125000
G02 X11.213340 Y58.104016 Z-0.125000 I0.456705 J0.456705
G02 X11.398763 Y58.181588 Z-0.125000 I0.108617 J0.000766
G01 X15.602666 Y53.977687 Z-0.125000
G03 X16.053869 Y53.789477 Z-0.125000 I0.454396 J0.454396
G03 X16.131279 Y53.975058 Z-0.125000 I0.000540 J0.108710
G01 X11.403573 Y58.702764 Z-0.125000
G02 X11.221706 Y59.147626 Z-0.125000 I0.439130 J0.439130
G02 X11.408383 Y59.223943 Z-0.125000 I0.109351 J-0.001009
G01 X15.203555 Y55.428774 Z-0.125000
G03 X15.365128 Y55.530195 Z-0.125000 I0.069188 J0.069188
G03 X14.921696 Y56.236622 Z-0.125000 I-1.766026 J-0.616168
G01 X11.413193 Y59.745124 Z-0.125000
G02 X11.234582 Y60.186729 Z-0.125000 I0.431411 J0.431411
G02 X11.421840 Y60.262467 Z-0.125000 I0.109686 J-0.001833
G01 X12.586937 Y59.097370 Z-0.125000
G03 X12.852414 Y59.094883 Z-0.125000 I0.134006 J0.134006
G03 X12.854857 Y59.355440 Z-0.125000 I-0.126641 J0.131477
G01 X11.431941 Y60.778355 Z-0.125000
G02 X11.254563 Y61.218727 Z-0.125000 I0.428509 J0.428509
G02 X11.442043 Y61.294242 Z-0.125000 I0.109814 J-0.002150
G01 X13.124303 Y59.611983 Z-0.125000
G03 X13.390864 Y59.608423 Z-0.125000 I0.135108 J0.135108
G03 X13.394327 Y59.867948 Z-0.125000 I-0.124608 J0.131448
G01 X11.452144 Y61.810130 Z-0.125000
G02 X11.274635 Y62.250634 Z-0.125000 I0.428817 J0.428817
G02 X11.462092 Y62.326174 Z-0.125000 I0.109801 J-0.002117
G01 X13.654026 Y60.134238 Z-0.125000
G03 X13.897575 Y60.153685 Z-0.125000 I0.113489 J0.113489
G03 X13.874753 Y60.439501 Z-0.125000 I-0.179121 J0.129517
G01 X11.471864 Y62.842388 Z-0.125000
G02 X11.294207 Y63.283040 Z-0.125000 I0.429165 J0.429165
G02 X11.481636 Y63.358606 Z-0.125000 I0.109785 J-0.002078
G01 X13.911840 Y60.928404 Z-0.125000
G03 X14.088109 Y61.015129 Z-0.125000 I0.073371 J0.073371
G03 X13.833398 Y61.532833 Z-0.125000 I-0.887606 J-0.115191
G01 X11.491408 Y63.874823 Z-0.125000
G02 X11.313751 Y64.315475 Z-0.125000 I0.429165 J0.429165
G02 X11.501180 Y64.391040 Z-0.125000 I0.109785 J-0.002078
G01 X13.757775 Y62.134446 Z-0.125000
G03 X13.935511 Y62.219705 Z-0.125000 I0.073878 J0.073878
G03 X13.693040 Y62.725171 Z-0.125000 I-0.839987 J-0.092051
G01 X11.510952 Y64.907258 Z-0.125000
G02 X11.333295 Y65.347909 Z-0.125000 I0.429165 J0.429165
G02 X11.520724 Y65.423475 Z-0.125000 I0.109785 J-0.002078
G01 X13.630517 Y63.313681 Z-0.125000
G03 X13.808497 Y63.398696 Z-0.125000 I0.073964 J0.073964
G03 X13.567994 Y63.902195 Z-0.125000 I-0.832438 J-0.088437
G01 X11.530496 Y65.939692 Z-0.125000
G02 X11.352839 Y66.380344 Z-0.125000 I0.429165 J0.429165
G02 X11.540268 Y66.455909 Z-0.125000 I0.109785 J-0.002078
G01 X13.510889 Y64.485288 Z-0.125000
G03 X13.689505 Y64.569667 Z-0.125000 I0.074190 J0.074190
G03 X13.454019 Y65.068147 Z-0.125000 I-0.813323 J-0.079357
G01 X11.549282 Y66.972885 Z-0.125000
G02 X11.369377 Y67.415784 Z-0.125000 I0.434467 J0.434467
G02 X11.556403 Y67.491753 Z-0.125000 I0.109553 J-0.001504
G01 X13.397148 Y65.651007 Z-0.125000
G03 X13.575764 Y65.735386 Z-0.125000 I0.074190 J0.074190
G03 X13.340278 Y66.233867 Z-0.125000 I-0.813323 J-0.079357
G01 X11.563524 Y68.010621 Z-0.125000
G02 X11.383620 Y68.453520 Z-0.125000 I0.434467 J0.434467
G02 X11.570645 Y68.529489 Z-0.125000 I0.109553 J-0.001504
G01 X13.285392 Y66.814743 Z-0.125000
G03 X13.464316 Y66.898814 Z-0.125000 I0.074301 J0.074301
G03 X13.231218 Y67.394905 Z-0.125000 I-0.804293 J-0.075104
G01 X11.574959 Y69.051164 Z-0.125000
G02 X11.391711 Y69.497407 Z-0.125000 I0.442428 J0.442428
G02 X11.578148 Y69.573967 Z-0.125000 I0.109211 J-0.000666
G01 X13.177044 Y67.975070 Z-0.125000
G03 X13.355968 Y68.059141 Z-0.125000 I0.074301 J0.074301
G03 X13.122869 Y68.555234 Z-0.125000 I-0.804296 J-0.075104
G01 X11.581998 Y70.096105 Z-0.125000
G02 X11.399928 Y70.541170 Z-0.125000 I0.439613 J0.439613
G02 X11.586570 Y70.617522 Z-0.125000 I0.109331 J-0.000959
G01 X13.068694 Y69.135399 Z-0.125000
G03 X13.247618 Y69.219469 Z-0.125000 I0.074301 J0.074301
G03 X13.014520 Y69.715561 Z-0.125000 I-0.804293 J-0.075104
G01 X11.591199 Y71.138882 Z-0.125000
G02 X11.412676 Y71.580399 Z-0.125000 I0.431203 J0.431203
G02 X11.599949 Y71.656121 Z-0.125000 I0.109696 J-0.001856
G01 X12.964631 Y70.291441 Z-0.125000
G03 X13.144095 Y70.374971 Z-0.125000 I0.074497 J0.074497
G03 X12.915102 Y70.866959 Z-0.125000 I-0.788869 J-0.067889
G01 X11.608699 Y72.173362 Z-0.125000
G02 X11.430176 Y72.614879 Z-0.125000 I0.431203 J0.431203
G02 X11.617449 Y72.690601 Z-0.125000 I0.109696 J-0.001856
G01 X12.868427 Y71.439623 Z-0.125000
G03 X13.048952 Y71.522094 Z-0.125000 I0.074888 J0.074888
G03 X12.827753 Y72.006289 Z-0.125000 I-0.759942 J-0.054547
G01 X11.609852 Y73.224188 Z-0.125000
G02 X11.446815 Y73.650219 Z-0.125000 I0.395604 J0.395604
G02 X11.637021 Y73.723008 Z-0.125000 I0.111352 J-0.006065
G01 X12.787078 Y72.572952 Z-0.125000
G03 X12.968755 Y72.654269 Z-0.125000 I0.075323 J0.075323
G03 X12.755664 Y73.130354 Z-0.125000 I-0.730338 J-0.041161
G01 X11.648306 Y74.237713 Z-0.125000
G02 X11.471929 Y74.677085 Z-0.125000 I0.426162 J0.426162
G02 X11.659591 Y74.752418 Z-0.125000 I0.109919 J-0.002410
G01 X12.725403 Y73.686604 Z-0.125000
G03 X12.908140 Y73.766862 Z-0.125000 I0.075732 J0.075732
G03 X12.702170 Y74.235829 Z-0.125000 I-0.704752 J-0.029813
G01 X11.670877 Y75.267120 Z-0.125000
G02 X11.494500 Y75.706492 Z-0.125000 I0.426162 J0.426162
G02 X11.682161 Y75.781825 Z-0.125000 I0.109919 J-0.002410
G01 X12.683748 Y74.780238 Z-0.125000
G03 X12.867841 Y74.859139 Z-0.125000 I0.076267 J0.076267
G03 X12.670579 Y75.319396 Z-0.125000 I-0.673981 J-0.016462
G01 X11.693446 Y76.296530 Z-0.125000
G02 X11.517069 Y76.735902 Z-0.125000 I0.426162 J0.426162
G02 X11.704730 Y76.811235 Z-0.125000 I0.109919 J-0.002410
G01 X12.665130 Y75.850833 Z-0.125000
G03 X12.850886 Y75.928073 Z-0.125000 I0.076943 J0.076943
G03 X12.663692 Y76.378263 Z-0.125000 I-0.639132 J-0.001744
G01 X11.716017 Y77.325939 Z-0.125000
G02 X11.539641 Y77.765309 Z-0.125000 I0.426159 J0.426159
G02 X11.727301 Y77.840642 Z-0.125000 I0.109918 J-0.002410
G01 X12.671911 Y76.896032 Z-0.125000
G03 X12.864775 Y76.966163 Z-0.125000 I0.080068 J0.080068
G03 X12.714496 Y77.379438 Z-0.125000 I-0.517928 J0.045626
G01 X11.738586 Y78.355346 Z-0.125000
G02 X11.562209 Y78.794718 Z-0.125000 I0.426162 J0.426162
G02 X11.749871 Y78.870051 Z-0.125000 I0.109919 J-0.002410
G01 X12.705305 Y77.914616 Z-0.125000
G03 X12.897476 Y77.985441 Z-0.125000 I0.079746 J0.079746
G03 X12.743975 Y78.401937 Z-0.125000 I-0.528092 J0.041905
G01 X11.762171 Y79.383739 Z-0.125000
G02 X11.587279 Y79.821627 Z-0.125000 I0.422694 J0.422694
G02 X11.775214 Y79.896689 Z-0.125000 I0.110075 J-0.002799
G01 X12.765095 Y78.906808 Z-0.125000
G03 X12.956687 Y78.978210 Z-0.125000 I0.079481 J0.079481
G03 X12.800450 Y79.397441 Z-0.125000 I-0.536787 J0.038681
G01 X11.788255 Y80.409635 Z-0.125000
G02 X11.613362 Y80.847523 Z-0.125000 I0.422694 J0.422694
G02 X11.801297 Y80.922585 Z-0.125000 I0.110075 J-0.002799
G01 X13.049270 Y79.674611 Z-0.125000
G00 Z5.000000

(End cutting path id: path4873)


(Start cutting path id: path4873)
(Change tool to Cylindrical cutter)

G00 Z5.000000
G00 X15.865160 Y79.488825

G01 Z-0.125000 F1000.0(Penetrate)
G01 X11.877990 Y83.475995 Z-0.125000 F1100.000000
G02 X11.707924 Y83.909056 Z-0.125000 I0.411538 J0.411538
G02 X11.896760 Y83.983214 Z-0.125000 I0.110587 J-0.004093
G01 X15.533477 Y80.346496 Z-0.125000
G03 X15.708582 Y80.434386 Z-0.125000 I0.072979 J0.072979
G03 X15.443553 Y80.962411 Z-0.125000 I-0.928635 J-0.135581
G01 X11.919827 Y84.486136 Z-0.125000
G02 X11.758160 Y84.910798 Z-0.125000 I0.392544 J0.392544
G02 X11.948640 Y84.983312 Z-0.125000 I0.111503 J-0.006462
G01 X15.411072 Y81.520880 Z-0.125000
G00 Z5.000000

(End cutting path id: path4873)


(Start cutting path id: path4873)
(Change tool to Cylindrical cutter)

G00 Z5.000000
G00 X15.513771 Y86.151963

G01 Z-0.125000 F1000.0(Penetrate)
G01 X15.970622 Y85.695111 Z-0.125000 F1100.000000
G00 Z5.000000

(End cutting path id: path4873)


(Start cutting path id: path4873)
(Change tool to Cylindrical cutter)

G00 Z5.000000
G00 X15.276109 Y86.915613

G01 Z-0.125000 F1000.0(Penetrate)
G01 X14.936613 Y87.255109 Z-0.125000 F1100.000000
G00 Z5.000000

(End cutting path id: path4873)


(Start cutting path id: path4873)
(Change tool to Cylindrical cutter)

G00 Z5.000000
G00 X13.896374 Y87.243368

G01 Z-0.125000 F1000.0(Penetrate)
G01 X12.986304 Y88.153440 Z-0.125000 F1100.000000
G02 X12.992447 Y88.410291 Z-0.125000 I0.125496 J0.125497
G02 X13.261887 Y88.403846 Z-0.125000 I0.131340 J-0.144544
G01 X13.783561 Y87.882171 Z-0.125000
G03 X14.064529 Y87.864199 Z-0.125000 I0.150699 J0.150699
G03 X14.080341 Y88.111382 Z-0.125000 I-0.100825 J0.130547
G01 X13.557701 Y88.634022 Z-0.125000
G02 X13.590655 Y88.864062 Z-0.125000 I0.102673 J0.102673
G02 X13.897622 Y88.820089 Z-0.125000 I0.124144 J-0.226796
G01 X14.447755 Y88.269956 Z-0.125000
G03 X14.793502 Y88.187204 Z-0.125000 I0.240288 J0.240288
G03 X14.844292 Y88.399408 Z-0.125000 I-0.039726 J0.121688
G01 X14.274965 Y88.968734 Z-0.125000
G02 X14.329829 Y89.176866 Z-0.125000 I0.088079 J0.088079
G02 X14.686967 Y89.082724 Z-0.125000 I0.097798 J-0.353482
G01 X15.258206 Y88.511483 Z-0.125000
G03 X15.625788 Y88.406896 Z-0.125000 I0.277677 J0.277677
G03 X15.684042 Y88.611636 Z-0.125000 I-0.027892 J0.118594
G01 X15.107277 Y89.188401 Z-0.125000
G02 X15.168031 Y89.390642 Z-0.125000 I0.084778 J0.084778
G02 X15.543953 Y89.277714 Z-0.125000 I0.083007 J-0.405843
G01 X16.118924 Y88.702744 Z-0.125000
G03 X16.493456 Y88.591207 Z-0.125000 I0.290339 J0.290339
G03 X16.553805 Y88.793853 Z-0.125000 I-0.024648 J0.117649
G01 X15.981046 Y89.366611 Z-0.125000
G02 X16.043951 Y89.566700 Z-0.125000 I0.083638 J0.083638
G02 X16.427538 Y89.446107 Z-0.125000 I0.076200 J-0.427980
G01 X16.994727 Y88.878918 Z-0.125000
G03 X17.376675 Y88.759965 Z-0.125000 I0.304253 J0.304253
G03 X17.439131 Y88.960505 Z-0.125000 I-0.021418 J0.116666
G01 X16.873611 Y89.526025 Z-0.125000
G02 X16.936941 Y89.725689 Z-0.125000 I0.083417 J0.083417
G02 X17.322104 Y89.603521 Z-0.125000 I0.074747 J-0.432584
G01 X17.883534 Y89.042091 Z-0.125000
G03 X18.265664 Y88.922955 Z-0.125000 I0.304603 J0.304603
G03 X18.328170 Y89.123443 Z-0.125000 I-0.021341 J0.116641
G01 X17.772334 Y89.679280 Z-0.125000
G02 X17.836030 Y89.878578 Z-0.125000 I0.083228 J0.083228
G02 X18.222563 Y89.755040 Z-0.125000 I0.073467 J-0.436604
G01 X18.773487 Y89.204117 Z-0.125000
G03 X19.156151 Y89.084447 Z-0.125000 I0.305620 J0.305620
G03 X19.218803 Y89.284788 Z-0.125000 I-0.021118 J0.116572
G01 X18.672374 Y89.831219 Z-0.125000
G02 X18.735882 Y90.030705 Z-0.125000 I0.083325 J0.083325
G02 X19.121705 Y89.907876 Z-0.125000 I0.074131 J-0.434522
G01 X19.664120 Y89.365460 Z-0.125000
G03 X20.046785 Y89.245791 Z-0.125000 I0.305619 J0.305619
G03 X20.109437 Y89.446134 Z-0.125000 I-0.021118 J0.116572
G01 X19.571036 Y89.984536 Z-0.125000
G02 X19.634543 Y90.184022 Z-0.125000 I0.083325 J0.083325
G02 X20.020366 Y90.061194 Z-0.125000 I0.074131 J-0.434522
G01 X20.554118 Y89.527441 Z-0.125000
G03 X20.934592 Y89.409963 Z-0.125000 I0.301452 J0.301452
G03 X20.996638 Y89.610912 Z-0.125000 I-0.022043 J0.116859
G01 X20.469697 Y90.137853 Z-0.125000
G02 X20.533205 Y90.337340 Z-0.125000 I0.083325 J0.083325
G02 X20.919028 Y90.214511 Z-0.125000 I0.074131 J-0.434522
G01 X21.439157 Y89.694381 Z-0.125000
G03 X21.819631 Y89.576903 Z-0.125000 I0.301452 J0.301452
G03 X21.881677 Y89.777852 Z-0.125000 I-0.022043 J0.116859
G01 X21.368358 Y90.291171 Z-0.125000
G02 X21.430792 Y90.491732 Z-0.125000 I0.083885 J0.083885
G02 X21.812659 Y90.372859 Z-0.125000 I0.077767 J-0.422974
G01 X22.324197 Y89.861321 Z-0.125000
G03 X22.705698 Y89.742815 Z-0.125000 I0.303402 J0.303402
G03 X22.768030 Y89.943478 Z-0.125000 I-0.021607 J0.116724
G01 X22.257333 Y90.454173 Z-0.125000
G02 X22.319847 Y90.654654 Z-0.125000 I0.083843 J0.083843
G02 X22.702006 Y90.535489 Z-0.125000 I0.077503 J-0.423821
G01 X23.222846 Y90.014650 Z-0.125000
G03 X23.603986 Y89.896504 Z-0.125000 I0.302719 J0.302719
G03 X23.666219 Y90.097266 Z-0.125000 I-0.021758 J0.116771
G01 X23.146679 Y90.616806 Z-0.125000
G02 X23.208650 Y90.817830 Z-0.125000 I0.084129 J0.084129
G02 X23.588850 Y90.700624 Z-0.125000 I0.079263 J-0.418142
G01 X24.127159 Y90.162314 Z-0.125000
G03 X24.835790 Y89.716678 Z-0.125000 I1.332248 J1.332248
G03 X24.937326 Y89.878137 Z-0.125000 I0.032374 J0.092297
G01 X24.029512 Y90.785952 Z-0.125000
G02 X24.091151 Y90.987306 Z-0.125000 I0.084304 J0.084304
G02 X24.470174 Y90.871278 Z-0.125000 I0.080307 J-0.414743
G01 X25.349411 Y89.992042 Z-0.125000
G03 X25.684073 Y89.920374 Z-0.125000 I0.222695 J0.222695
G03 X25.730460 Y90.136981 Z-0.125000 I-0.046905 J0.123315
G01 X24.913246 Y90.954196 Z-0.125000
G02 X24.975717 Y91.154718 Z-0.125000 I0.083865 J0.083865
G02 X25.357723 Y91.035706 Z-0.125000 I0.077640 J-0.423377
G01 X26.118282 Y90.275148 Z-0.125000
G03 X26.443783 Y90.212642 Z-0.125000 I0.208859 J0.208859
G03 X26.486150 Y90.433270 Z-0.125000 I-0.053589 J0.124673
G01 X25.802200 Y91.117218 Z-0.125000
G02 X25.864672 Y91.317742 Z-0.125000 I0.083865 J0.083865
G02 X26.246678 Y91.198731 Z-0.125000 I0.077642 J-0.423375
G01 X26.892450 Y90.552958 Z-0.125000
G03 X27.271702 Y90.436700 Z-0.125000 I0.299146 J0.299146
G03 X27.333406 Y90.637991 Z-0.125000 I-0.022566 J0.117020
G01 X26.695294 Y91.276105 Z-0.125000
G02 X26.758559 Y91.475834 Z-0.125000 I0.083451 J0.083451
G02 X27.143476 Y91.353910 Z-0.125000 I0.074973 J-0.431868
G01 X27.794837 Y90.702551 Z-0.125000
G03 X28.190827 Y90.569555 Z-0.125000 I0.331748 J0.331748
G03 X28.256948 Y90.766428 Z-0.125000 I-0.015879 J0.114873
G01 X27.591659 Y91.431718 Z-0.125000
G02 X27.654924 Y91.631447 Z-0.125000 I0.083451 J0.083451
G02 X28.039841 Y91.509523 Z-0.125000 I0.074973 J-0.431868
G01 X28.712379 Y90.836986 Z-0.125000
G03 X29.100611 Y90.711749 Z-0.125000 I0.316372 J0.316372
G03 X29.164757 Y90.910599 Z-0.125000 I-0.018852 J0.115852
G01 X28.488024 Y91.587331 Z-0.125000
G02 X28.551288 Y91.787062 Z-0.125000 I0.083452 J0.083452
G02 X28.936206 Y91.665139 Z-0.125000 I0.074975 J-0.431865
G01 X29.612715 Y90.988630 Z-0.125000
G03 X29.996509 Y90.867830 Z-0.125000 I0.307784 J0.307784
G03 X30.059470 Y91.067863 Z-0.125000 I-0.020648 J0.116424
G01 X29.384388 Y91.742944 Z-0.125000
G02 X29.448066 Y91.942261 Z-0.125000 I0.083237 J0.083237
G02 X29.834528 Y91.818793 Z-0.125000 I0.073533 J-0.436396
G01 X30.503274 Y91.150050 Z-0.125000
G03 X30.883111 Y91.033207 Z-0.125000 I0.300251 J0.300251
G03 X30.944979 Y91.234332 Z-0.125000 I-0.022314 J0.116942
G01 X30.286105 Y91.893207 Z-0.125000
G02 X30.350084 Y92.092223 Z-0.125000 I0.083083 J0.083083
G02 X30.737682 Y91.967620 Z-0.125000 I0.072463 J-0.439739
G01 X31.386845 Y91.318458 Z-0.125000
G03 X31.767057 Y91.201240 Z-0.125000 I0.300959 J0.300959
G03 X31.829030 Y91.402261 Z-0.125000 I-0.022154 J0.116893
G01 X31.189259 Y92.042031 Z-0.125000
G02 X31.253920 Y92.240365 Z-0.125000 I0.082734 J0.082734
G02 X31.644133 Y92.113147 Z-0.125000 I0.069958 J-0.447473
G01 X32.272492 Y91.484787 Z-0.125000
G03 X32.658055 Y91.362220 Z-0.125000 I0.311187 J0.311187
G03 X32.721493 Y91.561777 Z-0.125000 I-0.019924 J0.116196
G01 X32.098746 Y92.184523 Z-0.125000
G02 X32.163096 Y92.383168 Z-0.125000 I0.082893 J0.082893
G02 X32.552110 Y92.257148 Z-0.125000 I0.071113 J-0.443920
G01 X33.173025 Y91.636235 Z-0.125000
G03 X33.566015 Y91.506238 Z-0.125000 I0.325751 J0.325751
G03 X33.631387 Y91.703862 Z-0.125000 I-0.017003 J0.115249
G01 X33.014200 Y92.321049 Z-0.125000
G02 X33.079917 Y92.518326 Z-0.125000 I0.082201 J0.082201
G02 X33.474286 Y92.386952 Z-0.125000 I0.065873 J-0.459869
G01 X34.300473 Y91.560763 Z-0.125000
G00 Z5.000000

(End cutting path id: path4873)


(Start cutting path id: path4848)
(Change tool to Cylindrical cutter)

G00 Z5.000000
G00 X34.335256 Y91.433865

G01 Z-0.125000 F1000.0(Penetrate)
G03 X33.795349 Y91.390696 Z-0.125000 I-0.000000 J-3.397842 F1100.000000
G03 X31.459902 Y90.971097 Z-0.125000 I10.361244 J-64.378849
G02 X29.123755 Y90.540117 Z-0.125000 I-17.093231 J86.107662
G02 X27.993017 Y90.379901 Z-0.125000 I-3.410758 J20.001401
G03 X26.882320 Y90.191221 Z-0.125000 I1.137715 J-10.060870
G03 X26.629025 Y90.069252 Z-0.125000 I0.140013 J-0.614762
G02 X26.395422 Y89.975174 Z-0.125000 I-0.274001 J0.343303
G02 X26.173901 Y90.027214 Z-0.125000 I-0.032983 J0.357102
G03 X26.079047 Y90.035431 Z-0.125000 I-0.055573 J-0.089921
G01 X26.061521 Y89.982233 Z-0.125000
G02 X26.000374 Y89.827867 Z-0.125000 I-0.088048 J-0.054416
G02 X21.557486 Y88.769999 Z-0.125000 I-20.353361 J75.622433
G03 X18.719263 Y88.176432 Z-0.125000 I186.984538 J-901.174017
G03 X18.292400 Y88.081792 Z-0.125000 I4.317038 J-20.481423
G02 X18.053776 Y88.229507 Z-0.125000 I-0.045088 J0.193762
G02 X18.197760 Y88.479574 Z-0.125000 I0.204602 J0.048679
G02 X18.533165 Y88.561377 Z-0.125000 I0.936661 J-3.111941
G02 X20.232524 Y88.862637 Z-0.125000 I15.023886 J-79.803636
G03 X24.890978 Y89.756906 Z-0.125000 I-15.674937 J94.235051
G03 X24.897525 Y89.878866 Z-0.125000 I-0.013480 J0.061879
G03 X24.666491 Y89.900114 Z-0.125000 I-0.160884 J-0.482649
G03 X22.735196 Y89.577838 Z-0.125000 I4.996096 J-35.887827
G02 X20.798622 Y89.210369 Z-0.125000 I-38.875956 J199.590974
G02 X18.434361 Y88.783317 Z-0.125000 I-54.902670 J297.196430
G03 X14.525302 Y87.450020 Z-0.125000 I2.340672 J-13.259638
G03 X14.397418 Y86.667848 Z-0.125000 I0.230136 J-0.439167
G02 X14.781265 Y86.079070 Z-0.125000 I-1.370432 J-1.312950
G02 X14.873662 Y85.514162 Z-0.125000 I-1.163571 J-0.480325
G03 X14.878372 Y84.903406 Z-0.125000 I4.068910 J-0.274022
G03 X14.997921 Y84.014421 Z-0.125000 I8.765713 J0.726272
G02 X15.063764 Y83.159034 Z-0.125000 I-3.916618 J-0.731705
G02 X14.964208 Y82.928857 Z-0.125000 I-0.340301 J0.010569
G03 X14.908508 Y82.718869 Z-0.125000 I0.152955 J-0.152953
G03 X15.167545 Y82.184994 Z-0.125000 I1.556659 J0.425512
G02 X15.480061 Y81.601024 Z-0.125000 I-1.839663 J-1.360118
G02 X15.799425 Y80.432851 Z-0.125000 I-7.195079 J-2.594789
G03 X16.113096 Y79.386890 Z-0.125000 I5.180243 J0.983476
G03 X16.224066 Y79.414565 Z-0.125000 I0.053384 J0.022262
G02 X16.135350 Y80.741335 Z-0.125000 I24.562478 J2.308746
G02 X16.083942 Y82.932247 Z-0.125000 I66.953720 J2.667091
G01 X16.068365 Y85.124966 Z-0.125000
G01 X15.362452 Y86.188566 Z-0.125000
G02 X14.780763 Y87.224950 Z-0.125000 I6.652248 J4.415124
G02 X14.818833 Y87.352468 Z-0.125000 I0.090701 J0.042363
G02 X15.039109 Y87.309991 Z-0.125000 I0.087067 J-0.140879
G02 X16.365531 Y85.258673 Z-0.125000 I-15.795004 J-11.667858
G02 X16.592489 Y84.543567 Z-0.125000 I-1.611060 J-0.904880
G02 X16.750942 Y81.525861 Z-0.125000 I-29.818070 J-3.078698
G02 X16.702478 Y78.478310 Z-0.125000 I-84.964100 J-0.172999
G02 X16.636912 Y78.157244 Z-0.125000 I-0.981607 J0.033229
G03 X16.349637 Y76.104390 Z-0.125000 I4.240005 J-1.639871
G03 X17.284573 Y71.057310 Z-0.125000 I27.760867 J2.532370
G01 X17.349871 Y71.065313 Z-0.125000
G03 X17.342089 Y72.884392 Z-0.125000 I-25.436511 J0.800744
G01 X17.247338 Y75.250398 Z-0.125000
G01 X21.768419 Y75.202350 Z-0.125000
G02 X26.289443 Y75.149732 Z-0.125000 I-23.770295 J-2236.626217
G02 X29.250260 Y75.107711 Z-0.125000 I-12.139589 J-959.697097
G01 X32.211017 Y75.061115 Z-0.125000
G01 X31.879852 Y75.534318 Z-0.125000
G02 X31.631756 Y76.018870 Z-0.125000 I1.628068 J1.139379
G02 X31.632115 Y76.244117 Z-0.125000 I0.321217 J0.112112
G03 X31.617649 Y76.411439 Z-0.125000 I-0.191977 J0.067689
G03 X31.499316 Y76.480720 Z-0.125000 I-0.118333 J-0.066418
G03 X31.391612 Y76.420213 Z-0.125000 I-0.000000 J-0.126110
G03 X31.391988 Y76.304519 Z-0.125000 I0.094467 J-0.057541
G02 X31.413755 Y76.148883 Z-0.125000 I-0.165920 J-0.102545
G02 X31.308519 Y76.009427 Z-0.125000 I-0.231976 J0.065618
G02 X31.180702 Y76.006316 Z-0.125000 I-0.066568 J0.107715
G02 X31.116144 Y76.115757 Z-0.125000 I0.060484 J0.109440
G03 X31.001383 Y76.222481 Z-0.125000 I-0.107005 J0.000000
G03 X29.317981 Y75.985075 Z-0.125000 I0.912696 J-12.558831
G02 X29.010094 Y76.011233 Z-0.125000 I-0.110498 J0.524442
G02 X28.986740 Y76.116292 Z-0.125000 I0.023946 J0.060448
G03 X29.293081 Y76.845890 Z-0.125000 I-0.820035 J0.773424
G03 X29.034060 Y77.332483 Z-0.125000 I-0.546610 J0.021268
G03 X28.928793 Y77.298776 Z-0.125000 I-0.038225 J-0.061852
G03 X28.844780 Y76.881621 Z-0.125000 I0.993658 J-0.417155
G02 X28.770430 Y76.355234 Z-0.125000 I-1.900551 J-0.000000
G02 X28.645629 Y76.190698 Z-0.125000 I-0.275587 J0.079436
G02 X28.546285 Y76.226254 Z-0.125000 I-0.035485 J0.057416
G02 X28.503668 Y76.605408 Z-0.125000 I0.834986 J0.285825
G03 X28.351134 Y76.944949 Z-0.125000 I-0.367240 J0.039054
G03 X27.803738 Y77.105528 Z-0.125000 I-0.504289 J-0.705767
G02 X24.252609 Y77.033757 Z-0.125000 I-2.991226 J60.112968
G02 X22.227417 Y77.157410 Z-0.125000 I0.182697 J19.638324
G03 X21.212596 Y77.175982 Z-0.125000 I-0.605533 J-5.352376
G03 X21.161840 Y77.076208 Z-0.125000 I0.004978 J-0.065329
G03 X21.333926 Y76.927470 Z-0.125000 I0.322711 J0.199451
G03 X21.663299 Y76.859281 Z-0.125000 I0.329373 J0.761381
G02 X21.922892 Y76.572701 Z-0.125000 I-0.000000 J-0.260864
G02 X21.604807 Y76.268836 Z-0.125000 I-0.335978 J0.033283
G02 X19.416046 Y76.287546 Z-0.125000 I-0.942619 J17.763224
G02 X18.515692 Y76.485780 Z-0.125000 I0.221058 J3.147770
G02 X17.847163 Y77.156058 Z-0.125000 I0.409432 J1.076894
G02 X17.638822 Y78.810398 Z-0.125000 I3.344128 J1.261435
G03 X17.599544 Y79.030614 Z-0.125000 I-0.393160 J0.043485
G03 X17.517147 Y79.054043 Z-0.125000 I-0.051899 J-0.025919
G02 X17.436205 Y79.094718 Z-0.125000 I-0.027958 J0.045238
G02 X17.375471 Y80.699250 Z-0.125000 I16.646296 J1.433505
G03 X17.347668 Y82.440656 Z-0.125000 I-33.231327 J0.340353
G03 X17.249321 Y83.689145 Z-0.125000 I-17.172778 J-0.724621
G02 X17.248418 Y84.807729 Z-0.125000 I4.873883 J0.563229
G02 X17.391281 Y84.935242 Z-0.125000 I0.142864 J-0.016276
G02 X17.600709 Y84.858711 Z-0.125000 I-0.000000 J-0.324818
G02 X17.677240 Y84.694037 Z-0.125000 I-0.138901 J-0.164674
G03 X17.730819 Y84.482710 Z-0.125000 I0.443555 J-0.000000
G03 X17.873765 Y84.331378 Z-0.125000 I0.355559 J0.192677
G03 X17.975205 Y84.378129 Z-0.125000 I0.035226 J0.056996
G03 X18.055067 Y85.503209 Z-0.125000 I-6.752090 J1.044661
G02 X18.180241 Y87.263543 Z-0.125000 I10.674224 J0.125592
G02 X18.392769 Y87.682380 Z-0.125000 I0.747150 J-0.115783
G02 X18.802459 Y87.909293 Z-0.125000 I0.600012 J-0.600014
G02 X22.667074 Y88.727306 Z-0.125000 I25.131658 J-109.193877
G02 X26.569514 Y89.407887 Z-0.125000 I20.546302 J-106.283588
G02 X26.791052 Y89.305902 Z-0.125000 I0.033913 J-0.217945
G02 X26.877970 Y89.085937 Z-0.125000 I-0.570511 J-0.352589
G02 X26.857961 Y88.974229 Z-0.125000 I-0.151360 J-0.030534
G01 X26.877728 Y88.907750 Z-0.125000
G03 X27.154370 Y88.834998 Z-0.125000 I0.335989 J0.715265
G03 X27.450733 Y88.881952 Z-0.125000 I0.048970 J0.649685
G03 X27.519818 Y88.984985 Z-0.125000 I-0.042291 J0.103034
G03 X27.463602 Y89.106289 Z-0.125000 I-0.158984 J0.000000
G03 X27.310286 Y89.162503 Z-0.125000 I-0.153316 J-0.180967
G02 X27.205338 Y89.234389 Z-0.125000 I-0.000000 J0.112551
G02 X27.205012 Y89.434193 Z-0.125000 I0.258918 J0.100325
G03 X27.209976 Y89.662846 Z-0.125000 I-0.315944 J0.121239
G03 X27.083303 Y89.797810 Z-0.125000 I-0.210197 J-0.070356
G01 X27.084727 Y89.848525 Z-0.125000
G02 X27.395069 Y89.904680 Z-0.125000 I0.339422 J-0.990178
G03 X27.928320 Y89.959016 Z-0.125000 I-0.100826 J3.633312
G03 X31.261208 Y90.589613 Z-0.125000 I-25.406180 J143.402158
G02 X34.583559 Y91.187569 Z-0.125000 I16.197384 J-80.466744
G02 X34.850155 Y91.159621 Z-0.125000 I0.081180 J-0.511129
G03 X34.976606 Y91.170710 Z-0.125000 I0.051860 J0.135143
G03 X34.995051 Y91.246754 Z-0.125000 I-0.028340 J0.047133
G03 X34.840259 Y91.363643 Z-0.125000 I-0.227880 J-0.140837
G03 X34.335257 Y91.433865 Z-0.125000 I-0.505002 J-1.780743
G01 X34.335256 Y91.433865 Z-0.125000
G00 Z5.000000

(End cutting path id: path4848)


(Start cutting path id: path4873)
(Change tool to Cylindrical cutter)

G00 Z5.000000
G00 X34.808828 Y91.052961

G01 Z-0.125000 F1000.0(Penetrate)
G01 X35.620415 Y90.241374 Z-0.125000 F1100.000000
G03 X35.805463 Y90.319320 Z-0.125000 I0.076653 J0.076653
G03 X35.614062 Y90.773716 Z-0.125000 I-0.653597 J-0.007800
G01 X33.952090 Y92.435687 Z-0.125000
G02 X34.033214 Y92.617558 Z-0.125000 I0.075397 J0.075397
G02 X34.507982 Y92.405784 Z-0.125000 I-0.039031 J-0.725572
G01 X35.536680 Y91.377086 Z-0.125000
G00 Z5.000000

(End cutting path id: path4873)


(Start cutting path id: path4848)
(Change tool to Cylindrical cutter)

G00 Z5.000000
G00 X33.516780 Y95.899377

G01 Z-0.125000 F1000.0(Penetrate)
G02 X33.013162 Y95.584844 Z-0.125000 I-0.932299 J0.932304 F1100.000000
G02 X31.292736 Y95.134718 Z-0.125000 I-3.845273 J11.184135
G03 X29.508817 Y94.800450 Z-0.125000 I35.550522 J-194.653067
G03 X26.668055 Y94.246178 Z-0.125000 I94.939499 J-494.142381
G02 X20.756651 Y93.113212 Z-0.125000 I-94.207633 J475.552626
G02 X16.920118 Y92.440575 Z-0.125000 I-36.974464 J199.614348
G02 X16.498274 Y92.459923 Z-0.125000 I-0.165488 J1.000233
G02 X16.469761 Y92.558278 Z-0.125000 I0.015075 J0.057680
G02 X16.721098 Y92.716831 Z-0.125000 I0.427127 J-0.398593
G02 X18.362565 Y93.155495 Z-0.125000 I5.746630 J-18.213247
G03 X20.042787 Y93.527443 Z-0.125000 I-151.764024 J689.551974
G03 X21.368206 Y93.824689 Z-0.125000 I-95.770485 J430.143902
G02 X22.696365 Y94.105125 Z-0.125000 I10.631021 J-47.063844
G02 X23.166369 Y94.178016 Z-0.125000 I1.142001 J-5.811891
G03 X25.737857 Y94.597714 Z-0.125000 I-3.074980 J26.927950
G03 X26.289494 Y94.843266 Z-0.125000 I-0.303256 J1.423682
G02 X26.669588 Y95.024528 Z-0.125000 I0.680438 J-0.937685
G02 X28.679938 Y95.484903 Z-0.125000 I7.204369 J-26.840225
G03 X28.937376 Y95.542894 Z-0.125000 I-0.734385 J3.860555
G03 X29.705035 Y95.752274 Z-0.125000 I-9.022578 J34.591808
G02 X30.479473 Y95.915798 Z-0.125000 I1.565117 J-5.496684
G02 X31.627024 Y96.020756 Z-0.125000 I1.675819 J-11.996631
G03 X32.661239 Y96.135915 Z-0.125000 I-0.337579 J7.733291
G03 X32.695721 Y96.213195 Z-0.125000 I-0.009072 J0.050381
G02 X32.756176 Y96.356446 Z-0.125000 I0.081165 J0.050129
G02 X33.434827 Y96.377571 Z-0.125000 I0.394930 J-1.775785
G03 X33.528116 Y96.412117 Z-0.125000 I0.015851 J0.100429
G03 X33.576787 Y96.544434 Z-0.125000 I-0.155523 J0.132317
G02 X33.632227 Y96.678278 Z-0.125000 I0.189285 J-0.000000
G02 X33.766068 Y96.733717 Z-0.125000 I0.133841 J-0.133839
G02 X33.904018 Y96.548523 Z-0.125000 I0.000000 J-0.143977
G02 X33.516780 Y95.899377 Z-0.125000 I-1.477994 J0.441603
G01 X33.516780 Y95.899377 Z-0.125000
G00 Z5.000000

(End cutting path id: path4848)


(Start cutting path id: path4848)
(Change tool to Cylindrical cutter)

G00 Z5.000000
G00 X33.772007 Y96.922995

G01 Z-0.125000 F1000.0(Penetrate)
G02 X33.685639 Y96.989649 Z-0.125000 I0.000000 J0.089283 F1100.000000
G02 X33.697618 Y97.206917 Z-0.125000 I0.343581 J0.090021
G02 X33.826831 Y97.461359 Z-0.125000 I1.289690 J-0.494912
G02 X33.880959 Y97.490839 Z-0.125000 I0.054127 J-0.034952
G01 X33.922944 Y97.458436 Z-0.125000
G02 X33.955348 Y97.206917 Z-0.125000 I-0.959966 J-0.251520
G02 X33.890703 Y96.987640 Z-0.125000 I-0.404218 J-0.000000
G02 X33.772007 Y96.922995 Z-0.125000 I-0.118696 J0.076647
G01 X33.772007 Y96.922995 Z-0.125000
G00 Z5.000000

(End cutting path id: path4848)


(Start cutting path id: path4848)
(Change tool to Cylindrical cutter)

G00 Z5.000000
G00 X34.561196 Y97.869397

G01 Z-0.125000 F1000.0(Penetrate)
G03 X34.480024 Y97.802648 Z-0.125000 I0.000000 J-0.082731 F1100.000000
G03 X34.440078 Y97.254236 Z-0.125000 I2.222200 J-0.437526
G02 X34.418016 Y97.154898 Z-0.125000 I-0.192248 J-0.009423
G01 X34.390078 Y97.159597 Z-0.125000
G03 X33.998833 Y97.557264 Z-0.125000 I-0.471521 J-0.072609
G03 X33.281237 Y97.348875 Z-0.125000 I-0.144030 J-0.843756
G02 X32.880314 Y97.093519 Z-0.125000 I-0.956981 J1.060100
G02 X32.353974 Y96.956912 Z-0.125000 I-0.727699 J1.721504
G03 X31.808194 Y96.843140 Z-0.125000 I0.308344 J-2.845132
G03 X30.992077 Y96.531032 Z-0.125000 I2.097903 J-6.708780
G02 X30.175446 Y96.235471 Z-0.125000 I-2.246922 J4.932262
G02 X29.659604 Y96.166476 Z-0.125000 I-0.513644 J1.877407
G03 X29.135878 Y96.114916 Z-0.125000 I-0.004484 J-2.640170
G03 X27.803737 Y95.794513 Z-0.125000 I3.539497 J-17.645687
G02 X23.590337 Y94.705071 Z-0.125000 I-27.941151 J99.369648
G02 X21.841407 Y94.386255 Z-0.125000 I-3.959226 J16.762663
G03 X21.185165 Y94.272572 Z-0.125000 I0.997477 J-7.708945
G03 X20.611085 Y94.118376 Z-0.125000 I1.317282 J-6.050064
G02 X17.592653 Y93.471800 Z-0.125000 I-4.750981 J14.810354
G02 X16.611173 Y93.670033 Z-0.125000 I-0.182290 J1.626296
G02 X16.543501 Y93.843912 Z-0.125000 I0.071623 J0.127983
G02 X16.734964 Y94.045745 Z-0.125000 I0.309672 J-0.102032
G02 X17.863827 Y94.398053 Z-0.125000 I3.132058 J-8.051029
G02 X23.639570 Y95.691674 Z-0.125000 I50.183786 J-210.519302
G03 X24.962184 Y95.980065 Z-0.125000 I-17.308425 J82.556753
G03 X28.276938 Y96.741877 Z-0.125000 I-117.679099 J519.631048
G02 X31.597754 Y97.447834 Z-0.125000 I19.641678 J-84.230750
G02 X32.391550 Y97.532510 Z-0.125000 I0.902334 J-4.695910
G03 X33.143110 Y97.661455 Z-0.125000 I-0.058993 J2.598563
G03 X33.509246 Y97.899345 Z-0.125000 I-0.265767 J0.809746
G02 X34.375389 Y98.354066 Z-0.125000 I1.052489 J-0.952494
G02 X34.712469 Y98.058680 Z-0.125000 I0.039116 J-0.295386
G02 X34.663344 Y97.918522 Z-0.125000 I-0.224500 J0.000000
G02 X34.561196 Y97.869397 Z-0.125000 I-0.102147 J0.081635
G01 X34.561196 Y97.869397 Z-0.125000
G00 Z5.000000

(End cutting path id: path4848)


(Start cutting path id: path4848)
(Change tool to Cylindrical cutter)

G00 Z5.000000
G00 X34.002668 Y98.512966

G01 Z-0.125000 F1000.0(Penetrate)
G03 X33.496946 Y98.356066 Z-0.125000 I0.821926 J-3.542738 F1100.000000
G03 X33.103586 Y98.160420 Z-0.125000 I0.913968 J-2.330849
G02 X32.705263 Y97.982326 Z-0.125000 I-0.885939 J1.446994
G02 X31.896905 Y97.798356 Z-0.125000 I-1.760152 J5.866096
G03 X31.073625 Y97.643711 Z-0.125000 I2.197112 J-13.965481
G03 X28.773780 Y97.115335 Z-0.125000 I23.967212 J-109.590801
G02 X17.745318 Y94.572458 Z-0.125000 I-136.194975 J565.491099
G02 X16.733961 Y94.462352 Z-0.125000 I-1.011357 J4.589769
G03 X16.435662 Y94.377941 Z-0.125000 I0.000000 J-0.569286
G03 X16.349379 Y94.225752 Z-0.125000 I0.094994 J-0.154410
G01 X16.291150 Y94.181029 Z-0.125000
G02 X16.162997 Y94.273071 Z-0.125000 I0.053109 J0.209183
G03 X16.064613 Y94.259159 Z-0.125000 I-0.045974 J-0.029710
G03 X15.963311 Y93.610589 Z-0.125000 I2.287311 J-0.689457
G02 X15.767569 Y92.451545 Z-0.125000 I-3.927513 J0.067240
G02 X15.590119 Y92.474909 Z-0.125000 I-0.086520 J0.028431
G02 X15.581854 Y94.136965 Z-0.125000 I16.374574 J0.912472
G02 X15.698393 Y94.840913 Z-0.125000 I3.018637 J-0.138116
G02 X15.855232 Y95.032501 Z-0.125000 I0.302730 J-0.087833
G02 X16.312521 Y95.161557 Z-0.125000 I0.537256 J-1.028992
G03 X16.838656 Y95.236232 Z-0.125000 I-0.253983 J3.680295
G03 X23.175767 Y96.646472 Z-0.125000 I-116.519447 J538.539855
G02 X29.507528 Y98.093479 Z-0.125000 I3892.253265 J-17017.209821
G02 X31.866191 Y98.630806 Z-0.125000 I538.692513 J-2359.201508
G02 X34.214861 Y99.105345 Z-0.125000 I11.007175 J-48.429117
G02 X34.374155 Y99.074846 Z-0.125000 I0.039669 J-0.224054
G02 X34.432109 Y98.811388 Z-0.125000 I-0.098782 J-0.159833
G02 X34.002668 Y98.512966 Z-0.125000 I-0.589033 J0.389440
G01 X34.002668 Y98.512966 Z-0.125000
G00 Z5.000000

(End cutting path id: path4848)


(Start cutting path id: path4873)
(Change tool to Cylindrical cutter)

G00 Z5.000000
G00 X36.420052 Y96.279632

G01 Z-0.125000 F1000.0(Penetrate)
G01 X36.235482 Y96.464201 Z-0.125000 F1100.000000
G00 Z5.000000

(End cutting path id: path4873)


(Start cutting path id: path4848)
(Change tool to Cylindrical cutter)

G00 Z5.000000
G00 X36.668357 Y96.292062

G01 Z-0.125000 F1000.0(Penetrate)
G02 X36.273429 Y96.224545 Z-0.125000 I-0.245145 J0.245144 F1100.000000
G02 X36.133315 Y96.548376 Z-0.125000 I0.116167 J0.242491
G03 X36.062353 Y96.627679 Z-0.125000 I-0.058901 J0.018695
G03 X35.762336 Y96.474558 Z-0.125000 I0.120829 J-0.607223
G02 X34.441808 Y95.599178 Z-0.125000 I-3.338105 J3.601884
G02 X33.999419 Y95.680142 Z-0.125000 I-0.162576 J0.360777
G02 X33.983552 Y95.806498 Z-0.125000 I0.073391 J0.073391
G02 X34.267255 Y96.131499 Z-0.125000 I1.024319 J-0.607831
G03 X34.836658 Y96.907152 Z-0.125000 I-1.135880 J1.430669
G03 X35.093605 Y98.282835 Z-0.125000 I-3.607307 J1.385603
G02 X35.136110 Y99.283698 Z-0.125000 I12.616941 J-0.034484
G02 X35.212305 Y99.722462 Z-0.125000 I2.474769 J-0.203766
G02 X35.861064 Y100.605958 Z-0.125000 I1.457745 J-0.390492
G02 X36.610824 Y100.610528 Z-0.125000 I0.378527 J-0.596103
G02 X37.666129 Y98.747003 Z-0.125000 I-1.170066 J-1.893173
G02 X36.668357 Y96.292062 Z-0.125000 I-3.407291 J-0.045396
G01 X36.668357 Y96.292062 Z-0.125000
G00 Z5.000000

(End cutting path id: path4848)


(Start cutting path id: path4873)
(Change tool to Cylindrical cutter)

G00 Z5.000000
G00 X38.778603 Y101.810760

G01 Z-0.125000 F1000.0(Penetrate)
G01 X38.552592 Y102.036772 Z-0.125000 F1100.000000
G02 X38.568071 Y102.284288 Z-0.125000 I0.116930 J0.116930
G02 X38.848610 Y102.266744 Z-0.125000 I0.130327 J-0.167756
G01 X40.065786 Y101.049567 Z-0.125000
G02 X39.994279 Y100.858080 Z-0.125000 I-0.079432 J-0.079432
G02 X39.574538 Y101.014826 Z-0.125000 I-0.038076 J0.538412
G01 X39.574538 Y101.014826 Z-0.125000
G02 X39.722851 Y101.392505 Z-0.125000 I0.156504 J0.156502
G02 X40.588951 Y101.052391 Z-0.125000 I0.043072 J-1.163134
G01 X40.986842 Y100.654502 Z-0.125000
G03 X41.471758 Y100.695574 Z-0.125000 I0.225129 J0.225129
G03 X41.423085 Y101.270236 Z-0.125000 I-0.364845 J0.258490
G01 X40.238272 Y102.455050 Z-0.125000
G03 X39.791409 Y102.638922 Z-0.125000 I-0.443923 J-0.443923
G03 X39.714722 Y102.452571 Z-0.125000 I0.000511 J-0.109165
G01 X40.899728 Y101.267565 Z-0.125000
G00 Z5.000000

(End cutting path id: path4873)


(Start cutting path id: path4848)
(Change tool to Cylindrical cutter)

G00 Z5.000000
G00 X41.633823 Y100.588142

G01 Z-0.125000 F1000.0(Penetrate)
G03 X41.213664 Y100.773483 Z-0.125000 I-0.432195 J-0.410855 F1100.000000
G03 X41.126423 Y100.598383 Z-0.125000 I-0.002184 J-0.108195
G02 X41.462384 Y100.067471 Z-0.125000 I-2.417098 J-1.901296
G02 X41.526561 Y99.794522 Z-0.125000 I-0.548346 J-0.272949
G02 X41.372922 Y99.740849 Z-0.125000 I-0.086195 J0.000000
G02 X40.337650 Y101.288478 Z-0.125000 I8.828357 J7.025729
G03 X39.985537 Y101.788759 Z-0.125000 I-2.519877 J-1.399512
G03 X39.896644 Y101.791685 Z-0.125000 I-0.045816 J-0.040153
G03 X39.872041 Y101.679663 Z-0.125000 I0.075239 J-0.075237
G03 X40.117475 Y101.192301 Z-0.125000 I2.260060 J0.832678
G02 X40.362769 Y100.704949 Z-0.125000 I-2.010617 J-1.317387
G02 X40.338089 Y100.592700 Z-0.125000 I-0.100098 J-0.036830
G02 X39.936588 Y100.559159 Z-0.125000 I-0.220578 J0.220577
G02 X39.171687 Y101.423141 Z-0.125000 I1.484064 J2.084455
G03 X38.967954 Y101.615087 Z-0.125000 I-0.393450 J-0.213516
G03 X38.878459 Y101.560344 Z-0.125000 I-0.026650 J-0.056957
G02 X38.792051 Y101.473792 Z-0.125000 I-0.089715 J0.003158
G02 X38.650411 Y101.551938 Z-0.125000 I-0.005785 J0.156950
G03 X38.452878 Y101.665718 Z-0.125000 I-0.197533 J-0.114578
G03 X38.282760 Y101.551938 Z-0.125000 I0.000000 J-0.184066
G01 X38.215819 Y101.552928 Z-0.125000
G02 X38.171989 Y101.844253 Z-0.125000 I0.651921 J0.247040
G02 X38.399610 Y102.346121 Z-0.125000 I0.775973 J-0.049389
G02 X39.004798 Y102.672677 Z-0.125000 I0.853892 J-0.858414
G02 X40.313357 Y102.519908 Z-0.125000 I0.426153 J-2.030429
G02 X41.446112 Y101.525382 Z-0.125000 I-1.155185 J-2.458105
G02 X41.791191 Y100.669813 Z-0.125000 I-2.104329 J-1.346122
G02 X41.633823 Y100.588110 Z-0.125000 I-0.090485 J-0.018122
G01 X41.633823 Y100.588142 Z-0.125000
G00 Z5.000000

(End cutting path id: path4848)


(Start cutting path id: path4873)
(Change tool to Cylindrical cutter)

G00 Z5.000000
G00 X42.917956 Y100.301218

G01 Z-0.125000 F1000.0(Penetrate)
G01 X43.071232 Y100.147940 Z-0.125000 F1100.000000
G03 X43.562343 Y99.919824 Z-0.125000 I0.557476 J0.557476
G03 X43.645757 Y100.099406 Z-0.125000 I0.008874 J0.105041
G01 X42.205879 Y101.539283 Z-0.125000
G02 X42.254809 Y101.753347 Z-0.125000 I0.091671 J0.091671
G02 X42.595729 Y101.675422 Z-0.125000 I0.108408 J-0.310438
G01 X44.052469 Y100.218681 Z-0.125000
G03 X44.439513 Y100.094632 Z-0.125000 I0.314059 J0.314059
G03 X44.503345 Y100.293794 Z-0.125000 I-0.019325 J0.116004
G01 X43.057792 Y101.739349 Z-0.125000
G02 X43.126058 Y101.934078 Z-0.125000 I0.080951 J0.080951
G02 X43.531016 Y101.792114 Z-0.125000 I0.054865 J-0.492059
G01 X43.927570 Y101.395559 Z-0.125000
G03 X44.207684 Y101.378440 Z-0.125000 I0.149731 J0.149731
G03 X44.222830 Y101.626290 Z-0.125000 I-0.102077 J0.130626
G01 X44.012077 Y101.837043 Z-0.125000
G02 X44.082010 Y102.030103 Z-0.125000 I0.080160 J0.080160
G02 X44.494377 Y101.880730 Z-0.125000 I0.046657 J-0.515084
G01 X44.647382 Y101.727728 Z-0.125000
G03 X45.042059 Y101.596044 Z-0.125000 I0.329116 J0.329116
G03 X45.107854 Y101.793242 Z-0.125000 I-0.016367 J0.115036
G01 X44.980495 Y101.920603 Z-0.125000
G02 X45.051108 Y102.112985 Z-0.125000 I0.079844 J0.079844
G02 X45.466611 Y101.960477 Z-0.125000 I0.043059 J-0.524952
G01 X45.582601 Y101.844484 Z-0.125000
G03 X45.991828 Y101.698252 Z-0.125000 I0.359039 J0.359039
G03 X46.061065 Y101.892009 Z-0.125000 I-0.011251 J0.113270
G01 X45.954368 Y101.998706 Z-0.125000
G02 X46.025541 Y102.190529 Z-0.125000 I0.079586 J0.079586
G02 X46.443682 Y102.035384 Z-0.125000 I0.039975 J-0.533311
G01 X46.535928 Y101.943137 Z-0.125000
G03 X46.933585 Y101.808476 Z-0.125000 I0.335110 J0.335110
G03 X47.000115 Y102.004940 Z-0.125000 I-0.015267 J0.114667
G01 X46.932997 Y102.072058 Z-0.125000
G02 X47.004170 Y102.263880 Z-0.125000 I0.079585 J0.079585
G02 X47.422311 Y102.108733 Z-0.125000 I0.039973 J-0.533315
G01 X47.461973 Y102.069071 Z-0.125000
G03 X47.843400 Y101.950639 Z-0.125000 I0.303261 J0.303261
G03 X47.905711 Y102.151322 Z-0.125000 I-0.021638 J0.116734
G01 X47.886346 Y102.170687 Z-0.125000
G02 X47.957520 Y102.362508 Z-0.125000 I0.079586 J0.079585
G02 X48.375661 Y102.207362 Z-0.125000 I0.039973 J-0.533314
G01 X48.380843 Y102.202180 Z-0.125000
G03 X48.790456 Y102.055563 Z-0.125000 I0.359852 J0.359852
G03 X48.859778 Y102.249234 Z-0.125000 I-0.011124 J0.113224
G01 X48.859034 Y102.249978 Z-0.125000
G02 X48.930208 Y102.441799 Z-0.125000 I0.079586 J0.079585
G02 X49.348348 Y102.286652 Z-0.125000 I0.039973 J-0.533314
G01 X49.348348 Y102.286652 Z-0.125000
G03 X49.767328 Y102.130666 Z-0.125000 I0.380001 J0.380001
G03 X49.838679 Y102.322313 Z-0.125000 I-0.008155 J0.112142
G01 X49.838183 Y102.322809 Z-0.125000
G02 X49.909258 Y102.514728 Z-0.125000 I0.079630 J0.079630
G02 X50.326932 Y102.360047 Z-0.125000 I0.040520 J-0.531835
G01 X50.331767 Y102.355212 Z-0.125000
G03 X50.757449 Y102.192526 Z-0.125000 I0.394822 J0.394826
G03 X50.830169 Y102.382801 Z-0.125000 I-0.006166 J0.111390
G01 X50.825334 Y102.387637 Z-0.125000
G02 X50.896409 Y102.579556 Z-0.125000 I0.079630 J0.079630
G02 X51.314085 Y102.424874 Z-0.125000 I0.040520 J-0.531838
G01 X51.320904 Y102.418055 Z-0.125000
G03 X51.753339 Y102.248614 Z-0.125000 I0.410103 J0.410099
G03 X51.827377 Y102.437569 Z-0.125000 I-0.004264 J0.110654
G01 X51.818525 Y102.446421 Z-0.125000
G02 X51.889600 Y102.638341 Z-0.125000 I0.079630 J0.079630
G02 X52.307276 Y102.483659 Z-0.125000 I0.040520 J-0.531838
G01 X52.319724 Y102.471237 Z-0.125000
G03 X52.751995 Y102.301958 Z-0.125000 I0.409733 J0.409733
G03 X52.826005 Y102.490949 Z-0.125000 I-0.004308 J0.110674
G01 X52.801334 Y102.515620 Z-0.125000
G02 X52.872409 Y102.707540 Z-0.125000 I0.079630 J0.079630
G02 X53.290086 Y102.552858 Z-0.125000 I0.040520 J-0.531838
G01 X53.332081 Y102.510860 Z-0.125000
G03 X53.764182 Y102.341755 Z-0.125000 I0.409336 J0.409336
G03 X53.838152 Y102.530770 Z-0.125000 I-0.004356 J0.110687
G01 X53.777441 Y102.591484 Z-0.125000
G02 X53.847982 Y102.783937 Z-0.125000 I0.079877 J0.079877
G02 X54.263153 Y102.631762 Z-0.125000 I0.043444 J-0.523901
G01 X54.339473 Y102.555442 Z-0.125000
G03 X54.762536 Y102.395373 Z-0.125000 I0.388991 J0.388991
G03 X54.834728 Y102.586176 Z-0.125000 I-0.006931 J0.111681
G01 X54.748864 Y102.672039 Z-0.125000
G02 X54.818602 Y102.865295 Z-0.125000 I0.080251 J0.080251
G02 X55.230080 Y102.716810 Z-0.125000 I0.047663 J-0.512301
G01 X55.330273 Y102.616619 Z-0.125000
G03 X55.742960 Y102.466928 Z-0.125000 I0.366390 J0.366390
G03 X55.812962 Y102.659919 Z-0.125000 I-0.010125 J0.112864
G01 X55.709112 Y102.763770 Z-0.125000
G02 X55.778285 Y102.957590 Z-0.125000 I0.080517 J0.080517
G02 X56.187229 Y102.811640 Z-0.125000 I0.050501 J-0.504393
G01 X56.284900 Y102.713971 Z-0.125000
G03 X56.623152 Y102.638714 Z-0.125000 I0.228290 J0.228290
G03 X56.671016 Y102.853844 Z-0.125000 I-0.044480 J0.122786
G01 X56.668338 Y102.856522 Z-0.125000
G02 X56.740319 Y103.047535 Z-0.125000 I0.079217 J0.079217
G02 X57.162351 Y102.888498 Z-0.125000 I0.035325 J-0.545745
G01 X57.162351 Y102.888498 Z-0.125000
G03 X57.619448 Y102.694393 Z-0.125000 I0.468864 J0.468864
G03 X57.697844 Y102.879001 Z-0.125000 I0.001919 J0.108135
G01 X57.678107 Y102.898739 Z-0.125000
G02 X57.751501 Y103.088341 Z-0.125000 I0.078586 J0.078586
G02 X58.180593 Y102.922245 Z-0.125000 I0.026597 J-0.568596
G01 X58.240003 Y102.862835 Z-0.125000
G03 X58.704943 Y102.660891 Z-0.125000 I0.488507 J0.488507
G03 X58.784576 Y102.844238 Z-0.125000 I0.003665 J0.107375
G01 X58.687262 Y102.941553 Z-0.125000
G02 X58.761527 Y103.130284 Z-0.125000 I0.078204 J0.078204
G02 X59.195155 Y102.959653 Z-0.125000 I0.020790 J-0.583476
G01 X59.309169 Y102.845637 Z-0.125000
G03 X59.641883 Y102.775918 Z-0.125000 I0.219699 J0.219699
G03 X59.687445 Y102.993350 Z-0.125000 I-0.048266 J0.123604
G01 X59.687445 Y102.993350 Z-0.125000
G02 X59.762622 Y103.181170 Z-0.125000 I0.077811 J0.077811
G02 X60.201140 Y103.005649 Z-0.125000 I0.014355 J-0.599689
G01 X60.310401 Y102.896388 Z-0.125000
G03 X60.754840 Y102.714944 Z-0.125000 I0.438123 J0.438123
G03 X60.831082 Y102.901694 Z-0.125000 I-0.001115 J0.109393
G01 X60.730075 Y103.002701 Z-0.125000
G02 X60.805196 Y103.190571 Z-0.125000 I0.077833 J0.077833
G02 X61.243411 Y103.015346 Z-0.125000 I0.014754 J-0.598675
G01 X61.329027 Y102.929730 Z-0.125000
G03 X61.766437 Y102.755314 Z-0.125000 I0.421586 J0.421586
G03 X61.841416 Y102.943343 Z-0.125000 I-0.002924 J0.110130
G01 X61.756745 Y103.028014 Z-0.125000
G02 X61.831866 Y103.215885 Z-0.125000 I0.077833 J0.077833
G02 X62.270081 Y103.040660 Z-0.125000 I0.014754 J-0.598675
G01 X62.353807 Y102.956933 Z-0.125000
G03 X62.791217 Y102.782517 Z-0.125000 I0.421586 J0.421586
G03 X62.866196 Y102.970546 Z-0.125000 I-0.002924 J0.110130
G01 X62.783415 Y103.053328 Z-0.125000
G02 X62.859155 Y103.240582 Z-0.125000 I0.077570 J0.077570
G02 X63.300775 Y103.061957 Z-0.125000 I0.010175 J-0.610071
G01 X63.381977 Y102.980754 Z-0.125000
G03 X63.824968 Y102.800758 Z-0.125000 I0.434685 J0.434685
G03 X63.900957 Y102.987771 Z-0.125000 I-0.001480 J0.109547
G01 X63.819258 Y103.069470 Z-0.125000
G02 X63.895170 Y103.256556 Z-0.125000 I0.077498 J0.077498
G02 X64.337742 Y103.076983 Z-0.125000 I0.008880 J-0.613277
G01 X64.419934 Y102.994791 Z-0.125000
G03 X64.862924 Y102.814794 Z-0.125000 I0.434685 J0.434685
G03 X64.938913 Y103.001808 Z-0.125000 I-0.001480 J0.109547
G01 X64.856226 Y103.084496 Z-0.125000
G02 X64.932137 Y103.271582 Z-0.125000 I0.077498 J0.077498
G02 X65.374709 Y103.092009 Z-0.125000 I0.008880 J-0.613277
G01 X65.457893 Y103.008827 Z-0.125000
G03 X65.903111 Y102.826603 Z-0.125000 I0.439983 J0.439983
G03 X65.979491 Y103.013216 Z-0.125000 I-0.000920 J0.109314
G01 X65.893193 Y103.099514 Z-0.125000
G02 X65.969104 Y103.286600 Z-0.125000 I0.077498 J0.077498
G02 X66.411676 Y103.107027 Z-0.125000 I0.008880 J-0.613277
G01 X66.502504 Y103.016199 Z-0.125000
G03 X66.948927 Y102.832771 Z-0.125000 I0.442860 J0.442860
G03 X67.025518 Y103.019175 Z-0.125000 I-0.000621 J0.109192
G01 X66.933688 Y103.111007 Z-0.125000
G02 X67.010256 Y103.297432 Z-0.125000 I0.077221 J0.077221
G02 X67.456548 Y103.114131 Z-0.125000 I0.003744 J-0.625841
G01 X67.548532 Y103.022145 Z-0.125000
G03 X67.994957 Y102.838716 Z-0.125000 I0.442862 J0.442862
G03 X68.071548 Y103.025121 Z-0.125000 I-0.000621 J0.109193
G01 X67.979408 Y103.117260 Z-0.125000
G02 X68.055976 Y103.303685 Z-0.125000 I0.077220 J0.077220
G02 X68.502268 Y103.120384 Z-0.125000 I0.003742 J-0.625847
G01 X68.616629 Y103.006026 Z-0.125000
G03 X69.046738 Y102.838911 Z-0.125000 I0.404801 J0.404801
G03 X69.120330 Y103.028317 Z-0.125000 I-0.004908 J0.110906
G01 X69.025131 Y103.123516 Z-0.125000
G02 X69.101698 Y103.309941 Z-0.125000 I0.077221 J0.077221
G02 X69.547991 Y103.126640 Z-0.125000 I0.003744 J-0.625841
G01 X69.646780 Y103.027848 Z-0.125000
G03 X70.096151 Y102.841477 Z-0.125000 I0.449940 J0.449940
G03 X70.173233 Y103.027352 Z-0.125000 I0.000097 J0.108880
G01 X70.070851 Y103.129735 Z-0.125000
G02 X70.147903 Y103.315675 Z-0.125000 I0.077019 J0.077019
G02 X70.596998 Y103.129573 Z-0.125000 I-0.000195 J-0.635392
G01 X70.699684 Y103.026888 Z-0.125000
G03 X71.149054 Y102.840517 Z-0.125000 I0.449940 J0.449940
G03 X71.226136 Y103.026393 Z-0.125000 I0.000097 J0.108880
G01 X71.124602 Y103.127925 Z-0.125000
G02 X71.201858 Y103.313616 Z-0.125000 I0.076916 J0.076916
G02 X71.652205 Y103.126189 Z-0.125000 I-0.001997 J-0.639559
G01 X71.752587 Y103.025807 Z-0.125000
G03 X72.201944 Y102.839450 Z-0.125000 I0.449906 J0.449906
G03 X72.279012 Y103.025311 Z-0.125000 I0.000094 J0.108870
G01 X72.179808 Y103.124515 Z-0.125000
G02 X72.257064 Y103.310206 Z-0.125000 I0.076916 J0.076916
G02 X72.707412 Y103.122780 Z-0.125000 I-0.002000 J-0.639564
G01 X72.811748 Y103.018443 Z-0.125000
G03 X73.266481 Y102.826705 Z-0.125000 I0.463024 J0.463024
G03 X73.344484 Y103.011699 Z-0.125000 I0.001372 J0.108364
G01 X73.235013 Y103.121168 Z-0.125000
G02 X73.312268 Y103.306859 Z-0.125000 I0.076916 J0.076916
G02 X73.762616 Y103.119432 Z-0.125000 I-0.002000 J-0.639564
G01 X73.877220 Y103.004830 Z-0.125000
G03 X74.331953 Y102.813092 Z-0.125000 I0.463024 J0.463024
G03 X74.409956 Y102.998086 Z-0.125000 I0.001372 J0.108364
G01 X74.294816 Y103.113226 Z-0.125000
G02 X74.372742 Y103.298297 Z-0.125000 I0.076662 J0.076662
G02 X74.827012 Y103.107027 Z-0.125000 I-0.007614 J-0.653167
G01 X74.948239 Y102.985800 Z-0.125000
G03 X75.413272 Y102.783761 Z-0.125000 I0.488748 J0.488748
G03 X75.492929 Y102.967104 Z-0.125000 I0.003686 J0.107374
G01 X75.359207 Y103.100826 Z-0.125000
G02 X75.437714 Y103.285310 Z-0.125000 I0.076424 J0.076424
G02 X75.895529 Y103.090486 Z-0.125000 I-0.012825 J-0.665455
G01 X76.148942 Y102.837075 Z-0.125000
G02 X76.431294 Y102.291725 Z-0.125000 I-0.717007 J-0.716995
G02 X76.258017 Y102.202011 Z-0.125000 I-0.100891 J-0.017329
G01 X76.258017 Y102.202011 Z-0.125000
G02 X76.317038 Y102.405985 Z-0.125000 I0.085721 J0.085722
G02 X76.687118 Y102.298899 Z-0.125000 I0.087894 J-0.389272
G01 X76.737356 Y102.248661 Z-0.125000
G03 X77.189388 Y102.059625 Z-0.125000 I0.456408 J0.456408
G03 X77.266936 Y102.245066 Z-0.125000 I0.000737 J0.108627
G01 X76.431909 Y103.080092 Z-0.125000
G02 X76.510660 Y103.264336 Z-0.125000 I0.076328 J0.076328
G02 X76.969979 Y103.068017 Z-0.125000 I-0.015057 J-0.670709
G01 X77.306194 Y102.731801 Z-0.125000
G03 X77.702099 Y102.598891 Z-0.125000 I0.331577 J0.331577
G03 X77.768199 Y102.795786 Z-0.125000 I-0.015911 J0.114884
G01 X77.512269 Y103.051716 Z-0.125000
G02 X77.591599 Y103.235384 Z-0.125000 I0.076098 J0.076098
G02 X78.054558 Y103.035425 Z-0.125000 I-0.020541 J-0.683476
G01 X78.281349 Y102.808635 Z-0.125000
G03 X78.738441 Y102.614538 Z-0.125000 I0.468843 J0.468843
G03 X78.816827 Y102.799138 Z-0.125000 I0.001917 J0.108129
G01 X78.605908 Y103.010060 Z-0.125000
G02 X78.686484 Y103.192479 Z-0.125000 I0.075608 J0.075608
G02 X79.157553 Y102.984404 Z-0.125000 I-0.033126 J-0.712270
G01 X79.370984 Y102.770973 Z-0.125000
G03 X79.862254 Y102.542696 Z-0.125000 I0.557916 J0.557916
G03 X79.945689 Y102.722255 Z-0.125000 I0.008903 J0.105027
G01 X79.722315 Y102.945632 Z-0.125000
G02 X79.799327 Y103.131612 Z-0.125000 I0.077036 J0.077036
G02 X80.248190 Y102.945743 Z-0.125000 I0.000135 J-0.634597
G01 X81.026209 Y102.167724 Z-0.125000
G03 X81.262148 Y102.194780 Z-0.125000 I0.107225 J0.107225
G03 X81.228083 Y102.491839 Z-0.125000 I-0.204039 J0.127085
G01 X80.857268 Y102.862654 Z-0.125000
G02 X80.940135 Y103.042781 Z-0.125000 I0.074741 J0.074741
G02 X81.427207 Y102.818704 Z-0.125000 I-0.059421 J-0.770570
G01 X81.750425 Y102.495489 Z-0.125000
G03 X82.199285 Y102.309622 Z-0.125000 I0.448723 J0.448723
G03 X82.276297 Y102.495603 Z-0.125000 I-0.000024 J0.108945
G01 X82.003766 Y102.768134 Z-0.125000
G02 X82.087386 Y102.947509 Z-0.125000 I0.074465 J0.074465
G02 X82.580040 Y102.717849 Z-0.125000 I-0.069054 J-0.791369
G01 X82.816380 Y102.481509 Z-0.125000
G03 X83.292028 Y102.268856 Z-0.125000 I0.516100 J0.516100
G03 X83.373282 Y102.450597 Z-0.125000 I0.005906 J0.106394
G01 X83.156317 Y102.667564 Z-0.125000
G02 X83.239936 Y102.846939 Z-0.125000 I0.074465 J0.074465
G02 X83.732591 Y102.617279 Z-0.125000 I-0.069054 J-0.791369
G01 X84.072156 Y102.277711 Z-0.125000
G02 X84.305403 Y101.781475 Z-0.125000 I-0.571582 J-0.571596
G02 X84.126495 Y101.697383 Z-0.125000 I-0.104613 J-0.009795
G01 X84.126495 Y101.697383 Z-0.125000
G02 X84.204132 Y101.882746 Z-0.125000 I0.076783 J0.076781
G02 X84.656653 Y101.693217 Z-0.125000 I-0.005091 J-0.647140
G01 X84.693097 Y101.656773 Z-0.125000
G03 X84.871569 Y101.741297 Z-0.125000 I0.074139 J0.074139
G03 X84.634952 Y102.240910 Z-0.125000 I-0.817615 J-0.081386
G01 X84.311672 Y102.564189 Z-0.125000
G02 X84.396222 Y102.742634 Z-0.125000 I0.074129 J0.074129
G02 X84.896040 Y102.505811 Z-0.125000 I-0.081758 J-0.818398
G01 X85.204963 Y102.196888 Z-0.125000
G02 X85.435103 Y101.703752 Z-0.125000 I-0.563029 J-0.563029
G02 X85.255791 Y101.620069 Z-0.125000 I-0.104871 J-0.009241
G01 X85.255791 Y101.620069 Z-0.125000
G02 X85.330052 Y101.808802 Z-0.125000 I0.078206 J0.078205
G02 X85.763654 Y101.638194 Z-0.125000 I0.020821 J-0.583390
G01 X86.014467 Y101.387381 Z-0.125000
G00 Z5.000000

(End cutting path id: path4873)


(Start cutting path id: path4873)
(Change tool to Cylindrical cutter)

G00 Z5.000000
G00 X88.305398 Y101.200506

G01 Z-0.125000 F1000.0(Penetrate)
G01 X87.247114 Y102.258792 Z-0.125000 F1100.000000
G02 X87.334910 Y102.433989 Z-0.125000 I0.073010 J0.073010
G02 X87.862089 Y102.169807 Z-0.125000 I-0.133882 J-0.925250
G01 X88.081347 Y101.950549 Z-0.125000
G00 Z5.000000

(End cutting path id: path4873)


(Start cutting path id: path4873)
(Change tool to Cylindrical cutter)

G00 Z5.000000
G00 X91.955735 Y101.758085

G01 Z-0.125000 F1000.0(Penetrate)
G01 X91.997290 Y101.716527 Z-0.125000 F1100.000000
G03 X92.167084 Y101.809720 Z-0.125000 I0.071325 J0.071325
G03 X91.847136 Y102.392672 Z-0.125000 I-1.160702 J-0.257764
G01 X91.743192 Y102.496615 Z-0.125000
G02 X91.802819 Y102.962978 Z-0.125000 I0.210127 J0.210127
G02 X92.405920 Y102.885867 Z-0.125000 I0.251691 J-0.428520
G01 X92.405920 Y102.885867 Z-0.125000
G03 X92.574676 Y102.980104 Z-0.125000 I0.071027 J0.071027
G03 X92.242097 Y103.575677 Z-0.125000 I-1.217233 J-0.289081
G01 X91.740829 Y104.076945 Z-0.125000
G03 X91.471264 Y104.083516 Z-0.125000 I-0.138232 J-0.138230
G03 X91.465008 Y103.826780 Z-0.125000 I0.119130 J-0.131348
G01 X91.465008 Y103.826780 Z-0.125000
G02 X91.795541 Y103.233251 Z-0.125000 I-0.877448 J-0.877448
G02 X91.626619 Y103.139179 Z-0.125000 I-0.097848 J-0.022998
G01 X91.421554 Y103.344242 Z-0.125000
G00 Z5.000000

(End cutting path id: path4873)


(Start cutting path id: path4873)
(Change tool to Cylindrical cutter)

G00 Z5.000000
G00 X92.161537 Y104.182226

G01 Z-0.125000 F1000.0(Penetrate)
G01 X91.935529 Y104.408234 Z-0.125000 F1100.000000
G02 X91.956412 Y104.650347 Z-0.125000 I0.112274 J0.112274
G02 X92.244232 Y104.625523 Z-0.125000 I0.129155 J-0.183490
G01 X92.286250 Y104.583505 Z-0.125000
G00 Z5.000000

(End cutting path id: path4873)


(Start cutting path id: path4848)
(Change tool to Cylindrical cutter)

G00 Z5.000000
G00 X92.253694 Y99.572921

G01 Z-0.125000 F1000.0(Penetrate)
G02 X92.119850 Y99.628360 Z-0.125000 I-0.000000 J0.189285 F1100.000000
G02 X92.064411 Y99.762201 Z-0.125000 I0.133840 J0.133841
G02 X92.119850 Y99.896042 Z-0.125000 I0.189279 J-0.000000
G02 X92.253694 Y99.951481 Z-0.125000 I0.133844 J-0.133845
G02 X92.387533 Y99.896043 Z-0.125000 I-0.000000 J-0.189276
G02 X92.442972 Y99.762201 Z-0.125000 I-0.133843 J-0.133842
G02 X92.387533 Y99.628359 Z-0.125000 I-0.189282 J-0.000000
G02 X92.253694 Y99.572921 Z-0.125000 I-0.133839 J0.133838
G01 X92.253694 Y99.572921 Z-0.125000
G00 Z5.000000

(End cutting path id: path4848)


(Start cutting path id: path4873)
(Change tool to Cylindrical cutter)

G00 Z5.000000
G00 X96.764366 Y101.683351

G01 Z-0.125000 F1000.0(Penetrate)
G01 X96.550255 Y101.897462 Z-0.125000 F1100.000000
G02 X96.635324 Y102.075388 Z-0.125000 I0.073945 J0.073945
G02 X97.139254 Y101.834452 Z-0.125000 I-0.089230 J-0.834096
G01 X97.413414 Y101.560292 Z-0.125000
G03 X97.862624 Y101.374068 Z-0.125000 I0.449585 J0.449585
G03 X97.939741 Y101.560044 Z-0.125000 I0.000064 J0.108950
G01 X97.811988 Y101.687797 Z-0.125000
G02 X97.912926 Y101.849853 Z-0.125000 I0.069299 J0.069299
G02 X98.610265 Y101.415509 Z-0.125000 I-0.585836 J-1.717519
G01 X98.644319 Y101.381455 Z-0.125000
G03 X99.406354 Y100.882414 Z-0.125000 I1.577487 J1.577487
G03 X99.510428 Y101.041335 Z-0.125000 I0.035466 J0.090313
G01 X99.380223 Y101.171543 Z-0.125000
G00 Z5.000000

(End cutting path id: path4873)


(Start cutting path id: path4848)
(Change tool to Cylindrical cutter)

G00 Z5.000000
G00 X100.037303 Y100.708603

G01 Z-0.125000 F1000.0(Penetrate)
G02 X99.876444 Y100.735092 Z-0.125000 I0.000000 J0.501658 F1100.000000
G02 X99.161805 Y101.004980 Z-0.125000 I3.532482 J10.434810
G03 X98.439065 Y101.215522 Z-0.125000 I-1.294701 J-3.098622
G03 X97.781524 Y101.243553 Z-0.125000 I-0.437200 J-2.529485
G02 X97.177838 Y101.288070 Z-0.125000 I-0.163523 J1.898007
G02 X97.031970 Y101.421554 Z-0.125000 I0.046965 J0.197764
G03 X96.919958 Y101.565189 Z-0.125000 I-0.258654 J-0.086216
G03 X96.805551 Y101.566007 Z-0.125000 I-0.057855 J-0.090684
G02 X96.670428 Y101.564183 Z-0.125000 I-0.069083 J0.111779
G02 X96.319180 Y101.848749 Z-0.125000 I0.738998 J1.271228
G02 X96.264986 Y102.095905 Z-0.125000 I0.188882 J0.170936
G02 X96.435842 Y102.220798 Z-0.125000 I0.170054 J-0.053323
G02 X97.564476 Y102.046188 Z-0.125000 I-0.017378 J-3.847219
G02 X99.421460 Y101.289140 Z-0.125000 I-3.533111 J-11.322508
G02 X100.082784 Y100.823157 Z-0.125000 I-1.298193 J-2.544669
G02 X100.037303 Y100.708603 Z-0.125000 I-0.045482 J-0.048248
G01 X100.037303 Y100.708603 Z-0.125000
G00 Z5.000000

(End cutting path id: path4848)


(Start cutting path id: path4848)
(Change tool to Cylindrical cutter)

G00 Z5.000000
G00 X100.874112 Y98.371922

G01 Z-0.125000 F1000.0(Penetrate)
G03 X100.643525 Y98.217566 Z-0.125000 I0.224274 J-0.584447 F1100.000000
G03 X100.582027 Y98.063017 Z-0.125000 I0.163451 J-0.154550
G03 X100.654515 Y97.996923 Z-0.125000 I0.066376 J0.000000
G03 X100.951981 Y98.097229 Z-0.125000 I-0.062596 J0.676863
G03 X101.028193 Y98.294799 Z-0.125000 I-0.093364 J0.149499
G03 X100.874112 Y98.371922 Z-0.125000 I-0.112273 J-0.031827
G01 X100.874112 Y98.371922 Z-0.125000
G00 Z5.000000

(End cutting path id: path4848)


(Start cutting path id: path4848)
(Change tool to Cylindrical cutter)

G00 Z5.000000
G00 X101.670388 Y98.373313

G01 Z-0.125000 F1000.0(Penetrate)
G01 X101.670388 Y98.323779 Z-0.125000 F1100.000000
G03 X101.906990 Y98.277844 Z-0.125000 I0.236602 J0.586370
G03 X102.143590 Y98.323780 Z-0.125000 I0.000000 J0.632288
G01 X102.143590 Y98.373313 Z-0.125000
G03 X101.906989 Y98.419249 Z-0.125000 I-0.236601 J-0.586358
G03 X101.670388 Y98.373313 Z-0.125000 I-0.000000 J-0.632294
G01 X101.670388 Y98.373313 Z-0.125000
G00 Z5.000000

(End cutting path id: path4848)


(Start cutting path id: path4848)
(Change tool to Cylindrical cutter)

G00 Z5.000000
G00 X102.380192 Y98.052880

G01 Z-0.125000 F1000.0(Penetrate)
G01 X102.351349 Y98.005550 Z-0.125000 F1100.000000
G03 X102.474829 Y97.869397 Z-0.125000 I0.317208 J0.163612
G03 X102.768650 Y97.719476 Z-0.125000 I0.879908 J1.361600
G03 X102.948031 Y97.685916 Z-0.125000 I0.179381 J0.462624
G01 X102.976873 Y97.733246 Z-0.125000
G03 X102.853390 Y97.869397 Z-0.125000 I-0.317203 J-0.163617
G03 X102.559569 Y98.019321 Z-0.125000 I-0.879817 J-1.361382
G03 X102.380192 Y98.052880 Z-0.125000 I-0.179376 J-0.462618
G01 X102.380192 Y98.052880 Z-0.125000
G00 Z5.000000

(End cutting path id: path4848)


(Start cutting path id: path4848)
(Change tool to Cylindrical cutter)

G00 Z5.000000
G00 X102.040171 Y97.321169

G01 Z-0.125000 F1000.0(Penetrate)
G03 X102.055117 Y97.206348 Z-0.125000 I0.051659 J-0.051659 F1100.000000
G03 X102.389654 Y97.118033 Z-0.125000 I0.327809 J0.563970
G03 X102.613493 Y97.212106 Z-0.125000 I-0.003319 J0.321236
G03 X102.598548 Y97.326926 Z-0.125000 I-0.051658 J0.051659
G03 X102.264012 Y97.415245 Z-0.125000 I-0.327813 J-0.563959
G03 X102.040171 Y97.321174 Z-0.125000 I0.003310 J-0.321227
G01 X102.040171 Y97.321169 Z-0.125000
G00 Z5.000000

(End cutting path id: path4848)


(Start cutting path id: path4873)
(Change tool to Cylindrical cutter)

G00 Z5.000000
G00 X102.474891 Y97.024894

G01 Z-0.125000 F1000.0(Penetrate)
G01 X111.014694 Y88.485091 Z-0.125000 F1100.000000
G03 X111.413971 Y88.348809 Z-0.125000 I0.338400 J0.338400
G03 X111.480894 Y88.544880 Z-0.125000 I-0.014680 J0.114467
G01 X101.829019 Y98.196755 Z-0.125000
G00 Z5.000000

(End cutting path id: path4873)


(Start cutting path id: path4848)
(Change tool to Cylindrical cutter)

G00 Z5.000000
G00 X103.610514 Y98.058680

G01 Z-0.125000 F1000.0(Penetrate)
G03 X103.264789 Y98.025842 Z-0.125000 I0.000000 J-1.836369 F1100.000000
G01 X103.231953 Y97.986114 Z-0.125000
G03 X103.263188 Y97.937666 Z-0.125000 I0.053190 J-0.000000
G03 X103.610514 Y97.814552 Z-0.125000 I0.897361 J1.980118
G03 X103.920586 Y97.804254 Z-0.125000 I0.177785 J0.679839
G03 X103.989075 Y97.887118 Z-0.125000 I-0.015884 J0.082864
G03 X103.921824 Y97.991430 Z-0.125000 I-0.114524 J0.000000
G03 X103.610514 Y98.058680 Z-0.125000 I-0.311310 J-0.686928
G01 X103.610514 Y98.058680 Z-0.125000
G00 Z5.000000

(End cutting path id: path4848)


(Start cutting path id: path4848)
(Change tool to Cylindrical cutter)

G00 Z5.000000
G00 X104.746194 Y97.264303

G01 Z-0.125000 F1000.0(Penetrate)
G03 X104.242555 Y97.161538 Z-0.125000 I0.156400 J-2.052018 F1100.000000
G03 X104.178353 Y97.072015 Z-0.125000 I0.030314 J-0.089523
G03 X104.272101 Y96.974259 Z-0.125000 I0.097841 J0.000000
G03 X104.888155 Y97.042298 Z-0.125000 I0.085707 J2.047011
G03 X104.937277 Y97.168937 Z-0.125000 I-0.021787 J0.081297
G03 X104.746194 Y97.264303 Z-0.125000 I-0.175276 J-0.112080
G01 X104.746194 Y97.264303 Z-0.125000
G00 Z5.000000

(End cutting path id: path4848)


(Start cutting path id: path4848)
(Change tool to Cylindrical cutter)

G00 Z5.000000
G00 X105.638177 Y97.133569

G01 Z-0.125000 F1000.0(Penetrate)
G03 X105.609048 Y96.998152 Z-0.125000 I0.090257 J-0.090257 F1100.000000
G03 X105.717833 Y96.922995 Z-0.125000 I0.108784 J0.041151
G03 X105.990323 Y96.965820 Z-0.125000 I-0.000000 J0.888320
G03 X106.146081 Y97.061013 Z-0.125000 I-0.119339 J0.370290
G03 X106.169974 Y97.172088 Z-0.125000 I-0.074032 J0.074032
G03 X106.066426 Y97.271588 Z-0.125000 I-0.156443 J-0.059178
G03 X105.865642 Y97.272584 Z-0.125000 I-0.101911 J-0.305741
G03 X105.638177 Y97.133569 Z-0.125000 I0.174343 J-0.540874
G01 X105.638177 Y97.133569 Z-0.125000
G00 Z5.000000

(End cutting path id: path4848)


(Start cutting path id: path4848)
(Change tool to Cylindrical cutter)

G00 Z5.000000
G00 X106.603513 Y97.052295

G01 Z-0.125000 F1000.0(Penetrate)
G01 X106.591427 Y96.993390 Z-0.125000 F1100.000000
G03 X106.717872 Y96.937939 Z-0.125000 I0.134259 J0.134261
G03 X106.954213 Y96.978449 Z-0.125000 I0.023542 J0.572332
G01 X106.966299 Y97.037354 Z-0.125000
G03 X106.839855 Y97.092804 Z-0.125000 I-0.134258 J-0.134258
G03 X106.603513 Y97.052305 Z-0.125000 I-0.023571 J-0.572303
G01 X106.603513 Y97.052295 Z-0.125000
G00 Z5.000000

(End cutting path id: path4848)


(Start cutting path id: path4848)
(Change tool to Cylindrical cutter)

G00 Z5.000000
G00 X107.928471 Y97.052295

G01 Z-0.125000 F1000.0(Penetrate)
G01 X107.916384 Y96.993389 Z-0.125000 F1100.000000
G03 X108.042828 Y96.937939 Z-0.125000 I0.134257 J0.134257
G03 X108.279170 Y96.978449 Z-0.125000 I0.023542 J0.572336
G01 X108.291257 Y97.037354 Z-0.125000
G03 X108.164812 Y97.092804 Z-0.125000 I-0.134258 J-0.134258
G03 X107.928471 Y97.052305 Z-0.125000 I-0.023571 J-0.572303
G01 X107.928471 Y97.052295 Z-0.125000
G00 Z5.000000

(End cutting path id: path4848)


(Start cutting path id: path4873)
(Change tool to Cylindrical cutter)

G00 Z5.000000
G00 X108.386586 Y96.899000

G01 Z-0.125000 F1000.0(Penetrate)
G01 X116.650808 Y88.634778 Z-0.125000 F1100.000000
G03 X116.844611 Y88.703970 Z-0.125000 I0.080509 J0.080509
G03 X116.698579 Y89.112996 Z-0.125000 I-0.504647 J0.050411
G01 X106.195912 Y99.615663 Z-0.125000
G02 X106.277909 Y99.796661 Z-0.125000 I0.075066 J0.075065
G02 X106.758727 Y99.578839 Z-0.125000 I-0.048911 J-0.747556
G01 X109.041679 Y97.295885 Z-0.125000
G03 X109.384541 Y97.216017 Z-0.125000 I0.235619 J0.235619
G03 X109.434230 Y97.429324 Z-0.125000 I-0.041508 J0.122110
G01 X109.126522 Y97.737032 Z-0.125000
G02 X109.277004 Y98.112538 Z-0.125000 I0.155564 J0.155564
G02 X110.154743 Y97.760786 Z-0.125000 I0.027766 J-1.201718
G01 X116.900795 Y91.014734 Z-0.125000
G02 X117.075332 Y90.577203 Z-0.125000 I-0.421866 J-0.421866
G02 X116.887331 Y90.502206 Z-0.125000 I-0.110113 J0.002892
G01 X110.210072 Y97.179468 Z-0.125000
G03 X110.012448 Y97.114097 Z-0.125000 I-0.082375 J-0.082375
G03 X110.142445 Y96.721103 Z-0.125000 I0.455749 J-0.067241
G01 X116.863956 Y89.999592 Z-0.125000
G02 X116.972308 Y89.628246 Z-0.125000 I-0.284489 J-0.284489
G02 X116.768717 Y89.568842 Z-0.125000 I-0.118079 J0.026107
G01 X109.616652 Y96.720908 Z-0.125000
G00 Z5.000000

(End cutting path id: path4873)


(Start cutting path id: path4848)
(Change tool to Cylindrical cutter)

G00 Z5.000000
G00 X109.643413 Y97.099394

G01 Z-0.125000 F1000.0(Penetrate)
G02 X109.275237 Y97.011929 Z-0.125000 I-0.349715 J0.653459 F1100.000000
G02 X109.099232 Y97.112957 Z-0.125000 I0.005309 J0.213077
G03 X108.957681 Y97.203972 Z-0.125000 I-0.166006 J-0.102599
G03 X108.836634 Y97.146126 Z-0.125000 I-0.015542 J-0.123050
G03 X109.002673 Y96.748159 Z-0.125000 I0.225667 J-0.139469
G03 X109.771206 Y96.930547 Z-0.125000 I0.200070 J0.867345
G03 X109.787089 Y97.067915 Z-0.125000 I-0.063896 J0.076990
G03 X109.643413 Y97.099406 Z-0.125000 I-0.090262 J-0.068311
G01 X109.643413 Y97.099394 Z-0.125000
G00 Z5.000000

(End cutting path id: path4848)


(Start cutting path id: path4848)
(Change tool to Cylindrical cutter)

G00 Z5.000000
G00 X109.752292 Y97.752338

G01 Z-0.125000 F1000.0(Penetrate)
G03 X109.597351 Y97.750074 Z-0.125000 I-0.074645 J-0.194519 F1100.000000
G01 X109.574185 Y97.677949 Z-0.125000
G03 X109.714718 Y97.535491 Z-0.125000 I0.381425 J0.235725
G03 X109.867935 Y97.490839 Z-0.125000 I0.153217 J0.240541
G03 X109.928853 Y97.584387 Z-0.125000 I0.000000 J0.066609
G03 X109.752292 Y97.752338 Z-0.125000 I-0.290264 J-0.128362
G01 X109.752292 Y97.752338 Z-0.125000
G00 Z5.000000

(End cutting path id: path4848)


(Start cutting path id: path4848)
(Change tool to Cylindrical cutter)

G00 Z5.000000
G00 X109.146963 Y98.225565

G01 Z-0.125000 F1000.0(Penetrate)
G03 X108.624399 Y98.147846 Z-0.125000 I0.042921 J-2.084253 F1100.000000
G01 X108.626441 Y98.078866 Z-0.125000
G03 X110.040823 Y97.968356 Z-0.125000 I1.106422 J5.054382
G03 X110.235326 Y98.174801 Z-0.125000 I-0.012309 J0.206446
G01 X110.199960 Y98.211856 Z-0.125000
G03 X109.146963 Y98.225565 Z-0.125000 I-0.730490 J-15.661398
G01 X109.146963 Y98.225565 Z-0.125000
G00 Z5.000000

(End cutting path id: path4848)


(Start cutting path id: path4873)
(Change tool to Cylindrical cutter)

G00 Z5.000000
G00 X107.124290 Y99.739258

G01 Z-0.125000 F1000.0(Penetrate)
G01 X108.369003 Y98.494545 Z-0.125000 F1100.000000
G03 X108.794347 Y98.332196 Z-0.125000 I0.394066 J0.394066
G03 X108.866998 Y98.522539 Z-0.125000 I-0.006264 J0.111427
G01 X107.887985 Y99.501552 Z-0.125000
G02 X107.970582 Y99.681951 Z-0.125000 I0.074842 J0.074842
G02 X108.455683 Y99.459846 Z-0.125000 I-0.056074 J-0.763280
G01 X109.365616 Y98.549911 Z-0.125000
G03 X110.278232 Y98.163278 Z-0.125000 I0.933825 J0.933825
G03 X110.434765 Y98.532752 Z-0.125000 I0.003476 J0.216423
G01 X109.595070 Y99.372445 Z-0.125000
G03 X109.106455 Y99.598065 Z-0.125000 I-0.550674 J-0.550674
G03 X109.023378 Y99.418148 Z-0.125000 I-0.008414 J-0.105254
G01 X111.098721 Y97.342805 Z-0.125000
G03 X111.463092 Y97.504423 Z-0.125000 I0.151036 J0.151036
G03 X111.043821 Y98.449683 Z-0.125000 I-1.435742 J-0.071211
G01 X110.171024 Y99.322482 Z-0.125000
G02 X110.254605 Y99.501894 Z-0.125000 I0.074478 J0.074478
G02 X110.746976 Y99.272517 Z-0.125000 I-0.068561 J-0.790309
G01 X111.616540 Y98.402954 Z-0.125000
G03 X112.085846 Y98.196642 Z-0.125000 I0.499654 J0.499654
G03 X112.166154 Y98.379324 Z-0.125000 I0.004598 J0.106971
G01 X111.320426 Y99.225054 Z-0.125000
G02 X111.413774 Y99.394700 Z-0.125000 I0.071282 J0.071282
G02 X111.998535 Y99.072934 Z-0.125000 I-0.262174 J-1.168700
G01 X112.900908 Y98.170561 Z-0.125000
G02 X113.162416 Y97.383063 Z-0.125000 I-0.654519 J-0.654519
G02 X112.767551 Y97.251938 Z-0.125000 I-0.230307 J0.033434
G01 X112.767551 Y97.251938 Z-0.125000
G02 X112.859340 Y97.423144 Z-0.125000 I0.071747 J0.071743
G02 X113.426262 Y97.119218 Z-0.125000 I-0.219777 J-1.090666
G01 X116.891398 Y93.654082 Z-0.125000
G02 X117.089276 Y93.193208 Z-0.125000 I-0.478262 J-0.478262
G02 X116.905283 Y93.114210 Z-0.125000 I-0.107766 J-0.002771
G01 X113.368159 Y96.651334 Z-0.125000
G03 X113.111847 Y96.644648 Z-0.125000 I-0.124983 J-0.124983
G03 X113.118894 Y96.374610 Z-0.125000 I0.145773 J-0.131307
G01 X116.914772 Y92.578729 Z-0.125000
G02 X117.100712 Y92.129795 Z-0.125000 I-0.448899 J-0.448899
G02 X116.914742 Y92.052770 Z-0.125000 I-0.108938 J0.000006
G01 X112.846316 Y96.121199 Z-0.125000
G03 X112.558914 Y96.145607 Z-0.125000 I-0.158170 J-0.158170
G03 X112.538327 Y95.903198 Z-0.125000 I0.091936 J-0.129886
G01 X117.108191 Y91.333332 Z-0.125000
G00 Z5.000000

(End cutting path id: path4873)


(Start cutting path id: path4848)
(Change tool to Cylindrical cutter)

G00 Z5.000000
G00 X117.144028 Y89.509487

G01 Z-0.125000 F1000.0(Penetrate)
G03 X116.871540 Y88.884721 Z-0.125000 I0.659396 J-0.659396 F1100.000000
G03 X116.695026 Y77.427122 Z-0.125000 I263.386746 J-9.787867
G02 X116.711131 Y70.715506 Z-0.125000 I-852.685549 J-5.402012
G02 X116.662323 Y56.133084 Z-0.125000 I-4025.570441 J6.182585
G02 X116.564100 Y50.839928 Z-0.125000 I-197.546819 J1.018326
G02 X116.463315 Y49.906617 Z-0.125000 I-6.210135 J0.198508
G03 X116.393942 Y49.006637 Z-0.125000 I4.184525 J-0.775221
G03 X116.497773 Y48.731631 Z-0.125000 I0.451147 J0.013231
G02 X116.607261 Y48.458489 Z-0.125000 I-0.369423 J-0.306596
G02 X116.565264 Y47.765447 Z-0.125000 I-2.666051 J-0.186237
G03 X116.429300 Y46.450958 Z-0.125000 I7.405732 J-1.430287
G03 X116.227286 Y25.753590 Z-0.125000 I1850.122885 J-28.407581
G01 X116.159061 Y9.380839 Z-0.125000
G01 X115.745246 Y8.599189 Z-0.125000
G02 X114.936524 Y7.632966 Z-0.125000 I-2.671035 J1.414081
G02 X113.130894 Y6.553759 Z-0.125000 I-5.190638 J6.634384
G02 X111.547670 Y5.984857 Z-0.125000 I-4.933655 J11.242633
G02 X110.102408 Y5.694709 Z-0.125000 I-2.572292 J9.068303
G02 X105.274609 Y5.279592 Z-0.125000 I-8.501872 J70.595545
G02 X98.995542 Y5.120042 Z-0.125000 I-6.173352 J119.315456
G01 X96.746575 Y5.122026 Z-0.125000
G01 X96.869632 Y5.926467 Z-0.125000
G03 X97.280268 Y9.595549 Z-0.125000 I-45.249930 J6.921793
G03 X97.734058 Y18.061052 Z-0.125000 I-240.749179 J17.150194
G02 X97.950727 Y22.938061 Z-0.125000 I290.197416 J-10.449182
G02 X97.997350 Y23.042723 Z-0.125000 I0.159739 J-0.008443
G02 X98.100745 Y23.080502 Z-0.125000 I0.092339 J-0.092339
G02 X99.625662 Y22.904419 Z-0.125000 I-2.152053 J-25.328362
G03 X101.089106 Y22.918366 Z-0.125000 I0.687011 J4.698466
G03 X101.179965 Y23.162035 Z-0.125000 I-0.024516 J0.147916
G02 X101.071584 Y23.456443 Z-0.125000 I0.361962 J0.300403
G02 X101.011034 Y36.416254 Z-0.125000 I802.651714 J10.230143
G03 X100.974354 Y49.333060 Z-0.125000 I-1035.183445 J3.518796
G03 X100.893016 Y49.413650 Z-0.125000 I-0.081324 J-0.000738
G02 X100.817831 Y49.473451 Z-0.125000 I-0.000013 J0.077148
G02 X100.832106 Y49.677607 Z-0.125000 I0.341143 J0.078723
G03 X100.886242 Y49.950531 Z-0.125000 I-0.765113 J0.293596
G03 X100.977771 Y55.450658 Z-0.125000 I-320.215711 J8.079631
G02 X101.089620 Y60.891694 Z-0.125000 I217.661889 J-1.752698
G02 X101.159938 Y60.959726 Z-0.125000 I0.070318 J-0.002325
G03 X101.233667 Y61.024768 Z-0.125000 I0.000000 J0.074309
G03 X101.316419 Y62.204847 Z-0.125000 I-10.673801 J1.341434
G02 X101.375658 Y63.438113 Z-0.125000 I18.703616 J-0.280364
G02 X101.429947 Y63.603430 Z-0.125000 I0.370429 J-0.030073
G03 X101.875781 Y65.101840 Z-0.125000 I-2.544665 J1.572666
G03 X101.494531 Y66.204732 Z-0.125000 I-1.666185 J0.041372
G02 X101.401507 Y66.457376 Z-0.125000 I0.313249 J0.258787
G02 X101.478762 Y67.247229 Z-0.125000 I3.530596 J0.053382
G03 X101.587862 Y68.067817 Z-0.125000 I-5.198188 J1.108666
G03 X101.687224 Y71.087680 Z-0.125000 I-70.709913 J3.838114
G02 X101.943601 Y81.477814 Z-0.125000 I396.189514 J-4.577791
G02 X102.094976 Y81.873648 Z-0.125000 I0.658304 J-0.024887
G03 X102.039985 Y81.994240 Z-0.125000 I-0.056639 J0.047006
G03 X101.325539 Y81.890881 Z-0.125000 I-0.048889 J-2.182980
G02 X100.476741 Y81.675347 Z-0.125000 I-2.186519 J6.831658
G02 X99.408420 Y81.526967 Z-0.125000 I-2.029203 J10.689958
G01 X98.329459 Y81.431304 Z-0.125000
G01 X98.233125 Y82.221101 Z-0.125000
G02 X98.167720 Y83.013291 Z-0.125000 I10.118963 J1.234228
G02 X97.927740 Y89.257147 Z-0.125000 I629.218731 J27.310360
G03 X97.572774 Y96.368315 Z-0.125000 I-216.700266 J-7.252499
G03 X97.252274 Y99.430965 Z-0.125000 I-40.467063 J-2.686702
G01 X97.123519 Y100.330047 Z-0.125000
G01 X97.953688 Y100.326774 Z-0.125000
G02 X107.074438 Y100.025903 Z-0.125000 I-0.622334 J-157.261620
G02 X111.370998 Y99.493875 Z-0.125000 I-2.192533 J-35.321633
G02 X113.956102 Y98.741567 Z-0.125000 I-2.502579 J-13.417087
G02 X115.945137 Y97.656363 Z-0.125000 I-3.603430 J-8.970025
G02 X116.739055 Y96.480690 Z-0.125000 I-1.165140 J-1.642704
G02 X117.238694 Y92.230283 Z-0.125000 I-17.829205 J-4.250407
G02 X117.193347 Y89.622944 Z-0.125000 I-74.980585 J0.000000
G02 X117.144025 Y89.509492 Z-0.125000 I-0.168642 J0.005868
G01 X117.144028 Y89.509487 Z-0.125000
G00 Z5.000000

(End cutting path id: path4848)


(Start cutting path id: path4848)
(Change tool to Cylindrical cutter)

G00 Z5.000000
G00 X112.614407 Y88.410352

G01 Z-0.125000 F1000.0(Penetrate)
G02 X111.140030 Y88.072164 Z-0.125000 I-1.956115 J5.144979 F1100.000000
G02 X105.976518 Y87.827160 Z-0.125000 I-5.625986 J64.035336
G03 X104.473414 Y87.738335 Z-0.125000 I0.104376 J-14.528487
G01 X104.462274 Y87.658602 Z-0.125000
G02 X105.412417 Y86.455716 Z-0.125000 I-0.590732 J-1.443306
G02 X105.601946 Y80.354347 Z-0.125000 I-24.435829 J-3.812688
G03 X105.701775 Y80.062339 Z-0.125000 I0.375032 J-0.034856
G03 X105.871856 Y80.065491 Z-0.125000 I0.083622 J0.078137
G02 X106.211382 Y80.329927 Z-0.125000 I0.840427 J-0.728887
G02 X106.357132 Y80.310203 Z-0.125000 I0.058508 J-0.116026
G01 X106.406138 Y80.326987 Z-0.125000
G03 X106.391176 Y80.502925 Z-0.125000 I-0.338605 J0.059811
G02 X106.489964 Y80.699458 Z-0.125000 I0.142887 J0.051271
G02 X106.702923 Y80.597567 Z-0.125000 I0.050797 J-0.167325
G01 X106.757443 Y80.593620 Z-0.125000
G03 X106.813334 Y80.786847 Z-0.125000 I-0.356028 J0.207678
G02 X106.923515 Y81.114098 Z-0.125000 I0.604170 J-0.021242
G02 X107.113802 Y81.212730 Z-0.125000 I0.190287 J-0.134241
G03 X107.224908 Y81.309441 Z-0.125000 I0.000000 J0.112177
G03 X107.165845 Y81.586592 Z-0.125000 I-0.411197 J0.057240
G02 X107.105827 Y81.928420 Z-0.125000 I0.392448 J0.245088
G02 X107.306202 Y82.243055 Z-0.125000 I0.522692 J-0.111754
G02 X107.701711 Y82.463489 Z-0.125000 I0.986549 J-1.305059
G02 X108.058600 Y82.534569 Z-0.125000 I0.381775 J-0.985373
G03 X108.424066 Y82.586673 Z-0.125000 I-0.036724 J1.565365
G03 X108.685997 Y82.701281 Z-0.125000 I-0.241434 J0.908405
G02 X109.525352 Y82.841108 Z-0.125000 I0.585009 J-0.922534
G02 X109.856765 Y82.420984 Z-0.125000 I-0.100584 J-0.420125
G03 X109.917383 Y82.219752 Z-0.125000 I0.364320 J-0.000000
G03 X110.030273 Y82.159130 Z-0.125000 I0.112890 J0.074800
G02 X110.157421 Y82.092852 Z-0.125000 I0.000000 J-0.155100
G02 X110.393887 Y81.638610 Z-0.125000 I-1.621787 J-1.132930
G03 X110.496580 Y81.635142 Z-0.125000 I0.052047 J0.019009
G03 X110.598940 Y82.100637 Z-0.125000 I-1.089698 J0.483621
G02 X110.911884 Y83.035320 Z-0.125000 I1.626214 J-0.024748
G02 X111.281852 Y83.035398 Z-0.125000 I0.185013 J-0.135164
G03 X111.471894 Y82.972343 Z-0.125000 I0.139272 J0.101839
G03 X111.648997 Y83.148440 Z-0.125000 I-0.078989 J0.256545
G03 X111.771437 Y83.581713 Z-0.125000 I-7.421463 J2.331191
G03 X111.828679 Y83.862651 Z-0.125000 I-3.058813 J0.769546
G02 X111.891236 Y84.142092 Z-0.125000 I2.185100 J-0.342446
G02 X112.133674 Y84.903695 Z-0.125000 I16.553992 J-4.850183
G03 X112.341663 Y85.664334 Z-0.125000 I-5.790536 J1.992115
G03 X112.342305 Y85.919953 Z-0.125000 I-0.630276 J0.129393
G02 X112.397826 Y87.308341 Z-0.125000 I2.896577 J0.579472
G02 X113.001093 Y88.233698 Z-0.125000 I1.795511 J-0.511225
G03 X112.979202 Y88.398454 Z-0.125000 I-0.062665 J0.075506
G03 X112.614407 Y88.410352 Z-0.125000 I-0.196630 J-0.430410
G01 X112.614407 Y88.410352 Z-0.125000
G00 Z5.000000

(End cutting path id: path4848)


(Start cutting path id: path4873)
(Change tool to Cylindrical cutter)

G00 Z5.000000
G00 X112.149672 Y88.402091

G01 Z-0.125000 F1000.0(Penetrate)
G01 X103.123176 Y97.428587 Z-0.125000 F1100.000000
G02 X103.267625 Y97.810125 Z-0.125000 I0.158214 J0.158214
G02 X104.114083 Y97.489658 Z-0.125000 I0.067748 J-1.099177
G01 X104.114083 Y97.489658 Z-0.125000
G03 X104.495439 Y97.371296 Z-0.125000 I0.303129 J0.303129
G03 X104.557732 Y97.571999 Z-0.125000 I-0.021667 J0.116743
G01 X102.284956 Y99.844775 Z-0.125000
G03 X101.811225 Y100.055511 Z-0.125000 I-0.511095 J-0.511095
G03 X101.730254 Y99.873488 Z-0.125000 I-0.005516 J-0.106567
G01 X103.428010 Y98.175731 Z-0.125000
G00 Z5.000000

(End cutting path id: path4873)


(Start cutting path id: path4873)
(Change tool to Cylindrical cutter)

G00 Z5.000000
G00 X103.198529 Y99.983180

G01 Z-0.125000 F1000.0(Penetrate)
G01 X104.526861 Y98.654847 Z-0.125000 F1100.000000
G03 X104.929466 Y98.515237 Z-0.125000 I0.345219 J0.345219
G03 X104.997182 Y98.710515 Z-0.125000 I-0.013501 J0.114062
G01 X103.954639 Y99.753059 Z-0.125000
G02 X104.036141 Y99.934552 Z-0.125000 I0.075253 J0.075253
G02 X104.513502 Y99.720185 Z-0.125000 I-0.043232 J-0.734959
G01 X116.583590 Y87.650017 Z-0.125000
G03 X116.774630 Y87.721973 Z-0.125000 I0.079229 J0.079229
G03 X116.615718 Y88.143879 Z-0.125000 I-0.545342 J0.035476
G01 X105.072374 Y99.687222 Z-0.125000
G02 X105.154111 Y99.868482 Z-0.125000 I0.075164 J0.075164
G02 X105.633102 Y99.652487 Z-0.125000 I-0.045896 J-0.740882
G01 X108.069959 Y97.215627 Z-0.125000
G00 Z5.000000

(End cutting path id: path4873)


(Start cutting path id: path4848)
(Change tool to Cylindrical cutter)

G00 Z5.000000
G00 X105.266716 Y98.390415

G01 Z-0.125000 F1000.0(Penetrate)
G03 X105.077826 Y98.317698 Z-0.125000 I-0.004714 J-0.269445 F1100.000000
G03 X105.094916 Y98.229572 Z-0.125000 I0.036226 J-0.038695
G03 X105.532211 Y98.123639 Z-0.125000 I0.618577 J1.597950
G03 X105.710077 Y98.164122 Z-0.125000 I0.029796 J0.280058
G03 X105.705308 Y98.280880 Z-0.125000 I-0.035250 J0.057037
G03 X105.266716 Y98.390415 Z-0.125000 I-0.456186 J-0.893777
G01 X105.266716 Y98.390415 Z-0.125000
G00 Z5.000000

(End cutting path id: path4848)


(Start cutting path id: path4873)
(Change tool to Cylindrical cutter)

G00 Z5.000000
G00 X102.642411 Y100.013309

G01 Z-0.125000 F1000.0(Penetrate)
G01 X105.299827 Y97.355895 Z-0.125000 F1100.000000
G03 X105.586337 Y97.332378 Z-0.125000 I0.157116 J0.157116
G03 X105.606286 Y97.575423 Z-0.125000 I-0.093112 J0.129984
G01 X105.150656 Y98.031053 Z-0.125000
G02 X105.247770 Y98.196934 Z-0.125000 I0.070244 J0.070244
G02 X105.882166 Y97.825531 Z-0.125000 I-0.392989 J-1.398779
G01 X106.543397 Y97.164301 Z-0.125000
G00 Z5.000000

(End cutting path id: path4873)


(Start cutting path id: path4848)
(Change tool to Cylindrical cutter)

G00 Z5.000000
G00 X111.476818 Y97.112278

G01 Z-0.125000 F1000.0(Penetrate)
G03 X111.408492 Y97.085116 Z-0.125000 I-0.000000 J-0.099517 F1100.000000
G03 X111.276364 Y96.922995 Z-0.125000 I0.552895 J-0.585509
G03 X111.267431 Y96.793958 Z-0.125000 I0.118126 J-0.073005
G03 X111.359836 Y96.733717 Z-0.125000 I0.092404 J0.040749
G03 X111.503268 Y96.790734 Z-0.125000 I0.000000 J0.208917
G03 X111.560286 Y96.922995 Z-0.125000 I-0.124888 J0.132260
G03 X111.527346 Y97.079336 Z-0.125000 I-0.387482 J0.000000
G03 X111.476818 Y97.112278 Z-0.125000 I-0.050528 J-0.022281
G01 X111.476818 Y97.112278 Z-0.125000
G00 Z5.000000

(End cutting path id: path4848)


(Start cutting path id: path4873)
(Change tool to Cylindrical cutter)

G00 Z5.000000
G00 X111.657246 Y96.784277

G01 Z-0.125000 F1000.0(Penetrate)
G01 X111.859291 Y96.582235 Z-0.125000 F1100.000000
G03 X112.114719 Y96.589802 Z-0.125000 I0.124148 J0.124148
G03 X112.106689 Y96.860825 Z-0.125000 I-0.147801 J0.131252
G01 X111.332238 Y97.635274 Z-0.125000
G02 X111.430109 Y97.800399 Z-0.125000 I0.070049 J0.070049
G02 X112.075819 Y97.417685 Z-0.125000 I-0.425433 J-1.453859
G01 X112.567938 Y96.925564 Z-0.125000
G00 Z5.000000

(End cutting path id: path4873)


(Start cutting path id: path4848)
(Change tool to Cylindrical cutter)

G00 Z5.000000
G00 X113.642371 Y97.680116

G01 Z-0.125000 F1000.0(Penetrate)
G03 X113.214402 Y97.939397 Z-0.125000 I-0.742146 J-0.742146 F1100.000000
G03 X112.435709 Y98.058680 Z-0.125000 I-0.778693 J-2.482050
G02 X111.610120 Y98.088816 Z-0.125000 I-0.000000 J11.323502
G02 X110.968785 Y98.165920 Z-0.125000 I0.504695 J6.903805
G03 X110.626154 Y98.159506 Z-0.125000 I-0.154183 J-0.918455
G01 X110.613884 Y98.092590 Z-0.125000
G03 X110.914970 Y97.956955 Z-0.125000 I0.620985 J0.976480
G03 X111.703051 Y97.779298 Z-0.125000 I1.914286 J6.654934
G02 X112.367776 Y97.582648 Z-0.125000 I-0.454761 J-2.758993
G02 X112.401680 Y97.474064 Z-0.125000 I-0.030145 J-0.068997
G03 X112.398500 Y97.359225 Z-0.125000 I0.097348 J-0.060160
G03 X112.495516 Y97.301556 Z-0.125000 I0.097016 J0.052770
G03 X112.633424 Y97.364873 Z-0.125000 I-0.000000 J0.181844
G03 X112.698867 Y97.538158 Z-0.125000 I-0.205483 J0.176604
G01 X112.757711 Y97.583520 Z-0.125000
G02 X112.888329 Y97.490839 Z-0.125000 I-0.053345 J-0.213563
G02 X112.906159 Y97.228141 Z-0.125000 I-0.223942 J-0.147154
G02 X112.503884 Y96.686395 Z-0.125000 I-1.587869 J0.758849
G03 X112.104979 Y96.232546 Z-0.125000 I1.844533 J-2.023461
G01 X112.139702 Y96.165876 Z-0.125000
G03 X113.280740 Y96.665756 Z-0.125000 I0.000000 J1.552220
G03 X113.359746 Y97.488741 Z-0.125000 I-0.502604 J0.463534
G02 X113.350046 Y97.619580 Z-0.125000 I0.120938 J0.074745
G02 X113.441920 Y97.680116 Z-0.125000 I0.091875 J-0.039449
G02 X113.567041 Y97.604791 Z-0.125000 I0.000000 J-0.141580
G02 X113.642371 Y97.301556 Z-0.125000 I-0.572662 J-0.303235
G03 X113.714670 Y96.995292 Z-0.125000 I0.684829 J0.000000
G03 X113.831649 Y96.922995 Z-0.125000 I0.116979 J0.058489
G03 X113.970417 Y97.100726 Z-0.125000 I0.000000 J0.143039
G03 X113.642371 Y97.680116 Z-0.125000 I-1.209908 J-0.302476
G01 X113.642371 Y97.680116 Z-0.125000
G00 Z5.000000

(End cutting path id: path4848)


(Start cutting path id: path4873)
(Change tool to Cylindrical cutter)

G00 Z5.000000
G00 X114.103118 Y96.968351

G01 Z-0.125000 F1000.0(Penetrate)
G01 X116.859292 Y94.212179 Z-0.125000 F1100.000000
G03 X117.038598 Y94.295867 Z-0.125000 I0.074439 J0.074439
G03 X116.808420 Y94.789038 Z-0.125000 I-0.793312 J-0.069961
G01 X112.726524 Y98.870936 Z-0.125000
G02 X112.822977 Y99.037478 Z-0.125000 I0.070418 J0.070418
G02 X113.447896 Y98.675554 Z-0.125000 I-0.366570 J-1.353413
G01 X116.732214 Y95.391234 Z-0.125000
G03 X116.903630 Y95.482814 Z-0.125000 I0.071808 J0.071808
G03 X116.601946 Y96.047493 Z-0.125000 I-1.080926 J-0.214564
G01 X114.413239 Y98.236200 Z-0.125000
G02 X114.517453 Y98.394981 Z-0.125000 I0.068579 J0.068579
G02 X115.282723 Y97.892705 Z-0.125000 I-0.827766 J-2.095313
G01 X116.628172 Y96.547256 Z-0.125000
G00 Z5.000000

(End cutting path id: path4873)


(Start cutting path id: path4873)
(Change tool to Cylindrical cutter)

G00 Z5.000000
G00 X110.741270 Y88.232525

G01 Z-0.125000 F1000.0(Penetrate)
G01 X101.191686 Y97.782107 Z-0.125000 F1100.000000
G02 X101.205638 Y98.031151 Z-0.125000 I0.118286 J0.118286
G02 X101.484241 Y98.015543 Z-0.125000 I0.130572 J-0.163640
G01 X102.026801 Y97.472983 Z-0.125000
G00 Z5.000000

(End cutting path id: path4873)


(Start cutting path id: path4848)
(Change tool to Cylindrical cutter)

G00 Z5.000000
G00 X100.187250 Y97.318962

G01 Z-0.125000 F1000.0(Penetrate)
G03 X100.016157 Y97.185690 Z-0.125000 I0.144923 J-0.362510 F1100.000000
G01 X100.046023 Y97.124274 Z-0.125000
G03 X100.844807 Y97.259930 Z-0.125000 I0.075131 J1.977173
G03 X100.840159 Y97.436338 Z-0.125000 I-0.034330 J0.087361
G03 X100.645734 Y97.450353 Z-0.125000 I-0.124679 J-0.374028
G03 X100.187250 Y97.318962 Z-0.125000 I0.417346 J-2.321937
G01 X100.187250 Y97.318962 Z-0.125000
G00 Z5.000000

(End cutting path id: path4848)


(Start cutting path id: path4848)
(Change tool to Cylindrical cutter)

G00 Z5.000000
G00 X99.257064 Y98.247958

G01 Z-0.125000 F1000.0(Penetrate)
G03 X99.123222 Y98.192519 Z-0.125000 I-0.000000 J-0.189282 F1100.000000
G03 X99.067784 Y98.058680 Z-0.125000 I0.133838 J-0.133839
G03 X99.123224 Y97.924836 Z-0.125000 I0.189285 J0.000000
G03 X99.257064 Y97.869397 Z-0.125000 I0.133841 J0.133840
G03 X99.390907 Y97.924837 Z-0.125000 I0.000000 J0.189283
G03 X99.446347 Y98.058680 Z-0.125000 I-0.133843 J0.133843
G03 X99.390909 Y98.192518 Z-0.125000 I-0.189274 J-0.000000
G03 X99.257064 Y98.247958 Z-0.125000 I-0.133845 J-0.133846
G01 X99.257064 Y98.247958 Z-0.125000
G00 Z5.000000

(End cutting path id: path4848)


(Start cutting path id: path4848)
(Change tool to Cylindrical cutter)

G00 Z5.000000
G00 X98.357984 Y98.567716

G01 Z-0.125000 F1000.0(Penetrate)
G01 X98.357984 Y98.523718 Z-0.125000 F1100.000000
G03 X98.689223 Y98.481151 Z-0.125000 I0.331239 J1.267483
G03 X99.020464 Y98.523718 Z-0.125000 I-0.000000 J1.310067
G01 X99.020464 Y98.567716 Z-0.125000
G03 X98.689224 Y98.610281 Z-0.125000 I-0.331240 J-1.267580
G03 X98.357984 Y98.567716 Z-0.125000 I0.000000 J-1.310145
G01 X98.357984 Y98.567716 Z-0.125000
G00 Z5.000000

(End cutting path id: path4848)


(Start cutting path id: path4848)
(Change tool to Cylindrical cutter)

G00 Z5.000000
G00 X98.554396 Y97.300663

G01 Z-0.125000 F1000.0(Penetrate)
G03 X98.516275 Y97.224052 Z-0.125000 I0.045002 J-0.070182 F1100.000000
G01 X98.562752 Y97.192622 Z-0.125000
G02 X98.912489 Y97.285514 Z-0.125000 I1.210505 J-3.852735
G02 X99.130590 Y97.316500 Z-0.125000 I0.318991 J-1.462206
G01 X99.168865 Y97.360754 Z-0.125000
G03 X99.122234 Y97.424536 Z-0.125000 I-0.074854 J-0.005789
G03 X98.899626 Y97.443574 Z-0.125000 I-0.142067 J-0.350180
G03 X98.554393 Y97.300663 Z-0.125000 I0.225245 J-1.032576
G01 X98.554396 Y97.300663 Z-0.125000
G00 Z5.000000

(End cutting path id: path4848)


(Start cutting path id: path4873)
(Change tool to Cylindrical cutter)

G00 Z5.000000
G00 X97.367268 Y99.502484

G01 Z-0.125000 F1000.0(Penetrate)
G01 X98.022837 Y98.846917 Z-0.125000 F1100.000000
G03 X98.406809 Y98.725939 Z-0.125000 I0.308126 J0.308126
G03 X98.469819 Y98.925923 Z-0.125000 I-0.020574 J0.116401
G01 X97.476598 Y99.919143 Z-0.125000
G02 X97.537793 Y100.120944 Z-0.125000 I0.084542 J0.084542
G02 X97.915253 Y100.006480 Z-0.125000 I0.081680 J-0.410243
