%
(Header)
(Generated by gcodetools from Inkscape.)
(Using default header. To add your own header create file "header" in the output dir.)
M3
(Header end.)
G21 (All units in mm)

(Pass at depth -1.0)
(Start cutting path id: path885)
(Change tool to Cylindrical cutter)

G00 Z5.000000
G00 X44.816991 Y2.237912

G01 Z-1.000000 F1000.0(Penetrate)
G02 X45.469657 Y3.006464 Z-1.000000 I2.551663 J-1.505509 F1100.000000
G02 X46.269989 Y3.451274 Z-1.000000 I1.566096 J-1.875411
G03 X47.935647 Y4.448656 Z-1.000000 I-1.389427 J4.209925
G03 X49.550644 Y6.571139 Z-1.000000 I-5.765438 J6.062587
G02 X51.933934 Y10.187973 Z-1.000000 I20.735194 J-11.069681
G02 X52.764467 Y10.587064 Z-1.000000 I0.830535 J-0.664654
G02 X52.818630 Y10.490031 Z-1.000000 I0.000000 J-0.063633
G02 X51.989479 Y9.330293 Z-1.000000 I-8.915386 J5.497759
G03 X51.008636 Y8.035638 Z-1.000000 I15.501098 J-12.762653
G03 X50.009994 Y6.485390 Z-1.000000 I21.251557 J-14.786658
G02 X48.397488 Y4.419868 Z-1.000000 I-8.945793 J5.321593
G02 X46.698289 Y3.197805 Z-1.000000 I-4.678598 J4.712940
G03 X45.675767 Y2.519644 Z-1.000000 I2.292210 J-4.566116
G03 X45.266761 Y1.977322 Z-1.000000 I1.015849 J-1.191522
G02 X44.897051 Y1.440484 Z-1.000000 I-1.697998 J0.773651
G02 X44.624812 Y1.326641 Z-1.000000 I-0.272240 J0.268592
G02 X44.515442 Y1.461481 Z-1.000000 I-0.000000 J0.111775
G02 X44.816991 Y2.237912 Z-1.000000 I2.517184 J-0.530846
G01 X44.816991 Y2.237912 Z-1.000000
G00 Z5.000000

(End cutting path id: path885)

(Start cutting path id: path891)
(Change tool to Cylindrical cutter)

G00 Z5.000000
G00 X52.904524 Y6.265545

G01 Z-1.000000 F1000.0(Penetrate)
G02 X52.780626 Y7.159987 Z-1.000000 I0.529090 J0.529092 F1100.000000
G02 X53.756302 Y7.787846 Z-1.000000 I1.077980 J-0.603136
G03 X54.175364 Y7.861109 Z-1.000000 I-0.195300 J2.352267
G03 X55.225341 Y8.183828 Z-1.000000 I-4.099414 J15.206973
G01 X56.267341 Y8.544320 Z-1.000000
G01 X55.556070 Y9.156129 Z-1.000000
G02 X54.946414 Y9.814566 Z-1.000000 I2.583863 J3.003894
G02 X54.844798 Y10.124588 Z-1.000000 I0.422119 J0.310022
G03 X54.776330 Y10.452880 Z-1.000000 I-0.821285 J-0.000001
G03 X54.568997 Y10.757037 Z-1.000000 I-0.907033 J-0.395545
G02 X54.615146 Y11.313619 Z-1.000000 I0.258755 J0.258750
G02 X55.894996 Y11.703599 Z-1.000000 I1.220176 J-1.709297
G03 X56.604464 Y11.809571 Z-1.000000 I0.057996 J2.039629
G03 X56.985225 Y12.070921 Z-1.000000 I-0.270004 J0.801408
G03 X57.039458 Y12.505151 Z-1.000000 I-0.312754 J0.259563
G03 X54.383796 Y17.536757 Z-1.000000 I-62.038763 J-29.527185
G02 X51.427930 Y23.072887 Z-1.000000 I74.034490 J43.085877
G02 X51.493267 Y23.463343 Z-1.000000 I0.306378 J0.149427
G02 X51.597629 Y23.450246 Z-1.000000 I0.047093 J-0.047093
G02 X52.173959 Y22.316874 Z-1.000000 I-8.378244 J-4.973629
G03 X52.746672 Y21.051501 Z-1.000000 I32.075520 J13.755247
G03 X52.923671 Y20.744495 Z-1.000000 I2.050828 J0.977840
G02 X56.112085 Y15.830045 Z-1.000000 I-94.688462 J-64.923841
G02 X57.245212 Y13.695932 Z-1.000000 I-16.650606 J-10.208670
G03 X57.633049 Y13.057558 Z-1.000000 I2.846604 J1.292423
G03 X57.816584 Y12.968323 Z-1.000000 I0.183534 J0.144124
G02 X58.032084 Y12.906757 Z-1.000000 I0.000001 J-0.407941
G02 X58.454464 Y12.571454 Z-1.000000 I-1.247614 J-2.005303
G02 X58.615298 Y12.272346 Z-1.000000 I-0.417045 J-0.417046
G02 X58.535465 Y12.174574 Z-1.000000 I-0.079834 J-0.016293
G03 X58.437701 Y12.072146 Z-1.000000 I0.000000 J-0.097870
G03 X58.554265 Y11.771304 Z-1.000000 I0.507577 J0.023663
G02 X58.807549 Y11.382687 Z-1.000000 I-1.553398 J-1.289284
G02 X58.785096 Y11.308284 Z-1.000000 I-0.050718 J-0.025284
G02 X58.680809 Y11.249304 Z-1.000000 I-3.729490 J6.472738
G02 X58.175217 Y10.969703 Z-1.000000 I-91.699572 J165.219960
G03 X57.703317 Y10.188090 Z-1.000000 I0.440305 J-0.799096
G03 X58.147619 Y9.530433 Z-1.000000 I0.689328 J-0.013212
G02 X58.716082 Y9.241058 Z-1.000000 I-1.056131 J-2.777761
G02 X58.935720 Y9.015894 Z-1.000000 I-0.394985 J-0.604998
G03 X59.160612 Y8.826970 Z-1.000000 I0.399004 J0.246650
G03 X59.638500 Y8.734995 Z-1.000000 I0.477886 J1.195530
G02 X59.973228 Y8.626593 Z-1.000000 I0.000001 J-0.570989
G02 X60.004141 Y8.470416 Z-1.000000 I-0.068534 J-0.094713
G03 X60.638129 Y7.711366 Z-1.000000 I0.443341 J-0.273996
G03 X63.947748 Y10.020422 Z-1.000000 I-3.174289 J8.076177
G03 X64.302808 Y10.520210 Z-1.000000 I-2.099804 J1.867759
G01 X64.263517 Y10.587083 Z-1.000000
G02 X64.209271 Y10.663565 Z-1.000000 I-0.000000 J0.057479
G02 X64.537776 Y11.370053 Z-1.000000 I3.746738 J-1.312550
G02 X65.111922 Y12.027716 Z-1.000000 I2.052610 J-1.212500
G02 X66.206374 Y12.689166 Z-1.000000 I3.172226 J-4.012666
G03 X67.341666 Y13.327431 Z-1.000000 I-2.822259 J6.348811
G03 X68.335362 Y14.164609 Z-1.000000 I-3.938904 J5.683640
G02 X69.197035 Y14.839439 Z-1.000000 I3.014950 J-2.962175
G02 X69.367631 Y14.775761 Z-1.000000 I0.059604 J-0.100674
G02 X69.309067 Y14.490608 Z-1.000000 I-0.275712 J-0.091966
G02 X67.181935 Y12.318908 Z-1.000000 I-23.685724 J21.072053
G03 X65.026840 Y10.130317 Z-1.000000 I23.061078 J-24.863488
G03 X64.892899 Y9.773314 Z-1.000000 I0.388575 J-0.349414
G02 X64.463346 Y8.864726 Z-1.000000 I-1.140965 J-0.016420
G02 X62.782271 Y8.090380 Z-1.000000 I-2.412467 J3.025425
G02 X60.157389 Y7.671981 Z-1.000000 I-7.829377 J40.675651
G02 X57.575152 Y7.430902 Z-1.000000 I-4.955069 J39.124616
G03 X57.360877 Y7.305783 Z-1.000000 I0.016442 J-0.274199
G03 X57.178273 Y6.816762 Z-1.000000 I1.021453 J-0.660019
G02 X56.940083 Y6.379107 Z-1.000000 I-0.704997 J0.100045
G02 X56.399924 Y6.140990 Z-1.000000 I-0.655316 J0.754838
G02 X55.766110 Y6.544191 Z-1.000000 I-0.068640 J0.591866
G02 X55.937092 Y7.527480 Z-1.000000 I0.997645 J0.333032
G03 X56.303667 Y8.120212 Z-1.000000 I-2.436763 J1.916735
G03 X56.253031 Y8.196450 Z-1.000000 I-0.048338 J0.022830
G03 X55.486641 Y7.932801 Z-1.000000 I0.061474 J-1.424412
G03 X54.318623 Y6.816757 Z-1.000000 I3.288538 J-4.610914
G02 X53.428268 Y6.155624 Z-1.000000 I-1.653495 J1.296687
G02 X52.904494 Y6.265545 Z-1.000000 I-0.177731 J0.455965
G01 X52.904524 Y6.265545 Z-1.000000
G00 Z5.000000

(End cutting path id: path891)

(Start cutting path id: path961)
(Change tool to Cylindrical cutter)

G00 Z5.000000
G00 X54.051051 Y8.486017

G01 Z-1.000000 F1000.0(Penetrate)
G02 X54.135256 Y8.615184 Z-1.000000 I0.141170 J0.000000 F1100.000000
G02 X54.315630 Y8.602697 Z-1.000000 I0.078325 J-0.177600
G02 X54.542256 Y8.418017 Z-1.000000 I-0.590760 J-0.956326
G02 X54.580221 Y8.322497 Z-1.000000 I-0.101182 J-0.095519
G02 X54.534159 Y8.251850 Z-1.000000 I-0.077208 J-0.000000
G02 X54.315631 Y8.205817 Z-1.000000 I-0.218528 J0.495683
G02 X54.130753 Y8.285519 Z-1.000000 I-0.000000 J0.254274
G02 X54.051051 Y8.486017 Z-1.000000 I0.212335 J0.200498
G01 X54.051051 Y8.486017 Z-1.000000
G00 Z5.000000

(End cutting path id: path961)

(Start cutting path id: path963)
(Change tool to Cylindrical cutter)

G00 Z5.000000
G00 X53.257299 Y9.764605

G01 Z-1.000000 F1000.0(Penetrate)
G02 X53.346827 Y9.985662 Z-1.000000 I0.317670 J0.000001 F1100.000000
G02 X53.810098 Y10.335136 Z-1.000000 I1.350792 J-1.308841
G02 X54.158735 Y10.353801 Z-1.000000 I0.194249 J-0.362952
G02 X54.270078 Y10.149047 Z-1.000000 I-0.068802 J-0.170064
G02 X53.693653 Y9.463505 Z-1.000000 I-0.902636 J0.173856
G02 X53.257299 Y9.764605 Z-1.000000 I-0.114292 J0.301101
G01 X53.257299 Y9.764605 Z-1.000000
G00 Z5.000000

(End cutting path id: path963)

(Start cutting path id: path965)
(Change tool to Cylindrical cutter)

G00 Z5.000000
G00 X59.838937 Y16.909016

G01 Z-1.000000 F1000.0(Penetrate)
G03 X60.111672 Y14.086949 Z-1.000000 I384.671418 J35.751869 F1100.000000
G02 X60.033774 Y12.655856 Z-1.000000 I-4.636641 J-0.465281
G00 Z5.000000

(End cutting path id: path965)

(Start cutting path id: path893)
(Change tool to Cylindrical cutter)

G00 Z5.000000
G00 X64.318699 Y9.668043

G01 Z-1.000000 F1000.0(Penetrate)
G03 X64.202191 Y9.668250 Z-1.000000 I-0.058358 J-0.058358 F1100.000000
G03 X63.989939 Y9.341732 Z-1.000000 I0.650386 J-0.655026
G03 X64.021582 Y9.193832 Z-1.000000 I0.130034 J-0.049515
G03 X64.138050 Y9.193613 Z-1.000000 I0.058344 J0.058341
G03 X64.350343 Y9.520152 Z-1.000000 I-0.650036 J0.654887
G03 X64.318699 Y9.668043 Z-1.000000 I-0.130025 J0.049509
G01 X64.318699 Y9.668043 Z-1.000000
G00 Z5.000000

(End cutting path id: path893)

(Start cutting path id: path895)
(Change tool to Cylindrical cutter)

G00 Z5.000000
G00 X65.462136 Y11.182405

G01 Z-1.000000 F1000.0(Penetrate)
G03 X65.462393 Y11.389993 Z-1.000000 I-0.195242 J0.104035 F1100.000000
G03 X65.339156 Y11.414585 Z-1.000000 I-0.071645 J-0.037949
G03 X64.965194 Y11.020234 Z-1.000000 I1.418817 J-1.719951
G03 X64.898967 Y10.819274 Z-1.000000 I0.271783 J-0.200959
G03 X65.051505 Y10.736132 Z-1.000000 I0.098928 J0.000000
G03 X65.462136 Y11.182405 Z-1.000000 I-0.653297 J1.013176
G01 X65.462136 Y11.182405 Z-1.000000
G00 Z5.000000

(End cutting path id: path895)

(Start cutting path id: path979)
(Change tool to Cylindrical cutter)

G00 Z5.000000
G00 X75.746851 Y26.963031

G01 Z-1.000000 F1000.0(Penetrate)
G02 X75.826165 Y27.144806 Z-1.000000 I0.247957 J0.000000 F1100.000000
G02 X76.181151 Y27.365962 Z-1.000000 I0.750043 J-0.808444
G02 X76.307928 Y27.312035 Z-1.000000 I0.035503 J-0.092519
G02 X76.281051 Y27.129692 Z-1.000000 I-0.163364 J-0.069073
G02 X75.882893 Y26.862965 Z-1.000000 I-0.649555 J0.539087
G02 X75.746851 Y26.963031 Z-1.000000 I-0.031219 J0.100066
G01 X75.746851 Y26.963031 Z-1.000000
G00 Z5.000000

(End cutting path id: path979)

(Start cutting path id: path983)
(Change tool to Cylindrical cutter)

G00 Z5.000000
G00 X76.949030 Y27.803783

G01 Z-1.000000 F1000.0(Penetrate)
G03 X77.003123 Y28.101817 Z-1.000000 I-0.352588 J0.217920 F1100.000000
G03 X76.528216 Y29.940273 Z-1.000000 I-15.989874 J-3.149907
G02 X76.187798 Y31.776359 Z-1.000000 I6.975086 J2.242810
G02 X76.373722 Y32.719112 Z-1.000000 I1.937061 J0.107696
G03 X76.529324 Y34.760457 Z-1.000000 I-2.562381 J1.221921
G03 X75.342107 Y36.140931 Z-1.000000 I-2.149849 J-0.648141
G02 X74.592128 Y37.047949 Z-1.000000 I0.596318 J1.256646
G02 X74.886944 Y37.893620 Z-1.000000 I0.779573 J0.202452
G03 X75.791041 Y39.028793 Z-1.000000 I-1.748787 J2.320419
G03 X75.674961 Y39.657391 Z-1.000000 I-0.514722 J0.229966
G02 X75.582941 Y39.870344 Z-1.000000 I0.222486 J0.222497
G02 X75.665960 Y39.955921 Z-1.000000 I0.083019 J0.002519
G02 X76.268345 Y39.239769 Z-1.000000 I0.000001 J-0.611420
G02 X75.284164 Y37.759971 Z-1.000000 I-2.172524 J0.377720
G03 X75.061603 Y37.160676 Z-1.000000 I0.286130 J-0.447234
G03 X75.624136 Y36.622671 Z-1.000000 I0.754142 J0.225431
G02 X77.230411 Y35.074813 Z-1.000000 I-0.545489 J-2.173454
G02 X76.835202 Y32.457153 Z-1.000000 I-3.030613 J-0.881108
G03 X76.601013 Y31.674784 Z-1.000000 I1.185250 J-0.781020
G03 X76.837206 Y30.344223 Z-1.000000 I3.886675 J0.003694
G02 X77.318722 Y28.980367 Z-1.000000 I-61.564991 J-22.502746
G02 X77.334688 Y28.883994 Z-1.000000 I-0.282874 J-0.096374
G01 X77.365961 Y28.871130 Z-1.000000
G03 X77.855047 Y29.409435 Z-1.000000 I-6.018380 J5.959439
G02 X78.273536 Y29.741446 Z-1.000000 I1.005535 J-0.837690
G02 X78.384217 Y29.675016 Z-1.000000 I0.034280 J-0.068304
G03 X78.506491 Y29.485616 Z-1.000000 I0.215611 J0.005027
G03 X78.803637 Y29.473556 Z-1.000000 I0.162562 J0.338625
G02 X79.037670 Y29.484876 Z-1.000000 I0.134197 J-0.349561
G02 X79.071127 Y29.399557 Z-1.000000 I-0.015273 J-0.055209
G03 X79.057294 Y29.189139 Z-1.000000 I0.191370 J-0.118244
G03 X79.321978 Y28.841027 Z-1.000000 I0.882763 J0.396521
G02 X79.650184 Y28.301107 Z-1.000000 I-0.619257 J-0.746148
G02 X79.467619 Y28.171937 Z-1.000000 I-0.118698 J-0.025836
G03 X79.258710 Y28.173228 Z-1.000000 I-0.105514 J-0.170748
G03 X78.964050 Y27.869316 Z-1.000000 I0.424582 J-0.706459
G02 X78.662344 Y27.663083 Z-1.000000 I-0.358455 J0.200592
G02 X78.275120 Y27.773215 Z-1.000000 I-0.068865 J0.493676
G03 X77.850196 Y27.944177 Z-1.000000 I-0.479145 J-0.577359
G03 X77.535140 Y27.826814 Z-1.000000 I-0.029211 J-0.403146
G02 X77.057789 Y27.618022 Z-1.000000 I-0.505396 J0.505394
G02 X76.949370 Y27.803813 Z-1.000000 I-0.004780 J0.121740
G01 X76.949030 Y27.803783 Z-1.000000
G00 Z5.000000

(End cutting path id: path983)

(Start cutting path id: path985)
(Change tool to Cylindrical cutter)

G00 Z5.000000
G00 X78.322715 Y30.589085

G01 Z-1.000000 F1000.0(Penetrate)
G02 X78.245568 Y30.764488 Z-1.000000 I0.186847 J0.186848 F1100.000000
G02 X78.300515 Y31.101545 Z-1.000000 I0.838331 J0.036344
G02 X78.802194 Y31.336446 Z-1.000000 I0.372817 J-0.143058
G02 X79.186425 Y30.799497 Z-1.000000 I-0.183069 J-0.536950
G02 X78.895109 Y30.428688 Z-1.000000 I-0.381653 J-0.000001
G02 X78.322715 Y30.589085 Z-1.000000 I-0.143553 J0.589240
G01 X78.322715 Y30.589085 Z-1.000000
G00 Z5.000000

(End cutting path id: path985)

(Start cutting path id: path991)
(Change tool to Cylindrical cutter)

G00 Z5.000000
G00 X76.805176 Y36.516343

G01 Z-1.000000 F1000.0(Penetrate)
G03 X76.711161 Y36.686914 Z-1.000000 I-0.201740 J-0.000000 F1100.000000
G03 X76.386256 Y36.780922 Z-1.000000 I-0.324905 J-0.514448
G02 X76.124897 Y36.894494 Z-1.000000 I-0.000001 J0.357512
G02 X76.077565 Y37.111652 Z-1.000000 I0.158985 J0.148390
G02 X76.535632 Y37.350861 Z-1.000000 I0.352928 J-0.117644
G02 X76.975585 Y36.847073 Z-1.000000 I-0.176132 J-0.597813
G02 X76.998361 Y36.310296 Z-1.000000 I-2.438076 J-0.372320
G02 X76.935786 Y36.251763 Z-1.000000 I-0.062575 J0.004182
G02 X76.855254 Y36.301804 Z-1.000000 I-0.000000 J0.089821
G02 X76.805156 Y36.516343 Z-1.000000 I0.434318 J0.214540
G01 X76.805176 Y36.516343 Z-1.000000
G00 Z5.000000

(End cutting path id: path991)

(Start cutting path id: path993)
(Change tool to Cylindrical cutter)

G00 Z5.000000
G00 X77.863502 Y39.162175

G01 Z-1.000000 F1000.0(Penetrate)
G02 X78.022508 Y39.532340 Z-1.000000 I0.510372 J0.000001 F1100.000000
G02 X78.420981 Y39.691346 Z-1.000000 I0.398474 J-0.419793
G02 X78.763965 Y39.543916 Z-1.000000 I0.000001 J-0.472677
G02 X78.817852 Y39.272836 Z-1.000000 I-0.187985 J-0.178264
G03 X78.673240 Y38.851359 Z-1.000000 I5.817761 J-2.231660
G03 X78.657252 Y38.743666 Z-1.000000 I0.354717 J-0.107692
G02 X78.609466 Y38.680743 Z-1.000000 I-0.065320 J-0.000000
G02 X78.260383 Y38.633015 Z-1.000000 I-0.349085 J1.252765
G02 X77.995795 Y38.765307 Z-1.000000 I-0.000001 J0.330738
G02 X77.863502 Y39.162175 Z-1.000000 I0.529143 J0.396869
G01 X77.863502 Y39.162175 Z-1.000000
G00 Z5.000000

(End cutting path id: path993)

(Start cutting path id: path995)
(Change tool to Cylindrical cutter)

G00 Z5.000000
G00 X77.069751 Y39.823634

G01 Z-1.000000 F1000.0(Penetrate)
G02 X76.931841 Y40.130596 Z-1.000000 I0.484610 J0.402183 F1100.000000
G02 X77.009050 Y40.220513 Z-1.000000 I0.077210 J0.011810
G02 X77.220115 Y40.136704 Z-1.000000 I0.000000 J-0.307677
G02 X77.430021 Y39.823634 Z-1.000000 I-0.581526 J-0.616802
G02 X77.524718 Y39.466349 Z-1.000000 I-1.608463 J-0.617509
G01 X77.490721 Y39.426764 Z-1.000000
G02 X77.413493 Y39.457431 Z-1.000000 I-0.000000 J0.112576
G02 X77.069751 Y39.823634 Z-1.000000 I2.824292 J2.995500
G01 X77.069751 Y39.823634 Z-1.000000
G00 Z5.000000

(End cutting path id: path995)

(Start cutting path id: path997)
(Change tool to Cylindrical cutter)

G00 Z5.000000
G00 X78.657247 Y41.808016

G01 Z-1.000000 F1000.0(Penetrate)
G02 X78.736950 Y41.992895 Z-1.000000 I0.254274 J0.000000 F1100.000000
G02 X78.937447 Y42.072597 Z-1.000000 I0.200498 J-0.212335
G02 X79.066612 Y41.988390 Z-1.000000 I0.000000 J-0.141166
G02 X79.054127 Y41.808017 Z-1.000000 I-0.177614 J-0.078325
G02 X78.869449 Y41.581393 Z-1.000000 I-0.956521 J0.590922
G02 X78.773928 Y41.543426 Z-1.000000 I-0.095521 J0.101177
G02 X78.703278 Y41.589491 Z-1.000000 I-0.000000 J0.077210
G02 X78.657247 Y41.808016 Z-1.000000 I0.495702 J0.218526
G01 X78.657247 Y41.808016 Z-1.000000
G00 Z5.000000

(End cutting path id: path997)

(Start cutting path id: path951)
(Change tool to Cylindrical cutter)

G00 Z5.000000
G00 X64.303605 Y36.915103

G01 Z-1.000000 F1000.0(Penetrate)
G01 X63.642156 Y36.749762 Z-1.000000 F1100.000000
G02 X62.846757 Y36.574059 Z-1.000000 I-3.585605 J14.343604
G02 X61.459336 Y36.351199 Z-1.000000 I-4.335393 J22.559952
G03 X60.307916 Y36.115797 Z-1.000000 I1.033026 J-7.986523
G03 X60.004137 Y35.941106 Z-1.000000 I0.194252 J-0.689271
G00 Z5.000000

(End cutting path id: path951)

(Start cutting path id: path954)
(Change tool to Cylindrical cutter)

G00 Z5.000000
G00 X59.949768 Y35.295556

G01 Z-1.000000 F1000.0(Penetrate)
G03 X60.114882 Y34.470806 Z-1.000000 I18.201441 J3.215008 F1100.000000
G03 X60.336350 Y33.662447 Z-1.000000 I8.691441 J1.946700
G02 X60.539633 Y32.939645 Z-1.000000 I-8.857699 J-2.881155
G03 X60.755203 Y32.218207 Z-1.000000 I6.483706 J1.544439
G02 X60.970084 Y31.286427 Z-1.000000 I-3.749119 J-1.355266
G03 X61.269106 Y30.389908 Z-1.000000 I2.197264 J0.234740
G03 X61.780551 Y29.821020 Z-1.000000 I1.696953 J1.011258
G02 X62.353627 Y29.386450 Z-1.000000 I-42.018610 J-56.006001
G03 X62.727791 Y29.117049 Z-1.000000 I4.689843 J6.119064
G03 X63.412068 Y28.720972 Z-1.000000 I3.190422 J4.722757
G02 X63.594918 Y28.310154 Z-1.000000 I-0.154056 J-0.314669
G03 X63.509770 Y27.605522 Z-1.000000 I2.172405 J-0.619975
G03 X63.678009 Y26.778310 Z-1.000000 I2.598046 J0.097679
G03 X64.163743 Y26.098933 Z-1.000000 I1.535422 J0.584449
G03 X64.743001 Y25.751307 Z-1.000000 I1.419943 J1.709663
G03 X65.411203 Y25.573615 Z-1.000000 I1.024313 J2.506654
G03 X66.399020 Y25.462909 Z-1.000000 I3.227278 J24.334271
G02 X67.384344 Y25.346908 Z-1.000000 I-1.752111 J-19.125274
G00 Z5.000000

(End cutting path id: path954)

(Start cutting path id: path987)
(Change tool to Cylindrical cutter)

G00 Z5.000000
G00 X55.608932 Y32.662009

G01 Z-1.000000 F1000.0(Penetrate)
G02 X55.691351 Y32.524154 Z-1.000000 I-0.295265 J-0.270094 F1100.000000
G02 X56.432326 Y30.129670 Z-1.000000 I-32.247064 J-11.290773
G03 X57.150682 Y27.893704 Z-1.000000 I23.909168 J6.447997
G02 X58.076754 Y24.962823 Z-1.000000 I-27.557609 J-10.319141
G02 X58.579678 Y22.163965 Z-1.000000 I-18.125217 J-4.701516
G03 X58.960122 Y20.058114 Z-1.000000 I13.847040 J1.414321
G03 X59.450359 Y18.471990 Z-1.000000 I18.224237 J4.763895
G02 X59.838937 Y16.909016 Z-1.000000 I-7.581065 J-2.714554
G00 Z5.000000

(End cutting path id: path987)

(Start cutting path id: path971)
(Change tool to Cylindrical cutter)

G00 Z5.000000
G00 X51.298706 Y23.886132

G01 Z-1.000000 F1000.0(Penetrate)
G03 X50.968034 Y24.358237 Z-1.000000 I-190.037233 J-132.754186 F1100.000000
G02 X50.787265 Y24.647531 Z-1.000000 I2.598078 J1.824567
G02 X50.234334 Y25.825532 Z-1.000000 I8.648101 J4.778015
G03 X49.702221 Y27.090260 Z-1.000000 I-25.254663 J-9.881190
G02 X49.282654 Y28.180879 Z-1.000000 I9.468084 J4.268431
G02 X49.096968 Y28.781719 Z-1.000000 I26.654405 J8.566512
G00 Z5.000000

(End cutting path id: path971)

(Start cutting path id: path1033)
(Change tool to Cylindrical cutter)

G00 Z5.000000
G00 X50.596784 Y31.313051

G01 Z-1.000000 F1000.0(Penetrate)
G03 X50.534445 Y29.971898 Z-1.000000 I37.144968 J-2.398593 F1100.000000
G03 X50.593788 Y28.632071 Z-1.000000 I9.231292 J-0.262355
G03 X50.791138 Y27.440240 Z-1.000000 I12.748918 J1.498782
G02 X51.053763 Y26.028472 Z-1.000000 I-25.769930 J-5.524162
G03 X51.605849 Y24.271279 Z-1.000000 I8.205495 J1.612731
G03 X52.202898 Y22.943944 Z-1.000000 I84.053989 J37.010372
G03 X52.996206 Y20.965504 Z-1.000000 I22.743215 J7.971237
G02 X53.209742 Y20.471125 Z-1.000000 I-13.728956 J-6.223201
G00 Z5.000000

(End cutting path id: path1033)

(Start cutting path id: path901)
(Change tool to Cylindrical cutter)

G00 Z5.000000
G00 X53.440242 Y32.850436

G01 Z-1.000000 F1000.0(Penetrate)
G03 X54.761673 Y33.975192 Z-1.000000 I-9.148670 J12.087030 F1100.000000
G03 X54.711020 Y34.064168 Z-1.000000 I-0.036445 J0.038158
G02 X54.180505 Y33.927825 Z-1.000000 I-3.474401 J12.418768
G02 X52.728090 Y33.599145 Z-1.000000 I-21.889137 J93.352954
G03 X51.303490 Y33.206613 Z-1.000000 I2.914268 J-13.358028
G03 X50.691442 Y32.917561 Z-1.000000 I0.910115 J-2.719625
G02 X50.097840 Y32.678867 Z-1.000000 I-0.963484 J1.538606
G02 X49.699252 Y32.711070 Z-1.000000 I-0.144498 J0.694321
G03 X49.379613 Y32.736130 Z-1.000000 I-0.202086 J-0.526568
G03 X49.288512 Y32.623569 Z-1.000000 I0.023987 J-0.112561
G03 X49.629950 Y32.051087 Z-1.000000 I0.650655 J0.000001
G03 X51.325024 Y31.523572 Z-1.000000 I2.193334 J4.060717
G03 X51.613859 Y31.590011 Z-1.000000 I0.048735 J0.449193
G03 X53.440242 Y32.850466 Z-1.000000 I-13.457265 J21.452823
G01 X53.440242 Y32.850436 Z-1.000000
G00 Z5.000000

(End cutting path id: path901)

(Start cutting path id: path909)
(Change tool to Cylindrical cutter)

G00 Z5.000000
G00 X56.564546 Y36.717141

G01 Z-1.000000 F1000.0(Penetrate)
G03 X59.199735 Y36.806596 Z-1.000000 I0.075468 J36.635685 F1100.000000
G03 X60.401005 Y36.985617 Z-1.000000 I-0.544440 J7.773207
G02 X61.601252 Y37.194803 Z-1.000000 I2.557720 J-11.127495
G02 X64.237464 Y37.444993 Z-1.000000 I6.412056 J-53.549085
G03 X67.293323 Y38.055388 Z-1.000000 I-0.860701 J12.263549
G03 X68.248952 Y38.793229 Z-1.000000 I-0.587894 J1.749193
G03 X68.734487 Y41.090447 Z-1.000000 I-2.703343 J1.771292
G03 X66.769958 Y47.760967 Z-1.000000 I-27.970559 J-4.613039
G03 X66.539444 Y48.289733 Z-1.000000 I-153.249142 J-66.493910
G03 X66.097565 Y49.296066 Z-1.000000 I-548.474536 J-240.233660
G02 X65.812221 Y50.177436 Z-1.000000 I4.182256 J1.840883
G03 X65.650083 Y50.735275 Z-1.000000 I-3.986191 J-0.856120
G03 X65.311342 Y51.572392 Z-1.000000 I-13.952455 J-5.158792
G03 X64.723290 Y52.805484 Z-1.000000 I-20.755359 J-9.141315
G03 X63.334317 Y54.989283 Z-1.000000 I-12.608181 J-6.485632
G02 X62.054203 Y57.285963 Z-1.000000 I6.988881 J5.400526
G00 Z5.000000

(Change tool to Cylindrical cutter)

G00 Z5.000000
G00 X62.054203 Y57.285963

G01 Z-1.000000 F1000.0(Penetrate)
G01 X61.854782 Y57.947420 Z-1.000000 F1100.000000
G03 X60.622169 Y60.751762 Z-1.000000 I-12.119804 J-3.654046
G03 X59.971326 Y61.122417 Z-1.000000 I-0.650841 J-0.386085
G02 X59.729082 Y61.245096 Z-1.000000 I-0.000000 J0.300509
G02 X59.695036 Y61.498798 Z-1.000000 I0.215263 J0.158023
G03 X59.681981 Y61.855949 Z-1.000000 I-0.425639 J0.163256
G03 X58.855663 Y63.284733 Z-1.000000 I-8.796214 J-4.133832
G02 X57.904602 Y64.713821 Z-1.000000 I31.784320 J22.183535
G02 X57.523190 Y65.386428 Z-1.000000 I6.639439 J4.209448
G03 X55.421279 Y68.527452 Z-1.000000 I-13.747385 J-6.925689
G03 X51.164668 Y72.742160 Z-1.000000 I-29.254359 J-25.288384
G02 X49.578252 Y74.151231 Z-1.000000 I29.375975 J34.670795
G03 X49.381415 Y74.306580 Z-1.000000 I-1.049686 J-1.127638
G02 X49.163203 Y74.526409 Z-1.000000 I0.426401 J0.641484
G02 X48.659734 Y75.409841 Z-1.000000 I6.948182 J4.544961
G01 X48.204752 Y76.335826 Z-1.000000
G01 X49.325114 Y75.277550 Z-1.000000
G03 X51.186288 Y73.667021 Z-1.000000 I19.394712 J20.532418
G03 X51.347266 Y73.676341 Z-1.000000 I0.075257 J0.095041
G03 X51.334540 Y74.997653 Z-1.000000 I-0.654425 J0.654414
G03 X45.915028 Y78.903319 Z-1.000000 I-16.400719 J-17.044780
G03 X45.446005 Y78.871009 Z-1.000000 I-0.208254 J-0.397322
G03 X45.361089 Y78.507578 Z-1.000000 I0.164340 J-0.230034
G02 X45.903467 Y76.924494 Z-1.000000 I-4.592789 J-2.457985
G02 X45.947552 Y76.307638 Z-1.000000 I-3.134275 J-0.534000
G02 X45.944111 Y76.239977 Z-1.000000 I-1.355482 J0.035026
G02 X45.904753 Y75.724395 Z-1.000000 I-669.820453 J50.872314
G01 X45.886553 Y75.707528 Z-1.000000
G03 X45.727910 Y74.405547 Z-1.000000 I1124.194431 J-137.640560
G03 X45.572993 Y73.125360 Z-1.000000 I2615.748850 J-317.184602
G01 X45.559467 Y73.123269 Z-1.000000
G02 X45.399685 Y74.333580 Z-1.000000 I1.907273 J0.867496
G03 X45.584362 Y76.575888 Z-1.000000 I-13.520219 J2.242286
G03 X45.371626 Y77.815577 Z-1.000000 I-3.718453 J-0.000006
G03 X44.601637 Y79.354933 Z-1.000000 I-6.564657 J-2.321399
G03 X44.098671 Y79.380067 Z-1.000000 I-0.260794 J-0.173761
G03 X43.342020 Y77.821242 Z-1.000000 I2.867097 J-2.354736
G02 X42.749329 Y76.371711 Z-1.000000 I-4.469948 J0.981756
G02 X41.020296 Y74.118714 Z-1.000000 I-12.751413 J7.995946
G03 X40.085374 Y73.026929 Z-1.000000 I12.873827 J-11.970360
G03 X40.014243 Y72.841682 Z-1.000000 I0.263186 J-0.207338
G02 X39.636645 Y72.102517 Z-1.000000 I-1.047847 J0.069256
G02 X35.904097 Y69.434060 Z-1.000000 I-20.479692 J24.701594
G03 X35.675080 Y68.882023 Z-1.000000 I0.265305 J-0.433588
G03 X36.120568 Y68.530672 Z-1.000000 I0.445487 J0.106748
G02 X36.866773 Y68.430935 Z-1.000000 I0.000005 J-2.841272
G02 X38.208146 Y67.962469 Z-1.000000 I-2.657896 J-9.765088
G01 X39.528979 Y67.394266 Z-1.000000
G01 X40.631725 Y68.425494 Z-1.000000
G03 X42.956306 Y71.172178 Z-1.000000 I-10.568241 J11.301158
G03 X42.874190 Y71.233429 Z-1.000000 I-0.042746 J0.028362
G03 X40.791853 Y68.686898 Z-1.000000 I120.329631 J-100.519982
G03 X40.994045 Y68.266096 Z-1.000000 I0.202191 J-0.161825
G03 X41.401425 Y68.389385 Z-1.000000 I-0.000001 J0.734694
G03 X42.398673 Y69.245401 Z-1.000000 I-3.004217 J4.508776
G03 X44.042690 Y71.109607 Z-1.000000 I-53.485576 J48.825211
G02 X44.148811 Y71.032689 Z-1.000000 I0.050040 J-0.042626
G02 X42.014002 Y67.983653 Z-1.000000 I-25.618370 J15.665053
G02 X41.352136 Y67.868541 Z-1.000000 I-0.395800 J0.315414
G03 X41.241324 Y67.852923 Z-1.000000 I-0.046014 J-0.074441
G03 X41.162066 Y67.659145 Z-1.000000 I0.226754 J-0.205843
G02 X41.117102 Y67.347234 Z-1.000000 I-1.526732 J0.060894
G02 X40.979837 Y66.935589 Z-1.000000 I-2.793933 J0.702938
G03 X40.950725 Y66.549512 Z-1.000000 I0.564355 J-0.236691
G03 X41.212909 Y66.009547 Z-1.000000 I1.426768 J0.359142
G03 X41.616114 Y65.791907 Z-1.000000 I0.446375 J0.344651
G03 X41.975519 Y65.950998 Z-1.000000 I0.031765 J0.413750
G02 X42.373378 Y66.336443 Z-1.000000 I1.561592 J-1.213829
G02 X42.611838 Y66.414020 Z-1.000000 I0.238461 J-0.327707
G03 X43.401704 Y66.889569 Z-1.000000 I-0.000001 J0.893744
G03 X44.438942 Y69.864973 Z-1.000000 I-9.226028 J4.884728
G03 X44.572831 Y71.051642 Z-1.000000 I-8.208248 J1.527000
G03 X44.621975 Y74.351524 Z-1.000000 I-63.708898 J2.599111
G03 X44.428788 Y77.522589 Z-1.000000 I-31.888842 J-0.351311
G02 X44.424809 Y78.274466 Z-1.000000 I3.552080 J0.394747
G02 X44.547994 Y78.274979 Z-1.000000 I0.061619 J-0.006188
G03 X44.834762 Y76.468191 Z-1.000000 I18.568645 J2.021010
G02 X44.981656 Y75.268667 Z-1.000000 I-7.011027 J-1.467332
G02 X44.988568 Y72.358240 Z-1.000000 I-41.531213 J-1.553855
G02 X44.698982 Y69.486812 Z-1.000000 I-21.261366 J0.693911
G02 X44.275295 Y68.162398 Z-1.000000 I-4.869791 J0.827896
G02 X42.510985 Y65.533794 Z-1.000000 I-10.189015 J4.932432
G02 X41.518840 Y65.091102 Z-1.000000 I-0.992147 J0.890436
G02 X41.238553 Y65.207720 Z-1.000000 I-0.000001 J0.395138
G02 X40.533328 Y66.082862 Z-1.000000 I3.841818 J3.817608
G03 X39.820821 Y66.945288 Z-1.000000 I-4.052531 J-2.622531
G03 X39.496807 Y67.076273 Z-1.000000 I-0.325981 J-0.340126
G02 X39.118975 Y67.141360 Z-1.000000 I0.004217 J1.153679
G02 X38.469886 Y67.436472 Z-1.000000 I1.325448 J3.776659
G03 X36.592798 Y68.191993 Z-1.000000 I-3.756469 J-6.623355
G03 X36.323953 Y67.983039 Z-1.000000 I-0.053220 J-0.208954
G02 X36.210484 Y67.850400 Z-1.000000 I-0.134259 J-0.000000
G02 X34.753678 Y67.736925 Z-1.000000 I-1.456821 J9.294814
G03 X32.425246 Y67.207445 Z-1.000000 I0.000009 J-5.384518
G03 X31.619384 Y66.233742 Z-1.000000 I0.652360 J-1.360237
G02 X31.412490 Y65.792720 Z-1.000000 I-1.318479 J0.349490
G01 X31.324218 Y65.818690 Z-1.000000
G03 X31.185853 Y66.297763 Z-1.000000 I-1.068356 J-0.049044
G03 X30.986170 Y66.414002 Z-1.000000 I-0.199682 J-0.113394
G02 X30.789440 Y66.961462 Z-1.000000 I-0.000000 J0.309077
G02 X32.776108 Y67.891176 Z-1.000000 I2.796878 J-3.389065
G03 X33.462035 Y68.156618 Z-1.000000 I-0.371014 J1.977708
G03 X33.532784 Y68.358249 Z-1.000000 I-0.089217 J0.144533
G02 X33.594246 Y68.591268 Z-1.000000 I0.200766 J0.071660
G02 X34.410967 Y69.116403 Z-1.000000 I2.261524 J-2.619580
G03 X37.747162 Y71.091370 Z-1.000000 I-7.808473 J16.995704
G03 X38.168236 Y71.904117 Z-1.000000 I-0.621242 J0.837308
G02 X38.271722 Y72.136879 Z-1.000000 I0.331112 J-0.007827
G02 X38.517816 Y72.234847 Z-1.000000 I0.246094 J-0.260109
G03 X41.370163 Y73.538637 Z-1.000000 I-0.000006 J3.772000
G03 X42.673941 Y77.037814 Z-1.000000 I-4.043766 J3.499169
G01 X42.599987 Y77.071253 Z-1.000000
G03 X41.681752 Y76.164973 Z-1.000000 I7.432530 J-8.448880
G02 X40.624297 Y75.140271 Z-1.000000 I-8.217890 J7.422585
G02 X38.917599 Y73.821906 Z-1.000000 I-15.359663 J18.120056
G03 X37.445499 Y72.551312 Z-1.000000 I5.612016 J-7.990120
G03 X37.449164 Y72.273795 Z-1.000000 I0.144304 J-0.136877
G02 X37.502337 Y72.075516 Z-1.000000 I-0.145212 J-0.145212
G02 X37.369054 Y71.974313 Z-1.000000 I-0.131842 J0.035267
G02 X36.341696 Y72.246521 Z-1.000000 I0.022698 J2.160482
G02 X36.331611 Y72.551187 Z-1.000000 I0.086395 J0.155360
G02 X36.459625 Y72.625838 Z-1.000000 I0.880238 J-1.362386
G02 X37.407086 Y73.114140 Z-1.000000 I38.864014 J-74.245146
G03 X40.294633 Y75.058268 Z-1.000000 I-6.416325 J12.646399
G03 X42.386830 Y77.443219 Z-1.000000 I-7.728033 J8.889579
G01 X43.178898 Y78.639028 Z-1.000000
G01 X42.627807 Y79.384409 Z-1.000000
G02 X42.247769 Y80.163645 Z-1.000000 I1.916653 J1.417054
G02 X42.240065 Y80.780622 Z-1.000000 I1.163306 J0.323064
G03 X41.402681 Y82.986336 Z-1.000000 I-2.000877 J0.502191
G03 X38.850612 Y83.611932 Z-1.000000 I-2.110018 J-3.089375
G03 X38.149014 Y83.420112 Z-1.000000 I0.290541 J-2.441676
G03 X37.975293 Y83.165613 Z-1.000000 I0.117685 J-0.266872
G03 X37.960251 Y82.554793 Z-1.000000 I17.110511 J-0.726959
G02 X37.944885 Y81.756488 Z-1.000000 I-32.030312 J0.217216
G03 X37.976122 Y81.288954 Z-1.000000 I2.382810 J-0.075609
G03 X38.109870 Y80.793744 Z-1.000000 I2.568873 J0.428141
G02 X38.306688 Y80.168723 Z-1.000000 I-5.343235 J-2.026070
G03 X38.623011 Y79.669266 Z-1.000000 I0.919717 J0.232591
G02 X39.090195 Y79.206110 Z-1.000000 I-2.284436 J-2.771506
G02 X39.588226 Y78.518704 Z-1.000000 I-4.581487 J-3.843435
G03 X40.127981 Y77.947533 Z-1.000000 I1.670255 J1.037767
G03 X40.629520 Y77.787050 Z-1.000000 I0.507609 J0.722434
G02 X40.864282 Y77.681556 Z-1.000000 I-0.002204 J-0.318867
G02 X40.845760 Y77.546891 Z-1.000000 I-0.066096 J-0.059515
G02 X39.663721 Y77.539313 Z-1.000000 I-0.597091 J0.943202
G02 X38.466058 Y79.010956 Z-1.000000 I1.507141 J2.449720
G03 X38.019433 Y79.804269 Z-1.000000 I-2.594030 J-0.938025
G03 X37.431054 Y80.294689 Z-1.000000 I-1.520110 J-1.225583
G02 X37.073071 Y80.596249 Z-1.000000 I0.554907 J1.021996
G02 X37.117683 Y80.691773 Z-1.000000 I0.046314 J0.036550
G03 X37.344113 Y80.872807 Z-1.000000 I-0.006926 J0.240784
G03 X37.555055 Y82.399912 Z-1.000000 I-6.598999 J1.689654
G03 X37.331649 Y83.895754 Z-1.000000 I-4.413981 J0.105369
G03 X36.937239 Y84.261830 Z-1.000000 I-0.530460 J-0.176012
G03 X36.281475 Y84.344124 Z-1.000000 I-0.666136 J-2.654241
G03 X35.772260 Y84.266228 Z-1.000000 I-0.006300 J-1.662161
G03 X35.123198 Y83.377972 Z-1.000000 I0.281520 J-0.886979
G03 X35.776665 Y81.057226 Z-1.000000 I4.469497 J0.006131
G02 X35.898188 Y80.233059 Z-1.000000 I-0.910733 J-0.555329
G02 X35.477296 Y79.907743 Z-1.000000 I-0.420892 J0.109616
G03 X33.776934 Y79.400313 Z-1.000000 I0.000005 J-3.102628
G03 X30.278370 Y76.501423 Z-1.000000 I11.147946 J-17.014637
G03 X28.382129 Y74.445777 Z-1.000000 I46.056503 J-44.387469
G03 X27.913303 Y73.822314 Z-1.000000 I3.730599 J-3.293306
G02 X22.012698 Y66.035791 Z-1.000000 I-50.226637 J31.932611
G02 X19.963241 Y64.950147 Z-1.000000 I-2.497985 J2.238364
G03 X17.731084 Y64.274415 Z-1.000000 I0.979803 J-7.261226
G03 X14.363552 Y62.218995 Z-1.000000 I9.191565 J-18.845497
G03 X10.189201 Y58.663619 Z-1.000000 I25.973389 J-34.723464
G03 X6.688177 Y54.794886 Z-1.000000 I27.298170 J-28.222073
G02 X5.746462 Y53.643069 Z-1.000000 I-35.755328 J28.272368
G02 X5.367732 Y53.232589 Z-1.000000 I-4.905267 J4.145892
G03 X5.017631 Y52.803897 Z-1.000000 I1.881309 J-1.893717
G03 X4.441693 Y51.822117 Z-1.000000 I9.436668 J-6.195620
G02 X3.869673 Y50.832020 Z-1.000000 I-11.583439 J6.031945
G02 X2.650474 Y49.013264 Z-1.000000 I-40.377462 J25.748930
G03 X1.217638 Y45.654998 Z-1.000000 I7.156351 J-5.038124
G03 X1.655195 Y43.924363 Z-1.000000 I2.053109 J-0.401543
G03 X2.194580 Y43.622714 Z-1.000000 I0.655726 J0.539451
G03 X2.611607 Y43.792074 Z-1.000000 I0.061712 J0.446158
G02 X3.055505 Y44.227896 Z-1.000000 I1.853799 J-1.444180
G02 X3.241549 Y44.264495 Z-1.000000 I0.130981 J-0.174653
G03 X3.402829 Y44.321193 Z-1.000000 I0.038569 J0.148020
G03 X3.785534 Y44.995466 Z-1.000000 I-2.523536 J1.878059
G02 X4.223758 Y45.653468 Z-1.000000 I1.886294 J-0.781327
G02 X4.720282 Y45.935898 Z-1.000000 I0.756032 J-0.751469
G03 X5.242731 Y46.212917 Z-1.000000 I-0.300842 J1.198547
G03 X6.039993 Y47.114940 Z-1.000000 I-3.411807 J3.818907
G02 X6.822159 Y48.045230 Z-1.000000 I5.372701 J-3.723282
G02 X7.236580 Y48.295312 Z-1.000000 I0.728024 J-0.738021
G03 X7.631531 Y48.539736 Z-1.000000 I-0.287359 J0.905626
G03 X7.885578 Y48.964983 Z-1.000000 I-0.776286 J0.752271
G02 X8.278939 Y49.468774 Z-1.000000 I0.874937 J-0.277689
G03 X9.787534 Y50.709046 Z-1.000000 I-3.783392 J6.139518
G03 X9.912059 Y50.892491 Z-1.000000 I-0.542531 J0.502263
G02 X10.265681 Y51.318707 Z-1.000000 I1.022949 J-0.488916
G03 X11.144366 Y52.052350 Z-1.000000 I-5.267062 J7.201386
G02 X12.638122 Y53.307848 Z-1.000000 I11.037934 J-11.616249
G03 X13.857322 Y54.406395 Z-1.000000 I-5.132804 J6.922366
G02 X15.380884 Y55.782764 Z-1.000000 I8.056115 J-7.386229
G03 X16.970177 Y57.076732 Z-1.000000 I-14.344732 J19.241652
G02 X18.670889 Y58.463968 Z-1.000000 I17.431632 J-19.634551
G02 X20.468132 Y59.755459 Z-1.000000 I34.310296 J-45.850064
G03 X22.165340 Y60.977480 Z-1.000000 I-29.302179 J42.486022
G02 X23.964609 Y62.141804 Z-1.000000 I9.207760 J-12.256663
G03 X25.426946 Y63.091056 Z-1.000000 I-5.906600 J10.700210
G02 X27.005516 Y64.007339 Z-1.000000 I4.549967 J-6.020752
G03 X27.971170 Y64.572456 Z-1.000000 I-1.769792 J4.131761
G03 X28.842112 Y65.248355 Z-1.000000 I-58.797638 J76.663827
G03 X28.935498 Y65.331180 Z-1.000000 I-0.644319 J0.820541
G02 X29.104845 Y65.192881 Z-1.000000 I0.077694 J-0.077695
G02 X27.612983 Y63.212394 Z-1.000000 I-16.861044 J11.148954
G02 X16.860962 Y54.647481 Z-1.000000 I-27.504009 J23.496071
G03 X6.690660 Y46.551711 Z-1.000000 I15.869683 J-30.372376
G03 X3.817974 Y42.425660 Z-1.000000 I19.234712 J-16.454861
G03 X3.640403 Y41.082146 Z-1.000000 I1.606290 J-0.895792
G02 X3.664623 Y40.627509 Z-1.000000 I-1.153038 J-0.289389
G02 X3.570374 Y40.583266 Z-1.000000 I-0.061565 J0.008642
G03 X3.425970 Y40.570603 Z-1.000000 I-0.063711 J-0.103157
G03 X3.339281 Y40.377156 Z-1.000000 I0.172496 J-0.193447
G03 X3.466649 Y40.186001 Z-1.000000 I0.207128 J0.000000
G03 X3.890499 Y40.147156 Z-1.000000 I0.273855 J0.656329
G02 X4.056004 Y40.095513 Z-1.000000 I0.037115 J-0.172079
G02 X4.044839 Y39.982617 Z-1.000000 I-0.054970 J-0.051564
G03 X4.102418 Y39.840281 Z-1.000000 I0.045892 J-0.064249
G03 X5.632339 Y40.220199 Z-1.000000 I-1.231832 J8.231003
G02 X7.098730 Y40.661857 Z-1.000000 I5.561678 J-15.810699
G02 X7.616713 Y40.720222 Z-1.000000 I0.474433 J-1.882811
G03 X10.171049 Y41.195459 Z-1.000000 I0.170085 J6.188046
G02 X10.528989 Y40.914767 Z-1.000000 I0.100393 J-0.240548
G02 X10.216757 Y40.719859 Z-1.000000 I-0.240151 J0.037166
G03 X8.534957 Y40.515334 Z-1.000000 I-0.613229 J-1.974390
G02 X8.008800 Y40.337543 Z-1.000000 I-0.666223 J1.104176
G03 X6.728470 Y40.099371 Z-1.000000 I0.942658 J-8.627793
G01 X5.500047 Y39.773899 Z-1.000000
G01 X6.426090 Y39.632450 Z-1.000000
G03 X7.356568 Y39.561317 Z-1.000000 I0.936817 J6.133005
G03 X12.643798 Y39.626460 Z-1.000000 I0.202473 J198.162068
G02 X17.914855 Y39.580696 Z-1.000000 I1.966908 J-77.032891
G02 X19.620665 Y39.326992 Z-1.000000 I-0.353600 J-8.238934
G02 X23.965836 Y37.909979 Z-1.000000 I-9.085180 J-35.229651
G02 X28.254221 Y35.897745 Z-1.000000 I-14.427253 J-36.322469
G03 X28.805975 Y35.695079 Z-1.000000 I0.958679 J1.757580
G03 X29.709429 Y35.595668 Z-1.000000 I0.972890 J4.686625
G02 X30.610573 Y35.499292 Z-1.000000 I-0.067192 J-4.889463
G02 X31.032347 Y35.329070 Z-1.000000 I-0.245805 J-1.216693
G03 X33.252121 Y34.331043 Z-1.000000 I4.519648 J7.084852
G03 X36.059432 Y33.898678 Z-1.000000 I3.132527 J11.009228
G03 X36.430671 Y33.967681 Z-1.000000 I0.024738 J0.900043
G03 X36.978795 Y34.282359 Z-1.000000 I-0.966790 J2.318726
G01 X36.978764 Y34.282099 Z-1.000000
G02 X40.012292 Y35.747831 Z-1.000000 I5.184985 J-6.859010
G02 X45.847176 Y36.574064 Z-1.000000 I6.582606 J-25.470397
G03 X46.336385 Y36.699747 Z-1.000000 I-0.032330 J1.140779
G02 X46.642735 Y36.793145 Z-1.000000 I0.411723 J-0.801354
G02 X47.013401 Y36.820663 Z-1.000000 I0.504288 J-4.282482
G02 X47.634925 Y36.759146 Z-1.000000 I0.074849 J-2.414264
G03 X49.415247 Y36.683404 Z-1.000000 I1.091802 J4.701671
G02 X50.745905 Y36.777251 Z-1.000000 I1.309428 J-9.085693
G02 X53.960084 Y36.742519 Z-1.000000 I-0.378710 J-183.786897
G03 X56.564606 Y36.717061 Z-1.000000 I2.604307 J133.192815
G00 Z5.000000

(End cutting path id: path909)

(Start cutting path id: path1060)
(Change tool to Cylindrical cutter)

G00 Z5.000000
G00 X59.493865 Y36.818625

G01 Z-1.000000 F1000.0(Penetrate)
G02 X59.498804 Y36.449293 Z-1.000000 I-0.770845 J-0.195006 F1100.000000
G02 X59.325187 Y36.107065 Z-1.000000 I-0.761324 J0.171078
G03 X59.068235 Y35.767029 Z-1.000000 I2.269966 J-1.982424
G02 X58.788508 Y35.449394 Z-1.000000 I-1.222317 J0.794453
G02 X58.416764 Y35.222321 Z-1.000000 I-0.785224 J0.867669
G03 X58.018678 Y35.051003 Z-1.000000 I1.692100 J-4.480041
G03 X55.346053 Y34.247429 Z-1.000000 I10.349445 J-39.267738
G02 X54.710490 Y34.042768 Z-1.000000 I-7.181483 J21.212429
G00 Z5.000000

(Change tool to Cylindrical cutter)

G00 Z5.000000
G00 X59.493865 Y36.818625

G01 Z-1.000000 F1000.0(Penetrate)
G02 X59.129682 Y36.662048 Z-1.000000 I-271.019408 J629.861827 F1100.000000
G03 X58.799096 Y36.442474 Z-1.000000 I0.436222 J-1.015418
G02 X58.411845 Y36.248506 Z-1.000000 I-1.590673 J2.692177
G02 X57.989066 Y36.113183 Z-1.000000 I-1.002970 J2.405404
G03 X57.635851 Y36.025965 Z-1.000000 I2.289236 J-10.029798
G02 X57.284487 Y35.938482 Z-1.000000 I-2.953360 J11.112415
G02 X56.962957 Y35.866759 Z-1.000000 I-0.910544 J3.325351
G03 X56.640607 Y35.810571 Z-1.000000 I31.334224 J-180.716707
G02 X56.134247 Y35.723259 Z-1.000000 I-15.952515 J91.004028
G02 X55.626507 Y35.715069 Z-1.000000 I-0.280632 J1.654984
G03 X54.767649 Y35.798048 Z-1.000000 I-1.480678 J-10.839280
G03 X53.917627 Y35.787666 Z-1.000000 I-0.349992 J-6.147604
G03 X53.152658 Y35.712858 Z-1.000000 I0.568485 J-9.761783
G02 X52.383277 Y35.666824 Z-1.000000 I-0.682896 J4.960948
G00 Z5.000000

(End cutting path id: path1060)

(Start cutting path id: path903)
(Change tool to Cylindrical cutter)

G00 Z5.000000
G00 X47.734282 Y32.880627

G01 Z-1.000000 F1000.0(Penetrate)
G03 X50.078644 Y33.631751 Z-1.000000 I-1.950226 J10.121026 F1100.000000
G03 X50.240890 Y34.029501 Z-1.000000 I-0.130767 J0.285307
G02 X50.231548 Y34.308407 Z-1.000000 I0.398681 J0.152963
G02 X50.355149 Y34.399611 Z-1.000000 I0.123601 J-0.038152
G02 X50.521064 Y34.309251 Z-1.000000 I0.000000 J-0.197502
G02 X50.611430 Y34.002741 Z-1.000000 I-0.474643 J-0.306511
G03 X50.903194 Y33.715088 Z-1.000000 I0.287683 J0.000000
G03 X52.860390 Y34.034645 Z-1.000000 I-0.095607 J6.738978
G02 X54.497194 Y34.484387 Z-1.000000 I6.253908 J-19.557242
G02 X55.492989 Y34.642179 Z-1.000000 I1.628770 J-7.057841
G03 X55.543563 Y34.858389 Z-1.000000 I-0.010201 J0.116406
G03 X54.381738 Y35.318827 Z-1.000000 I-1.924852 J-3.160950
G03 X53.642790 Y35.350941 Z-1.000000 I-0.466352 J-2.213163
G03 X53.521838 Y35.214416 Z-1.000000 I0.016575 J-0.136525
G02 X53.441405 Y35.009236 Z-1.000000 I-0.301918 J-0.000000
G02 X53.257258 Y34.928805 Z-1.000000 I-0.184147 J0.170590
G02 X53.100758 Y35.017413 Z-1.000000 I-0.000000 J0.182510
G02 X53.058818 Y35.259535 Z-1.000000 I0.292163 J0.175302
G03 X52.954323 Y35.461761 Z-1.000000 I-0.178702 J0.035771
G03 X52.132777 Y35.672384 Z-1.000000 I-1.030222 J-2.310891
G03 X51.274012 Y35.609566 Z-1.000000 I-0.229071 J-2.769806
G03 X51.140588 Y35.441542 Z-1.000000 I0.039085 J-0.168023
G02 X51.039834 Y35.343331 Z-1.000000 I-0.098243 J-0.000000
G02 X50.751948 Y35.451541 Z-1.000000 I0.011988 J0.468950
G03 X50.326404 Y35.685325 Z-1.000000 I-0.819442 J-0.987399
G03 X49.495177 Y35.856909 Z-1.000000 I-1.203551 J-3.731304
G02 X48.632235 Y35.969530 Z-1.000000 I1.187435 J12.460970
G02 X47.932816 Y36.116237 Z-1.000000 I1.386893 J8.352537
G03 X46.675541 Y36.185672 Z-1.000000 I-0.805543 J-3.168559
G03 X42.116596 Y35.404556 Z-1.000000 I10.285213 J-73.723787
G03 X37.573719 Y34.321713 Z-1.000000 I14.015051 J-68.868531
G03 X36.997782 Y33.890909 Z-1.000000 I0.259259 J-0.946985
G03 X37.045079 Y33.764227 Z-1.000000 I0.072803 J-0.044989
G03 X38.780847 Y33.334202 Z-1.000000 I4.460502 J14.286363
G02 X40.687930 Y32.973031 Z-1.000000 I-43.292053 J-233.809241
G02 X41.086432 Y32.887796 Z-1.000000 I-1.990007 J-10.278148
G03 X44.109267 Y32.536780 Z-1.000000 I3.036775 J12.960380
G03 X47.734282 Y32.880807 Z-1.000000 I0.019960 J19.060123
G01 X47.734282 Y32.880627 Z-1.000000
G00 Z5.000000

(End cutting path id: path903)

(Start cutting path id: path1022)
(Change tool to Cylindrical cutter)

G00 Z5.000000
G00 X39.012287 Y32.778973

G01 Z-1.000000 F1000.0(Penetrate)
G03 X38.986607 Y33.432138 Z-1.000000 I-5.584804 J0.107514 F1100.000000
G02 X38.954805 Y34.085212 Z-1.000000 I6.617958 J0.649580
G03 X38.885141 Y34.724518 Z-1.000000 I-10.081018 J-0.775061
G03 X38.782779 Y35.358592 Z-1.000000 I-16.136497 J-2.279704
G03 X38.684180 Y35.822275 Z-1.000000 I-14.727356 J-2.889334
G02 X38.602311 Y36.288402 Z-1.000000 I4.484789 J1.027946
G02 X38.566118 Y37.024024 Z-1.000000 I4.993918 J0.614408
G03 X38.539599 Y37.467962 Z-1.000000 I-2.657226 J0.064033
G02 X38.450908 Y38.159354 Z-1.000000 I21.790775 J3.146680
G03 X38.325330 Y38.777532 Z-1.000000 I-3.539711 J-0.397222
G00 Z5.000000

(End cutting path id: path1022)

(Start cutting path id: path923)
(Change tool to Cylindrical cutter)

G00 Z5.000000
G00 X35.037356 Y40.526926

G01 Z-1.000000 F1000.0(Penetrate)
G02 X34.865331 Y41.355493 Z-1.000000 I3178.436923 J660.332509 F1100.000000
G02 X34.530712 Y43.027345 Z-1.000000 I118.554291 J24.597873
G03 X33.979187 Y45.372991 Z-1.000000 I-29.264965 J-5.643329
G02 X33.242047 Y48.530333 Z-1.000000 I37.190102 J10.347446
G02 X32.941614 Y51.840972 Z-1.000000 I16.887168 J3.201421
G03 X32.706973 Y54.444535 Z-1.000000 I-13.602698 J0.086438
G03 X31.899343 Y56.927364 Z-1.000000 I-10.020893 J-1.886888
G01 X31.855229 Y56.955265 Z-1.000000
G01 X31.855211 Y56.955265 Z-1.000000
G02 X31.816362 Y57.531328 Z-1.000000 I1.139265 J0.366173
G03 X31.943736 Y59.967922 Z-1.000000 I-9.704569 J1.728940
G01 X31.740687 Y62.788857 Z-1.000000
G00 Z5.000000

(End cutting path id: path923)

(Start cutting path id: path941)
(Change tool to Cylindrical cutter)

G00 Z5.000000
G00 X30.024588 Y67.227710

G01 Z-1.000000 F1000.0(Penetrate)
G02 X30.170963 Y67.440588 Z-1.000000 I0.442453 J-0.147470 F1100.000000
G02 X30.370749 Y67.512138 Z-1.000000 I0.199787 J-0.243154
G02 X30.570533 Y67.440588 Z-1.000000 I0.000001 J-0.314697
G02 X30.716912 Y67.227711 Z-1.000000 I-0.296097 J-0.360367
G02 X30.665344 Y67.048788 Z-1.000000 I-0.155882 J-0.051966
G02 X30.370750 Y66.943284 Z-1.000000 I-0.294595 J0.358539
G02 X30.076157 Y67.048788 Z-1.000000 I-0.000001 J0.464039
G02 X30.024588 Y67.227710 Z-1.000000 I0.104317 J0.126959
G01 X30.024588 Y67.227710 Z-1.000000
G00 Z5.000000

(End cutting path id: path941)

(Start cutting path id: path1068)
(Change tool to Cylindrical cutter)

G00 Z5.000000
G00 X22.579024 Y62.253665

G01 Z-1.000000 F1000.0(Penetrate)
G03 X21.160290 Y61.313793 Z-1.000000 I192.046832 J-291.434723 F1100.000000
G03 X19.823135 Y60.291934 Z-1.000000 I7.180996 J-10.782499
G03 X18.504399 Y59.364285 Z-1.000000 I10.106310 J-15.768196
G03 X17.270932 Y58.300066 Z-1.000000 I8.912107 J-11.576369
G02 X16.008738 Y57.215846 Z-1.000000 I-9.973656 J10.334016
G03 X13.931680 Y55.574828 Z-1.000000 I47.443295 J-62.184594
G02 X12.245133 Y54.201015 Z-1.000000 I-341.674690 J417.731235
G03 X11.002895 Y53.173988 Z-1.000000 I54.617786 J-67.327612
G03 X9.886682 Y52.159438 Z-1.000000 I12.931644 J-15.348756
G03 X8.926599 Y50.979805 Z-1.000000 I4.748227 J-4.845014
G03 X8.252472 Y49.819735 Z-1.000000 I12.720576 J-8.167952
G02 X7.947320 Y49.622573 Z-1.000000 I-0.326709 J0.170928
G00 Z5.000000

(End cutting path id: path1068)

(Start cutting path id: path1072)
(Change tool to Cylindrical cutter)

G00 Z5.000000
G00 X10.900270 Y55.268514

G01 Z-1.000000 F1000.0(Penetrate)
G03 X9.543649 Y54.528480 Z-1.000000 I0.668571 J-2.839104 F1100.000000
G03 X8.145008 Y53.158373 Z-1.000000 I89.368001 J-92.628128
G03 X7.015526 Y51.832093 Z-1.000000 I7.438777 J-7.479065
G03 X6.010366 Y50.402080 Z-1.000000 I70.337040 J-50.508354
G03 X5.284613 Y49.229865 Z-1.000000 I11.783854 J-8.106515
G02 X4.568225 Y48.029628 Z-1.000000 I-19.126772 J10.602313
G03 X3.193028 Y45.311575 Z-1.000000 I12.631317 J-8.097722
G01 X3.151764 Y45.322915 Z-1.000000
G00 Z5.000000

(End cutting path id: path1072)

(Start cutting path id: path1019)
(Change tool to Cylindrical cutter)

G00 Z5.000000
G00 X7.541900 Y61.427875

G01 Z-1.000000 F1000.0(Penetrate)
G02 X7.735624 Y61.698225 Z-1.000000 I0.533363 J-0.177608 F1100.000000
G02 X8.132008 Y61.875286 Z-1.000000 I0.578650 J-0.763196
G02 X8.423212 Y61.808380 Z-1.000000 I0.070147 J-0.361864
G02 X8.485033 Y61.610704 Z-1.000000 I-0.106215 J-0.141723
G02 X8.291310 Y61.340354 Z-1.000000 I-0.533364 J0.177608
G02 X7.894926 Y61.163292 Z-1.000000 I-0.578654 J0.763198
G02 X7.603718 Y61.230202 Z-1.000000 I-0.070147 J0.361864
G02 X7.541900 Y61.427875 Z-1.000000 I0.106216 J0.141720
G01 X7.541900 Y61.427875 Z-1.000000
G00 Z5.000000

(End cutting path id: path1019)

(Start cutting path id: path1023)
(Change tool to Cylindrical cutter)

G00 Z5.000000
G00 X12.775958 Y66.957390

G01 Z-1.000000 F1000.0(Penetrate)
G03 X12.682870 Y67.117089 Z-1.000000 I-0.183532 J-0.000000 F1100.000000
G03 X12.312937 Y67.219617 Z-1.000000 I-0.390064 J-0.688746
G02 X12.260301 Y67.577579 Z-1.000000 I0.004666 J0.183537
G02 X16.612414 Y68.632044 Z-1.000000 I8.777042 J-26.717133
G02 X18.380861 Y68.463296 Z-1.000000 I0.558064 J-3.502474
G02 X19.077573 Y67.737016 Z-1.000000 I-0.388479 J-1.069976
G02 X19.001998 Y67.649910 Z-1.000000 I-0.064457 J-0.020414
G02 X18.680759 Y67.803165 Z-1.000000 I0.105903 J0.635287
G03 X17.166974 Y68.316304 Z-1.000000 I-1.366650 J-1.542245
G03 X14.258034 Y67.486563 Z-1.000000 I0.526974 J-7.361498
G02 X12.882049 Y66.882624 Z-1.000000 I-4.954473 J9.418569
G02 X12.775958 Y66.957395 Z-1.000000 I-0.026697 J0.074771
G01 X12.775958 Y66.957390 Z-1.000000
G00 Z5.000000

(End cutting path id: path1023)

(Start cutting path id: path1029)
(Change tool to Cylindrical cutter)

G00 Z5.000000
G00 X16.001665 Y70.667271

G01 Z-1.000000 F1000.0(Penetrate)
G02 X16.148041 Y70.880149 Z-1.000000 I0.442453 J-0.147469 F1100.000000
G02 X16.347827 Y70.951698 Z-1.000000 I0.199786 J-0.243154
G02 X16.547611 Y70.880149 Z-1.000000 I0.000001 J-0.314699
G02 X16.693990 Y70.667272 Z-1.000000 I-0.296095 J-0.360366
G02 X16.642422 Y70.488349 Z-1.000000 I-0.155882 J-0.051966
G02 X16.347827 Y70.382844 Z-1.000000 I-0.294596 J0.358542
G02 X16.053234 Y70.488348 Z-1.000000 I-0.000001 J0.464040
G02 X16.001665 Y70.667271 Z-1.000000 I0.104316 J0.126959
G01 X16.001665 Y70.667271 Z-1.000000
G00 Z5.000000

(End cutting path id: path1029)

(Start cutting path id: path1031)
(Change tool to Cylindrical cutter)

G00 Z5.000000
G00 X21.972932 Y72.759408

G01 Z-1.000000 F1000.0(Penetrate)
G01 X22.681650 Y74.153167 Z-1.000000 F1100.000000
G03 X24.943782 Y79.599008 Z-1.000000 I-317.299587 J134.994834
G03 X25.872666 Y82.024527 Z-1.000000 I-61.991043 J25.130911
G02 X26.608729 Y84.000333 Z-1.000000 I96.367528 J-34.775562
G02 X26.789015 Y84.408963 Z-1.000000 I4.290158 J-1.648717
G03 X26.959905 Y84.820534 Z-1.000000 I-2.826466 J1.414852
G03 X27.427486 Y86.316430 Z-1.000000 I-37.072671 J12.409044
G02 X27.976930 Y87.735400 Z-1.000000 I8.454043 J-2.457656
G02 X28.280651 Y88.056060 Z-1.000000 I0.665943 J-0.326596
G03 X28.433823 Y88.356951 Z-1.000000 I-0.148243 J0.264897
G03 X28.145084 Y89.191298 Z-1.000000 I-2.061067 J-0.246128
G02 X27.708712 Y90.126456 Z-1.000000 I3.981485 J2.427268
G02 X27.593577 Y90.824217 Z-1.000000 I2.074701 J0.700720
G03 X27.449781 Y91.507712 Z-1.000000 I-1.707035 J-0.002256
G03 X26.783401 Y92.671155 Z-1.000000 I-5.761419 J-2.527382
G02 X26.184007 Y93.720750 Z-1.000000 I4.538948 J3.288012
G02 X26.255881 Y93.882085 Z-1.000000 I0.109720 J0.047797
G03 X26.415830 Y94.020091 Z-1.000000 I-0.087834 J0.263493
G03 X26.408870 Y94.184174 Z-1.000000 I-0.149746 J0.075837
G02 X25.797344 Y96.312023 Z-1.000000 I3.483538 J2.152940
G02 X26.383064 Y98.398132 Z-1.000000 I3.922226 J0.024031
G02 X26.604416 Y98.519235 Z-1.000000 I0.217270 J-0.134279
G02 X26.839938 Y98.390832 Z-1.000000 I-0.004615 J-0.288668
G01 X26.916807 Y98.407530 Z-1.000000
G03 X26.903907 Y98.785608 Z-1.000000 I-0.964806 J0.156338
G02 X26.948177 Y99.472039 Z-1.000000 I1.158739 J0.269914
G02 X27.428126 Y100.188246 Z-1.000000 I1.750795 J-0.654337
G02 X28.060723 Y100.547992 Z-1.000000 I1.082450 J-1.167372
G02 X28.280568 Y100.439356 Z-1.000000 I0.051079 J-0.173399
G02 X28.343518 Y100.049994 Z-1.000000 I-0.899666 J-0.345222
G02 X28.248630 Y99.742922 Z-1.000000 I-0.639152 J0.029307
G03 X27.639460 Y98.238082 Z-1.000000 I4.107026 J-2.538272
G03 X27.337413 Y95.584461 Z-1.000000 I12.763551 J-2.796802
G03 X27.449182 Y94.844444 Z-1.000000 I2.335685 J-0.025677
G03 X27.613598 Y94.724567 Z-1.000000 I0.164415 J0.052811
G02 X27.752258 Y94.603566 Z-1.000000 I0.000000 J-0.139949
G02 X27.731106 Y93.864671 Z-1.000000 I-2.237110 J-0.305711
G03 X27.842845 Y93.804660 Z-1.000000 I0.065145 J-0.012735
G03 X28.305394 Y94.430679 Z-1.000000 I-1.754795 J1.780465
G02 X29.150359 Y95.762150 Z-1.000000 I8.193837 J-4.266045
G02 X29.709238 Y96.273761 Z-1.000000 I1.696557 J-1.292240
G02 X29.888576 Y96.274193 Z-1.000000 I0.090013 J-0.142721
G02 X29.907675 Y96.149941 Z-1.000000 I-0.043891 J-0.070341
G03 X29.483753 Y95.273451 Z-1.000000 I1.452857 J-1.243449
G03 X29.706210 Y95.119571 Z-1.000000 I0.144858 J-0.028324
G02 X29.819746 Y95.032017 Z-1.000000 I0.040274 J-0.065165
G02 X29.262056 Y93.666235 Z-1.000000 I-7.756580 J2.370493
G03 X28.970632 Y92.991977 Z-1.000000 I4.609872 J-2.392562
G03 X28.917124 Y92.682350 Z-1.000000 I0.896890 J-0.314433
G02 X28.807762 Y92.517568 Z-1.000000 I-0.180035 J0.000804
G02 X28.518619 Y92.512220 Z-1.000000 I-0.151172 J0.354196
G03 X28.300107 Y92.405027 Z-1.000000 I-0.059494 J-0.155037
G03 X28.121746 Y91.193120 Z-1.000000 I4.028034 J-1.211900
G03 X28.436641 Y89.877476 Z-1.000000 I2.905880 J0.000005
G03 X29.342000 Y88.789994 Z-1.000000 I2.834833 J1.439470
G03 X30.616095 Y87.979233 Z-1.000000 I5.372069 J7.035612
G03 X31.441958 Y87.693236 Z-1.000000 I1.372514 J2.627946
G02 X32.168473 Y87.350122 Z-1.000000 I-0.292779 J-1.560661
G02 X32.602959 Y86.721281 Z-1.000000 I-0.922458 J-1.101877
G02 X32.764107 Y85.860065 Z-1.000000 I-2.759883 J-0.962105
G02 X32.637241 Y85.728741 Z-1.000000 I-0.126867 J-0.004382
G02 X32.477735 Y85.827864 Z-1.000000 I-0.000000 J0.177897
G02 X32.306511 Y86.398425 Z-1.000000 I1.604924 J0.792607
G03 X32.228035 Y86.745218 Z-1.000000 I-1.800008 J-0.225049
G03 X32.090499 Y87.035827 Z-1.000000 I-1.260468 J-0.418690
G02 X31.307893 Y87.271303 Z-1.000000 I4.374219 J15.955944
G02 X30.518767 Y87.550486 Z-1.000000 I5.654412 J17.237350
G03 X29.089535 Y88.054672 Z-1.000000 I-11.223028 J-29.536471
G03 X29.024767 Y88.037561 Z-1.000000 I-0.019137 J-0.058698
G03 X28.983842 Y87.969605 Z-1.000000 I0.149799 J-0.136515
G03 X28.248084 Y85.876912 Z-1.000000 I149.148926 J-53.614109
G02 X27.867216 Y84.843817 Z-1.000000 I-23.539267 J8.091404
G02 X26.859342 Y82.361632 Z-1.000000 I-120.086380 J47.314497
G02 X25.624496 Y79.464984 Z-1.000000 I-210.820288 J88.161536
G02 X24.061423 Y75.966395 Z-1.000000 I-170.545769 J74.096693
G02 X22.923317 Y73.624993 Z-1.000000 I-53.827660 J24.717174
G02 X21.868925 Y71.608480 Z-1.000000 I-137.583379 J70.655566
G02 X20.468060 Y69.156661 Z-1.000000 I-41.616095 J22.151546
G02 X19.603379 Y67.968556 Z-1.000000 I-7.834378 J4.793011
G00 Z5.000000

(End cutting path id: path1031)

(Start cutting path id: path897)
(Change tool to Cylindrical cutter)

G00 Z5.000000
G00 X32.621846 Y90.117576

G01 Z-1.000000 F1000.0(Penetrate)
G02 X32.652476 Y89.647438 Z-1.000000 I-31.384706 J-2.280830 F1100.000000
G03 X32.796399 Y88.132660 Z-1.000000 I20.447352 J1.178529
G03 X33.241910 Y86.957445 Z-1.000000 I2.727127 J0.361772
G03 X33.942758 Y86.125054 Z-1.000000 I4.225269 J2.846307
G03 X34.595016 Y85.543410 Z-1.000000 I8.458277 J8.828606
G03 X35.279075 Y85.122138 Z-1.000000 I1.831356 J2.207722
G03 X36.316522 Y84.827014 Z-1.000000 I1.610527 J3.690454
G03 X38.265420 Y84.581331 Z-1.000000 I8.030343 J55.848345
G03 X40.747589 Y84.570965 Z-1.000000 I1.290825 J11.906261
G03 X41.652268 Y84.919925 Z-1.000000 I-0.181800 J1.818490
G03 X43.387765 Y86.472126 Z-1.000000 I-7.447356 J10.073117
G03 X45.683201 Y89.472448 Z-1.000000 I-14.603608 J13.550922
G00 Z5.000000

(Change tool to Cylindrical cutter)

G00 Z5.000000
G00 X43.782297 Y85.672036

G01 Z-1.000000 F1000.0(Penetrate)
G02 X42.420072 Y84.592825 Z-1.000000 I-14.961820 J17.486090 F1100.000000
G02 X40.924460 Y84.046738 Z-1.000000 I-1.689755 J2.306745
G01 X39.419674 Y83.944333 Z-1.000000
G02 X40.203158 Y83.809883 Z-1.000000 I-0.635244 J-6.051801
G02 X40.759740 Y83.587701 Z-1.000000 I-0.485186 J-2.023654
G02 X41.133466 Y83.348589 Z-1.000000 I-2.474412 J-4.279072
G02 X41.782432 Y82.880275 Z-1.000000 I-20.905548 J-29.653623
G03 X43.204614 Y82.385218 Z-1.000000 I1.179537 J1.098205
G03 X44.523441 Y83.340844 Z-1.000000 I-0.267607 J1.757163
G02 X45.338247 Y84.743967 Z-1.000000 I12.429772 J-6.279932
G02 X45.828978 Y85.314527 Z-1.000000 I2.498969 J-1.653015
G01 X46.396127 Y85.826748 Z-1.000000
G01 X45.659466 Y86.138684 Z-1.000000
G03 X44.953203 Y86.248386 Z-1.000000 I-0.571154 J-1.348794
G03 X44.414317 Y86.023337 Z-1.000000 I0.090200 J-0.973703
G02 X44.316623 Y86.096961 Z-1.000000 I-0.040376 J0.048052
G02 X44.978635 Y87.288232 Z-1.000000 I7.114497 J-3.174077
G01 X45.586453 Y88.186657 Z-1.000000
G01 X45.419994 Y87.354379 Z-1.000000
G03 X45.512619 Y86.721875 Z-1.000000 I0.932442 J-0.186486
G03 X45.881926 Y86.484583 Z-1.000000 I0.396030 J0.210327
G03 X47.441326 Y86.488993 Z-1.000000 I0.744438 J12.469270
G03 X48.197096 Y86.635947 Z-1.000000 I-0.198670 J3.038658
G02 X48.609295 Y86.672758 Z-1.000000 I0.284799 J-0.862835
G02 X48.657076 Y86.570807 Z-1.000000 I-0.009430 J-0.066591
G02 X48.435420 Y86.373206 Z-1.000000 I-0.443238 J0.274075
G02 X47.715136 Y86.128349 Z-1.000000 I-1.453735 J3.094532
G01 X46.941657 Y85.958464 Z-1.000000
G01 X47.465868 Y85.380387 Z-1.000000
G02 X47.988973 Y84.801307 Z-1.000000 I-150.381509 J-136.371212
G02 X48.343169 Y84.405439 Z-1.000000 I-69.579715 J-62.611591
G02 X49.197406 Y82.750541 Z-1.000000 I-2.805796 J-2.496237
G02 X48.829743 Y82.288773 Z-1.000000 I-0.367664 J-0.084516
G03 X48.694277 Y82.182726 Z-1.000000 I0.000000 J-0.139546
G03 X48.531055 Y81.080968 Z-1.000000 I5.677947 J-1.404143
G02 X48.400354 Y79.887515 Z-1.000000 I-10.460162 J0.541657
G02 X48.217037 Y79.211660 Z-1.000000 I-3.513375 J0.590165
G03 X47.985694 Y78.546450 Z-1.000000 I11.496100 J-4.370902
G03 X47.965529 Y78.415708 Z-1.000000 I0.413758 J-0.130741
G03 X48.010323 Y78.299243 Z-1.000000 I0.173802 J0.000000
G03 X50.082203 Y76.071066 Z-1.000000 I76.703172 J69.245407
G03 X52.154822 Y73.970568 Z-1.000000 I71.382186 J68.361950
G01 X52.198876 Y73.989029 Z-1.000000
G03 X52.172996 Y74.111500 Z-1.000000 I-0.302730 J-0.000000
G03 X50.773651 Y77.210789 Z-1.000000 I-204.306848 J-90.380097
G02 X49.436185 Y80.332211 Z-1.000000 I57.344398 J26.418152
G02 X49.177864 Y81.230440 Z-1.000000 I4.444311 J1.764394
G00 Z5.000000

(Change tool to Cylindrical cutter)

G00 Z5.000000
G00 X49.419406 Y86.235028

G01 Z-1.000000 F1000.0(Penetrate)
G03 X49.502140 Y83.813972 Z-1.000000 I4.503614 J-1.058043 F1100.000000
G03 X50.416265 Y80.917089 Z-1.000000 I219.923748 J67.805315
G03 X51.173635 Y78.742116 Z-1.000000 I48.014397 J15.500241
G03 X51.398889 Y78.187735 Z-1.000000 I10.000524 J3.740426
G02 X51.609377 Y77.650226 Z-1.000000 I-6.495202 J-2.853482
G02 X52.312683 Y75.541903 Z-1.000000 I-99.372958 J-34.320870
G03 X53.106576 Y73.477269 Z-1.000000 I18.914319 J6.087978
G03 X53.985499 Y71.823791 Z-1.000000 I12.986800 J5.842928
G03 X57.999260 Y66.007887 Z-1.000000 I60.461239 J37.433465
G03 X58.465069 Y65.977196 Z-1.000000 I0.246352 J0.188752
G03 X58.516413 Y66.137904 Z-1.000000 I-0.130088 J0.130117
G03 X57.543870 Y71.440869 Z-1.000000 I-185.362675 J-31.254113
G02 X57.034530 Y74.225830 Z-1.000000 I93.596033 J18.556803
G02 X56.679162 Y76.600243 Z-1.000000 I67.688432 J11.344425
G03 X56.214606 Y78.958485 Z-1.000000 I-18.796379 J-2.477869
G02 X55.950536 Y80.016202 Z-1.000000 I39.705218 J10.474618
G02 X55.327795 Y82.985175 Z-1.000000 I59.903967 J14.114633
G02 X54.990879 Y84.830672 Z-1.000000 I602.307884 J110.911682
G03 X55.861557 Y82.089267 Z-1.000000 I190.924663 J59.129308
G03 X56.256835 Y81.098159 Z-1.000000 I7.838047 J2.551620
G03 X56.298357 Y82.048584 Z-1.000000 I-3.341455 J0.622102
G02 X56.217531 Y83.264435 Z-1.000000 I19.971193 J1.938234
G03 X56.070360 Y85.647407 Z-1.000000 I-46.324180 J-1.664935
G01 X56.089077 Y85.649880 Z-1.000000
G03 X56.379903 Y84.399808 Z-1.000000 I11.849050 J2.097779
G02 X56.615732 Y82.846300 Z-1.000000 I-5.764759 J-1.669768
G03 X56.836629 Y79.337020 Z-1.000000 I40.453675 J0.784826
G03 X58.005990 Y71.705454 Z-1.000000 I83.994937 J8.964909
G02 X58.468538 Y69.185487 Z-1.000000 I-77.379145 J-15.505646
G02 X58.685026 Y67.635060 Z-1.000000 I-29.066283 J-4.848885
G03 X59.523119 Y65.410069 Z-1.000000 I4.811319 J0.541953
G03 X60.641051 Y64.826291 Z-1.000000 I1.117930 J0.778523
G02 X61.159386 Y64.771867 Z-1.000000 I0.000004 J-2.495468
G02 X61.777561 Y64.584964 Z-1.000000 I-0.795853 J-3.748010
G03 X62.386932 Y64.347842 Z-1.000000 I17.496836 J44.062951
G03 X63.972822 Y63.748117 Z-1.000000 I113.547483 J297.863654
G02 X67.355047 Y61.994202 Z-1.000000 I-5.612122 J-14.960414
G02 X67.809277 Y61.135281 Z-1.000000 I-0.584973 J-0.858923
G02 X67.480282 Y60.785504 Z-1.000000 I-0.350433 J-0.000001
G02 X65.645937 Y61.002689 Z-1.000000 I-0.317225 J5.175737
G03 X64.481259 Y61.348829 Z-1.000000 I-22.125903 J-72.315932
G03 X63.420036 Y61.590900 Z-1.000000 I-2.667437 J-9.246669
G03 X62.187286 Y61.436983 Z-1.000000 I-0.360260 J-2.128228
G02 X61.496486 Y61.372648 Z-1.000000 I-0.441422 J0.998870
G02 X60.521236 Y61.727050 Z-1.000000 I1.003945 J4.281730
G02 X60.736344 Y62.674307 Z-1.000000 I0.225222 J0.446908
G02 X61.143045 Y62.564957 Z-1.000000 I0.015321 J-0.754000
G03 X63.097175 Y61.962141 Z-1.000000 I2.175364 J3.583085
G02 X63.201533 Y61.820845 Z-1.000000 I-0.006000 J-0.113618
G03 X63.414166 Y61.631900 Z-1.000000 I0.155589 J-0.039023
G03 X63.655398 Y62.081715 Z-1.000000 I-0.138426 J0.363829
G02 X63.718974 Y62.462501 Z-1.000000 I0.497400 J0.112653
G02 X63.928640 Y62.533768 Z-1.000000 I0.148044 J-0.091492
G02 X64.341355 Y62.226859 Z-1.000000 I-0.332398 J-0.877944
G03 X64.853928 Y61.821681 Z-1.000000 I1.056479 J0.809699
G03 X65.957146 Y61.503462 Z-1.000000 I1.679693 J3.751791
G01 X67.147776 Y61.334821 Z-1.000000
G01 X66.354025 Y62.010361 Z-1.000000
G03 X63.492968 Y63.739100 Z-1.000000 I-6.733125 J-7.911413
G03 X61.147232 Y64.101723 Z-1.000000 I-1.952275 J-4.860511
G02 X60.753107 Y64.159926 Z-1.000000 I-0.067996 J0.903089
G02 X60.665471 Y64.287690 Z-1.000000 I0.049318 J0.127765
G03 X60.577281 Y64.447296 Z-1.000000 I-0.188521 J-0.000000
G03 X59.871721 Y64.786651 Z-1.000000 I-1.849485 J-2.942149
G03 X59.137290 Y64.979853 Z-1.000000 I-1.600118 J-4.590113
G03 X59.077970 Y64.930305 Z-1.000000 I-0.008967 J-0.049548
G03 X59.112951 Y64.807991 Z-1.000000 I0.231333 J0.000000
G03 X60.099503 Y63.290424 Z-1.000000 I39.756243 J24.765602
G02 X63.476650 Y57.817873 Z-1.000000 I-62.114062 J-42.109293
G02 X64.716776 Y55.036721 Z-1.000000 I-14.686394 J-8.215784
G03 X65.146767 Y53.855210 Z-1.000000 I29.445049 J10.047028
G03 X65.689490 Y52.523185 Z-1.000000 I37.970305 J14.694131
G02 X66.572390 Y50.368043 Z-1.000000 I-67.986252 J-29.110425
G02 X67.501738 Y47.892978 Z-1.000000 I-88.726120 J-34.727270
G02 X68.391080 Y45.058367 Z-1.000000 I-33.845991 J-12.175795
G02 X68.889216 Y42.733610 Z-1.000000 I-22.246047 J-5.982508
G02 X69.052615 Y39.064859 Z-1.000000 I-15.806057 J-2.541987
G02 X68.549144 Y37.913770 Z-1.000000 I-1.869125 J0.131881
G02 X66.931572 Y36.800087 Z-1.000000 I-3.375165 J3.170704
G02 X66.017795 Y36.875316 Z-1.000000 I-0.383103 J0.933868
G03 X65.796723 Y36.914258 Z-1.000000 I-0.159352 J-0.257652
G03 X65.020436 Y36.667784 Z-1.000000 I0.812702 J-3.905389
G02 X63.413328 Y36.101429 Z-1.000000 I-4.796682 J11.047848
G02 X60.630748 Y35.462257 Z-1.000000 I-8.954262 J32.605176
G03 X57.908924 Y34.702403 Z-1.000000 I2.911245 J-15.682950
G03 X56.742130 Y33.994441 Z-1.000000 I1.314042 J-3.481152
G03 X56.715027 Y33.900462 Z-1.000000 I0.061438 J-0.068615
G03 X57.614005 Y30.950812 Z-1.000000 I87.991006 J25.205572
G02 X58.486971 Y27.662227 Z-1.000000 I-30.437885 J-9.839998
G02 X58.695912 Y26.609084 Z-1.000000 I-50.487021 J-10.563792
G02 X58.914968 Y25.253533 Z-1.000000 I-26.769826 J-5.021466
G02 X58.717020 Y21.541644 Z-1.000000 I-9.839475 J-1.336502
G00 Z5.000000

(Change tool to Cylindrical cutter)

G00 Z5.000000
G00 X56.742100 Y33.994441

G01 Z-1.000000 F1000.0(Penetrate)
G03 X56.117293 Y33.625284 Z-1.000000 I2.589258 J-5.095708 F1100.000000
G03 X53.016944 Y31.451235 Z-1.000000 I74.085445 J-108.948821
G02 X52.380985 Y30.817832 Z-1.000000 I-3.938331 J3.318260
G02 X51.850685 Y30.608163 Z-1.000000 I-0.581909 J0.696320
G02 X51.300210 Y30.756181 Z-1.000000 I-0.051642 J0.905556
G02 X50.596704 Y31.313061 Z-1.000000 I2.831007 J4.299217
G03 X48.972555 Y31.672653 Z-1.000000 I-1.405450 J-2.500270
G03 X48.569824 Y31.158058 Z-1.000000 I0.033747 J-0.441301
G03 X48.745686 Y30.306579 Z-1.000000 I11.485499 J1.928273
G03 X48.911187 Y29.768998 Z-1.000000 I4.740394 J1.165123
G02 X49.140135 Y28.870769 Z-1.000000 I-4.076920 J-1.517454
G02 X49.101018 Y28.740549 Z-1.000000 I-0.159806 J-0.022982
G02 X48.609845 Y30.048985 Z-1.000000 I45.769820 J17.927903
G02 X48.349515 Y30.889188 Z-1.000000 I9.318280 J3.347633
G03 X47.905737 Y31.957339 Z-1.000000 I-4.074706 J-1.066628
G03 X47.661723 Y32.059006 Z-1.000000 I-0.189642 J-0.111499
G02 X46.570721 Y31.833055 Z-1.000000 I-3.024838 J11.858475
G02 X44.922794 Y31.620702 Z-1.000000 I-4.300996 J26.876660
G02 X40.777289 Y31.371236 Z-1.000000 I-5.395318 J55.088011
G02 X40.258618 Y31.515365 Z-1.000000 I-0.020999 J0.929758
G02 X40.272651 Y31.636707 Z-1.000000 I0.036288 J0.057286
G02 X40.931993 Y31.749306 Z-1.000000 I0.667304 J-1.920765
G03 X41.829910 Y31.810369 Z-1.000000 I-0.024551 J6.993311
G01 X41.850483 Y31.871147 Z-1.000000
G03 X40.029243 Y32.816446 Z-1.000000 I-2.403425 J-2.403433
G03 X39.648787 Y32.253934 Z-1.000000 I-0.063767 J-0.366788
G02 X39.644909 Y32.101435 Z-1.000000 I-0.118577 J-0.073284
G02 X39.485761 Y32.017933 Z-1.000000 I-0.159149 J0.109913
G03 X39.338487 Y31.892941 Z-1.000000 I0.000000 J-0.149261
G03 X39.365866 Y31.290333 Z-1.000000 I1.436267 J-0.236669
G02 X39.479984 Y30.553540 Z-1.000000 I-3.597677 J-0.934460
G02 X39.531424 Y28.181483 Z-1.000000 I-37.588407 J-2.001719
G03 X39.645439 Y26.231109 Z-1.000000 I14.325758 J-0.141062
G03 X39.784051 Y26.197104 Z-1.000000 I0.075846 J0.009656
G02 X39.931411 Y26.138063 Z-1.000000 I0.066871 J-0.046514
G02 X39.310518 Y23.154393 Z-1.000000 I-29.664409 J4.616635
G03 X38.354672 Y16.799866 Z-1.000000 I29.201195 J-7.641589
G03 X38.935257 Y14.361782 Z-1.000000 I4.587326 J-0.195781
G03 X39.223471 Y14.414084 Z-1.000000 I0.135129 J0.075622
G03 X39.584387 Y18.623053 Z-1.000000 I-31.839500 J4.850179
G03 X39.460776 Y20.044728 Z-1.000000 I-6.702055 J0.133480
G02 X39.717308 Y20.538044 Z-1.000000 I0.437751 J0.085721
G02 X39.924866 Y20.490266 Z-1.000000 I0.072016 J-0.161874
G02 X40.064064 Y20.266264 Z-1.000000 I-0.704521 J-0.593051
G02 X40.265700 Y18.447018 Z-1.000000 I-2.819543 J-1.233301
G03 X39.630796 Y14.952313 Z-1.000000 I147.106678 J-28.530757
G03 X39.300723 Y12.831684 Z-1.000000 I78.646157 J-13.327164
G03 X39.091017 Y11.148313 Z-1.000000 I49.343012 J-7.001653
G02 X38.702946 Y9.557858 Z-1.000000 I-6.164836 J0.661651
G02 X38.111100 Y8.634771 Z-1.000000 I-2.591604 J1.010352
G02 X37.712654 Y7.921607 Z-1.000000 I-4.603264 J2.103967
G02 X37.312277 Y7.808560 Z-1.000000 I-0.266576 J0.178600
G02 X37.048556 Y8.375569 Z-1.000000 I0.201121 J0.438377
G02 X37.470482 Y9.528720 Z-1.000000 I7.332019 J-2.028943
G02 X37.660928 Y11.244282 Z-1.000000 I45.668499 J-4.201337
G02 X37.900779 Y12.836011 Z-1.000000 I39.547134 J-5.145260
G03 X38.196274 Y16.151319 Z-1.000000 I-20.310888 J3.481145
G03 X37.928353 Y16.262371 Z-1.000000 I-0.156454 J0.001259
G03 X37.748714 Y15.972166 Z-1.000000 I0.548471 J-0.540209
G03 X37.116684 Y13.898469 Z-1.000000 I29.374548 J-10.086065
G02 X36.782991 Y12.754749 Z-1.000000 I-25.082079 J6.697427
G02 X36.403125 Y11.649508 Z-1.000000 I-23.003449 J7.288291
G02 X36.240798 Y12.839937 Z-1.000000 I0.945026 J0.735145
G03 X37.146884 Y15.420520 Z-1.000000 I-24.144266 J9.926816
G03 X37.563919 Y17.196682 Z-1.000000 I-16.027129 J4.700142
G03 X37.511494 Y17.471040 Z-1.000000 I-0.385444 J0.068537
G02 X37.478008 Y17.660075 Z-1.000000 I0.221098 J0.136649
G02 X37.565004 Y17.731090 Z-1.000000 I0.087116 J-0.017926
G03 X37.683732 Y17.829502 Z-1.000000 I-0.000165 J0.121024
G03 X37.819589 Y19.069681 Z-1.000000 I-7.781399 J1.479952
G02 X37.941068 Y20.391576 Z-1.000000 I10.822162 J-0.328003
G02 X38.135731 Y21.119911 Z-1.000000 I3.450319 J-0.531992
G03 X38.339572 Y21.848401 Z-1.000000 I-3.660101 J1.416904
G03 X38.545403 Y23.419352 Z-1.000000 I-16.948548 J3.019614
G02 X38.732549 Y24.998357 Z-1.000000 I23.500289 J-1.984697
G02 X38.984996 Y26.295083 Z-1.000000 I16.091910 J-2.459847
G03 X39.161284 Y27.592339 Z-1.000000 I-6.522748 J1.547001
G03 X39.106310 Y29.549123 Z-1.000000 I-14.977689 J0.558379
G03 X38.028581 Y31.894093 Z-1.000000 I-3.881425 J-0.363728
G03 X35.709366 Y33.065197 Z-1.000000 I-2.841511 J-2.745233
G03 X31.229866 Y33.386736 Z-1.000000 I-4.875269 J-36.555868
G03 X30.304736 Y33.123189 Z-1.000000 I-0.018156 J-1.691782
G03 X29.736899 Y32.147422 Z-1.000000 I0.657746 J-1.035875
G03 X30.003989 Y26.991178 Z-1.000000 I25.633924 J-1.257219
G03 X31.177093 Y19.822288 Z-1.000000 I370.522586 J56.951223
G03 X31.680520 Y17.333891 Z-1.000000 I45.115258 J7.832136
G03 X32.872386 Y12.967801 Z-1.000000 I56.331003 J13.031647
G03 X33.934549 Y10.190144 Z-1.000000 I23.805700 J7.511277
G02 X34.402518 Y8.670390 Z-1.000000 I-5.758721 J-2.605175
G02 X34.234336 Y8.470355 Z-1.000000 I-0.168182 J-0.029317
G02 X33.877951 Y8.698940 Z-1.000000 I-0.000001 J0.392109
G02 X33.017483 Y11.122363 Z-1.000000 I13.147948 J6.032820
G03 X32.532065 Y12.820846 Z-1.000000 I-32.645250 J-8.411258
G03 X32.229274 Y13.629722 Z-1.000000 I-7.688326 J-2.416897
G02 X31.735551 Y15.036880 Z-1.000000 I9.198915 J4.017777
G02 X30.914378 Y18.511630 Z-1.000000 I55.563740 J14.965560
G02 X29.862399 Y24.998048 Z-1.000000 I79.992123 J16.301778
G02 X29.588747 Y29.457187 Z-1.000000 I37.460144 J4.536848
G03 X29.332136 Y32.804863 Z-1.000000 I-22.567202 J-0.046181
G03 X29.049915 Y32.999637 Z-1.000000 I-0.232757 J-0.035407
G02 X25.348347 Y32.608587 Z-1.000000 I-3.680940 J17.128228
G02 X23.984446 Y33.005629 Z-1.000000 I0.003004 J2.551450
G03 X21.689067 Y34.029786 Z-1.000000 I-4.633112 J-7.299575
G03 X19.027938 Y34.397671 Z-1.000000 I-2.670491 J-9.508551
G02 X17.532128 Y34.596578 Z-1.000000 I0.004643 J5.758710
G02 X16.325620 Y35.126746 Z-1.000000 I1.145630 J4.245036
G02 X15.336053 Y35.865851 Z-1.000000 I4.291067 J6.777193
G03 X9.169949 Y38.094455 Z-1.000000 I-5.941065 J-6.793251
G00 Z5.000000

(Change tool to Cylindrical cutter)

G00 Z5.000000
G00 X16.245303 Y35.538626

G01 Z-1.000000 F1000.0(Penetrate)
G03 X17.397565 Y35.017974 Z-1.000000 I2.187114 J3.304959 F1100.000000
G03 X19.160348 Y34.750081 Z-1.000000 I2.057865 J7.607458
G02 X22.253493 Y34.321553 Z-1.000000 I-0.583790 J-15.591390
G02 X23.655427 Y33.660118 Z-1.000000 I-0.906297 J-3.737366
G03 X25.311759 Y32.783983 Z-1.000000 I3.591442 J4.785902
G03 X26.309174 Y32.753162 Z-1.000000 I0.548803 J1.605770
G03 X26.379837 Y32.910468 Z-1.000000 I-0.029549 J0.107798
G03 X26.137366 Y33.100932 Z-1.000000 I-0.320365 J-0.158270
G01 X26.137800 Y33.197710 Z-1.000000
G02 X27.112329 Y33.309524 Z-1.000000 I1.064593 J-4.975892
G03 X29.874280 Y33.722598 Z-1.000000 I-0.189630 J10.708123
G03 X30.238405 Y34.205789 Z-1.000000 I-0.138530 J0.483190
G03 X30.088944 Y34.447675 Z-1.000000 I-0.270464 J-0.000000
G03 X28.055592 Y35.297735 Z-1.000000 I-7.269867 J-14.532660
G02 X25.293424 Y36.392160 Z-1.000000 I9.746868 J28.632531
G03 X24.116419 Y36.877009 Z-1.000000 I-7.390354 J-16.269548
G03 X22.498542 Y37.416961 Z-1.000000 I-8.985031 J-24.228325
G02 X21.193910 Y37.874624 Z-1.000000 I4.084020 J13.730421
G03 X16.472761 Y38.949409 Z-1.000000 I-5.651518 J-13.918558
G03 X6.425898 Y38.791010 Z-1.000000 I-4.006681 J-64.569565
G02 X2.034734 Y38.752188 Z-1.000000 I-2.424315 J25.852113
G02 X1.663397 Y39.152803 Z-1.000000 I0.030433 J0.400616
G02 X1.746606 Y39.816014 Z-1.000000 I2.684618 J0.000004
G02 X1.905104 Y40.100893 Z-1.000000 I0.618827 J-0.157765
G03 X2.210424 Y40.941266 Z-1.000000 I-0.794994 J0.764483
G03 X1.759770 Y42.208073 Z-1.000000 I-2.488279 J-0.171618
G02 X0.113161 Y45.064035 Z-1.000000 I14.706717 J10.381838
G02 X-0.188697 Y46.442000 Z-1.000000 I2.994255 J1.377970
G02 X0.113097 Y47.971108 Z-1.000000 I4.024647 J0.000006
G02 X0.841908 Y48.951202 Z-1.000000 I2.286183 J-0.939013
G03 X0.987892 Y49.099888 Z-1.000000 I-0.584601 J0.719988
G03 X2.178908 Y50.661044 Z-1.000000 I-64.749833 J50.632946
G02 X8.302082 Y57.602192 Z-1.000000 I44.725741 J-33.283699
G02 X15.327181 Y63.279042 Z-1.000000 I36.757789 J-38.302543
G03 X17.157040 Y64.768333 Z-1.000000 I-7.460841 J11.035773
G03 X17.107842 Y65.011994 Z-1.000000 I-0.103134 J0.105973
G03 X15.850130 Y65.206799 Z-1.000000 I-1.065067 J-2.718887
G03 X12.775857 Y64.725573 Z-1.000000 I1.151583 J-17.417278
G02 X10.202974 Y64.482522 Z-1.000000 I-2.088687 J8.370889
G02 X9.929326 Y64.885577 Z-1.000000 I0.017206 J0.306104
G02 X10.394156 Y65.389527 Z-1.000000 I0.791683 J-0.263879
G03 X11.173214 Y65.767679 Z-1.000000 I-3.431181 J8.060389
G00 Z5.000000

(Change tool to Cylindrical cutter)

G00 Z5.000000
G00 X12.378531 Y66.653736

G01 Z-1.000000 F1000.0(Penetrate)
G03 X10.882681 Y65.574053 Z-1.000000 I1.687168 J-3.913551 F1100.000000
G03 X10.548112 Y65.125119 Z-1.000000 I2.406900 J-2.142882
G03 X11.078870 Y64.216495 Z-1.000000 I0.506860 J-0.313254
G03 X13.416690 Y65.240262 Z-1.000000 I-0.140574 J3.502152
G02 X14.573199 Y65.757217 Z-1.000000 I1.254583 J-1.254574
G02 X18.435925 Y65.518136 Z-1.000000 I0.915369 J-16.534474
G03 X19.516287 Y65.429868 Z-1.000000 I0.991804 J5.483578
G03 X19.574491 Y65.536238 Z-1.000000 I-0.001108 J0.069715
G02 X19.607637 Y65.722624 Z-1.000000 I0.120803 J0.074658
G02 X20.304110 Y66.108655 Z-1.000000 I1.550871 J-1.976770
G03 X24.568010 Y69.093188 Z-1.000000 I-3.394847 J9.388210
G03 X26.953601 Y74.061397 Z-1.000000 I-8.587750 J7.180440
G02 X27.109031 Y74.390697 Z-1.000000 I0.744641 J-0.150140
G02 X28.460652 Y75.913483 Z-1.000000 I18.420215 J-14.988499
G03 X29.774585 Y77.385359 Z-1.000000 I-17.713154 J17.134808
G03 X30.308714 Y78.126578 Z-1.000000 I-5.488895 J4.518411
G03 X31.112177 Y79.542379 Z-1.000000 I-15.695316 J9.842920
G03 X31.638053 Y81.067748 Z-1.000000 I-5.139993 J2.625366
G02 X32.188720 Y84.908616 Z-1.000000 I549.945256 J-76.885947
G02 X32.454030 Y85.120714 Z-1.000000 I0.246375 J-0.036202
G02 X32.653794 Y84.880252 Z-1.000000 I-0.016546 J-0.216954
G02 X32.399099 Y83.075963 Z-1.000000 I-28.330677 J3.079059
G02 X32.020774 Y81.130780 Z-1.000000 I-49.094125 J8.539102
G03 X32.077346 Y81.061961 Z-1.000000 I0.055591 J-0.011964
G03 X32.586022 Y82.720084 Z-1.000000 I-0.015994 J0.911994
G02 X32.960160 Y83.623256 Z-1.000000 I0.288115 J0.409728
G02 X33.103339 Y83.444837 Z-1.000000 I-0.029760 J-0.170540
G02 X33.010062 Y82.413994 Z-1.000000 I-11.566713 J0.526979
G02 X32.817432 Y81.635540 Z-1.000000 I-3.698696 J0.502188
G02 X32.382782 Y80.463417 Z-1.000000 I-119.942122 J43.810638
G03 X31.875247 Y79.039147 Z-1.000000 I40.033278 J-15.068343
G03 X31.894554 Y78.956830 Z-1.000000 I0.076033 J-0.025589
G03 X32.619611 Y78.832596 Z-1.000000 I0.450334 J0.450336
G03 X34.673074 Y80.285289 Z-1.000000 I-3.212420 J6.718623
G03 X34.701607 Y80.411813 Z-1.000000 I-0.085855 J0.085841
G03 X34.366965 Y81.145949 Z-1.000000 I-4.425595 J-1.573982
G02 X33.206575 Y83.967893 Z-1.000000 I10.782060 J6.083160
G02 X33.436793 Y84.552204 Z-1.000000 I0.505952 J0.138164
G02 X33.584455 Y84.512347 Z-1.000000 I0.055133 J-0.089201
G02 X33.946705 Y83.596025 Z-1.000000 I-3.840199 J-2.047915
G03 X35.070444 Y80.578436 Z-1.000000 I16.660065 J4.486115
G03 X35.433850 Y80.516904 Z-1.000000 I0.203559 J0.098314
G03 X35.464590 Y80.634271 Z-1.000000 I-0.084961 J0.084961
G03 X35.136598 Y81.578166 Z-1.000000 I-7.847680 J-2.198042
G02 X34.829734 Y82.555078 Z-1.000000 I5.174328 J2.161989
G02 X34.736246 Y83.429865 Z-1.000000 I4.046078 J0.874794
G03 X34.169761 Y85.060993 Z-1.000000 I-2.631579 J-0.000004
G03 X33.122647 Y86.158851 Z-1.000000 I-6.395111 J-5.051235
G00 Z5.000000

(End cutting path id: path897)

(Start cutting path id: path1067)
(Change tool to Cylindrical cutter)

G00 Z5.000000
G00 X33.389182 Y92.791625

G01 Z-1.000000 F1000.0(Penetrate)
G03 X33.924044 Y94.485192 Z-1.000000 I-13.712174 J5.261822 F1100.000000
G03 X33.080618 Y96.642595 Z-1.000000 I-1.938832 J0.485592
G03 X32.426833 Y96.907003 Z-1.000000 I-0.993714 J-1.516603
G03 X31.678031 Y96.910298 Z-1.000000 I-0.383244 J-2.007947
G02 X31.609119 Y97.017154 Z-1.000000 I-0.012307 J0.067712
G02 X31.880432 Y97.202980 Z-1.000000 I0.378631 J-0.261838
G02 X32.739979 Y97.075088 Z-1.000000 I0.271052 J-1.130689
G02 X33.534079 Y96.551336 Z-1.000000 I-4.599278 J-7.837188
G02 X34.338591 Y95.768035 Z-1.000000 I-2.446771 J-3.317828
G02 X34.471749 Y95.380639 Z-1.000000 I-0.496953 J-0.387398
G03 X34.478258 Y95.040090 Z-1.000000 I8.912736 J0.000014
G03 X34.513360 Y94.543426 Z-1.000000 I7.693951 J0.294207
G03 X34.593775 Y94.218243 Z-1.000000 I1.197906 J0.123697
G02 X34.644772 Y93.708729 Z-1.000000 I-0.853163 J-0.342703
G03 X34.611054 Y93.032516 Z-1.000000 I2.518015 J-0.464504
G02 X33.596854 Y89.829324 Z-1.000000 I-4.409927 J-0.365877
G00 Z5.000000

(End cutting path id: path1067)

(Start cutting path id: path1065)
(Change tool to Cylindrical cutter)

G00 Z5.000000
G00 X35.090682 Y95.225360

G01 Z-1.000000 F1000.0(Penetrate)
G02 X34.327064 Y94.349085 Z-1.000000 I-3.119409 J1.947507 F1100.000000
G03 X33.942583 Y93.527610 Z-1.000000 I0.685329 J-0.821473
G02 X33.754330 Y93.288396 Z-1.000000 I-0.246111 J-0.000000
G02 X33.483054 Y93.358484 Z-1.000000 I-0.069960 J0.289249
G03 X32.856759 Y93.147290 Z-1.000000 I-0.255106 J-0.277719
G02 X32.509094 Y92.018107 Z-1.000000 I-4.803916 J0.860968
G03 X32.239826 Y91.162836 Z-1.000000 I3.567145 J-1.593081
G03 X32.037859 Y89.825158 Z-1.000000 I16.549754 J-3.182810
G01 X32.014243 Y87.510058 Z-1.000000
G00 Z5.000000

(End cutting path id: path1065)

(Start cutting path id: path959)
(Change tool to Cylindrical cutter)

G00 Z5.000000
G00 X44.173545 Y80.813414

G01 Z-1.000000 F1000.0(Penetrate)
G03 X43.758473 Y81.079523 Z-1.000000 I-0.388391 J-0.149039 F1100.000000
G03 X43.463555 Y80.767783 Z-1.000000 I0.020212 J-0.314494
G02 X43.368801 Y80.622655 Z-1.000000 I-0.160564 J0.001335
G02 X43.232045 Y80.663738 Z-1.000000 I-0.044678 J0.099433
G03 X43.005848 Y80.797180 Z-1.000000 I-0.243470 J-0.154271
G03 X42.798795 Y80.689747 Z-1.000000 I-0.013626 J-0.226979
G03 X42.774603 Y80.392255 Z-1.000000 I0.278989 J-0.172417
G03 X43.084416 Y79.997454 Z-1.000000 I0.856987 J0.353544
G03 X43.559615 Y79.848158 Z-1.000000 I0.457712 J0.625955
G03 X43.954766 Y80.017086 Z-1.000000 I-0.013017 J0.577075
G03 X44.192598 Y80.426035 Z-1.000000 I-0.653950 J0.653948
G03 X44.173545 Y80.813423 Z-1.000000 I-0.599430 J0.164681
G01 X44.173545 Y80.813414 Z-1.000000
G00 Z5.000000

(End cutting path id: path959)

(Start cutting path id: path957)
(Change tool to Cylindrical cutter)

G00 Z5.000000
G00 X47.805137 Y79.268639

G01 Z-1.000000 F1000.0(Penetrate)
G03 X47.918078 Y79.698881 Z-1.000000 I-1.900041 J0.728714 F1100.000000
G03 X48.131834 Y81.472518 Z-1.000000 I-32.415254 J4.806334
G03 X47.854234 Y84.396687 Z-1.000000 I-7.852617 J0.729789
G03 X47.022558 Y85.301729 Z-1.000000 I-1.326418 J-0.384245
G03 X46.266653 Y85.145568 Z-1.000000 I-0.256171 J-0.667570
G03 X44.699421 Y83.031626 Z-1.000000 I5.808559 J-5.944268
G03 X44.355240 Y81.843881 Z-1.000000 I2.804583 J-1.456443
G03 X44.554804 Y81.336972 Z-1.000000 I0.611116 J-0.052149
G02 X44.971483 Y80.847107 Z-1.000000 I-1.659533 J-1.833743
G02 X45.055105 Y80.564021 Z-1.000000 I-0.437351 J-0.283086
G03 X45.129412 Y80.269561 Z-1.000000 I0.620596 J0.000001
G03 X45.603477 Y79.546697 Z-1.000000 I4.425570 J2.385473
G03 X46.974010 Y78.771139 Z-1.000000 I1.630461 J1.282526
G03 X47.805137 Y79.268639 Z-1.000000 I0.098346 J0.778696
G01 X47.805137 Y79.268639 Z-1.000000
G00 Z5.000000

(End cutting path id: path957)

(Start cutting path id: path1042)
(Change tool to Cylindrical cutter)

G00 Z5.000000
G00 X46.772542 Y76.470674

G01 Z-1.000000 F1000.0(Penetrate)
G03 X47.130280 Y76.204520 Z-1.000000 I1.207104 J1.248975 F1100.000000
G02 X47.509473 Y75.969913 Z-1.000000 I-2.529159 J-4.511603
G02 X47.855900 Y75.740459 Z-1.000000 I-1.390765 J-2.475999
G02 X48.169803 Y75.467772 Z-1.000000 I-2.231707 J-2.886054
G03 X48.549905 Y75.153434 Z-1.000000 I1.967555 J1.992207
G02 X48.896125 Y74.800356 Z-1.000000 I-0.733022 J-1.065070
G03 X48.978758 Y74.718737 Z-1.000000 I3.748669 J3.712643
G02 X49.052255 Y74.628053 Z-1.000000 I-0.334621 J-0.346325
G00 Z5.000000

(End cutting path id: path1042)

(Start cutting path id: path1038)
(Change tool to Cylindrical cutter)

G00 Z5.000000
G00 X48.696618 Y72.525879

G01 Z-1.000000 F1000.0(Penetrate)
G02 X48.452528 Y73.304551 Z-1.000000 I0.890200 J0.706644 F1100.000000
G03 X48.418486 Y73.743058 Z-1.000000 I-1.562904 J0.099245
G03 X48.324205 Y74.072322 Z-1.000000 I-1.247072 J-0.178954
G02 X48.197395 Y74.389324 Z-1.000000 I4.503202 J1.985276
G03 X48.115113 Y74.758297 Z-1.000000 I-2.407019 J-0.343111
G03 X47.950024 Y75.101337 Z-1.000000 I-1.207487 J-0.369862
G03 X47.745662 Y75.380732 Z-1.000000 I-1.023891 J-0.534484
G03 X47.499723 Y75.621064 Z-1.000000 I-8.140095 J-8.083970
G03 X47.231310 Y75.863814 Z-1.000000 I-2.902326 J-2.939393
G02 X46.975632 Y76.117458 Z-1.000000 I1.277643 J1.543575
G02 X46.665733 Y76.632405 Z-1.000000 I3.089331 J2.209906
G03 X46.383881 Y77.166428 Z-1.000000 I-11.707129 J-5.837529
G03 X46.032265 Y77.619212 Z-1.000000 I-1.657991 J-0.924616
G02 X45.657879 Y78.069063 Z-1.000000 I1.713971 J1.807157
G00 Z5.000000

(End cutting path id: path1038)

(Start cutting path id: path949)
(Change tool to Cylindrical cutter)

G00 Z5.000000
G00 X46.349514 Y74.906887

G01 Z-1.000000 F1000.0(Penetrate)
G03 X46.872920 Y74.114036 Z-1.000000 I9.140618 J5.465057 F1100.000000
G02 X47.830808 Y72.787395 Z-1.000000 I-241.953767 J-175.709294
G03 X49.825089 Y70.047220 Z-1.000000 I211.435694 J151.785650
G01 X49.842322 Y70.058874 Z-1.000000
G00 Z5.000000

(End cutting path id: path949)

(Start cutting path id: path935)
(Change tool to Cylindrical cutter)

G00 Z5.000000
G00 X52.936286 Y67.892797

G01 Z-1.000000 F1000.0(Penetrate)
G03 X53.274796 Y66.830301 Z-1.000000 I2.190880 J0.112841 F1100.000000
G02 X54.736111 Y64.230052 Z-1.000000 I-23.592174 J-14.969325
G02 X55.428756 Y62.543241 Z-1.000000 I-11.863119 J-5.856891
G02 X57.088848 Y53.845450 Z-1.000000 I-31.907714 J-10.597344
G02 X56.289480 Y44.369809 Z-1.000000 I-33.852483 J-1.915733
G02 X56.092494 Y44.212790 Z-1.000000 I-0.196987 J0.045055
G00 Z5.000000

(End cutting path id: path935)

(Start cutting path id: path911)
(Change tool to Cylindrical cutter)

G00 Z5.000000
G00 X53.231607 Y54.593836

G01 Z-1.000000 F1000.0(Penetrate)
G02 X52.847033 Y55.684342 Z-1.000000 I2.310772 J1.427972 F1100.000000
G03 X52.034296 Y61.690651 Z-1.000000 I-302.472853 J-37.870673
G03 X51.850223 Y62.771149 Z-1.000000 I-22.320310 J-3.246532
G03 X51.613942 Y63.865857 Z-1.000000 I-28.127007 J-5.498063
G03 X51.243894 Y65.159797 Z-1.000000 I-14.104277 J-3.333734
G02 X51.046839 Y66.073019 Z-1.000000 I3.944004 J1.328911
G03 X49.987238 Y71.086152 Z-1.000000 I-23.584386 J-2.366366
G03 X48.696618 Y72.525878 Z-1.000000 I-2.282528 J-0.747795
G03 X48.641396 Y72.633569 Z-1.000000 I-7.588486 J-3.823222
G03 X48.579748 Y72.749972 Z-1.000000 I-9.546763 J-4.981571
G03 X48.566094 Y72.763716 Z-1.000000 I-0.900186 J-0.880619
G02 X48.544348 Y72.785412 Z-1.000000 I3.340166 J3.369669
G03 X48.518143 Y72.834204 Z-1.000000 I-1.688019 J-0.875158
G03 X48.485248 Y72.891717 Z-1.000000 I-2.389099 J-1.328312
G03 X48.477585 Y72.899483 Z-1.000000 I-0.304765 J-0.293044
G02 X48.461648 Y72.915337 Z-1.000000 I2.209134 J2.236702
G03 X48.452594 Y72.952335 Z-1.000000 I-0.445037 J-0.089294
G03 X48.438047 Y72.998017 Z-1.000000 I-0.874639 J-0.253359
G03 X48.430385 Y73.005783 Z-1.000000 I-0.304765 J-0.293044
G02 X48.414447 Y73.021637 Z-1.000000 I2.209134 J2.236702
G03 X48.405929 Y73.040872 Z-1.000000 I-0.188086 J-0.071789
G03 X48.390847 Y73.068887 Z-1.000000 I-0.574452 J-0.291192
G03 X48.381917 Y73.099949 Z-1.000000 I-0.342017 J-0.081511
G03 X48.367247 Y73.139757 Z-1.000000 I-0.739879 J-0.250056
G03 X48.359585 Y73.147523 Z-1.000000 I-0.304765 J-0.293044
G02 X48.343647 Y73.163377 Z-1.000000 I2.209134 J2.236702
G03 X48.340504 Y73.182676 Z-1.000000 I-0.114482 J-0.008739
G03 X48.331847 Y73.210627 Z-1.000000 I-0.264582 J-0.066631
G03 X48.324185 Y73.218393 Z-1.000000 I-0.304765 J-0.293044
G02 X48.308247 Y73.234247 Z-1.000000 I2.209134 J2.236702
G01 X48.310416 Y73.242348 Z-1.000000
G03 X48.308247 Y73.257867 Z-1.000000 I-0.056587 J-0.000000
G03 X48.294594 Y73.271610 Z-1.000000 I-0.900186 J-0.880619
G02 X48.272847 Y73.293307 Z-1.000000 I3.340166 J3.369669
G03 X48.246782 Y73.336233 Z-1.000000 I-1.637242 J-0.964756
G03 X48.213747 Y73.387796 Z-1.000000 I-2.386270 J-1.492450
G03 X48.181474 Y73.454302 Z-1.000000 I-2.850739 J-1.342282
G03 X48.142847 Y73.529537 Z-1.000000 I-3.500545 J-1.749718
G01 X48.095647 Y73.576787 Z-1.000000
G01 X48.093124 Y73.584200 Z-1.000000
G03 X48.083846 Y73.600407 Z-1.000000 I-0.154772 J-0.077839
G03 X48.058125 Y73.631709 Z-1.000000 I-2.294892 J-1.859547
G03 X48.024846 Y73.671277 Z-1.000000 I-4.346658 J-3.621973
G03 X48.021905 Y73.684664 Z-1.000000 I-0.063187 J-0.006868
G03 X48.013046 Y73.706717 Z-1.000000 I-0.195584 J-0.065757
G03 X48.004528 Y73.725952 Z-1.000000 I-0.188086 J-0.071789
G03 X47.989446 Y73.753967 Z-1.000000 I-0.574452 J-0.291192
G03 X47.922278 Y73.838400 Z-1.000000 I-14.113970 J-11.159105
G03 X47.847706 Y73.931143 Z-1.000000 I-21.005289 J-16.813348
G03 X47.838945 Y73.956282 Z-1.000000 I-0.256027 J-0.075126
G03 X47.824106 Y73.990203 Z-1.000000 I-0.631865 J-0.256218
G01 X47.753206 Y74.061073 Z-1.000000
G03 X47.738570 Y74.098025 Z-1.000000 I-0.614535 J-0.222033
G03 X47.717806 Y74.143753 Z-1.000000 I-1.233223 J-0.532401
G01 X47.670506 Y74.191003 Z-1.000000
G03 X47.643984 Y74.257481 Z-1.000000 I-2.167122 J-0.826037
G03 X47.611405 Y74.332744 Z-1.000000 I-2.806037 J-1.169967
G02 X47.598081 Y74.340997 Z-1.000000 I0.127877 J0.221327
G02 X47.576005 Y74.356363 Z-1.000000 I0.325199 J0.490724
G03 X47.555535 Y74.399245 Z-1.000000 I-1.130331 J-0.513255
G03 X47.528705 Y74.450853 Z-1.000000 I-1.744491 J-0.874141
G03 X47.496769 Y74.499730 Z-1.000000 I-2.689899 J-1.722723
G03 X47.457805 Y74.557159 Z-1.000000 I-3.511114 J-2.340246
G03 X47.425445 Y74.629560 Z-1.000000 I-3.033303 J-1.312312
G03 X47.386905 Y74.710712 Z-1.000000 I-3.686081 J-1.700853
G03 X47.354969 Y74.759588 Z-1.000000 I-2.689899 J-1.722723
G03 X47.316005 Y74.817018 Z-1.000000 I-3.511114 J-2.340246
G03 X47.312861 Y74.836318 Z-1.000000 I-0.114482 J-0.008739
G03 X47.304204 Y74.864268 Z-1.000000 I-0.264582 J-0.066631
G03 X47.278000 Y74.913060 Z-1.000000 I-1.688129 J-0.875215
G03 X47.245104 Y74.970574 Z-1.000000 I-2.390074 J-1.328848
G03 X47.189741 Y75.043155 Z-1.000000 I-8.555072 J-6.468318
G03 X47.126984 Y75.124126 Z-1.000000 I-11.776632 J-9.062636
G03 X47.100779 Y75.172918 Z-1.000000 I-1.688129 J-0.875215
G03 X47.067884 Y75.230432 Z-1.000000 I-2.390074 J-1.328848
G03 X46.912287 Y75.403541 Z-1.000000 I-138.564175 J-124.390388
G03 X46.748973 Y75.584784 Z-1.000000 I-148.939363 J-134.040915
G02 X46.688115 Y75.634199 Z-1.000000 I6.437911 J7.990968
G02 X46.619043 Y75.691090 Z-1.000000 I8.911777 J10.890270
G02 X46.593940 Y75.699936 Z-1.000000 I0.092762 J0.303263
G02 X46.559943 Y75.714710 Z-1.000000 I0.236457 J0.590647
G03 X46.575504 Y75.712812 Z-1.000000 I0.015560 J0.062840
G01 X46.583543 Y75.714710 Z-1.000000
G03 X46.616959 Y75.712769 Z-1.000000 I0.033415 J0.286606
G03 X46.642643 Y75.714710 Z-1.000000 I-0.000000 J0.170864
G00 Z5.000000

(End cutting path id: path911)

(Start cutting path id: path945)
(Change tool to Cylindrical cutter)

G00 Z5.000000
G00 X52.936286 Y67.892797

G01 Z-1.000000 F1000.0(Penetrate)
G03 X52.339175 Y68.604996 Z-1.000000 I-4.868731 J-3.475554 F1100.000000
G02 X51.940574 Y69.175738 Z-1.000000 I1.505672 J1.476110
G01 X51.940574 Y69.175747 Z-1.000000
G03 X50.028083 Y73.094631 Z-1.000000 I-10.129730 J-2.517395
G02 X49.052255 Y74.628053 Z-1.000000 I7.333316 J5.743932
G00 Z5.000000

(End cutting path id: path945)

(Start cutting path id: path1039)
(Change tool to Cylindrical cutter)

G00 Z5.000000
G00 X51.537386 Y86.164561

G01 Z-1.000000 F1000.0(Penetrate)
G02 X50.789420 Y86.634399 Z-1.000000 I2.575859 J4.930966 F1100.000000
G02 X50.406345 Y87.007263 Z-1.000000 I1.217404 J1.633959
G03 X50.031071 Y87.217459 Z-1.000000 I-0.441245 J-0.347682
G03 X49.546445 Y87.108951 Z-1.000000 I-0.087945 J-0.743700
G02 X49.398626 Y87.184953 Z-1.000000 I-0.051252 J0.082068
G02 X49.519244 Y87.541932 Z-1.000000 I0.496297 J0.031176
G02 X50.011562 Y87.825730 Z-1.000000 I0.655852 J-0.568813
G02 X50.355644 Y87.702355 Z-1.000000 I0.067665 J-0.352783
G03 X51.742930 Y86.557320 Z-1.000000 I3.702216 J3.072568
G03 X53.515407 Y85.968050 Z-1.000000 I2.496081 J4.547647
G01 X55.109266 Y86.120237 Z-1.000000
G01 X53.521717 Y85.774672 Z-1.000000
G02 X52.365771 Y85.823745 Z-1.000000 I-0.484518 J2.225926
G02 X51.537346 Y86.164551 Z-1.000000 I1.451000 J4.704327
G01 X51.537386 Y86.164561 Z-1.000000
G00 Z5.000000

(End cutting path id: path1039)

(Start cutting path id: path1002)
(Change tool to Cylindrical cutter)

G00 Z5.000000
G00 X55.152555 Y87.165426

G01 Z-1.000000 F1000.0(Penetrate)
G02 X54.782440 Y87.169938 Z-1.000000 I-0.084129 J8.280632 F1100.000000
G03 X54.075055 Y87.116184 Z-1.000000 I-0.111200 J-3.218000
G03 X53.774423 Y87.028950 Z-1.000000 I0.301801 J-1.601741
G03 X53.586695 Y86.950654 Z-1.000000 I2.271334 J-5.710098
G03 X52.902420 Y86.616510 Z-1.000000 I3.579221 J-8.197404
G03 X52.434016 Y86.326065 Z-1.000000 I2.257778 J-4.164069
G00 Z5.000000

(End cutting path id: path1002)

(Start cutting path id: path1057)
(Change tool to Cylindrical cutter)

G00 Z5.000000
G00 X50.916980 Y90.173272

G01 Z-1.000000 F1000.0(Penetrate)
G02 X51.001705 Y89.845722 Z-1.000000 I-0.235744 J-0.235711 F1100.000000
G02 X50.366243 Y88.571026 Z-1.000000 I-3.754464 J1.075936
G03 X50.113331 Y88.202320 Z-1.000000 I4.001596 J-3.015966
G02 X49.909774 Y87.912480 Z-1.000000 I-2.702136 J1.681336
G00 Z5.000000

(End cutting path id: path1057)

(Start cutting path id: path1061)
(Change tool to Cylindrical cutter)

G00 Z5.000000
G00 X48.663299 Y90.833459

G01 Z-1.000000 F1000.0(Penetrate)
G02 X49.750339 Y89.841209 Z-1.000000 I-2.340646 J-3.655817 F1100.000000
G03 X50.927300 Y90.236644 Z-1.000000 I0.519324 J0.403553
G03 X50.917505 Y90.725640 Z-1.000000 I-7.447598 J0.095423
G02 X50.910799 Y90.854704 Z-1.000000 I67.931011 J3.594591
G03 X50.858611 Y91.467032 Z-1.000000 I-8.518701 J-0.417648
G03 X50.516034 Y93.943738 Z-1.000000 I-75.722314 J-9.211839
G03 X50.437586 Y94.417082 Z-1.000000 I-22.776348 J-3.531594
G03 X50.414063 Y94.502307 Z-1.000000 I-0.460603 J-0.081271
G00 Z5.000000

(End cutting path id: path1061)

(Start cutting path id: path990)
(Change tool to Cylindrical cutter)

G00 Z5.000000
G00 X52.216758 Y91.262163

G01 Z-1.000000 F1000.0(Penetrate)
G02 X51.629293 Y89.317803 Z-1.000000 I-3.562665 J0.015489 F1100.000000
G02 X50.504564 Y87.654023 Z-1.000000 I-70.141651 J46.204298
G00 Z5.000000

(End cutting path id: path990)

(Start cutting path id: path998)
(Change tool to Cylindrical cutter)

G00 Z5.000000
G00 X56.760344 Y87.921301

G01 Z-1.000000 F1000.0(Penetrate)
G02 X55.877516 Y87.780966 Z-1.000000 I-69.551299 J434.689210 F1100.000000
G02 X55.251614 Y87.687466 Z-1.000000 I-5.919002 J37.480911
G02 X54.759678 Y87.662511 Z-1.000000 I-0.385371 J2.735622
G02 X54.121334 Y87.782024 Z-1.000000 I0.085808 J2.222846
G02 X53.328111 Y88.102200 Z-1.000000 I2.675647 J7.771475
G02 X52.083122 Y88.689691 Z-1.000000 I55.841215 J119.949605
G00 Z5.000000

(End cutting path id: path998)

(Start cutting path id: path986)
(Change tool to Cylindrical cutter)

G00 Z5.000000
G00 X45.535013 Y94.469387

G01 Z-1.000000 F1000.0(Penetrate)
G03 X45.732483 Y93.677659 Z-1.000000 I2.980828 J0.322977 F1100.000000
G02 X45.893366 Y92.882417 Z-1.000000 I-2.088449 J-0.836402
G03 X45.903954 Y92.332813 Z-1.000000 I130.992215 J2.248810
G02 X45.914667 Y91.727395 Z-1.000000 I-82.517770 J-1.762987
G03 X45.942477 Y90.899613 Z-1.000000 I21.501460 J0.307981
G02 X45.928970 Y90.261057 Z-1.000000 I-4.313973 J-0.228170
G02 X45.819927 Y89.775722 Z-1.000000 I-1.972328 J0.188216
G02 X45.683281 Y89.472448 Z-1.000000 I-2.047753 J0.740233
G00 Z5.000000

(End cutting path id: path986)

(Start cutting path id: path1055)
(Change tool to Cylindrical cutter)

G00 Z5.000000
G00 X45.829298 Y97.400628

G01 Z-1.000000 F1000.0(Penetrate)
G02 X46.824992 Y95.862178 Z-1.000000 I-2.778300 J-2.889566 F1100.000000
G02 X46.997412 Y94.977224 Z-1.000000 I-2.814662 J-1.007669
G02 X46.930780 Y93.501660 Z-1.000000 I-8.567937 J-0.352381
G02 X46.804756 Y92.632670 Z-1.000000 I-34.378651 J4.542068
G02 X46.507430 Y90.864212 Z-1.000000 I-89.716055 J14.174477
G02 X45.965452 Y89.070627 Z-1.000000 I-7.900162 J1.408561
G03 X45.716893 Y88.479414 Z-1.000000 I23.575024 J-10.259294
G02 X45.586453 Y88.186657 Z-1.000000 I-4.414792 J1.791610
G00 Z5.000000

(End cutting path id: path1055)

(Start cutting path id: path966)
(Change tool to Cylindrical cutter)

G00 Z5.000000
G00 X38.552581 Y105.794921

G01 Z-1.000000 F1000.0(Penetrate)
G02 X37.954002 Y104.090265 Z-1.000000 I-118.719854 J40.730253 F1100.000000
G02 X36.681697 Y102.721319 Z-1.000000 I-2.237485 J0.803813
G00 Z5.000000

(End cutting path id: path966)

(Start cutting path id: path1041)
(Change tool to Cylindrical cutter)

G00 Z5.000000
G00 X35.459743 Y108.134733

G01 Z-1.000000 F1000.0(Penetrate)
G01 X34.825341 Y106.802733 Z-1.000000 F1100.000000
G02 X33.219967 Y104.733592 Z-1.000000 I-5.532101 J2.634816
G02 X32.399006 Y104.435968 Z-1.000000 I-0.820963 J0.983459
G03 X30.439572 Y103.543850 Z-1.000000 I0.000004 J-2.597903
G03 X29.041659 Y101.055333 Z-1.000000 I5.300785 J-4.614584
G02 X28.814293 Y100.816830 Z-1.000000 I-0.357948 J0.113608
G02 X28.544553 Y100.870979 Z-1.000000 I-0.091030 J0.245460
G02 X28.535062 Y101.195842 Z-1.000000 I0.156124 J0.167131
G02 X31.036254 Y103.487199 Z-1.000000 I18.041030 J-17.182360
G03 X31.552947 Y104.230744 Z-1.000000 I-0.987562 J1.237560
G03 X31.468324 Y104.802842 Z-1.000000 I-0.613669 J0.201536
G02 X31.138777 Y105.459246 Z-1.000000 I2.071436 J1.450891
G02 X31.032119 Y106.121081 Z-1.000000 I2.000114 J0.661839
G03 X30.921421 Y106.788952 Z-1.000000 I-2.070088 J-0.000003
G03 X30.371674 Y108.058672 Z-1.000000 I-8.184576 J-2.789780
G01 X29.711230 Y109.300791 Z-1.000000
G01 X30.272595 Y110.060078 Z-1.000000
G03 X30.624220 Y110.886650 Z-1.000000 I-1.554753 J1.149471
G03 X30.797119 Y113.156844 Z-1.000000 I-12.247453 J2.074452
G02 X30.909061 Y115.458644 Z-1.000000 I17.915025 J0.282373
G02 X31.144715 Y116.221215 Z-1.000000 I2.135526 J-0.242236
G03 X31.270891 Y116.869218 Z-1.000000 I-1.006376 J0.532242
G03 X31.043871 Y117.207817 Z-1.000000 I-0.431855 J-0.044141
G02 X30.328282 Y118.003796 Z-1.000000 I0.742282 J1.386963
G02 X29.979574 Y119.833284 Z-1.000000 I4.413896 J1.789283
G02 X30.184281 Y120.999334 Z-1.000000 I3.596381 J-0.030372
G02 X30.597772 Y121.876684 Z-1.000000 I4.522534 J-1.595336
G02 X31.452641 Y122.886499 Z-1.000000 I3.540804 J-2.130746
G02 X32.189115 Y123.454527 Z-1.000000 I5.982400 J-6.994993
G02 X35.486543 Y124.679074 Z-1.000000 I4.038046 J-5.821661
G02 X36.095155 Y124.248062 Z-1.000000 I0.059052 J-0.561818
G00 Z5.000000

(Change tool to Cylindrical cutter)

G00 Z5.000000
G00 X35.130931 Y123.946824

G01 Z-1.000000 F1000.0(Penetrate)
G03 X33.993575 Y123.509130 Z-1.000000 I0.988020 J-4.263959 F1100.000000
G03 X32.249395 Y122.281040 Z-1.000000 I4.874813 J-8.776017
G03 X31.412095 Y121.368724 Z-1.000000 I3.775788 J-4.305702
G03 X31.117860 Y120.808248 Z-1.000000 I1.697184 J-1.248448
G03 X31.004019 Y120.396486 Z-1.000000 I3.211902 J-1.109622
G03 X31.049903 Y119.104673 Z-1.000000 I2.635865 J-0.553099
G03 X31.896438 Y117.331132 Z-1.000000 I5.668172 J1.616692
G03 X34.385030 Y116.243565 Z-1.000000 I2.139314 J1.504215
G02 X35.126639 Y116.166989 Z-1.000000 I0.212181 J-1.574506
G02 X35.399722 Y115.884907 Z-1.000000 I-0.146798 J-0.415340
G03 X35.608960 Y115.449195 Z-1.000000 I1.646400 J0.522541
G03 X35.922140 Y115.101399 Z-1.000000 I1.347451 J0.898436
G03 X36.121811 Y115.155500 Z-1.000000 I0.080789 J0.097346
G03 X36.283683 Y116.095295 Z-1.000000 I-2.526274 J0.918968
G02 X36.414568 Y117.367593 Z-1.000000 I5.813334 J0.044848
G02 X36.827842 Y118.614272 Z-1.000000 I5.990329 J-1.293954
G03 X37.340421 Y119.839972 Z-1.000000 I-19.274054 J8.780291
G03 X37.382089 Y120.065929 Z-1.000000 I-0.591815 J0.225957
G02 X37.452781 Y120.271260 Z-1.000000 I0.333544 J0.000001
G02 X38.168487 Y121.072635 Z-1.000000 I6.434861 J-5.026677
G02 X39.506543 Y122.069421 Z-1.000000 I4.319091 J-4.401340
G03 X39.697188 Y122.382892 Z-1.000000 I-0.178530 J0.323286
G00 Z5.000000

(Change tool to Cylindrical cutter)

G00 Z5.000000
G00 X42.404459 Y122.109207

G01 Z-1.000000 F1000.0(Penetrate)
G03 X43.629967 Y121.925134 Z-1.000000 I5.526330 J32.621107 F1100.000000
G02 X44.301059 Y121.736849 Z-1.000000 I-0.317495 J-2.421744
G02 X46.798707 Y119.665317 Z-1.000000 I-2.412496 J-5.450220
G02 X48.869630 Y115.097475 Z-1.000000 I-11.729762 J-8.071293
G03 X49.385198 Y113.405948 Z-1.000000 I18.147229 J4.606841
G03 X50.051055 Y111.790186 Z-1.000000 I17.220315 J6.151427
G03 X51.546819 Y109.407665 Z-1.000000 I10.470325 J4.912558
G03 X53.316822 Y107.424566 Z-1.000000 I22.356915 J18.173084
G03 X54.318135 Y106.543955 Z-1.000000 I6.390517 J6.256858
G03 X55.416605 Y105.783440 Z-1.000000 I9.781734 J12.954941
G03 X59.848131 Y103.774412 Z-1.000000 I9.407862 J14.859862
G02 X63.388112 Y101.538553 Z-1.000000 I-2.170059 J-7.356112
G02 X64.794259 Y99.282980 Z-1.000000 I-5.730241 J-5.138379
G02 X65.251249 Y96.880711 Z-1.000000 I-5.823361 J-2.352397
G02 X65.000654 Y95.154320 Z-1.000000 I-6.446189 J0.054318
G02 X64.559974 Y93.666250 Z-1.000000 I-92.744031 J26.656065
G02 X62.788265 Y90.272014 Z-1.000000 I-9.948394 J3.033309
G02 X59.556863 Y88.374576 Z-1.000000 I-4.035448 J3.172193
G03 X58.756014 Y88.123538 Z-1.000000 I0.450382 J-2.839724
G03 X57.543935 Y87.283721 Z-1.000000 I2.069202 J-4.280995
G02 X56.005249 Y86.370912 Z-1.000000 I-2.752675 J2.886816
G02 X55.109236 Y86.120234 Z-1.000000 I-3.884632 J12.158383
G01 X55.109266 Y86.120237 Z-1.000000
G00 Z5.000000

(Change tool to Cylindrical cutter)

G00 Z5.000000
G00 X60.746346 Y92.786230

G01 Z-1.000000 F1000.0(Penetrate)
G02 X60.731655 Y92.625867 Z-1.000000 I-0.882602 J-0.000001 F1100.000000
G02 X60.401098 Y91.321712 Z-1.000000 I-10.101826 J1.866487
G02 X59.752978 Y90.183407 Z-1.000000 I-3.077533 J0.998601
G03 X59.316471 Y89.625603 Z-1.000000 I4.633515 J-4.075631
G02 X58.951375 Y89.110167 Z-1.000000 I-26.750177 J18.560777
G03 X58.809302 Y88.811971 Z-1.000000 I0.742004 J-0.536463
G03 X58.881274 Y88.710628 Z-1.000000 I0.077816 J-0.020964
G03 X59.478842 Y88.806572 Z-1.000000 I0.095531 J1.313901
G03 X59.487762 Y88.810476 Z-1.000000 I-0.105384 J0.252922
G02 X59.496942 Y88.813872 Z-1.000000 I0.026885 J-0.058569
G03 X60.434472 Y89.098237 Z-1.000000 I-6.486448 J23.072937
G03 X62.099440 Y90.140420 Z-1.000000 I-1.257496 J3.859998
G03 X63.461940 Y92.030273 Z-1.000000 I-5.904188 J5.692733
G03 X64.505343 Y94.737713 Z-1.000000 I-11.270828 J5.898368
G03 X64.513131 Y98.031392 Z-1.000000 I-6.413965 J1.662015
G03 X62.823982 Y101.233744 Z-1.000000 I-7.486316 J-1.902152
G03 X60.431373 Y102.760511 Z-1.000000 I-3.842322 J-3.383214
G02 X56.062027 Y104.612625 Z-1.000000 I5.915780 J20.035936
G02 X53.620593 Y106.326265 Z-1.000000 I7.562682 J13.370591
G02 X51.877111 Y108.086015 Z-1.000000 I9.993992 J11.645155
G02 X49.156941 Y111.951532 Z-1.000000 I20.864561 J17.572274
G02 X47.299479 Y115.962584 Z-1.000000 I20.625940 J11.987194
G03 X45.597566 Y119.547685 Z-1.000000 I-18.309463 J-6.495324
G03 X44.344001 Y120.831750 Z-1.000000 I-3.395703 J-2.061118
G02 X43.618486 Y121.332058 Z-1.000000 I6.964798 J10.876100
G02 X43.250180 Y121.642467 Z-1.000000 I2.297156 J3.099330
G03 X42.631070 Y121.945411 Z-1.000000 I-0.786171 J-0.822559
G03 X40.953979 Y121.983298 Z-1.000000 I-0.989583 J-6.666889
G03 X39.005265 Y121.445808 Z-1.000000 I0.620490 J-6.050991
G03 X38.754556 Y120.958402 Z-1.000000 I0.188881 J-0.405338
G02 X38.741761 Y120.791290 Z-1.000000 I-0.319280 J-0.059600
G02 X38.349004 Y119.802304 Z-1.000000 I-12.352640 J4.333141
G03 X38.033599 Y118.792624 Z-1.000000 I4.178412 J-1.859360
G03 X37.911270 Y117.487198 Z-1.000000 I6.904125 J-1.305415
G02 X37.618190 Y117.077644 Z-1.000000 I-0.432697 J-0.000001
G02 X37.304240 Y117.280262 Z-1.000000 I-0.076856 J0.225451
G01 X37.259943 Y117.279717 Z-1.000000
G03 X37.233281 Y116.288074 Z-1.000000 I11.117719 J-0.795095
G03 X37.780812 Y114.472432 Z-1.000000 I3.488176 J0.061526
G03 X38.428550 Y113.480572 Z-1.000000 I48.119529 J30.717220
G02 X38.914869 Y112.354803 Z-1.000000 I-2.830594 J-1.890712
G02 X39.411481 Y109.769127 Z-1.000000 I-34.768106 J-8.018175
G02 X38.742336 Y106.494670 Z-1.000000 I-4.758900 J-0.733105
G03 X38.469955 Y105.619181 Z-1.000000 I1.547385 J-0.961537
G03 X38.872618 Y105.529010 Z-1.000000 I0.209211 J-0.009896
G03 X39.209973 Y109.682764 Z-1.000000 I-6.263974 J2.599317
G03 X38.184911 Y111.812765 Z-1.000000 I-5.336798 J-1.256675
G02 X36.706410 Y113.758577 Z-1.000000 I59.904569 J47.052351
G02 X36.065516 Y114.676462 Z-1.000000 I18.649346 J13.704208
G03 X35.265445 Y115.412756 Z-1.000000 I-1.894454 J-1.255718
G03 X34.595960 Y115.705376 Z-1.000000 I-1.950381 J-3.550111
G03 X33.946142 Y115.612914 Z-1.000000 I-0.232318 J-0.696960
G03 X33.594845 Y114.883775 Z-1.000000 I0.464954 J-0.673210
G03 X33.646853 Y114.218173 Z-1.000000 I34.809018 J2.385054
G03 X33.734075 Y113.658415 Z-1.000000 I4.213316 J0.369844
G02 X33.892329 Y112.913230 Z-1.000000 I-30.115202 J-6.784905
G03 X34.198258 Y112.286233 Z-1.000000 I1.345747 J0.268493
G02 X34.602653 Y111.532712 Z-1.000000 I-1.495340 J-1.287785
G03 X35.001520 Y110.777223 Z-1.000000 I1.957759 J0.550579
G02 X35.436327 Y109.508810 Z-1.000000 I-1.431718 J-1.199519
G02 X35.346386 Y108.169046 Z-1.000000 I-22.269939 J0.822120
G03 X35.459749 Y108.134722 Z-1.000000 I0.060104 J-0.005858
G02 X35.580570 Y107.376724 Z-1.000000 I-2.115558 J-0.725838
G02 X35.423362 Y106.566643 Z-1.000000 I-2.339064 J0.033637
G02 X33.268938 Y102.955333 Z-1.000000 I-11.665358 J4.510985
G03 X32.720042 Y102.223513 Z-1.000000 I5.500222 J-4.697164
G00 Z5.000000

(End cutting path id: path1041)

(Start cutting path id: path970)
(Change tool to Cylindrical cutter)

G00 Z5.000000
G00 X46.805207 Y117.112722

G01 Z-1.000000 F1000.0(Penetrate)
G02 X47.101092 Y114.284066 Z-1.000000 I-16.944656 J-3.202262 F1100.000000
G03 X47.752236 Y111.538038 Z-1.000000 I6.731035 J0.145862
G03 X49.127390 Y108.950760 Z-1.000000 I10.304219 J3.817663
G03 X51.311953 Y106.984281 Z-1.000000 I5.581118 J4.003413
G02 X53.177697 Y105.454077 Z-1.000000 I-20.596842 J-27.015799
G03 X55.103598 Y103.988447 Z-1.000000 I11.134146 J12.632577
G01 X55.256798 Y103.823826 Z-1.000000
G00 Z5.000000

(End cutting path id: path970)

(Start cutting path id: path1010)
(Change tool to Cylindrical cutter)

G00 Z5.000000
G00 X53.185579 Y109.403083

G01 Z-1.000000 F1000.0(Penetrate)
G03 X54.444046 Y107.373153 Z-1.000000 I5.636014 J2.089019 F1100.000000
G03 X56.386185 Y105.711283 Z-1.000000 I8.632401 J8.122451
