%
(Header)
(Generated by gcodetools from Inkscape.)
(Using default header. To add your own header create file "header" in the output dir.)
M3
(Header end.)
G21 (All units in mm)

(Start cutting path id: path2753)
(Change tool to Cylindrical cutter)

G00 Z5.000000
G00 X0.004649 Y3.766390

G01 Z0.000000 F1000.0(Penetrate)
G02 X0.025186 Y7.388888 Z0.000000 I409.447010 J-0.509967 F1100.000000
G01 X0.041257 Y7.391880 Z0.000000
G03 X0.082744 Y7.317566 Z0.000000 I0.302768 J0.120287
G03 X0.183116 Y7.201451 Z0.000000 I0.847987 J0.631575
G02 X0.262953 Y7.079170 Z0.000000 I-0.250922 J-0.251031
G02 X0.292979 Y6.919261 Z0.000000 I-0.410810 J-0.159911
G03 X0.317454 Y6.760567 Z0.000000 I0.526726 J0.000002
G03 X0.360627 Y6.705131 Z0.000000 I0.096212 J0.030400
G01 X0.388590 Y6.703027 Z0.000000
G01 X0.393719 Y6.719231 Z0.000000
G02 X0.382862 Y6.778512 Z0.000000 I0.070540 J0.043553
G02 X0.500154 Y7.270272 Z0.000000 I5.736514 J-1.108377
G03 X0.617141 Y7.770040 Z0.000000 I-5.201994 J1.481272
G03 X0.704761 Y8.379082 Z0.000000 I-7.643758 J1.410492
G02 X0.778610 Y8.987885 Z0.000000 I17.507240 J-1.814777
G02 X0.793576 Y9.017973 Z0.000000 I0.052359 J-0.007279
G02 X0.904644 Y8.995166 Z0.000000 I0.048007 J-0.048062
G02 X0.995202 Y8.514363 Z0.000000 I-1.173421 J-0.469940
G01 X0.973210 Y8.483943 Z0.000000
G01 X0.940065 Y8.495663 Z0.000000
G01 X0.912809 Y8.488902 Z0.000000
G03 X0.888561 Y7.830953 Z0.000000 I8.109395 J-0.628286
G03 X0.919682 Y7.149376 Z0.000000 I8.114405 J0.029007
G01 X0.949381 Y7.138573 Z0.000000
G03 X0.980249 Y7.207431 Z0.000000 I-0.075093 J0.075011
G03 X0.987133 Y7.788693 Z0.000000 I-6.287340 J0.365134
G02 X1.029100 Y8.320513 Z0.000000 I2.362397 J0.081147
G02 X1.102096 Y8.380674 Z0.000000 I0.072969 J-0.014172
G02 X1.192274 Y8.355505 Z0.000000 I-0.000090 J-0.174458
G01 X1.200588 Y8.321074 Z0.000000
G02 X1.157177 Y8.289472 Z0.000000 I-0.060277 J0.037184
G02 X1.105319 Y8.297674 Z0.000000 I-0.016156 J0.065892
G01 X1.038546 Y8.249435 Z0.000000
G03 X1.163244 Y8.054764 Z0.000000 I0.341388 J0.081405
G02 X1.207206 Y7.975129 Z0.000000 I-0.072024 J-0.091712
G02 X1.251201 Y7.210014 Z0.000000 I-8.232115 J-0.857181
G03 X1.293782 Y6.452171 Z0.000000 I8.436279 J0.093887
G03 X1.333086 Y6.403075 Z0.000000 I0.057619 J0.005847
G03 X1.398983 Y6.390172 Z0.000000 I0.083062 J0.249479
G01 X1.408428 Y6.398075 Z0.000000
G03 X1.410128 Y6.417561 Z0.000000 I-0.595997 J0.061826
G03 X1.442886 Y6.886355 Z0.000000 I-244.950890 J17.351955
G02 X1.488486 Y7.352952 Z0.000000 I8.159204 J-0.561862
G02 X1.528284 Y7.560185 Z0.000000 I1.645663 J-0.208600
G03 X1.567058 Y7.767097 Z0.000000 I-1.496614 J0.387543
G03 X1.581712 Y8.014286 Z0.000000 I-2.125238 J0.250025
G02 X1.607898 Y8.237423 Z0.000000 I0.974651 J-0.001272
G01 X1.640631 Y8.263316 Z0.000000
G01 X1.678401 Y8.229441 Z0.000000
G02 X1.728351 Y7.458816 Z0.000000 I-8.750446 J-0.954116
G03 X1.753133 Y7.101091 Z0.000000 I3.709191 J0.077238
G03 X1.776189 Y7.053546 Z0.000000 I0.080036 J0.009449
G01 X1.800740 Y7.062885 Z0.000000
G03 X1.836203 Y8.072886 Z0.000000 I-21.276265 J1.252677
G02 X1.873255 Y8.524376 Z0.000000 I3.216612 J-0.036710
G01 X1.910439 Y8.556287 Z0.000000
G02 X1.957491 Y8.535345 Z0.000000 I0.000000 J-0.063328
G02 X1.976451 Y8.483087 Z0.000000 I-0.054954 J-0.049506
G03 X1.975914 Y8.409834 Z0.000000 I1.176714 J-0.045254
G03 X1.982962 Y8.213067 Z0.000000 I8.184853 J0.194659
G03 X2.038490 Y8.078592 Z0.000000 I0.215011 J0.010082
G03 X2.129978 Y8.050867 Z0.000000 I0.068859 J0.062415
G02 X2.263547 Y8.070267 Z0.000000 I0.162095 J-0.646520
G01 X2.295338 Y8.057868 Z0.000000
G01 X2.308155 Y8.025216 Z0.000000
G02 X2.283207 Y7.722018 Z0.000000 I-3.308758 J0.119628
G03 X2.266700 Y7.415491 Z0.000000 I2.052583 J-0.264244
G03 X2.293059 Y7.240328 Z0.000000 I0.688715 J0.014074
G02 X2.313207 Y7.074526 Z0.000000 I-0.512040 J-0.146347
G02 X2.284600 Y7.008878 Z0.000000 I-0.097836 J0.003577
G03 X2.238704 Y6.905489 Z0.000000 I0.111227 J-0.111257
G01 X2.278250 Y6.882128 Z0.000000
G03 X2.316881 Y6.925106 Z0.000000 I-0.054256 J0.087620
G03 X2.519010 Y7.383139 Z0.000000 I-6.960090 J3.345087
G02 X2.722688 Y7.807742 Z0.000000 I3.409200 J-1.374207
G01 X2.763145 Y7.818200 Z0.000000
G01 X2.784270 Y7.778621 Z0.000000
G02 X2.759315 Y7.713220 Z0.000000 I-0.108569 J0.003964
G03 X2.552082 Y6.950414 Z0.000000 I0.733646 J-0.608864
G03 X2.937738 Y6.622730 Z0.000000 I0.385655 J0.063099
G03 X3.022711 Y6.695853 Z0.000000 I-0.000000 J0.085933
G03 X2.971998 Y6.849960 Z0.000000 I-0.177974 J0.026832
G01 X2.965589 Y6.891111 Z0.000000
G01 X3.005874 Y6.915661 Z0.000000
G03 X3.074386 Y6.946718 Z0.000000 I-0.000000 J0.091096
G03 X3.105484 Y7.029391 Z0.000000 I-0.094340 J0.082672
G02 X3.124891 Y7.132337 Z0.000000 I0.282733 J0.000001
G02 X3.164076 Y7.179331 Z0.000000 I0.089942 J-0.035162
G01 X3.202178 Y7.178546 Z0.000000
G01 X3.223567 Y7.138831 Z0.000000
G01 X3.241337 Y7.121924 Z0.000000
G01 X3.274064 Y7.140831 Z0.000000
G02 X3.331876 Y7.201289 Z0.000000 I0.179795 J-0.114056
G02 X3.375706 Y7.211732 Z0.000000 I0.035135 J-0.050266
G01 X3.410408 Y7.227842 Z0.000000
G03 X3.446472 Y7.323922 Z0.000000 I-0.214671 J0.135386
G02 X3.525956 Y7.382582 Z0.000000 I0.069414 J-0.010875
G02 X3.632825 Y7.296923 Z0.000000 I-0.019356 J-0.133643
G03 X3.703562 Y7.172226 Z0.000000 I0.440192 J0.167297
G03 X3.748563 Y7.150433 Z0.000000 I0.045001 J0.035566
G01 X3.785989 Y7.127806 Z0.000000
G02 X3.808609 Y7.036013 Z0.000000 I-0.174941 J-0.091794
G03 X3.888933 Y6.687813 Z0.000000 I0.794886 J0.000003
G03 X3.992960 Y6.657684 Z0.000000 I0.065641 J0.031986
G03 X4.022745 Y6.699886 Z0.000000 I-0.034638 J0.056058
G03 X4.042984 Y6.890244 Z0.000000 I-0.885044 J0.190355
G02 X4.105113 Y7.035351 Z0.000000 I0.200517 J0.000001
G01 X4.177601 Y7.018625 Z0.000000
G01 X4.205590 Y7.012597 Z0.000000
G03 X4.271536 Y7.113425 Z0.000000 I-0.215568 J0.212972
G03 X4.292375 Y7.282727 Z0.000000 I-0.313462 J0.124517
G03 X4.189114 Y7.728665 Z0.000000 I-2.407232 J-0.322493
G03 X4.031857 Y8.172305 Z0.000000 I-11.928254 J-3.978507
G03 X3.982872 Y8.277634 Z0.000000 I-0.716615 J-0.269219
G02 X3.936462 Y8.382196 Z0.000000 I0.536001 J0.300488
G02 X3.925791 Y8.447384 Z0.000000 I0.193780 J0.065189
G03 X3.911506 Y8.511985 Z0.000000 I-0.153222 J-0.000001
G03 X3.523551 Y9.312442 Z0.000000 I-25.097776 J-11.669811
G02 X3.057951 Y10.329598 Z0.000000 I13.064715 J6.595482
G01 X3.086877 Y10.371541 Z0.000000
G02 X3.135535 Y10.342837 Z0.000000 I-0.001092 J-0.057445
G02 X3.551629 Y9.567642 Z0.000000 I-12.188908 J-7.041797
G03 X3.775393 Y9.188104 Z0.000000 I2.767426 J1.375857
G01 X3.820005 Y9.178753 Z0.000000
G03 X3.851648 Y9.224507 Z0.000000 I-0.036469 J0.059040
G03 X3.848488 Y9.324803 Z0.000000 I-0.221547 J0.043217
G02 X3.856509 Y9.406859 Z0.000000 I0.115326 J0.030147
G02 X3.901977 Y9.435374 Z0.000000 I0.045469 J-0.021996
G02 X3.963347 Y9.412950 Z0.000000 I0.000000 J-0.095190
G02 X3.988865 Y9.362174 Z0.000000 I-0.046549 J-0.055194
G03 X3.997123 Y9.289477 Z0.000000 I0.700584 J0.042768
G03 X4.018162 Y9.186394 Z0.000000 I1.438450 J0.239900
G02 X4.042877 Y9.083824 Z0.000000 I-43.912950 J-10.635038
G02 X4.060320 Y9.010614 Z0.000000 I-26.734551 J-6.408643
G03 X4.291808 Y8.211922 Z0.000000 I8.163587 J1.933188
G01 X4.337134 Y8.206875 Z0.000000
G01 X4.397062 Y8.197167 Z0.000000
G02 X4.453137 Y7.716186 Z0.000000 I-2.034821 J-0.480989
G03 X4.553449 Y7.133390 Z0.000000 I1.743159 J0.000006
G03 X4.695475 Y7.033076 Z0.000000 I0.142026 J0.050384
G01 X4.727543 Y7.051604 Z0.000000
G03 X4.746109 Y7.120977 Z0.000000 I-0.120325 J0.069372
G02 X4.765035 Y7.189920 Z0.000000 I0.135032 J0.000000
G01 X4.798339 Y7.208877 Z0.000000
G03 X4.981743 Y7.339323 Z0.000000 I-0.000001 J0.194156
G03 X4.999356 Y7.787557 Z0.000000 I-0.728596 J0.253094
G02 X4.996579 Y7.906167 Z0.000000 I0.249458 J0.065179
G02 X5.046807 Y8.011448 Z0.000000 I0.243619 J-0.051605
G03 X5.066619 Y8.057842 Z0.000000 I-0.071311 J0.057880
G01 X5.053716 Y8.066248 Z0.000000
G02 X5.000851 Y8.058258 Z0.000000 I-0.036124 J0.060130
G01 X4.980475 Y8.084247 Z0.000000
G02 X4.999341 Y8.127381 Z0.000000 I0.058742 J0.000000
G02 X5.047540 Y8.146248 Z0.000000 I0.048200 J-0.052136
G01 X5.080584 Y8.177056 Z0.000000
G03 X5.075274 Y8.541758 Z0.000000 I-2.153739 J0.151030
G02 X5.039402 Y8.937687 Z0.000000 I22.702508 J2.256456
G02 X5.004567 Y9.406108 Z0.000000 I31.589432 J2.584749
G03 X4.899223 Y10.279309 Z0.000000 I-8.247101 J-0.551982
G03 X4.769819 Y10.747147 Z0.000000 I-2.479641 J-0.434052
G01 X4.779824 Y10.796204 Z0.000000
G01 X4.827457 Y10.806747 Z0.000000
G02 X4.895598 Y10.752491 Z0.000000 I-0.051653 J-0.134789
G02 X4.921872 Y10.666317 Z0.000000 I-0.128185 J-0.086174
G03 X5.012545 Y10.293132 Z0.000000 I0.813310 J0.000003
G03 X5.141600 Y10.240858 Z0.000000 I0.094983 J0.049052
G01 X5.180473 Y10.217006 Z0.000000
G02 X5.222401 Y9.689298 Z0.000000 I-3.960857 J-0.580220
G03 X5.234740 Y9.113365 Z0.000000 I34.737511 J0.456141
G03 X5.244778 Y8.937348 Z0.000000 I3.233041 J0.096090
G02 X5.255057 Y8.761304 Z0.000000 I-3.410302 J-0.287437
G02 X5.272518 Y8.085408 Z0.000000 I-50.241750 J-1.636145
G03 X5.316546 Y7.417609 Z0.000000 I7.158032 J0.136578
G03 X5.365255 Y7.265099 Z0.000000 I0.407315 J0.046055
G03 X5.422451 Y7.212161 Z0.000000 I0.108906 J0.060300
G01 X5.447152 Y7.227699 Z0.000000
G02 X5.469694 Y7.325709 Z0.000000 I0.244432 J-0.004621
G02 X5.537119 Y7.422319 Z0.000000 I0.305193 J-0.141160
G03 X5.597624 Y7.521517 Z0.000000 I-0.174091 J0.174238
G03 X5.625008 Y7.697010 Z0.000000 I-0.548631 J0.175491
G02 X5.661783 Y7.863411 Z0.000000 I0.394851 J0.000001
G02 X5.747315 Y7.960190 Z0.000000 I0.205654 J-0.095569
G02 X5.814421 Y7.965414 Z0.000000 I0.038565 J-0.061776
G01 X5.833713 Y7.923390 Z0.000000
G03 X5.772657 Y7.491692 Z0.000000 I1.251317 J-0.397141
G03 X5.849809 Y7.312150 Z0.000000 I0.263639 J0.006942
G03 X5.898013 Y7.298166 Z0.000000 I0.036818 J0.036840
G01 X5.924737 Y7.328951 Z0.000000
G02 X5.952923 Y7.490041 Z0.000000 I0.870277 J-0.069260
G02 X6.028125 Y7.706881 Z0.000000 I1.657887 J-0.453508
G03 X6.086452 Y8.006308 Z0.000000 I-0.679296 J0.287720
G03 X6.014640 Y8.556491 Z0.000000 I-2.440205 J-0.038730
G02 X5.858331 Y9.298142 Z0.000000 I10.222564 J2.541783
G02 X5.876214 Y9.354581 Z0.000000 I0.063333 J0.010985
G02 X5.962240 Y9.335257 Z0.000000 I0.036892 J-0.036913
G02 X6.133182 Y8.636721 Z0.000000 I-3.268038 J-1.169918
G03 X6.233267 Y8.462677 Z0.000000 I0.264391 J0.036239
G03 X6.327240 Y8.485092 Z0.000000 I0.038045 J0.048692
G01 X6.380017 Y8.477114 Z0.000000
G02 X6.361738 Y8.238822 Z0.000000 I-0.552800 J-0.077444
G03 X6.314387 Y7.953738 Z0.000000 I1.086074 J-0.326869
G03 X6.339691 Y7.640772 Z0.000000 I1.338001 J-0.049326
G03 X6.420657 Y7.347699 Z0.000000 I2.090906 J0.419928
G01 X6.451347 Y7.326023 Z0.000000
G03 X6.557576 Y7.408922 Z0.000000 I-0.000000 J0.109512
G03 X6.562396 Y7.769303 Z0.000000 I-0.759981 J0.190389
G02 X6.565688 Y7.880367 Z0.000000 I0.220647 J0.049042
G01 X6.595643 Y7.885813 Z0.000000
G03 X6.698464 Y7.881468 Z0.000000 I0.053167 J0.039389
G03 X6.915439 Y8.248874 Z0.000000 I-0.853721 J0.751943
G02 X7.036824 Y8.496067 Z0.000000 I1.162705 J-0.417552
G01 X7.065060 Y8.483255 Z0.000000
G03 X7.027317 Y8.351228 Z0.000000 I12.441250 J-3.627993
G03 X7.003510 Y8.263525 Z0.000000 I5.410114 J-1.515633
G02 X6.976970 Y8.176780 Z0.000000 I-1.106159 J0.291009
G02 X6.846312 Y7.814344 Z0.000000 I-19.312162 J6.757242
G03 X6.786565 Y7.258390 Z0.000000 I1.066297 J-0.395781
G03 X6.944946 Y7.120944 Z0.000000 I0.158380 J0.022529
G02 X7.023508 Y7.080171 Z0.000000 I0.000000 J-0.096073
G02 X7.078910 Y6.930595 Z0.000000 I-0.255016 J-0.179504
G03 X7.130273 Y6.762237 Z0.000000 I0.441016 J0.042532
G03 X7.216465 Y6.676455 Z0.000000 I0.185937 J0.100633
G01 X7.276586 Y6.701189 Z0.000000
G03 X7.302151 Y6.954696 Z0.000000 I-0.618357 J0.190401
G02 X7.272241 Y7.297022 Z0.000000 I16.181441 J1.586289
G02 X7.233197 Y7.853125 Z0.000000 I42.830400 J3.286551
G01 X7.280519 Y7.865877 Z0.000000
G02 X7.359577 Y7.599826 Z0.000000 I-0.717458 J-0.357966
G03 X7.440894 Y7.291002 Z0.000000 I1.116289 J0.128812
G03 X7.524057 Y7.210836 Z0.000000 I0.135415 J0.057260
G02 X7.605795 Y7.134896 Z0.000000 I-0.052678 J-0.138657
G02 X7.639714 Y6.962967 Z0.000000 I-0.331637 J-0.154738
G03 X7.656166 Y6.769098 Z0.000000 I0.740329 J-0.034806
G03 X7.715184 Y6.619537 Z0.000000 I0.494219 J0.108598
G01 X7.748794 Y6.616711 Z0.000000
G03 X7.766130 Y6.679637 Z0.000000 I-0.059161 J0.050150
G02 X7.773039 Y6.803528 Z0.000000 I0.278919 J0.046584
G01 X7.803595 Y6.811467 Z0.000000
G03 X7.919214 Y6.794826 Z0.000000 I0.068929 J0.068932
G03 X8.129059 Y6.989088 Z0.000000 I-0.279657 J0.512559
G02 X8.292816 Y7.236844 Z0.000000 I16.844347 J-10.955506
G02 X8.335668 Y7.296709 Z0.000000 I1.025152 J-0.688527
G02 X8.380399 Y7.355195 Z0.000000 I19.934356 J-15.200146
G02 X8.555393 Y7.583080 Z0.000000 I245.775373 J-188.550323
G03 X8.719819 Y7.814483 Z0.000000 I-2.998648 J2.304835
G03 X8.730473 Y7.850171 Z0.000000 I-0.054442 J0.035687
G01 X8.744683 Y7.882282 Z0.000000
G02 X8.963461 Y8.061841 Z0.000000 I1.893931 J-2.084533
G03 X9.156246 Y8.254866 Z0.000000 I-0.546245 J0.738351
G03 X9.198734 Y8.380692 Z0.000000 I-0.175120 J0.129220
G02 X9.222949 Y8.449294 Z0.000000 I0.114077 J-0.001692
G01 X9.251261 Y8.447892 Z0.000000
G03 X9.312860 Y8.411734 Z0.000000 I0.065952 J0.041807
G03 X9.431163 Y8.437893 Z0.000000 I0.012508 J0.224024
G01 X9.485683 Y8.420619 Z0.000000
G01 X9.469712 Y8.361193 Z0.000000
G01 X9.326389 Y8.267293 Z0.000000
G01 X9.466648 Y7.869863 Z0.000000
G02 X9.587517 Y7.469036 Z0.000000 I-4.255433 J-1.501859
G02 X9.608145 Y7.307464 Z0.000000 I-0.662556 J-0.166692
G03 X9.687722 Y6.975479 Z0.000000 I0.756555 J0.005817
G03 X9.788104 Y6.946914 Z0.000000 I0.063234 J0.031553
G01 X9.828359 Y6.923437 Z0.000000
G02 X9.783234 Y6.820124 Z0.000000 I-0.154399 J0.005927
G03 X9.740022 Y6.641802 Z0.000000 I0.124504 J-0.124568
G03 X9.853868 Y6.599784 Z0.000000 I0.073354 J0.023511
G03 X9.886409 Y6.646867 Z0.000000 I-0.037591 J0.060768
G03 X9.896673 Y6.819185 Z0.000000 I-0.637762 J0.124453
G02 X9.901242 Y8.033927 Z0.000000 I7.828858 J0.577935
G02 X9.998480 Y8.069655 Z0.000000 I0.056883 J-0.004630
G02 X10.050932 Y7.966753 Z0.000000 I-0.131966 J-0.132086
G02 X10.090563 Y7.487885 Z0.000000 I-3.193457 J-0.505362
G03 X10.112468 Y7.364857 Z0.000000 I0.372183 J0.002803
G01 X10.137883 Y7.355975 Z0.000000
G01 X10.171418 Y7.349247 Z0.000000
G02 X10.246681 Y7.204306 Z0.000000 I-0.463932 J-0.332914
G03 X10.323646 Y7.064140 Z0.000000 I0.454554 J0.158385
G01 X10.362914 Y7.057236 Z0.000000
G01 X10.428865 Y7.030792 Z0.000000
G02 X10.487480 Y6.578887 Z0.000000 I-1.757756 J-0.457746
G03 X10.512363 Y6.354023 Z0.000000 I1.059461 J0.003431
G01 X10.542431 Y6.329867 Z0.000000
G01 X10.569427 Y6.355438 Z0.000000
G03 X10.568199 Y6.804677 Z0.000000 I-3.940378 J0.213846
G02 X10.578303 Y7.229335 Z0.000000 I2.542730 J0.151948
G01 X10.616587 Y7.253937 Z0.000000
G02 X10.670539 Y7.208777 Z0.000000 I-0.030096 J-0.090763
G02 X10.723227 Y7.057458 Z0.000000 I-0.436409 J-0.236786
G03 X10.772862 Y6.917537 Z0.000000 I0.437715 J0.076509
G01 X10.810038 Y6.901838 Z0.000000
G01 X10.843690 Y6.885026 Z0.000000
G02 X10.875718 Y6.743218 Z0.000000 I-0.392354 J-0.163135
G03 X10.892512 Y6.570451 Z0.000000 I1.853582 J0.092976
G03 X10.923159 Y6.415098 Z0.000000 I1.534256 J0.221973
G03 X10.983989 Y6.328647 Z0.000000 I0.142770 J0.035831
G03 X11.047330 Y6.331899 Z0.000000 I0.029494 J0.044015
G03 X11.105661 Y6.415569 Z0.000000 I-0.122326 J0.147449
G03 X11.132809 Y6.574019 Z0.000000 I-0.448819 J0.158448
G02 X11.170654 Y6.700368 Z0.000000 I0.229834 J0.000001
G02 X11.234125 Y6.727969 Z0.000000 I0.052867 J-0.034792
G03 X11.304872 Y6.761114 Z0.000000 I0.011479 J0.067574
G03 X11.473611 Y7.140210 Z0.000000 I-1.672282 J0.971449
G02 X11.619607 Y7.537273 Z0.000000 I4.906635 J-1.578746
G01 X11.640109 Y7.541341 Z0.000000
G02 X11.668080 Y7.447350 Z0.000000 I-0.072915 J-0.072856
G02 X11.448420 Y6.626150 Z0.000000 I-7.586490 J1.589308
G01 X11.464150 Y6.608426 Z0.000000
G03 X11.532920 Y6.643050 Z0.000000 I-0.028405 J0.142020
G03 X11.616371 Y6.761068 Z0.000000 I-0.222054 J0.245531
G03 X11.717281 Y7.084691 Z0.000000 I-1.681741 J0.701932
G03 X11.732549 Y7.862878 Z0.000000 I-2.021210 J0.428898
G03 X11.523001 Y8.218230 Z0.000000 I-0.572633 J-0.098216
G02 X11.473430 Y8.293043 Z0.000000 I0.091717 J0.114601
G01 X11.494131 Y8.320760 Z0.000000
G03 X11.576155 Y8.343410 Z0.000000 I-0.002089 J0.167411
G03 X11.614680 Y8.390761 Z0.000000 I-0.043363 J0.074629
G01 X11.662084 Y8.392801 Z0.000000
G02 X11.803586 Y7.953481 Z0.000000 I-2.205338 J-0.952775
G03 X11.858845 Y7.835866 Z0.000000 I0.285952 J0.062559
G01 X11.901346 Y7.828262 Z0.000000
G03 X11.936275 Y7.877443 Z0.000000 I-0.040858 J0.066012
G03 X11.934406 Y7.977142 Z0.000000 I-0.207068 J0.045985
G01 X11.976614 Y8.016762 Z0.000000
G02 X12.220536 Y7.882643 Z0.000000 I-0.238991 J-0.723522
G03 X12.456413 Y7.733625 Z0.000000 I0.720620 J0.879464
G01 X12.500266 Y7.750804 Z0.000000
G01 X12.517375 Y7.752745 Z0.000000
G02 X12.534426 Y7.701904 Z0.000000 I-0.078048 J-0.054455
G03 X12.681871 Y7.658278 Z0.000000 I0.081085 J0.003072
G03 X13.150803 Y8.577626 Z0.000000 I-2.991730 J2.105259
G01 X13.308625 Y9.038307 Z0.000000
G01 X13.097536 Y9.356226 Z0.000000
G02 X12.922504 Y9.674725 Z0.000000 I1.811746 J1.202994
G02 X12.926877 Y9.739555 Z0.000000 I0.063520 J0.028279
G01 X12.924499 Y9.762166 Z0.000000
G01 X12.902597 Y9.764955 Z0.000000
G02 X12.737886 Y9.800703 Z0.000000 I-0.063841 J0.103180
G02 X12.755944 Y9.984215 Z0.000000 I0.120801 J0.080757
G01 X12.757789 Y10.006625 Z0.000000
G01 X12.729364 Y10.021215 Z0.000000
G02 X12.408832 Y10.193794 Z0.000000 I-0.000001 J0.383950
G02 X12.436420 Y10.465474 Z0.000000 I0.180346 J0.118927
G02 X12.615024 Y10.459868 Z0.000000 I0.086671 J-0.086633
G02 X13.698389 Y9.033748 Z0.000000 I-9.239591 J-8.143491
G02 X13.939549 Y8.642022 Z0.000000 I-7.704324 J-5.013147
G02 X14.133400 Y8.285839 Z0.000000 I-6.172795 J-3.590352
G03 X14.350966 Y8.118307 Z0.000000 I0.284619 J0.144583
G03 X14.529078 Y8.200841 Z0.000000 I0.034267 J0.159505
G03 X14.565394 Y8.345852 Z0.000000 I-0.270588 J0.144818
G03 X14.528789 Y8.654431 Z0.000000 I-1.325954 J-0.000833
G02 X14.492104 Y8.963015 Z0.000000 I1.292695 J0.310148
G02 X14.528255 Y9.107501 Z0.000000 I0.305375 J0.000359
G03 X14.556659 Y9.250117 Z0.000000 I-0.220653 J0.118083
G03 X14.482913 Y9.567791 Z0.000000 I-1.252589 J-0.123385
G02 X14.409550 Y9.893719 Z0.000000 I1.148778 J0.429799
G02 X14.420391 Y10.303430 Z0.000000 I1.839380 J0.156331
G03 X14.439156 Y10.715799 Z0.000000 I-2.220261 J0.307644
G03 X14.385078 Y11.058260 Z0.000000 I-1.579153 J-0.073861
G02 X14.293594 Y11.398560 Z0.000000 I44.051164 J12.024828
G02 X14.270451 Y11.491300 Z0.000000 I3.253032 J0.861075
G03 X14.247485 Y11.584101 Z0.000000 I-3.760893 J-0.881473
G03 X14.186469 Y11.813570 Z0.000000 I-23.384587 J-6.095091
G02 X14.126541 Y12.043322 Z0.000000 I11.882171 J3.222041
G02 X13.974893 Y12.657989 Z0.000000 I84.647122 J21.209720
G03 X13.608804 Y14.108491 Z0.000000 I-81.020530 J-19.677196
G03 X13.583429 Y14.152418 Z0.000000 I-0.092786 J-0.024306
G01 X13.560770 Y14.162901 Z0.000000
G03 X13.022294 Y14.202216 Z0.000000 I-1.529395 J-17.240128
G02 X12.429338 Y14.302389 Z0.000000 I0.156347 J2.730482
G02 X12.363242 Y14.389943 Z0.000000 I0.024942 J0.087554
G03 X12.235518 Y14.514666 Z0.000000 I-0.124758 J-0.000000
G03 X12.047508 Y14.381942 Z0.000000 I0.004910 J-0.206480
G02 X11.992157 Y14.323997 Z0.000000 I-0.096977 J0.037227
G02 X11.880108 Y14.308742 Z0.000000 I-0.082856 J0.189442
G02 X11.750707 Y14.435762 Z0.000000 I0.021447 J0.151273
G02 X11.801966 Y14.794741 Z0.000000 I0.603330 J0.096999
G03 X11.869482 Y14.995454 Z0.000000 I-0.808851 J0.383796
G03 X11.895924 Y15.244552 Z0.000000 I-1.225700 J0.256063
G02 X11.910892 Y15.497811 Z0.000000 I2.407248 J-0.015193
G02 X11.951003 Y15.733742 Z0.000000 I2.100057 J-0.235659
G03 X12.056238 Y16.467988 Z0.000000 I-4.379754 J1.002392
G03 X12.081534 Y17.917152 Z0.000000 I-17.121857 J1.023671
G02 X12.104174 Y18.451624 Z0.000000 I3.981181 J0.099073
G02 X12.160932 Y18.639513 Z0.000000 I0.533691 J-0.058701
G03 X12.217179 Y18.825532 Z0.000000 I-0.472771 J0.244466
G03 X12.214250 Y19.122133 Z0.000000 I-1.232310 J0.136147
G02 X12.151428 Y19.942040 Z0.000000 I7.651239 J0.998606
G02 X12.124426 Y22.999370 Z0.000000 I106.656716 J2.470745
G03 X12.128814 Y23.819685 Z0.000000 I-2174.367799 J12.038638
G03 X12.133020 Y24.675364 Z0.000000 I-1749.178099 J9.027690
G03 X12.106534 Y25.527993 Z0.000000 I-11.892749 J0.057288
G03 X12.046226 Y25.971000 Z0.000000 I-3.264542 J-0.218807
G02 X11.967290 Y26.412831 Z0.000000 I8.171762 J1.687909
G02 X11.892285 Y26.990313 Z0.000000 I13.885489 J2.097085
G03 X11.826928 Y27.569389 Z0.000000 I-73.355112 J-7.985927
G03 X11.807453 Y27.716167 Z0.000000 I-4.719930 J-0.551594
G02 X11.776272 Y28.023346 Z0.000000 I3.296574 J0.489799
G02 X11.685257 Y29.942730 Z0.000000 I128.948898 J7.076451
G03 X11.559369 Y31.810854 Z0.000000 I-34.211865 J-1.367138
G03 X11.494965 Y31.947649 Z0.000000 I-0.222293 J-0.021099
G03 X11.410059 Y31.991259 Z0.000000 I-0.110313 J-0.110314
G03 X10.722543 Y32.075147 Z0.000000 I-1.337827 J-8.105169
G02 X10.283709 Y32.116183 Z0.000000 I1.248743 J15.720621
G02 X9.550659 Y32.201274 Z0.000000 I4.731582 J43.961996
G03 X8.818120 Y32.291528 Z0.000000 I-34.740874 J-278.954258
G03 X8.115111 Y32.376226 Z0.000000 I-31.160627 J-255.678556
G02 X6.699521 Y32.588650 Z0.000000 I2.846008 J23.788684
G02 X6.269412 Y32.710210 Z0.000000 I0.412088 J2.279775
G03 X6.058594 Y32.770314 Z0.000000 I-0.422943 J-1.083717
G03 X5.607865 Y32.832899 Z0.000000 I-0.914160 J-4.929328
G02 X5.405958 Y32.888285 Z0.000000 I0.055564 J0.598269
G02 X5.296925 Y32.980366 Z0.000000 I0.119635 J0.252254
G02 X5.251634 Y33.084540 Z0.000000 I0.233114 J0.163281
G01 X5.269996 Y33.107209 Z0.000000
G01 X5.307095 Y33.132027 Z0.000000
G03 X5.331913 Y33.257153 Z0.000000 I-0.302998 J0.125125
G03 X5.308800 Y33.365642 Z0.000000 I-0.266174 J-0.000001
G01 X5.279459 Y33.374676 Z0.000000
G02 X5.158852 Y33.408846 Z0.000000 I-0.044667 J0.072275
G02 X5.184048 Y33.564815 Z0.000000 I0.120633 J0.060532
G01 X5.201645 Y33.563917 Z0.000000
G02 X5.214726 Y33.527135 Z0.000000 I-0.045174 J-0.036782
G03 X5.232327 Y33.476375 Z0.000000 I0.081996 J0.000000
G01 X5.268610 Y33.458775 Z0.000000
G03 X5.381160 Y33.547564 Z0.000000 I-0.000000 J0.115731
G03 X5.535103 Y34.572056 Z0.000000 I-5.877932 J1.407045
G02 X5.572955 Y35.128511 Z0.000000 I60.615770 J-3.843797
G02 X5.609583 Y35.597450 Z0.000000 I43.134830 J-3.133223
G03 X5.637969 Y36.066622 Z0.000000 I-10.217285 J0.853617
G03 X5.646394 Y36.578894 Z0.000000 I-12.156547 J0.456146
G02 X5.677441 Y37.058316 Z0.000000 I3.458449 J0.016754
G01 X5.715509 Y37.091591 Z0.000000
G03 X5.881245 Y37.230292 Z0.000000 I-0.000001 J0.168371
G03 X5.780660 Y37.455506 Z0.000000 I-0.215889 J0.038649
G03 X5.726186 Y37.457063 Z0.000000 I-0.028581 J-0.046236
G03 X5.672944 Y37.397066 Z0.000000 I0.055952 J-0.103275
G01 X5.650970 Y37.396054 Z0.000000
G02 X5.628984 Y37.483646 Z0.000000 I0.181337 J0.092070
G02 X5.648015 Y37.658042 Z0.000000 I0.673021 J0.014793
G02 X5.683460 Y37.706831 Z0.000000 I0.077251 J-0.018853
G01 X5.717637 Y37.699249 Z0.000000
G02 X5.742054 Y37.617511 Z0.000000 I-0.124611 J-0.081739
G03 X5.813919 Y37.569290 Z0.000000 I0.052111 J0.000000
G03 X5.898211 Y37.681482 Z0.000000 I-0.051936 J0.126781
G02 X6.051369 Y38.592243 Z0.000000 I7.667844 J-0.821205
G02 X6.180539 Y38.906441 Z0.000000 I1.016706 J-0.234328
G03 X6.186670 Y38.952347 Z0.000000 I-0.048245 J0.029806
G03 X6.154436 Y38.994511 Z0.000000 I-0.071310 J-0.021114
G02 X5.981855 Y39.313287 Z0.000000 I0.191401 J0.309726
G02 X6.166853 Y39.493898 Z0.000000 I0.185158 J-0.004604
G01 X6.192974 Y39.475585 Z0.000000
G02 X6.214514 Y39.362101 Z0.000000 I-0.342164 J-0.123734
G01 X6.238283 Y39.343133 Z0.000000
G03 X6.275710 Y39.374231 Z0.000000 I-0.009910 J0.049998
G03 X6.315852 Y39.520385 Z0.000000 I-0.630884 J0.251865
G03 X6.317388 Y39.638802 Z0.000000 I-0.409636 J0.064533
G02 X6.325194 Y39.755651 Z0.000000 I0.296444 J0.038883
G02 X6.413014 Y39.992873 Z0.000000 I1.347496 J-0.363981
G03 X6.501825 Y40.231741 Z0.000000 I-1.289001 J0.615194
G03 X6.528752 Y40.416609 Z0.000000 I-0.740493 J0.202253
G02 X6.549620 Y40.589989 Z0.000000 I0.900041 J-0.020382
G01 X6.570737 Y40.607038 Z0.000000
G01 X6.599048 Y40.620777 Z0.000000
G03 X6.643307 Y40.698148 Z0.000000 I-0.228339 J0.181962
G01 X6.636747 Y40.739106 Z0.000000
G01 X6.605630 Y40.744358 Z0.000000
G01 X6.590499 Y40.755554 Z0.000000
G02 X6.634471 Y40.854722 Z0.000000 I0.325823 J-0.085140
G03 X7.058591 Y41.720345 Z0.000000 I-3.273713 J2.140699
G03 X7.008236 Y41.938674 Z0.000000 I-0.199791 J0.068891
G01 X7.000732 Y41.975370 Z0.000000
G02 X7.062915 Y42.074838 Z0.000000 I0.309547 J-0.124345
G03 X7.130452 Y42.184888 Z0.000000 I-0.260061 J0.235347
G03 X7.165581 Y42.343264 Z0.000000 I-0.517138 J0.197789
G02 X7.198274 Y42.502413 Z0.000000 I0.618407 J-0.044103
G02 X7.250827 Y42.588938 Z0.000000 I0.227464 J-0.078934
G03 X7.307146 Y42.673098 Z0.000000 I-0.220077 J0.208198
G03 X7.324068 Y42.752134 Z0.000000 I-0.176115 J0.079035
G02 X7.339781 Y42.833209 Z0.000000 I0.217013 J0.000001
G02 X7.413722 Y42.974730 Z0.000000 I0.752405 J-0.303034
G03 X7.482359 Y43.118646 Z0.000000 I-0.495473 J0.324629
G03 X7.516260 Y43.294816 Z0.000000 I-0.714094 J0.228760
G02 X7.549192 Y43.456618 Z0.000000 I0.632076 J-0.044396
G01 X7.579359 Y43.478193 Z0.000000
G01 X7.601229 Y43.497743 Z0.000000
G03 X7.590915 Y43.579063 Z0.000000 I-0.171171 J0.019603
G02 X7.582814 Y43.632748 Z0.000000 I0.117791 J0.045227
G01 X7.594814 Y43.637253 Z0.000000
G03 X7.889079 Y43.699968 Z0.000000 I0.126794 J0.126788
G03 X8.013482 Y44.731564 Z0.000000 I-1.997366 J0.764167
G02 X8.022058 Y44.841463 Z0.000000 I0.271018 J0.034137
G02 X8.056485 Y44.880531 Z0.000000 I0.058567 J-0.016907
G03 X8.554273 Y45.364061 Z0.000000 I-0.386222 J0.895609
G03 X8.523784 Y45.882999 Z0.000000 I-0.496027 J0.231221
G01 X8.518227 Y45.922970 Z0.000000
G01 X8.539790 Y45.939249 Z0.000000
G03 X8.615082 Y45.986689 Z0.000000 I-0.000000 J0.083469
G03 X8.820170 Y46.525186 Z0.000000 I-3.156907 J1.510618
G02 X8.870726 Y46.668453 Z0.000000 I1.264171 J-0.365549
G02 X8.975188 Y46.894930 Z0.000000 I3.270657 J-1.371244
G03 X9.244692 Y47.804893 Z0.000000 I-2.374479 J1.198141
G03 X9.111148 Y48.142182 Z0.000000 I-0.386355 J0.042110
G02 X9.049726 Y48.195634 Z0.000000 I3.346332 J3.907260
G02 X8.786196 Y48.429524 Z0.000000 I63.716704 J72.056821
G03 X7.728282 Y49.352736 Z0.000000 I-45.806416 J-51.422096
G03 X7.687880 Y49.368442 Z0.000000 I-0.042647 J-0.049887
G02 X7.213304 Y49.573990 Z0.000000 I0.024887 J0.708091
G02 X5.591981 Y51.451991 Z0.000000 I11.473063 J11.543838
G03 X5.341018 Y51.764491 Z0.000000 I-3.959225 J-2.922551
G03 X4.470750 Y52.737231 Z0.000000 I-39.326116 J-34.307700
G02 X3.989599 Y53.443028 Z0.000000 I2.192974 J2.011882
G02 X3.867007 Y53.973360 Z0.000000 I1.085829 J0.530336
G02 X3.884625 Y54.257190 Z0.000000 I2.294928 J0.000008
G02 X3.915546 Y54.362919 Z0.000000 I0.341949 J-0.042617
G02 X3.964757 Y54.464336 Z0.000000 I7.652921 J-3.650832
G02 X4.153698 Y54.845524 Z0.000000 I108.509326 J-53.546763
G03 X4.331840 Y55.228420 Z0.000000 I-7.139818 J3.554672
G03 X4.338312 Y55.271468 Z0.000000 I-0.077756 J0.033701
G02 X4.348040 Y55.311666 Z0.000000 I0.060284 J0.006688
G02 X4.454253 Y55.446370 Z0.000000 I0.869284 J-0.576199
G03 X4.637499 Y55.706495 Z0.000000 I-0.856557 J0.798010
G03 X5.052745 Y56.603340 Z0.000000 I-10.031353 J5.189157
G03 X5.126078 Y56.811952 Z0.000000 I-1.974263 J0.811205
G03 X5.242428 Y57.247871 Z0.000000 I-8.525581 J2.509019
G02 X5.357976 Y57.682844 Z0.000000 I9.040399 J-2.168699
G02 X5.387725 Y57.745919 Z0.000000 I0.214294 J-0.062517
G03 X5.419797 Y57.808307 Z0.000000 I-0.236688 J0.161113
G03 X5.538399 Y58.156075 Z0.000000 I-7.382201 J2.711719
G02 X5.663164 Y58.500204 Z0.000000 I4.106522 J-1.294153
G02 X5.719210 Y58.595529 Z0.000000 I0.363398 J-0.149519
G03 X5.771406 Y58.692405 Z0.000000 I-0.242406 J0.193106
G03 X5.975678 Y59.380689 Z0.000000 I-12.540464 J4.096272
G02 X6.172427 Y60.073837 Z0.000000 I22.772154 J-6.089355
G02 X6.213329 Y60.171706 Z0.000000 I0.489267 J-0.146994
G03 X6.260634 Y60.267339 Z0.000000 I-1.155530 J0.631099
G03 X6.476780 Y60.763501 Z0.000000 I-30.964506 J13.784445
G02 X6.706804 Y61.251224 Z0.000000 I6.556844 J-2.794283
G02 X6.834349 Y61.452799 Z0.000000 I1.238102 J-0.642259
G01 X6.979666 Y61.644049 Z0.000000
G01 X6.858870 Y61.797615 Z0.000000
G02 X6.748931 Y61.954940 Z0.000000 I1.333359 J1.048824
G02 X6.738073 Y61.993182 Z0.000000 I0.061912 J0.038242
G02 X6.755830 Y62.040544 Z0.000000 I0.072041 J0.000000
G02 X7.565834 Y62.941913 Z0.000000 I31.164168 J-27.190643
G03 X8.415884 Y63.891926 Z0.000000 I-27.864161 J25.787536
G03 X8.437287 Y63.949385 Z0.000000 I-0.066426 J0.057458
G02 X8.446733 Y63.982089 Z0.000000 I0.061339 J0.000000
G02 X8.709372 Y64.381103 Z0.000000 I10.214709 J-6.437597
G03 X8.965878 Y64.786260 Z0.000000 I-5.269981 J3.620217
G03 X9.195447 Y65.216635 Z0.000000 I-5.718252 J3.326621
G02 X9.794270 Y66.238626 Z0.000000 I6.933791 J-3.376339
G02 X10.571802 Y67.199015 Z0.000000 I6.894129 J-4.786552
G02 X11.034568 Y67.537333 Z0.000000 I1.133969 J-1.065440
G02 X11.888720 Y67.828697 Z0.000000 I1.663600 J-3.479265
G03 X12.026925 Y67.866493 Z0.000000 I-0.271344 J1.263750
G03 X12.123094 Y67.907007 Z0.000000 I-0.216882 J0.649219
G02 X12.220058 Y67.945371 Z0.000000 I0.243350 J-0.473345
G02 X12.538835 Y68.025932 Z0.000000 I1.454349 J-5.083844
G03 X13.649304 Y68.318794 Z0.000000 I-2.978741 J13.546493
G03 X13.827897 Y68.423653 Z0.000000 I-0.132978 J0.430998
G03 X13.974289 Y68.563686 Z0.000000 I-120.193727 J125.798855
G03 X14.053088 Y68.639331 Z0.000000 I-31.490068 J32.881847
G03 X14.149056 Y68.776810 Z0.000000 I-0.299694 J0.311440
G03 X14.596309 Y69.874861 Z0.000000 I-19.784061 J8.698467
G02 X14.785890 Y70.337200 Z0.000000 I7.861258 J-2.953444
G02 X14.909750 Y70.578811 Z0.000000 I2.263540 J-1.007832
G02 X15.391123 Y71.197835 Z0.000000 I2.564224 J-1.497345
G02 X16.288820 Y71.936042 Z0.000000 I4.575575 J-4.649208
G03 X16.432185 Y72.039533 Z0.000000 I-1.897287 J2.779332
G03 X16.464601 Y72.070090 Z0.000000 I-0.129668 J0.170029
G02 X16.497406 Y72.100088 Z0.000000 I0.141084 J-0.121348
G02 X16.660653 Y72.210359 Z0.000000 I2.128526 J-2.975130
G02 X16.836839 Y72.269436 Z0.000000 I0.206912 J-0.324817
G02 X17.192797 Y72.252951 Z0.000000 I0.112985 J-1.411645
G03 X17.599379 Y72.339046 Z0.000000 I0.095851 J0.550429
G03 X17.732516 Y72.614128 Z0.000000 I-0.168022 J0.251080
G03 X17.690081 Y73.037801 Z0.000000 I-10.457674 J-0.833464
G03 X17.648003 Y73.314311 Z0.000000 I-4.494432 J-0.542485
G02 X17.609898 Y73.837762 Z0.000000 I2.366830 J0.435409
G02 X17.689399 Y74.445180 Z0.000000 I3.276695 J-0.119956
G03 X17.736220 Y74.740692 Z0.000000 I-2.192887 J0.498904
G03 X17.777196 Y75.411977 Z0.000000 I-11.316190 J1.027645
G02 X17.921100 Y76.559563 Z0.000000 I6.198792 J-0.194493
G02 X18.227701 Y77.444485 Z0.000000 I3.970292 J-0.880023
G02 X18.764108 Y78.393191 Z0.000000 I7.481894 J-3.604334
G02 X19.089955 Y78.759821 Z0.000000 I1.406869 J-0.922258
G03 X19.196504 Y78.861450 Z0.000000 I-0.741485 J0.884040
G03 X19.226028 Y78.907308 Z0.000000 I-0.116332 J0.107330
G02 X19.257431 Y78.951591 Z0.000000 I0.115654 J-0.048739
G02 X19.540666 Y79.192283 Z0.000000 I3.950206 J-4.361422
G03 X19.893676 Y79.476097 Z0.000000 I-32.218047 J40.434543
G03 X20.066793 Y79.619088 Z0.000000 I-8.004028 J9.866661
G02 X20.159479 Y79.667654 Z0.000000 I0.156758 J-0.186441
G02 X20.215311 Y79.659579 Z0.000000 I0.018622 J-0.068301
G03 X20.257364 Y79.652160 Z0.000000 I0.030339 J0.049079
G01 X20.273161 Y79.671569 Z0.000000
G02 X20.319417 Y79.744345 Z0.000000 I0.080378 J0.000000
G02 X20.753205 Y79.896644 Z0.000000 I0.969846 J-2.068459
G03 X20.878548 Y79.964212 Z0.000000 I-0.065568 J0.271676
G03 X20.928986 Y80.061054 Z0.000000 I-0.112266 J0.120026
G02 X20.980249 Y80.149560 Z0.000000 I0.135345 J-0.019294
G02 X21.093472 Y80.189347 Z0.000000 I0.115750 J-0.148400
G03 X21.237259 Y80.201856 Z0.000000 I-0.013488 J0.987663
G03 X21.298550 Y80.222448 Z0.000000 I-0.031489 J0.195241
G02 X21.359363 Y80.243397 Z0.000000 I0.096780 J-0.182196
G02 X21.445034 Y80.248378 Z0.000000 I0.063995 J-0.361445
G03 X21.525559 Y80.263040 Z0.000000 I0.010309 J0.171842
G03 X21.618200 Y80.325669 Z0.000000 I-0.131476 J0.294312
G02 X21.692044 Y80.361485 Z0.000000 I0.091482 J-0.094582
G01 X21.726107 Y80.340259 Z0.000000
G03 X21.765818 Y80.288224 Z0.000000 I0.095805 J0.031944
G03 X21.959790 Y80.184180 Z0.000000 I0.634071 J0.949280
G03 X22.153608 Y80.145894 Z0.000000 I0.190987 J0.457117
G03 X22.221005 Y80.185681 Z0.000000 I-0.000444 J0.077731
G02 X22.283938 Y80.253550 Z0.000000 I0.171673 J-0.096073
G02 X22.356148 Y80.275321 Z0.000000 I0.072211 J-0.108869
G03 X22.420956 Y80.295499 Z0.000000 I-0.000000 J0.114165
G01 X22.441128 Y80.333912 Z0.000000
G02 X22.515611 Y80.403531 Z0.000000 I0.069778 J0.000000
G02 X22.657944 Y80.319262 Z0.000000 I-0.012384 J-0.183254
G03 X22.948007 Y80.145397 Z0.000000 I0.319761 J0.204572
G03 X23.054579 Y80.288134 Z0.000000 I0.008240 J0.105001
G01 X23.075091 Y80.345050 Z0.000000
G02 X23.257171 Y80.402138 Z0.000000 I0.225802 J-0.401275
G02 X23.480032 Y80.402054 Z0.000000 I0.110991 J-1.163312
G01 X23.510476 Y80.377819 Z0.000000
G01 X23.540532 Y80.349053 Z0.000000
G03 X23.744110 Y80.311280 Z0.000000 I0.302219 J1.061327
G02 X23.953949 Y80.271998 Z0.000000 I-0.100010 J-1.114332
G02 X24.041959 Y80.225431 Z0.000000 I-0.067391 J-0.233821
G03 X24.120570 Y80.186347 Z0.000000 I0.122267 J0.147318
G01 X24.160388 Y80.197692 Z0.000000
G01 X24.183316 Y80.198490 Z0.000000
G01 X24.198938 Y80.164202 Z0.000000
G01 X24.224157 Y80.121427 Z0.000000
G03 X24.301477 Y80.107462 Z0.000000 I0.059266 J0.107107
G02 X24.671407 Y80.047958 Z0.000000 I0.091328 J-0.611887
G02 X24.784876 Y79.863644 Z0.000000 I-0.092962 J-0.184315
G01 X24.804965 Y79.826642 Z0.000000
G03 X24.872767 Y79.806554 Z0.000000 I0.067802 J0.104382
G02 X24.940643 Y79.786543 Z0.000000 I0.000000 J-0.125119
G01 X24.960657 Y79.749794 Z0.000000
G01 X24.981891 Y79.723933 Z0.000000
G03 X25.058157 Y79.730455 Z0.000000 I0.026844 J0.135287
G02 X25.108374 Y79.728701 Z0.000000 I0.023042 J-0.060045
G01 X25.115897 Y79.703535 Z0.000000
G01 X25.118038 Y79.654729 Z0.000000
G03 X25.191187 Y79.602687 Z0.000000 I0.117522 J0.087757
G02 X25.266079 Y79.546845 Z0.000000 I-0.043167 J-0.136034
G02 X25.273658 Y79.481281 Z0.000000 I-0.058936 J-0.040033
G01 X25.286817 Y79.427804 Z0.000000
G03 X25.370028 Y79.396392 Z0.000000 I0.083211 J0.094508
G02 X25.472931 Y79.362668 Z0.000000 I0.000001 J-0.173856
G02 X25.529616 Y79.279204 Z0.000000 I-0.089329 J-0.121649
G03 X25.575074 Y79.181205 Z0.000000 I0.294156 J0.076906
G01 X25.612026 Y79.162018 Z0.000000
G01 X25.645197 Y79.143427 Z0.000000
G02 X25.663786 Y79.077438 Z0.000000 I-0.107836 J-0.065990
G03 X25.691110 Y79.008451 Z0.000000 I0.100751 J0.000000
G03 X25.842339 Y78.887387 Z0.000000 I0.500542 J0.470275
G02 X25.970722 Y78.760959 Z0.000000 I-0.189540 J-0.320869
G02 X25.987709 Y78.649700 Z0.000000 I-0.124044 J-0.075865
G03 X25.985124 Y78.541338 Z0.000000 I0.238855 J-0.059910
G01 X26.014239 Y78.517485 Z0.000000
G01 X26.053714 Y78.497254 Z0.000000
G02 X26.073949 Y78.434475 Z0.000000 I-0.087269 J-0.062779
G03 X26.091662 Y78.363970 Z0.000000 I0.149181 J0.000001
G03 X26.128940 Y78.331936 Z0.000000 I0.060099 J0.032231
G02 X26.165530 Y78.297515 Z0.000000 I-0.020904 J-0.058880
G02 X26.204850 Y78.153489 Z0.000000 I-0.507769 J-0.216007
G03 X26.240764 Y78.002407 Z0.000000 I0.752840 J0.099147
G03 X26.276441 Y77.948411 Z0.000000 I0.124424 J0.043428
G01 X26.286627 Y77.952432 Z0.000000
G03 X26.279341 Y77.984541 Z0.000000 I-0.054951 J0.004413
G01 X26.277772 Y78.019354 Z0.000000
G01 X26.298421 Y78.025531 Z0.000000
G02 X26.367460 Y77.897755 Z0.000000 I-0.076582 J-0.123918
G02 X26.290322 Y77.718205 Z0.000000 I-0.263801 J0.006990
G03 X26.268931 Y77.628374 Z0.000000 I0.062298 J-0.062297
G03 X26.335802 Y77.579977 Z0.000000 I0.066872 J0.022001
G02 X26.383208 Y77.553415 Z0.000000 I0.000000 J-0.055583
G02 X26.388693 Y77.493577 Z0.000000 I-0.057960 J-0.035483
G03 X26.385889 Y77.410026 Z0.000000 I0.119397 J-0.045829
G03 X26.475084 Y77.213752 Z0.000000 I0.812415 J0.250788
G02 X26.702227 Y76.708319 Z0.000000 I-1.801294 J-1.113265
G02 X26.684253 Y76.515714 Z0.000000 I-0.247194 J-0.074073
G02 X26.580760 Y76.378341 Z0.000000 I-0.455736 J0.235668
G02 X26.508237 Y76.349512 Z0.000000 I-0.072523 J0.076806
G03 X26.454712 Y76.317702 Z0.000000 I0.000000 J-0.060936
G03 X26.436497 Y76.217676 Z0.000000 I0.142713 J-0.077660
G03 X26.463989 Y76.090405 Z0.000000 I0.863563 J0.119932
G03 X26.484128 Y76.056544 Z0.000000 I0.076634 J0.022659
G02 X26.512415 Y76.026312 Z0.000000 I-0.436511 J-0.436785
G02 X26.625889 Y75.894479 Z0.000000 I-8.229537 J-7.198280
G02 X26.672457 Y75.769547 Z0.000000 I-0.149989 J-0.127052
G02 X26.628190 Y75.681171 Z0.000000 I-0.108027 J-0.001165
G03 X26.570419 Y75.586925 Z0.000000 I0.085912 J-0.117493
G03 X26.589711 Y75.443337 Z0.000000 I0.246802 J-0.039930
G02 X26.638366 Y75.287499 Z0.000000 I-0.596083 J-0.271619
G02 X26.627732 Y75.231608 Z0.000000 I-0.078296 J-0.014060
G03 X26.607457 Y75.173022 Z0.000000 I0.120518 J-0.074508
G03 X26.573913 Y74.755851 Z0.000000 I6.423945 J-0.726470
G02 X26.518105 Y74.353704 Z0.000000 I-2.255363 J0.108045
G02 X26.460330 Y74.266226 Z0.000000 I-0.146602 J0.034005
G03 X26.383596 Y74.189448 Z0.000000 I0.208440 J-0.285056
G03 X26.366911 Y74.138312 Z0.000000 I0.070014 J-0.051135
G02 X26.351174 Y74.086101 Z0.000000 I-0.094482 J-0.000000
G02 X26.279021 Y74.005761 Z0.000000 I-0.308731 J0.204700
G03 X26.214745 Y73.921728 Z0.000000 I0.151364 J-0.182375
G03 X26.191132 Y73.813040 Z0.000000 I0.238325 J-0.108687
G02 X26.173076 Y73.736847 Z0.000000 I-0.169785 J-0.000001
G01 X26.151092 Y73.733300 Z0.000000
G03 X26.015153 Y73.703013 Z0.000000 I-0.058344 J-0.058345
G03 X25.997108 Y73.307472 Z0.000000 I0.627199 J-0.226795
G02 X25.990073 Y72.966767 Z0.000000 I-0.603974 J-0.157954
G02 X25.875749 Y72.911028 Z0.000000 I-0.083163 J0.025460
G03 X25.754296 Y72.876518 Z0.000000 I-0.037708 J-0.098266
G03 X25.616135 Y72.570019 Z0.000000 I0.593744 J-0.452031
G02 X25.385379 Y71.716833 Z0.000000 I-6.391845 J1.270964
G02 X25.260550 Y71.538635 Z0.000000 I-0.373361 J0.128723
G03 X25.163936 Y71.423574 Z0.000000 I0.248198 J-0.306497
G03 X25.015527 Y71.097303 Z0.000000 I1.962428 J-1.089524
G02 X24.864718 Y70.771601 Z0.000000 I-1.949224 J0.704781
G02 X24.739495 Y70.615556 Z0.000000 I-0.558936 J0.320267
G03 X24.612092 Y70.459820 Z0.000000 I0.463946 J-0.509519
G03 X24.403973 Y70.054742 Z0.000000 I3.030026 J-1.812761
G02 X24.209768 Y69.638064 Z0.000000 I-8.085260 J3.514781
G02 X24.127323 Y69.499464 Z0.000000 I-0.971001 J0.483769
G03 X24.114087 Y69.367291 Z0.000000 I0.111196 J-0.077885
G03 X24.416574 Y68.836483 Z0.000000 I2.632227 J1.148416
G02 X25.069996 Y67.816255 Z0.000000 I-8.957701 J-6.456465
G02 X25.136465 Y67.563731 Z0.000000 I-0.446459 J-0.252526
G03 X25.151638 Y67.517025 Z0.000000 I0.079472 J0.000000
G01 X25.181415 Y67.501851 Z0.000000
G02 X25.221298 Y67.488375 Z0.000000 I0.000000 J-0.065754
G02 X25.532979 Y67.233636 Z0.000000 I-3.645559 J-4.778506
G02 X25.775284 Y66.936206 Z0.000000 I-0.753163 J-0.860985
G02 X25.839811 Y66.691645 Z0.000000 I-0.432701 J-0.244961
G03 X25.953064 Y66.149826 Z0.000000 I1.358114 J0.001133
G03 X26.125349 Y66.037010 Z0.000000 I0.172284 J0.075143
G01 X26.162881 Y66.016862 Z0.000000
G02 X26.212759 Y65.905175 Z0.000000 I-0.309591 J-0.205242
G03 X26.275854 Y65.791326 Z0.000000 I0.253007 J0.065809
G03 X26.725471 Y65.363185 Z0.000000 I4.321892 J4.088521
G02 X27.953345 Y63.976358 Z0.000000 I-4.401772 J-5.134240
G02 X28.383109 Y62.872955 Z0.000000 I-2.300762 J-1.531519
G02 X28.660369 Y60.900185 Z0.000000 I-61.907515 J-9.706565
G02 X28.853130 Y59.093660 Z0.000000 I-51.714524 J-6.431631
G03 X28.941809 Y58.156663 Z0.000000 I85.295679 J7.599784
G03 X29.114357 Y56.486239 Z0.000000 I271.631848 J27.214449
G02 X29.365543 Y53.601631 Z0.000000 I-75.180531 J-7.999807
G02 X29.382559 Y52.531161 Z0.000000 I-10.312165 J-0.699292
G02 X29.147436 Y49.123719 Z0.000000 I-51.773203 J1.860665
G02 X28.968956 Y48.484947 Z0.000000 I-1.943193 J0.198629
G03 X28.912363 Y48.281996 Z0.000000 I0.558834 J-0.265198
G03 X28.891079 Y47.715086 Z0.000000 I4.463106 J-0.451416
G02 X28.866513 Y45.343059 Z0.000000 I-32.850649 J-0.845915
G02 X28.735691 Y44.373566 Z0.000000 I-5.580409 J0.259438
G02 X28.693116 Y44.212493 Z0.000000 I-2.225716 J0.502140
G02 X28.560471 Y43.796852 Z0.000000 I-14.921485 J4.532966
G03 X28.443874 Y43.378241 Z0.000000 I4.022063 J-1.345818
G03 X28.389820 Y43.035133 Z0.000000 I2.644009 J-0.592352
G03 X28.375890 Y42.173811 Z0.000000 I5.653224 J-0.522205
G03 X28.452034 Y41.995569 Z0.000000 I0.286877 J0.017166
G02 X28.583425 Y41.838927 Z0.000000 I-1.508803 J-1.399013
G02 X28.593586 Y41.808686 Z0.000000 I-0.039924 J-0.030241
G03 X28.602363 Y41.777358 Z0.000000 I0.060299 J0.000000
G03 X28.710932 Y41.615698 Z0.000000 I1.846287 J1.122668
G02 X28.945099 Y41.081210 Z0.000000 I-1.058091 J-0.782104
G02 X28.937836 Y40.431548 Z0.000000 I-1.601983 J-0.306964
G03 X28.929064 Y40.227906 Z0.000000 I0.593767 J-0.127589
G03 X29.013989 Y39.827919 Z0.000000 I2.427596 J0.306415
G02 X29.083068 Y39.062870 Z0.000000 I-1.824724 J-0.550405
G02 X28.826725 Y38.175690 Z0.000000 I-2.737030 J0.310216
G02 X28.560398 Y37.660891 Z0.000000 I-9.414828 J4.544405
G02 X28.524299 Y37.628813 Z0.000000 I-0.063515 J0.035124
G03 X28.490118 Y37.600078 Z0.000000 I0.027494 J-0.067404
G03 X28.476420 Y37.552443 Z0.000000 I0.075976 J-0.047635
G02 X28.425770 Y37.402529 Z0.000000 I-0.247182 J-0.000001
G02 X27.708869 Y36.546208 Z0.000000 I-9.788704 J7.466729
G03 X27.654965 Y36.423334 Z0.000000 I0.153019 J-0.140389
G03 X27.613583 Y35.420512 Z0.000000 I11.579092 J-0.980084
G02 X27.582465 Y34.412769 Z0.000000 I-15.437906 J-0.027648
G02 X27.542987 Y34.313385 Z0.000000 I-0.172452 J0.010970
G02 X27.461102 Y34.236847 Z0.000000 I-0.342124 J0.283952
G02 X27.212275 Y34.074645 Z0.000000 I-1.827242 J2.531138
G03 X26.894508 Y33.753193 Z0.000000 I0.442722 J-0.755434
G03 X26.932532 Y33.584431 Z0.000000 I0.111391 J-0.063566
G02 X27.101743 Y33.405918 Z0.000000 I-0.348649 J-0.499932
G02 X27.719465 Y32.316550 Z0.000000 I-13.424494 J-8.332135
G03 X27.871439 Y32.023727 Z0.000000 I58.148468 J29.992876
G03 X28.027336 Y31.726987 Z0.000000 I59.741975 J31.197187
G03 X28.217527 Y31.455898 Z0.000000 I1.168965 J0.617861
G03 X29.077280 Y30.570953 Z0.000000 I13.586897 J12.340006
G02 X29.946862 Y29.689866 Z0.000000 I-16.666802 J-17.318829
G02 X30.410042 Y29.149122 Z0.000000 I-5.802057 J-5.438562
G03 X30.866863 Y28.603915 Z0.000000 I8.261436 J6.458144
G03 X31.097084 Y28.383468 Z0.000000 I1.567585 J1.406648
G02 X31.882037 Y27.663415 Z0.000000 I-6.226438 J-7.575521
G02 X32.665671 Y26.779216 Z0.000000 I-8.627166 J-8.435311
G03 X33.011458 Y26.455574 Z0.000000 I1.302600 J1.045182
G03 X33.440641 Y26.237508 Z0.000000 I0.988561 J1.414242
G03 X34.055016 Y26.050356 Z0.000000 I3.021334 J8.816331
G03 X36.708883 Y25.363788 Z0.000000 I43.847433 J164.015913
G02 X38.206439 Y24.956537 Z0.000000 I-9.212204 J-36.832415
G02 X39.457317 Y24.555689 Z0.000000 I-7.671510 J-26.091714
G03 X39.804415 Y24.441494 Z0.000000 I3.648164 J10.504083
G03 X39.843938 Y24.435492 Z0.000000 I0.039523 J0.127131
G01 X39.872882 Y24.452490 Z0.000000
G03 X39.980992 Y24.681216 Z0.000000 I-1.643573 J0.916762
G03 X40.035781 Y24.913044 Z0.000000 I-0.782141 J0.307237
G03 X40.007061 Y24.970482 Z0.000000 I-0.060834 J0.005481
G01 X39.994871 Y25.019947 Z0.000000
G02 X40.154105 Y25.219162 Z0.000000 I0.785190 J-0.464365
G03 X40.246222 Y25.399878 Z0.000000 I-0.206748 J0.219222
G03 X40.185024 Y25.459131 Z0.000000 I-0.052709 J0.006791
G01 X40.151877 Y25.488454 Z0.000000
G02 X40.191423 Y25.627852 Z0.000000 I0.306438 J-0.011627
G02 X40.312849 Y25.776622 Z0.000000 I0.495753 J-0.280692
G02 X40.385244 Y25.796791 Z0.000000 I0.057332 J-0.065777
G03 X40.471906 Y25.873480 Z0.000000 I0.012771 J0.072879
G03 X40.359542 Y26.295324 Z0.000000 I-1.051556 J-0.054210
G02 X40.299457 Y26.475064 Z0.000000 I0.578865 J0.293419
G01 X40.319561 Y26.520013 Z0.000000
G03 X40.350135 Y26.567487 Z0.000000 I-0.034484 J0.055790
G03 X40.353080 Y26.782313 Z0.000000 I-0.941415 J0.120339
G02 X40.359805 Y26.991373 Z0.000000 I0.792191 J0.079155
G02 X40.394589 Y27.033370 Z0.000000 I0.053410 J-0.008833
G01 X40.418988 Y27.071136 Z0.000000
G03 X40.383629 Y27.184127 Z0.000000 I-0.258217 J-0.018777
G02 X40.400705 Y27.331987 Z0.000000 I0.105998 J0.062674
G02 X40.580612 Y27.389757 Z0.000000 I0.143315 J-0.137292
G03 X40.671532 Y27.455993 Z0.000000 I0.014248 J0.075961
G03 X40.605711 Y27.587633 Z0.000000 I-0.131254 J0.016649
G02 X40.476424 Y27.853853 Z0.000000 I0.129354 J0.227323
G02 X40.672650 Y28.032747 Z0.000000 I0.208206 J-0.031312
G03 X40.759174 Y28.053371 Z0.000000 I-0.014661 J0.253321
G01 X40.767220 Y28.073948 Z0.000000
G01 X40.767530 Y28.106699 Z0.000000
G02 X40.823689 Y28.195477 Z0.000000 I0.371064 J-0.172577
G03 X40.869211 Y28.288827 Z0.000000 I-0.168700 J0.140039
G03 X40.870699 Y28.411125 Z0.000000 I-0.297199 J0.064774
G02 X40.874195 Y28.499230 Z0.000000 I0.189834 J0.036588
G01 X40.897418 Y28.508305 Z0.000000
G03 X40.949574 Y28.501684 Z0.000000 I0.033350 J0.053972
G03 X41.143380 Y28.584656 Z0.000000 I-0.302223 J0.973767
G03 X41.292964 Y28.723192 Z0.000000 I-0.209443 J0.376172
G03 X41.367055 Y28.922585 Z0.000000 I-0.390832 J0.258687
G02 X41.441788 Y29.097282 Z0.000000 I0.344193 J-0.043908
G02 X41.545765 Y29.142856 Z0.000000 I0.096176 J-0.078025
G03 X41.645482 Y29.186367 Z0.000000 I0.007489 J0.118856
G03 X41.695178 Y29.325752 Z0.000000 I-0.170615 J0.139384
G02 X41.724288 Y29.506019 Z0.000000 I0.572714 J0.000002
G02 X41.790597 Y29.613500 Z0.000000 I0.260033 J-0.086230
G02 X41.955116 Y29.698164 Z0.000000 I0.214353 J-0.214352
G01 X42.011581 Y29.650331 Z0.000000
G03 X42.028747 Y29.608897 Z0.000000 I0.058590 J0.000000
G03 X42.070171 Y29.591741 Z0.000000 I0.041425 J0.041434
G01 X42.103076 Y29.617434 Z0.000000
G03 X42.128761 Y29.826116 Z0.000000 I-0.834897 J0.208679
G02 X42.195265 Y29.978118 Z0.000000 I0.206957 J0.000001
G02 X42.304388 Y29.988391 Z0.000000 I0.061289 J-0.066329
G03 X42.413312 Y29.966972 Z0.000000 I0.082571 J0.132235
G03 X42.523319 Y30.025942 Z0.000000 I-0.033314 J0.194241
G03 X42.563107 Y30.085913 Z0.000000 I-0.154051 J0.145391
G01 X42.553569 Y30.094582 Z0.000000
G02 X42.499386 Y30.086083 Z0.000000 I-0.038563 J0.068882
G01 X42.480329 Y30.109372 Z0.000000
G02 X42.531951 Y30.184657 Z0.000000 I0.080708 J0.000000
G02 X42.808836 Y30.236285 Z0.000000 I0.276888 J-0.716682
G03 X42.925237 Y30.275061 Z0.000000 I-0.000001 J0.194100
G03 X43.009013 Y30.386298 Z0.000000 I-0.149961 J0.200105
G02 X43.081636 Y30.490322 Z0.000000 I0.243295 J-0.092491
G01 X43.133637 Y30.494533 Z0.000000
G03 X43.195364 Y30.486501 Z0.000000 I0.039760 J0.064357
G03 X43.266753 Y30.534953 Z0.000000 I-0.042163 J0.138942
G02 X43.510032 Y30.734955 Z0.000000 I0.591472 J-0.471496
G02 X43.619730 Y30.717979 Z0.000000 I0.043254 J-0.083416
G03 X43.888047 Y30.626412 Z0.000000 I0.227399 J0.227437
G03 X44.133812 Y30.784010 Z0.000000 I-0.043361 J0.338045
G02 X44.185381 Y30.811170 Z0.000000 I0.049075 J-0.030643
G02 X44.296274 Y30.777011 Z0.000000 I-0.009888 J-0.229184
G03 X44.399219 Y30.754004 Z0.000000 I0.084516 J0.136350
G03 X44.452108 Y30.795032 Z0.000000 I-0.007421 J0.064170
G02 X44.502949 Y30.853241 Z0.000000 I0.104821 J-0.040244
G02 X44.566087 Y30.857512 Z0.000000 I0.036177 J-0.065982
G03 X44.635976 Y30.852845 Z0.000000 I0.042494 J0.110727
G03 X44.679810 Y30.884472 Z0.000000 I-0.016343 J0.068840
G01 X44.722367 Y30.900389 Z0.000000
G02 X44.858165 Y30.828983 Z0.000000 I-0.125293 J-0.403112
G03 X45.008170 Y30.749668 Z0.000000 I0.292818 J0.372285
G03 X45.117740 Y30.746904 Z0.000000 I0.059571 J0.188376
G02 X45.202585 Y30.736281 Z0.000000 I0.029135 J-0.111435
G02 X45.234233 Y30.682634 Z0.000000 I-0.029646 J-0.053647
G03 X45.265155 Y30.618831 Z0.000000 I0.081287 J0.000000
G03 X45.354219 Y30.587915 Z0.000000 I0.089063 J0.112831
G02 X45.461713 Y30.559310 Z0.000000 I0.000001 J-0.216273
G02 X45.609960 Y30.441431 Z0.000000 I-0.311654 J-0.544104
G03 X45.756253 Y30.319072 Z0.000000 I0.553133 J0.512695
G03 X45.838626 Y30.294949 Z0.000000 I0.082373 J0.128579
G02 X45.919193 Y30.273452 Z0.000000 I0.000001 J-0.161718
G02 X45.978393 Y30.214650 Z0.000000 I-0.080694 J-0.140442
G03 X46.040130 Y30.161847 Z0.000000 I0.106709 J0.062272
G03 X46.165805 Y30.141411 Z0.000000 I0.110461 J0.282646
G02 X46.277512 Y30.105978 Z0.000000 I0.008384 J-0.167374
G02 X46.360615 Y29.988841 Z0.000000 I-0.155144 J-0.198115
G03 X46.433264 Y29.840235 Z0.000000 I0.618014 J0.210067
G03 X46.586273 Y29.645733 Z0.000000 I1.220451 J0.802660
G02 X46.742579 Y29.456297 Z0.000000 I-1.460061 J-1.363916
G02 X46.757673 Y29.409847 Z0.000000 I-0.063927 J-0.046451
G01 X46.775792 Y29.375568 Z0.000000
G03 X46.834513 Y29.357457 Z0.000000 I0.058721 J0.086141
G02 X47.087355 Y29.238358 Z0.000000 I0.000001 J-0.327933
G02 X47.134741 Y28.993959 Z0.000000 I-0.200602 J-0.165687
G03 X47.133037 Y28.920661 Z0.000000 I0.124651 J-0.039566
G01 X47.156831 Y28.911209 Z0.000000
G02 X47.213397 Y28.917829 Z0.000000 I0.035374 J-0.057277
G02 X47.302619 Y28.862740 Z0.000000 I-0.071512 J-0.215613
G03 X47.389079 Y28.809001 Z0.000000 I0.158301 J0.158268
G01 X47.433866 Y28.818250 Z0.000000
G01 X47.447935 Y28.812379 Z0.000000
G02 X47.437366 Y28.742220 Z0.000000 I-0.182459 J-0.008391
G03 X47.441117 Y28.697033 Z0.000000 I0.051437 J-0.018480
G01 X47.464517 Y28.693750 Z0.000000
G02 X47.540353 Y28.725635 Z0.000000 I0.077440 J-0.078058
G02 X47.677697 Y28.696851 Z0.000000 I0.004665 J-0.319798
G02 X47.774331 Y28.606819 Z0.000000 I-0.086392 J-0.189605
G02 X47.793477 Y28.484034 Z0.000000 I-0.162033 J-0.088151
G03 X47.817002 Y28.352453 Z0.000000 I0.183516 J-0.035084
G03 X48.067401 Y28.029869 Z0.000000 I1.493325 J0.900688
G03 X48.441790 Y27.809177 Z0.000000 I0.600777 J0.591269
G03 X48.709710 Y27.850784 Z0.000000 I0.088112 J0.316023
G02 X48.868314 Y27.933144 Z0.000000 I0.485125 J-0.740333
G02 X48.962647 Y27.951180 Z0.000000 I0.094334 J-0.237681
G03 X49.020128 Y27.968676 Z0.000000 I-0.000000 J0.103173
G01 X49.022327 Y27.991221 Z0.000000
G02 X49.041565 Y28.097101 Z0.000000 I0.046279 J0.046279
G02 X49.450637 Y28.185560 Z0.000000 I0.409076 J-0.901647
G03 X49.541408 Y28.209471 Z0.000000 I-0.000001 J0.184247
G03 X49.658526 Y28.303252 Z0.000000 I-0.231916 J0.409652
G02 X49.778869 Y28.399048 Z0.000000 I0.351420 J-0.317980
G02 X49.989872 Y28.488311 Z0.000000 I0.512951 J-0.918513
G03 X50.194073 Y28.571038 Z0.000000 I-0.337519 J1.126505
G01 X50.214707 Y28.604995 Z0.000000
G01 X50.232217 Y28.636796 Z0.000000
G02 X50.292667 Y28.654315 Z0.000000 I0.060450 J-0.095534
G03 X50.424325 Y28.717950 Z0.000000 I-0.000001 J0.168016
G03 X50.859238 Y29.368938 Z0.000000 I-3.774265 J2.992294
G02 X51.211179 Y29.830611 Z0.000000 I1.771030 J-0.985102
G02 X51.361782 Y29.861872 Z0.000000 I0.099630 J-0.101574
G03 X51.425634 Y29.858321 Z0.000000 I0.037453 J0.097613
G01 X51.445172 Y29.883612 Z0.000000
G02 X51.560331 Y30.168455 Z0.000000 I0.409855 J0.000001
G02 X51.776026 Y30.225925 Z0.000000 I0.155567 J-0.150365
G03 X51.824320 Y30.226628 Z0.000000 I0.023001 J0.079066
G03 X51.957865 Y30.284556 Z0.000000 I-0.230696 J0.714743
G02 X52.075210 Y30.333056 Z0.000000 I0.269725 J-0.486386
G01 X52.089701 Y30.322116 Z0.000000
G01 X52.101655 Y30.315430 Z0.000000
G03 X52.181661 Y30.378527 Z0.000000 I-0.228579 J0.372107
G02 X52.280073 Y30.426902 Z0.000000 I0.120163 J-0.120162
G02 X52.394191 Y30.405957 Z0.000000 I0.024351 J-0.188683
G03 X52.504254 Y30.380447 Z0.000000 I0.102276 J0.191079
G03 X52.558276 Y30.411858 Z0.000000 I-0.002382 J0.066256
G02 X52.613659 Y30.454921 Z0.000000 I0.085538 J-0.052864
G02 X52.711954 Y30.460168 Z0.000000 I0.059371 J-0.188867
G03 X52.813761 Y30.468014 Z0.000000 I0.036990 J0.184468
G03 X52.935710 Y30.542289 Z0.000000 I-0.126717 J0.345298
G02 X53.394945 Y30.670310 Z0.000000 I0.355445 J-0.387359
G02 X53.614035 Y30.405688 Z0.000000 I-0.053897 J-0.267630
G01 X53.633905 Y30.388041 Z0.000000
G03 X53.673745 Y30.412188 Z0.000000 I-0.005953 J0.054761
G02 X53.734463 Y30.440581 Z0.000000 I0.053843 J-0.036024
G02 X53.811143 Y30.397528 Z0.000000 I-0.011835 J-0.110891
G03 X53.895825 Y30.307333 Z0.000000 I0.491735 J0.376826
G03 X53.928777 Y30.294988 Z0.000000 I0.032952 J0.037807
G02 X53.993845 Y30.270928 Z0.000000 I0.000000 J-0.100015
G02 X54.530367 Y29.779630 Z0.000000 I-7.156018 J-8.353326
G03 X54.652418 Y29.681773 Z0.000000 I0.554901 J0.567057
G01 X54.667830 Y29.690130 Z0.000000
G01 X54.680305 Y29.695559 Z0.000000
G02 X54.758520 Y29.605651 Z0.000000 I-0.387525 J-0.416100
G02 X54.813702 Y29.468513 Z0.000000 I-0.267272 J-0.187217
G02 X54.810592 Y29.270348 Z0.000000 I-0.579557 J-0.090009
G03 X54.857436 Y29.187419 Z0.000000 I0.072685 J-0.013637
G03 X54.930433 Y29.225658 Z0.000000 I0.019343 J0.051868
G01 X54.971362 Y29.386790 Z0.000000
G01 X55.096193 Y29.152415 Z0.000000
G02 X55.199434 Y28.913281 Z0.000000 I-1.405641 J-0.748707
G02 X55.214601 Y28.801814 Z0.000000 I-0.281514 J-0.095072
G03 X55.237804 Y28.699984 Z0.000000 I0.189513 J-0.010376
G03 X55.322656 Y28.605415 Z0.000000 I0.245723 J0.135122
G02 X55.398976 Y28.507839 Z0.000000 I-0.121825 J-0.173923
G02 X55.419247 Y28.354729 Z0.000000 I-0.307993 J-0.118672
G03 X55.526740 Y27.926985 Z0.000000 I0.638380 J-0.066952
G03 X55.812914 Y27.775464 Z0.000000 I0.286173 J0.194484
G02 X55.872936 Y27.750092 Z0.000000 I0.000000 J-0.083683
G02 X55.898304 Y27.687575 Z0.000000 I-0.064353 J-0.062518
G03 X55.918127 Y27.619510 Z0.000000 I0.126769 J0.000000
G01 X55.954244 Y27.599685 Z0.000000
G01 X55.990590 Y27.576040 Z0.000000
G02 X56.051645 Y27.379959 Z0.000000 I-0.815398 J-0.361444
G03 X56.098113 Y27.232499 Z0.000000 I0.640955 J0.120927
G01 X56.117776 Y27.233474 Z0.000000
G02 X56.155108 Y27.289085 Z0.000000 I0.120610 J-0.040632
G02 X56.202425 Y27.306715 Z0.000000 I0.047317 J-0.054684
G01 X56.232188 Y27.285943 Z0.000000
G02 X56.231766 Y27.226875 Z0.000000 I-0.078850 J-0.028973
G03 X56.226053 Y27.146660 Z0.000000 I0.128985 J-0.049496
G03 X56.341736 Y26.744643 Z0.000000 I3.645796 J0.831448
G02 X56.454514 Y26.338017 Z0.000000 I-3.038291 J-1.061621
G02 X56.474332 Y26.106711 Z0.000000 I-0.953471 J-0.198193
G02 X56.323563 Y25.381965 Z0.000000 I-2.174079 J0.074219
G02 X56.138293 Y25.255932 Z0.000000 I-0.185271 J0.073160
G01 X56.105121 Y25.235755 Z0.000000
G03 X56.054853 Y25.094800 Z0.000000 I0.492740 J-0.255164
G02 X55.995663 Y24.946542 Z0.000000 I-0.454966 J0.095694
G02 X55.814367 Y24.704659 Z0.000000 I-1.418751 J0.874502
G03 X55.654421 Y24.464035 Z0.000000 I0.730643 J-0.659135
G03 X55.642230 Y24.338353 Z0.000000 I0.170095 J-0.079932
G02 X55.636396 Y24.213821 Z0.000000 I-0.209532 J-0.052587
G02 X55.557621 Y24.098610 Z0.000000 I-0.255740 J0.090326
G03 X55.477903 Y23.976101 Z0.000000 I0.170435 J-0.198095
G03 X55.405233 Y23.594300 Z0.000000 I1.768939 J-0.534503
G03 X55.386783 Y23.196014 Z0.000000 I5.452290 J-0.452143
G03 X55.400835 Y23.145699 Z0.000000 I0.093801 J-0.000923
G01 X55.439843 Y23.125858 Z0.000000
G03 X55.641473 Y23.163960 Z0.000000 I-0.070009 J0.923031
G02 X55.836459 Y23.178487 Z0.000000 I0.129458 J-0.421767
G02 X55.932730 Y23.120221 Z0.000000 I-0.021708 J-0.144533
G03 X56.033258 Y23.063007 Z0.000000 I0.113990 J0.083365
G03 X56.398943 Y23.075582 Z0.000000 I0.134692 J1.406506
G02 X56.888981 Y23.091863 Z0.000000 I0.306808 J-1.851639
G02 X56.953039 Y23.021214 Z0.000000 I-0.006930 J-0.070649
G03 X57.051937 Y22.892695 Z0.000000 I0.132956 J0.000000
G03 X57.322998 Y22.923176 Z0.000000 I0.096356 J0.363611
G02 X57.425464 Y22.942629 Z0.000000 I0.083212 J-0.158712
G02 X57.522432 Y22.901616 Z0.000000 I-0.019617 J-0.181520
G03 X57.615569 Y22.828869 Z0.000000 I1.272580 J1.533273
G01 X57.621222 Y22.829057 Z0.000000
G01 X57.627264 Y22.833187 Z0.000000
G02 X57.757885 Y22.903927 Z0.000000 I7.108037 J-12.968919
G02 X57.879002 Y22.921316 Z0.000000 I0.084463 J-0.157801
G02 X57.990633 Y22.855238 Z0.000000 I-0.041207 J-0.196947
G03 X58.105550 Y22.765084 Z0.000000 I0.282800 J0.242161
G03 X58.225825 Y22.736428 Z0.000000 I0.120275 J0.238076
G02 X58.338663 Y22.715807 Z0.000000 I0.000001 J-0.319037
G01 X58.359289 Y22.685958 Z0.000000
G01 X58.380646 Y22.661311 Z0.000000
G03 X58.510000 Y22.664289 Z0.000000 I0.055780 J0.387985
G02 X58.657703 Y22.669814 Z0.000000 I0.091943 J-0.480819
G02 X58.788319 Y22.632300 Z0.000000 I-0.046971 J-0.409681
G03 X58.919052 Y22.580084 Z0.000000 I0.468876 J0.984173
G03 X59.194251 Y22.499863 Z0.000000 I1.400976 J4.293907
G02 X59.445454 Y22.406902 Z0.000000 I-0.326457 J-1.268048
G02 X59.473470 Y22.362590 Z0.000000 I-0.022121 J-0.044998
G01 X59.489579 Y22.350639 Z0.000000
G03 X59.525220 Y22.377250 Z0.000000 I-0.017017 J0.059964
G01 X59.583638 Y22.395735 Z0.000000
G02 X59.763527 Y22.278401 Z0.000000 I-0.223930 J-0.539880
G03 X59.958208 Y22.135312 Z0.000000 I0.649415 J0.679583
G03 X60.031619 Y22.130219 Z0.000000 I0.042175 J0.076300
G02 X60.401960 Y22.138109 Z0.000000 I0.196145 J-0.511144
G02 X60.527258 Y21.963892 Z0.000000 I-0.058471 J-0.174218
G01 X60.548486 Y21.934448 Z0.000000
G03 X60.611408 Y21.935862 Z0.000000 I0.029487 J0.088540
G02 X60.690817 Y21.936810 Z0.000000 I0.040986 J-0.106864
G02 X60.840376 Y21.854243 Z0.000000 I-0.177697 J-0.498605
G03 X60.992176 Y21.760495 Z0.000000 I0.488016 J0.620443
G03 X61.082344 Y21.740333 Z0.000000 I0.090167 J0.191533
G02 X61.317075 Y21.688313 Z0.000000 I0.000002 J-0.555596
G02 X61.464757 Y21.562074 Z0.000000 I-0.153259 J-0.328793
G03 X61.796671 Y21.269981 Z0.000000 I0.722611 J0.486495
G03 X62.578041 Y21.003498 Z0.000000 I1.361368 J2.712959
G02 X62.767911 Y20.929317 Z0.000000 I-0.108670 J-0.558226
G02 X62.988197 Y20.750531 Z0.000000 I-0.578295 J-0.937635
G03 X63.144381 Y20.607807 Z0.000000 I1.089346 J1.035259
G03 X63.471598 Y20.367602 Z0.000000 I3.433799 J4.334675
G02 X63.794671 Y20.131493 Z0.000000 I-3.246594 J-4.781473
G01 X63.808513 Y20.103023 Z0.000000
G03 X63.842906 Y20.006672 Z0.000000 I0.152159 J0.000001
G03 X64.336434 Y19.457715 Z0.000000 I6.138171 J5.022064
G02 X64.473076 Y19.300185 Z0.000000 I-1.160454 J-1.144612
G02 X64.717296 Y18.957147 Z0.000000 I-5.267658 J-4.008653
G03 X64.956220 Y18.610352 Z0.000000 I10.686459 J7.106748
G03 X64.989012 Y18.576287 Z0.000000 I0.131680 J0.093944
G02 X65.019188 Y18.540789 Z0.000000 I-0.068713 J-0.088987
G02 X65.180662 Y18.221988 Z0.000000 I-5.824721 J-3.150540
G03 X65.363068 Y17.923142 Z0.000000 I1.492954 J0.706158
G03 X65.508959 Y17.793869 Z0.000000 I0.406305 J0.311578
G02 X65.670360 Y17.682258 Z0.000000 I-0.697815 J-1.181619
G01 X65.688005 Y17.650120 Z0.000000
G03 X65.741984 Y17.414850 Z0.000000 I1.039194 J0.114601
G03 X65.794744 Y17.349500 Z0.000000 I0.119350 J0.042384
G02 X66.277361 Y16.767057 Z0.000000 I-0.623055 J-1.007440
G02 X66.111425 Y16.525501 Z0.000000 I-0.165937 J-0.063782
G01 X66.104893 Y16.512379 Z0.000000
G03 X66.206276 Y16.400022 Z0.000000 I0.694728 J0.524947
G02 X66.425870 Y16.026203 Z0.000000 I-0.517383 J-0.555337
G02 X66.589245 Y14.845123 Z0.000000 I-5.573953 J-1.372867
G03 X66.630444 Y14.252488 Z0.000000 I8.247314 J0.275593
G03 X66.672928 Y14.054113 Z0.000000 I0.957373 J0.101292
G02 X66.719646 Y13.857175 Z0.000000 I-1.151511 J-0.377172
G02 X66.728649 Y13.683714 Z0.000000 I-0.882789 J-0.132786
G03 X66.730123 Y13.508377 Z0.000000 I1.626433 J-0.074000
G03 X66.754311 Y13.273554 Z0.000000 I2.919805 J0.182088
G02 X66.781963 Y13.038546 Z0.000000 I-4.565528 J-0.656333
G02 X66.826873 Y12.482534 Z0.000000 I-25.541082 J-2.342842
G03 X66.888314 Y11.899220 Z0.000000 I8.306823 J0.580071
G03 X67.005775 Y11.214575 Z0.000000 I11.565894 J1.631893
G03 X67.040620 Y11.092211 Z0.000000 I0.800883 J0.161921
G03 X67.147070 Y10.833715 Z0.000000 I3.714435 J1.378464
G02 X67.246775 Y10.574640 Z0.000000 I-2.156599 J-0.978691
G02 X67.264283 Y10.466205 Z0.000000 I-0.353276 J-0.112672
G03 X67.285364 Y10.359649 Z0.000000 I0.295980 J0.003191
G03 X67.404580 Y10.114646 Z0.000000 I1.734288 J0.692379
G02 X67.533446 Y9.870682 Z0.000000 I-2.994827 J-1.737941
G02 X67.588483 Y9.730127 Z0.000000 I-0.934819 J-0.447099
G03 X67.953893 Y9.058774 Z0.000000 I1.854813 J0.574435
G03 X68.275867 Y8.908329 Z0.000000 I0.321973 J0.269309
G02 X68.319680 Y8.897939 Z0.000000 I0.000000 J-0.097575
G02 X68.541158 Y8.775080 Z0.000000 I-1.394358 J-2.774660
G03 X68.765554 Y8.654279 Z0.000000 I1.235105 J2.025471
G03 X68.994094 Y8.561751 Z0.000000 I0.948225 J2.013583
G02 X69.222369 Y8.472769 Z0.000000 I-0.943048 J-2.756575
G02 X69.257766 Y8.445972 Z0.000000 I-0.038454 J-0.087575
G03 X69.313467 Y8.406038 Z0.000000 I0.102490 J0.084141
G03 X70.546829 Y7.959877 Z0.000000 I17.120534 J45.399929
G02 X70.665489 Y7.879382 Z0.000000 I-0.090604 J-0.261267
G02 X70.791238 Y7.676918 Z0.000000 I-0.577878 J-0.499201
G02 X70.818338 Y7.463012 Z0.000000 I-0.368310 J-0.155330
G02 X70.739389 Y7.326928 Z0.000000 I-0.210514 J0.031185
G02 X70.499012 Y7.238875 Z0.000000 I-0.255119 J0.324324
G02 X70.107373 Y7.304325 Z0.000000 I-0.035470 J0.992219
G03 X69.868371 Y7.375775 Z0.000000 I-0.587767 J-1.530644
G03 X69.462843 Y7.444543 Z0.000000 I-0.943745 J-4.335217
G02 X68.622233 Y7.594442 Z0.000000 I0.945179 J7.732399
G02 X68.268995 Y7.725739 Z0.000000 I0.347646 J1.476112
G03 X68.019833 Y7.837863 Z0.000000 I-1.098704 J-2.108623
G03 X67.934611 Y7.853608 Z0.000000 I-0.085222 J-0.222775
G02 X67.856421 Y7.878807 Z0.000000 I-0.000000 J0.133901
G02 X67.658095 Y8.052527 Z0.000000 I0.804797 J1.118864
G03 X67.453930 Y8.225644 Z0.000000 I-0.873130 J-0.822776
G03 X67.244673 Y8.330225 Z0.000000 I-0.510829 J-0.760475
G02 X66.800488 Y8.613083 Z0.000000 I0.378046 J1.083855
G02 X66.679634 Y8.910333 Z0.000000 I0.305132 J0.297252
G03 X66.579693 Y9.156770 Z0.000000 I-0.353808 J-0.000001
G03 X66.324420 Y9.276232 Z0.000000 I-0.285109 J-0.276766
G02 X66.241052 Y9.306695 Z0.000000 I0.013345 J0.165827
G01 X66.225769 Y9.347032 Z0.000000
G03 X66.218638 Y9.404575 Z0.000000 I-0.082468 J0.018994
G03 X66.108136 Y9.577061 Z0.000000 I-0.943343 J-0.482704
G01 X65.976200 Y9.744791 Z0.000000
G01 X66.006890 Y9.575561 Z0.000000
G02 X66.035816 Y9.406034 Z0.000000 I-8.078645 J-1.465639
G02 X66.052691 Y9.289141 Z0.000000 I-3.850396 J-0.615541
G03 X66.078225 Y9.175724 Z0.000000 I0.619098 J0.079793
G03 X66.116002 Y9.094671 Z0.000000 I0.350910 J0.114224
G02 X66.233424 Y8.720597 Z0.000000 I-0.662991 J-0.413578
G02 X66.147944 Y8.463582 Z0.000000 I-0.372445 J-0.018853
G03 X66.121180 Y8.384820 Z0.000000 I0.089701 J-0.074409
G03 X66.155645 Y8.257492 Z0.000000 I0.292871 J0.010944
G02 X66.179861 Y8.136996 Z0.000000 I-0.187572 J-0.100378
G02 X66.137046 Y8.061701 Z0.000000 I-0.105184 J0.009992
G03 X66.047104 Y7.895807 Z0.000000 I0.130002 J-0.177811
G03 X66.113877 Y7.633981 Z0.000000 I0.450918 J-0.024430
G02 X66.126167 Y7.580571 Z0.000000 I-0.072494 J-0.044801
G02 X66.085348 Y7.352311 Z0.000000 I-1.524041 J0.154761
G03 X65.998368 Y6.743754 Z0.000000 I2.685634 J-0.694349
G03 X66.056732 Y6.427401 Z0.000000 I0.759222 J-0.023492
G02 X66.112281 Y6.230972 Z0.000000 I-0.785467 J-0.328198
G02 X66.098342 Y6.161861 Z0.000000 I-0.100347 J-0.015722
G03 X66.071374 Y6.090453 Z0.000000 I0.169607 J-0.104852
G03 X66.043864 Y5.841611 Z0.000000 I2.114004 J-0.359653
G03 X66.079150 Y5.617008 Z0.000000 I0.550877 J-0.028529
G03 X66.164771 Y5.523742 Z0.000000 I0.159807 J0.060773
G02 X66.212509 Y5.477077 Z0.000000 I-0.045315 J-0.094107
G01 X66.199711 Y5.455242 Z0.000000
G03 X66.090229 Y5.376116 Z0.000000 I0.005021 J-0.122253
G03 X66.119272 Y5.241561 Z0.000000 I0.118841 J-0.044761
G03 X66.188172 Y5.206733 Z0.000000 I0.087491 J0.087517
G01 X66.212762 Y5.227362 Z0.000000
G01 X66.234651 Y5.242867 Z0.000000
G02 X66.293142 Y5.201362 Z0.000000 I-0.036914 J-0.113988
G01 X66.349697 Y5.193489 Z0.000000
G03 X66.409959 Y5.289262 Z0.000000 I-0.095514 J0.126944
G03 X66.439486 Y5.481799 Z0.000000 I-2.098846 J0.420400
G03 X66.483807 Y5.978653 Z0.000000 I-14.023609 J1.501362
G02 X66.528438 Y6.472897 Z0.000000 I13.156378 J-0.938906
G02 X66.540905 Y6.501123 Z0.000000 I0.050742 J-0.005546
G01 X66.551746 Y6.497151 Z0.000000
G02 X66.562779 Y5.534323 Z0.000000 I-43.266646 J-0.977269
G03 X66.590514 Y4.547024 Z0.000000 I17.588392 J0.000062
G03 X66.631353 Y4.308743 Z0.000000 I1.064921 J0.059876
G01 X66.699604 Y4.074363 Z0.000000
G01 X66.746543 Y4.331484 Z0.000000
G01 X66.805306 Y4.360614 Z0.000000
G02 X66.858615 Y4.274584 Z0.000000 I-0.044098 J-0.086857
G01 X66.861816 Y3.898604 Z0.000000
G01 X66.976552 Y4.181314 Z0.000000
G03 X67.063133 Y4.461652 Z0.000000 I-1.582400 J0.642255
G03 X67.051741 Y4.528005 Z0.000000 I-0.087905 J0.019062
G02 X66.866858 Y5.082680 Z0.000000 I1.082900 J0.669099
G02 X66.989569 Y5.216964 Z0.000000 I0.122711 J0.011075
G01 X67.003554 Y5.205831 Z0.000000
G02 X67.117582 Y4.660325 Z0.000000 I-13.583027 J-3.123948
G03 X67.238012 Y4.122565 Z0.000000 I7.908628 J1.488757
G01 X67.262433 Y4.103685 Z0.000000
G01 X67.289981 Y4.121365 Z0.000000
G03 X67.436954 Y4.484546 Z0.000000 I-3.945160 J1.807866
G02 X67.589113 Y4.840378 Z0.000000 I2.821607 J-0.996112
G01 X67.629844 Y4.865407 Z0.000000
G01 X67.656021 Y4.843455 Z0.000000
G02 X67.647974 Y4.762867 Z0.000000 I-0.147044 J-0.026014
G03 X67.445234 Y4.175774 Z0.000000 I6.882954 J-2.705441
G01 X67.457705 Y4.126416 Z0.000000
G03 X67.769040 Y4.180287 Z0.000000 I0.136653 J0.136826
G03 X68.027302 Y5.326168 Z0.000000 I-2.412901 J1.145872
G02 X68.051106 Y5.429347 Z0.000000 I0.235514 J0.000001
G02 X68.149392 Y5.576679 Z0.000000 I0.592202 J-0.288614
G02 X68.210426 Y5.614820 Z0.000000 I0.094632 J-0.083524
G01 X68.225812 Y5.597779 Z0.000000
G03 X68.194171 Y5.477949 Z0.000000 I0.511117 J-0.199056
G03 X68.181263 Y5.292469 Z0.000000 I1.220031 J-0.178089
G02 X68.153160 Y5.124311 Z0.000000 I-0.498016 J-0.003198
G02 X68.104844 Y5.074578 Z0.000000 I-0.077901 J0.027347
G03 X68.053086 Y5.027100 Z0.000000 I0.034395 J-0.089447
G03 X68.027305 Y4.915308 Z0.000000 I0.229483 J-0.111791
G02 X68.013610 Y4.788232 Z0.000000 I-0.596425 J-0.000002
G02 X67.956086 Y4.588848 Z0.000000 I-1.532978 J0.334290
G03 X67.922269 Y4.395868 Z0.000000 I0.533707 J-0.192978
G03 X67.956087 Y4.277868 Z0.000000 I0.222779 J0.000001
G02 X68.004965 Y4.157446 Z0.000000 I-0.320466 J-0.200203
G02 X68.027308 Y3.948188 Z0.000000 I-0.968763 J-0.209262
G01 X68.057710 Y3.940698 Z0.000000
G03 X68.104308 Y4.094968 Z0.000000 I-0.378246 J0.198423
G02 X68.149357 Y4.402619 Z0.000000 I3.698885 J-0.384501
G02 X68.169996 Y4.441649 Z0.000000 I0.073578 J-0.013938
G01 X68.214857 Y4.424709 Z0.000000
G02 X68.215739 Y3.722789 Z0.000000 I-5.625399 J-0.358033
G03 X68.255079 Y3.345543 Z0.000000 I1.152757 J-0.070461
G01 X68.327508 Y3.317099 Z0.000000
G03 X68.362759 Y3.367592 Z0.000000 I-0.040785 J0.066025
G03 X68.363548 Y3.493509 Z0.000000 I-0.317951 J0.064952
G02 X68.361707 Y3.595748 Z0.000000 I0.295535 J0.056457
G01 X68.380657 Y3.604489 Z0.000000
G01 X68.411211 Y3.609862 Z0.000000
G03 X68.456137 Y3.700090 Z0.000000 I-0.192974 J0.152384
G02 X68.505181 Y3.779955 Z0.000000 I0.156105 J-0.040870
G01 X68.550687 Y3.783890 Z0.000000
G01 X68.597227 Y3.809286 Z0.000000
G03 X68.554386 Y3.986850 Z0.000000 I-0.361848 J0.006647
G02 X68.132642 Y4.955830 Z0.000000 I5.764044 J3.085041
G02 X68.193678 Y5.041219 Z0.000000 I0.061036 J0.020880
G01 X68.226707 Y5.021512 Z0.000000
G02 X68.375526 Y4.704299 Z0.000000 I-2.742191 J-1.479994
G03 X68.803981 Y3.726044 Z0.000000 I16.288692 J6.551151
G03 X68.855359 Y3.693561 Z0.000000 I0.051378 J0.024391
G01 X68.880635 Y3.717790 Z0.000000
G03 X68.882027 Y4.323441 Z0.000000 I-7.563873 J0.320205
G01 X68.940292 Y4.354700 Z0.000000
G02 X69.024556 Y4.220902 Z0.000000 I-0.122907 J-0.170839
G03 X69.085197 Y3.899256 Z0.000000 I17.114028 J3.060001
G03 X69.134943 Y3.664262 Z0.000000 I9.164782 J1.817355
G01 X69.161693 Y3.662633 Z0.000000
G03 X69.187263 Y3.810752 Z0.000000 I-0.413320 J0.147617
G02 X69.224817 Y4.160463 Z0.000000 I1.626500 J0.002207
G01 X69.264401 Y4.163722 Z0.000000
G03 X69.329087 Y4.092204 Z0.000000 I0.128622 J0.051321
G01 X69.376978 Y4.105123 Z0.000000
G01 X69.406472 Y4.100584 Z0.000000
G02 X69.439368 Y3.869343 Z0.000000 I-0.963546 J-0.255037
G03 X69.459595 Y3.664752 Z0.000000 I1.374283 J0.032569
G01 X69.475249 Y3.664263 Z0.000000
G01 X69.532225 Y3.687335 Z0.000000
G02 X69.571409 Y3.603263 Z0.000000 I-0.046077 J-0.072643
G01 X69.532440 Y3.312663 Z0.000000
G01 X69.748269 Y3.593644 Z0.000000
G03 X69.919895 Y3.885719 Z0.000000 I-1.088254 J0.835927
G03 X69.937971 Y4.033105 Z0.000000 I-0.242057 J0.104489
G02 X69.915595 Y4.192002 Z0.000000 I3.379598 J0.556948
G02 X69.907030 Y4.297565 Z0.000000 I1.481016 J0.173287
G03 X69.880373 Y4.362190 Z0.000000 I-0.102776 J-0.004584
G01 X69.843620 Y4.367364 Z0.000000
G01 X69.803152 Y4.363501 Z0.000000
G01 X69.785030 Y4.389764 Z0.000000
G02 X69.800084 Y4.439959 Z0.000000 I0.091206 J0.000000
G02 X69.850329 Y4.488764 Z0.000000 I0.135724 J-0.089461
G03 X69.901780 Y4.586993 Z0.000000 I-0.057177 J0.092537
G03 X69.801426 Y5.422114 Z0.000000 I-6.250405 J-0.327499
G02 X69.793172 Y5.553050 Z0.000000 I0.521214 J0.098585
G01 X69.809826 Y5.559784 Z0.000000
G02 X69.935324 Y5.345519 Z0.000000 I-0.283268 J-0.309800
G02 X70.017310 Y4.672135 Z0.000000 I-3.051770 J-0.713243
G03 X70.040029 Y4.513283 Z0.000000 I0.619532 J0.007557
G03 X70.113951 Y4.325245 Z0.000000 I0.949765 J0.264824
G01 X70.208512 Y4.142406 Z0.000000
G01 X70.372831 Y4.330606 Z0.000000
G03 X70.483347 Y4.530808 Z0.000000 I-0.406777 J0.355156
G03 X70.484359 Y4.702917 Z0.000000 I-0.293038 J0.087779
G02 X70.442617 Y4.884153 Z0.000000 I1.689683 J0.484585
G01 X70.449038 Y4.904497 Z0.000000
G02 X70.657195 Y4.854520 Z0.000000 I0.088756 J-0.088807
G02 X70.839716 Y3.703098 Z0.000000 I-3.540655 J-1.151435
G03 X70.899173 Y3.631621 Z0.000000 I0.072692 J0.000000
G03 X70.969940 Y3.678998 Z0.000000 I0.011102 J0.059958
G03 X70.969640 Y3.837153 Z0.000000 I-0.371546 J0.078372
G03 X70.799331 Y4.472868 Z0.000000 I-6.428381 J-1.381497
G02 X70.728846 Y4.749190 Z0.000000 I2.187782 J0.705220
G01 X70.739970 Y4.785318 Z0.000000
G01 X70.762640 Y4.780960 Z0.000000
G02 X70.905430 Y4.399958 Z0.000000 I-3.978331 J-1.708229
G03 X71.060268 Y4.026492 Z0.000000 I2.365047 J0.761716
G01 X71.106271 Y4.008909 Z0.000000
G01 X71.139218 Y3.987898 Z0.000000
G02 X71.144803 Y3.450369 Z0.000000 I-4.587407 J-0.316454
G03 X71.218297 Y2.674320 Z0.000000 I2.740771 J-0.131947
G03 X71.348765 Y2.605780 Z0.000000 I0.095331 J0.023021
G01 X71.395466 Y2.590140 Z0.000000
G02 X71.429775 Y2.475990 Z0.000000 I-0.192224 J-0.120006
G03 X71.453788 Y2.426897 Z0.000000 I0.065648 J0.001691
G01 X71.481125 Y2.433890 Z0.000000
G03 X71.500503 Y2.546995 Z0.000000 I-0.251186 J0.101246
G03 X71.472925 Y2.620580 Z0.000000 I-0.126788 J-0.005557
G02 X71.449151 Y2.692936 Z0.000000 I0.085353 J0.068128
G02 X71.480124 Y2.807150 Z0.000000 I0.263750 J-0.010218
G03 X71.527619 Y2.928038 Z0.000000 I-0.490111 J0.262329
G03 X71.542783 Y3.045280 Z0.000000 I-0.445622 J0.117241
G02 X71.565373 Y3.143746 Z0.000000 I0.225893 J0.000001
G01 X71.601373 Y3.166311 Z0.000000
G01 X71.637780 Y3.144108 Z0.000000
G02 X71.659963 Y3.052581 Z0.000000 I-0.177733 J-0.091528
G03 X71.678964 Y2.949407 Z0.000000 I0.289618 J0.000001
G03 X71.716634 Y2.903821 Z0.000000 I0.086180 J0.032857
G02 X71.746077 Y2.856931 Z0.000000 I-0.033116 J-0.053484
G02 X71.738595 Y2.695291 Z0.000000 I-0.533923 J-0.056277
G03 X71.788290 Y2.590431 Z0.000000 I0.095279 J-0.019051
G03 X71.895985 Y2.611692 Z0.000000 I0.040788 J0.076782
G03 X71.930441 Y2.706763 Z0.000000 I-0.114911 J0.095426
G03 X71.896648 Y2.860712 Z0.000000 I-0.363628 J0.000864
G02 X71.823077 Y3.020146 Z0.000000 I18.247263 J8.516858
G02 X71.783949 Y3.107741 Z0.000000 I5.543289 J2.528685
G02 X71.764478 Y3.198118 Z0.000000 I0.212773 J0.093128
G02 X71.780148 Y3.430001 Z0.000000 I1.466412 J0.017373
G01 X71.837299 Y3.446830 Z0.000000
G02 X71.959771 Y3.224932 Z0.000000 I-0.446774 J-0.391333
G01 X72.038252 Y2.961252 Z0.000000
G01 X72.070201 Y3.283522 Z0.000000
G01 X72.102139 Y3.605792 Z0.000000
G01 X72.149180 Y3.342113 Z0.000000
G03 X72.273554 Y2.943749 Z0.000000 I1.633065 J0.291266
G03 X72.344527 Y2.914753 Z0.000000 I0.050918 J0.023275
G03 X72.394239 Y2.976281 Z0.000000 I-0.028308 J0.073719
G03 X72.402036 Y3.282823 Z0.000000 I-1.172340 J0.183186
G03 X72.358212 Y3.613547 Z0.000000 I-6.020787 J-0.629545
G03 X72.330524 Y3.727823 Z0.000000 I-0.741101 J-0.119067
G01 X72.337676 Y3.754457 Z0.000000
G01 X72.357894 Y3.752323 Z0.000000
G03 X72.420630 Y3.720440 Z0.000000 I0.062735 J0.045779
G03 X72.479711 Y3.752324 Z0.000000 I-0.000000 J0.070682
G03 X72.531459 Y3.924397 Z0.000000 I-0.263776 J0.173144
G03 X72.480595 Y4.015994 Z0.000000 I-0.107251 J0.000364
G02 X72.436360 Y4.060225 Z0.000000 I0.071400 J0.115640
G02 X72.422005 Y4.110793 Z0.000000 I0.081888 J0.050569
G01 X72.440360 Y4.136439 Z0.000000
G02 X72.483165 Y4.131594 Z0.000000 I0.016271 J-0.047758
G03 X72.542411 Y4.121318 Z0.000000 I0.042411 J0.068593
G03 X72.626738 Y4.162194 Z0.000000 I-0.040974 J0.191950
G01 X72.664216 Y4.151062 Z0.000000
G02 X72.675139 Y4.006104 Z0.000000 I-0.310442 J-0.096283
G02 X72.625997 Y3.788852 Z0.000000 I-1.529267 J0.231732
G02 X72.590160 Y3.725954 Z0.000000 I-0.156362 J0.047431
G03 X72.559631 Y3.662407 Z0.000000 I0.089777 J-0.082236
G03 X72.540091 Y3.403694 Z0.000000 I1.629852 J-0.253196
G03 X72.567913 Y3.228911 Z0.000000 I0.575312 J0.001974
G01 X72.597792 Y3.224984 Z0.000000
G03 X72.636984 Y3.318177 Z0.000000 I-0.242398 J0.156780
G03 X72.657351 Y3.488654 Z0.000000 I-0.812954 J0.183576
G02 X72.683860 Y3.656284 Z0.000000 I0.606717 J-0.010037
G02 X72.746140 Y3.778165 Z0.000000 I0.375298 J-0.114921
G03 X72.809999 Y3.899531 Z0.000000 I-0.337515 J0.255075
G03 X72.833949 Y4.041845 Z0.000000 I-0.443891 J0.147873
G02 X72.862941 Y4.088257 Z0.000000 I0.052724 J-0.000674
G01 X72.902619 Y4.076445 Z0.000000
G02 X72.960769 Y3.888706 Z0.000000 I-0.380887 J-0.220850
G02 X73.007699 Y2.682986 Z0.000000 I-16.544118 J-1.247715
G03 X73.028922 Y2.601497 Z0.000000 I0.167058 J0.000001
G01 X73.064799 Y2.580446 Z0.000000
G01 X73.095208 Y2.605376 Z0.000000
G03 X73.108738 Y2.800176 Z0.000000 I-0.749775 J0.149945
G02 X73.156236 Y2.958740 Z0.000000 I0.241161 J0.014156
G02 X73.263676 Y3.007946 Z0.000000 I0.098693 J-0.073592
G01 X73.431519 Y2.996047 Z0.000000
G01 X73.390257 Y3.491397 Z0.000000
G02 X73.381528 Y3.956826 Z0.000000 I3.607104 J0.300447
G01 X73.412845 Y3.986747 Z0.000000
G01 X73.452680 Y3.961190 Z0.000000
G02 X73.486716 Y3.825617 Z0.000000 I-0.347248 J-0.159235
G03 X73.497799 Y3.664582 Z0.000000 I11.990275 J0.744359
G03 X73.507727 Y3.547297 Z0.000000 I6.517189 J0.492573
G02 X73.517265 Y3.429957 Z0.000000 I-5.030796 J-0.467999
G02 X73.526988 Y3.268977 Z0.000000 I-8.806133 J-0.612646
G03 X73.573086 Y3.147644 Z0.000000 I0.211232 J0.010830
G03 X73.655931 Y3.107838 Z0.000000 I0.082845 J0.066304
G03 X73.724422 Y3.136196 Z0.000000 I-0.000000 J0.096890
G01 X73.729171 Y3.181038 Z0.000000
G02 X73.699997 Y3.259710 Z0.000000 I0.162072 J0.104845
G02 X73.681070 Y3.532608 Z0.000000 I2.031307 J0.277994
G02 X73.719679 Y3.771689 Z0.000000 I0.745358 J0.002289
G02 X73.774209 Y3.810928 Z0.000000 I0.054530 J-0.018270
G02 X73.849359 Y3.781901 Z0.000000 I0.000000 J-0.111792
G02 X73.934258 Y3.665599 Z0.000000 I-0.240053 J-0.264375
G03 X74.074794 Y3.592085 Z0.000000 I0.117495 J0.053527
G03 X74.197707 Y3.713400 Z0.000000 I-0.027314 J0.150597
G01 X74.211594 Y3.713041 Z0.000000
G02 X74.230428 Y3.482810 Z0.000000 I-1.928179 J-0.273618
G03 X74.321231 Y2.832545 Z0.000000 I2.826773 J0.063259
G03 X74.419923 Y2.756290 Z0.000000 I0.098692 J0.025738
G03 X74.458688 Y2.770458 Z0.000000 I-0.000000 J0.060117
G01 X74.472783 Y2.800791 Z0.000000
G02 X74.485659 Y2.840286 Z0.000000 I0.067012 J0.000000
G02 X74.625224 Y3.009741 Z0.000000 I1.511767 J-1.102911
G03 X74.732813 Y3.188801 Z0.000000 I-0.373299 J0.346150
G03 X74.753697 Y3.379482 Z0.000000 I-0.405504 J0.140897
G01 X74.729726 Y3.584812 Z0.000000
G01 X74.832699 Y3.448852 Z0.000000
G03 X74.935719 Y3.391212 Z0.000000 I0.117374 J0.088899
G03 X75.024629 Y3.430053 Z0.000000 I0.009696 J0.098987
G02 X75.099043 Y3.501460 Z0.000000 I0.263653 J-0.200277
G01 X75.115449 Y3.493253 Z0.000000
G02 X75.102758 Y3.444549 Z0.000000 I-0.089551 J-0.002672
G02 X75.015549 Y3.326833 Z0.000000 I-0.642292 J0.384673
G03 X74.974620 Y3.220605 Z0.000000 I0.117388 J-0.106227
G03 X75.015550 Y3.139973 Z0.000000 I0.099889 J0.000000
G02 X75.100170 Y3.056879 Z0.000000 I-0.241751 J-0.330828
G02 X75.117309 Y3.005953 Z0.000000 I-0.067092 J-0.050927
G03 X75.133056 Y2.953737 Z0.000000 I0.094449 J0.000000
G03 X75.205200 Y2.873403 Z0.000000 I0.309317 J0.205221
G01 X75.269940 Y2.880473 Z0.000000
G03 X75.302330 Y2.998344 Z0.000000 I-0.126075 J0.098030
G02 X75.298556 Y3.035521 Z0.000000 I0.723348 J0.092194
G02 X75.283419 Y3.247363 Z0.000000 I25.310504 J1.915080
G03 X75.249866 Y3.438739 Z0.000000 I-0.916965 J-0.062136
G01 X75.222518 Y3.459343 Z0.000000
G01 X75.196325 Y3.479769 Z0.000000
G02 X75.175897 Y3.644893 Z0.000000 I0.657193 J0.165126
G02 X75.194841 Y3.784685 Z0.000000 I0.525239 J0.000002
G01 X75.216047 Y3.790283 Z0.000000
G02 X75.348403 Y3.576130 Z0.000000 I-0.387413 J-0.387415
G02 X75.409385 Y3.210324 Z0.000000 I-1.128103 J-0.376048
G03 X75.433432 Y3.131089 Z0.000000 I0.148318 J0.001747
G03 X75.476435 Y3.107784 Z0.000000 I0.043003 J0.028023
G03 X75.656126 Y3.298924 Z0.000000 I-0.000001 J0.180034
G03 X75.420432 Y4.014824 Z0.000000 I-1.483586 J-0.091689
G02 X75.389365 Y4.078047 Z0.000000 I0.252976 J0.163552
G02 X75.316569 Y4.308954 Z0.000000 I3.344429 J1.181306
G03 X75.246542 Y4.541627 Z0.000000 I-5.549539 J-1.543353
G03 X75.207372 Y4.645873 Z0.000000 I-1.152196 J-0.373451
G02 X75.198340 Y4.725344 Z0.000000 I0.127375 J0.054724
G01 X75.225971 Y4.748413 Z0.000000
G01 X75.268923 Y4.722775 Z0.000000
G02 X75.351016 Y4.516504 Z0.000000 I-0.846046 J-0.456184
G03 X75.429314 Y4.296408 Z0.000000 I1.434298 J0.386271
G03 X75.470467 Y4.249374 Z0.000000 I0.097057 J0.043401
G01 X75.517036 Y4.279297 Z0.000000
G03 X75.433426 Y4.543334 Z0.000000 I-0.761751 J-0.095960
G02 X75.349400 Y4.723071 Z0.000000 I1.732090 J0.919251
G02 X75.254504 Y4.982783 Z0.000000 I3.520968 J1.433723
G02 X75.116438 Y5.498743 Z0.000000 I4.842494 J1.572250
G01 X75.141826 Y5.514083 Z0.000000
G02 X75.199621 Y5.436560 Z0.000000 I-0.131226 J-0.158138
G02 X75.316272 Y5.105044 Z0.000000 I-2.496553 J-1.064746
G03 X75.434654 Y4.774658 Z0.000000 I2.397860 J0.672782
G03 X75.499497 Y4.688714 Z0.000000 I0.214483 J0.094391
G02 X75.564876 Y4.606936 Z0.000000 I-0.165140 J-0.199047
G02 X75.586057 Y4.518585 Z0.000000 I-0.173676 J-0.088352
G03 X75.600459 Y4.425688 Z0.000000 I0.306816 J0.000001
G03 X75.634968 Y4.364625 Z0.000000 I0.162798 J0.051719
G02 X76.089279 Y3.539360 Z0.000000 I-1.638653 J-1.439767
G02 X76.022558 Y3.044406 Z0.000000 I-0.588167 J-0.172688
G01 X76.021454 Y3.008508 Z0.000000
G01 X76.051359 Y2.990606 Z0.000000
G03 X76.119592 Y3.055582 Z0.000000 I-0.000000 J0.068315
G03 X76.097235 Y3.928106 Z0.000000 I-5.854776 J0.286531
G03 X75.936030 Y4.953048 Z0.000000 I-9.241220 J-0.928335
G03 X75.844154 Y5.104605 Z0.000000 I-0.264969 J-0.057000
G02 X75.785868 Y5.213291 Z0.000000 I0.104710 J0.126126
G01 X75.829584 Y5.240815 Z0.000000
G01 X75.859410 Y5.253530 Z0.000000
G03 X75.860343 Y5.383846 Z0.000000 I-0.313553 J0.067407
G02 X75.848723 Y5.547938 Z0.000000 I0.637577 J0.127606
G01 X75.870723 Y5.568736 Z0.000000
G01 X75.903038 Y5.552322 Z0.000000
G02 X75.924243 Y5.495536 Z0.000000 I-0.090613 J-0.066188
G03 X75.984986 Y5.186195 Z0.000000 I1.430326 J0.120232
G03 X76.136595 Y4.818436 Z0.000000 I2.181872 J0.684349
G02 X76.235615 Y4.508650 Z0.000000 I-0.859490 J-0.445445
G02 X76.293695 Y3.708427 Z0.000000 I-5.833520 J-0.825616
G03 X76.329824 Y3.200375 Z0.000000 I3.838738 J0.017671
G01 X76.368777 Y3.166437 Z0.000000
G03 X76.511960 Y3.236632 Z0.000000 I-0.000001 J0.181132
G03 X76.582151 Y3.441828 Z0.000000 I-0.264839 J0.205195
G02 X76.601762 Y3.556975 Z0.000000 I0.347851 J0.000001
G01 X76.629440 Y3.576598 Z0.000000
G01 X76.664129 Y3.594955 Z0.000000
G03 X76.739034 Y3.737729 Z0.000000 I-0.585076 J0.397991
G01 X76.801343 Y3.898859 Z0.000000
G01 X76.807844 Y3.752379 Z0.000000
G02 X76.813968 Y3.605843 Z0.000000 I-25.519757 J-1.139930
G02 X76.818055 Y3.489699 Z0.000000 I-15.589892 J-0.606714
G03 X76.922054 Y3.202609 Z0.000000 I0.491859 J0.015795
G03 X77.116282 Y3.107850 Z0.000000 I0.194227 J0.151675
G01 X77.145455 Y3.127522 Z0.000000
G03 X77.216980 Y3.356870 Z0.000000 I-1.360529 J0.550123
G01 X77.272739 Y3.605890 Z0.000000
G01 X77.280640 Y3.371520 Z0.000000
G01 X77.288541 Y3.137141 Z0.000000
G01 X77.550085 Y3.430111 Z0.000000
G03 X77.781457 Y3.734797 Z0.000000 I-1.800514 J1.607466
G03 X77.813071 Y3.840272 Z0.000000 I-0.168331 J0.107929
G02 X77.829489 Y3.952904 Z0.000000 I0.435595 J-0.005985
G02 X77.871310 Y4.045353 Z0.000000 I0.328719 J-0.093019
G01 X77.906687 Y4.050283 Z0.000000
G02 X77.938120 Y3.986753 Z0.000000 I-0.061301 J-0.069871
G02 X77.943159 Y3.840244 Z0.000000 I-2.166724 J-0.147861
G02 X77.938121 Y3.693783 Z0.000000 I-2.093600 J-0.001303
G01 X77.928222 Y3.547293 Z0.000000
G01 X78.045900 Y3.685243 Z0.000000
G03 X78.134468 Y3.825418 Z0.000000 I-0.443778 J0.378466
G03 X78.131129 Y3.875683 Z0.000000 I-0.049108 J0.021982
G01 X78.131067 Y3.925833 Z0.000000
G02 X78.336525 Y4.210264 Z0.000000 I1.995264 J-1.224855
G03 X78.555217 Y4.499337 Z0.000000 I-2.623198 J2.211779
G03 X78.574366 Y4.561815 Z0.000000 I-0.092346 J0.062478
G02 X78.596826 Y4.608836 Z0.000000 I0.060451 J0.000000
G02 X78.660416 Y4.631315 Z0.000000 I0.063590 J-0.078705
G02 X78.710385 Y4.606504 Z0.000000 I0.000000 J-0.062723
G02 X78.717566 Y4.556016 Z0.000000 I-0.041778 J-0.031697
G03 X78.711291 Y4.480201 Z0.000000 I0.126677 J-0.048651
G03 X78.804368 Y4.131216 Z0.000000 I2.995521 J0.612014
G01 X78.920076 Y3.781736 Z0.000000
G01 X78.885575 Y4.074706 Z0.000000
G03 X78.837715 Y4.360361 Z0.000000 I-2.947649 J-0.347019
G03 X78.815264 Y4.396976 Z0.000000 I-0.063772 J-0.013914
G02 X78.794177 Y4.433514 Z0.000000 I0.037671 J0.046095
G02 X78.772373 Y4.660646 Z0.000000 I1.719634 J0.279692
G03 X78.758368 Y4.894466 Z0.000000 I-3.958981 J-0.119788
G03 X78.722461 Y5.217286 Z0.000000 I-7.566400 J-0.678214
G01 X78.782178 Y5.241775 Z0.000000
G02 X78.886331 Y5.000016 Z0.000000 I-0.443116 J-0.334216
G03 X78.987600 Y4.646144 Z0.000000 I1.633137 J0.275932
G01 X79.042076 Y4.621207 Z0.000000
G01 X79.058180 Y4.606467 Z0.000000
G02 X79.024056 Y4.545307 Z0.000000 I-0.125189 J0.029749
G03 X78.950008 Y4.433878 Z0.000000 I0.239801 J-0.239675
G03 X78.949237 Y4.362166 Z0.000000 I0.090130 J-0.036829
G02 X78.969766 Y4.281763 Z0.000000 I-0.332901 J-0.127820
G02 X79.019959 Y3.834897 Z0.000000 I-10.360099 J-1.389921
G01 X79.060650 Y3.385917 Z0.000000
G01 X79.167778 Y3.525227 Z0.000000
G01 X79.204915 Y3.512106 Z0.000000
G02 X79.162878 Y3.319067 Z0.000000 I-0.521038 J0.012365
G03 X79.086493 Y3.046256 Z0.000000 I0.989565 J-0.424173
G03 X79.083150 Y2.757577 Z0.000000 I1.106885 J-0.157174
G03 X79.140794 Y2.489012 Z0.000000 I1.460677 J0.173044
G01 X79.175751 Y2.463367 Z0.000000
G01 X79.203615 Y2.487878 Z0.000000
G03 X79.198351 Y2.639147 Z0.000000 I-0.463535 J0.059595
G02 X79.192826 Y2.790651 Z0.000000 I0.463822 J0.092766
G01 X79.220330 Y2.814927 Z0.000000
G01 X79.252801 Y2.790265 Z0.000000
G02 X79.277461 Y2.609847 Z0.000000 I-0.647686 J-0.180420
G03 X79.348724 Y2.523879 Z0.000000 I0.087486 J0.000000
G03 X79.432735 Y2.580548 Z0.000000 I0.013360 J0.070800
G02 X79.485222 Y2.735197 Z0.000000 I0.618142 J-0.123562
G01 X79.519164 Y2.756328 Z0.000000
G01 X79.547959 Y2.778811 Z0.000000
G03 X79.570434 Y2.961408 Z0.000000 I-0.730496 J0.182595
G02 X79.594906 Y3.142022 Z0.000000 I0.678702 J0.000002
G01 X79.627043 Y3.166489 Z0.000000
G01 X79.654923 Y3.140040 Z0.000000
G02 X79.649044 Y2.749019 Z0.000000 I-2.886662 J-0.152160
G03 X79.655332 Y2.383775 Z0.000000 I1.825192 J-0.151254
G01 X79.694976 Y2.358679 Z0.000000
G03 X79.747744 Y2.406099 Z0.000000 I-0.028527 J0.084815
G03 X79.778195 Y2.539569 Z0.000000 I-0.302839 J0.139300
G02 X79.795165 Y2.687280 Z0.000000 I0.779671 J-0.014743
G02 X79.819354 Y2.731809 Z0.000000 I0.087317 J-0.018598
G02 X79.916075 Y2.727809 Z0.000000 I0.046518 J-0.046549
G02 X80.059725 Y2.448130 Z0.000000 I-0.529258 J-0.448571
G01 X80.134663 Y2.429334 Z0.000000
G03 X80.193308 Y2.595201 Z0.000000 I-0.168185 J0.152765
G02 X80.217057 Y2.727157 Z0.000000 I0.286501 J0.016553
G01 X80.251207 Y2.727031 Z0.000000
G01 X80.290695 Y2.732706 Z0.000000
G03 X80.275387 Y2.925811 Z0.000000 I-0.483593 J0.058823
G01 X80.304123 Y2.946155 Z0.000000
G02 X80.375535 Y2.854611 Z0.000000 I-0.117537 J-0.165315
G01 X80.402444 Y2.854747 Z0.000000
G03 X80.415985 Y2.961451 Z0.000000 I-0.215384 J0.081544
G02 X80.408765 Y3.251134 Z0.000000 I1.705922 J0.187448
G02 X80.442143 Y3.400902 Z0.000000 I0.481667 J-0.028744
G01 X80.475420 Y3.408350 Z0.000000
G02 X80.505033 Y3.342202 Z0.000000 I-0.063656 J-0.068200
G03 X80.519415 Y3.138542 Z0.000000 I2.112262 J0.046826
G03 X80.545674 Y3.002242 Z0.000000 I0.964806 J0.115197
G01 X80.581795 Y2.867362 Z0.000000
G01 X80.717353 Y2.994703 Z0.000000
G01 X80.852903 Y3.122053 Z0.000000
G01 X80.790234 Y2.917853 Z0.000000
G03 X80.760664 Y2.717439 Z0.000000 I0.642558 J-0.197194
G03 X80.791735 Y2.603123 Z0.000000 I0.229881 J0.001101
G01 X80.828931 Y2.595121 Z0.000000
G03 X80.857715 Y2.650323 Z0.000000 I-0.040030 J0.055978
G02 X80.880684 Y2.796006 Z0.000000 I0.506244 J-0.005166
G02 X80.918084 Y2.844203 Z0.000000 I0.083238 J-0.025982
G03 X80.953681 Y2.893223 Z0.000000 I-0.041900 J0.067861
G03 X80.976673 Y3.085123 Z0.000000 I-0.789297 J0.191898
G02 X81.070894 Y3.935886 Z0.000000 I3.887957 J0.000014
G02 X81.211831 Y4.133754 Z0.000000 I0.305573 J-0.068525
G01 X81.230572 Y4.123197 Z0.000000
G02 X81.210531 Y3.984564 Z0.000000 I-0.522466 J0.004764
G03 X81.179248 Y3.805198 Z0.000000 I0.820939 J-0.235592
G03 X81.192772 Y3.715804 Z0.000000 I0.210432 J-0.013883
G02 X81.203232 Y3.628275 Z0.000000 I-0.167965 J-0.064462
G02 X81.164843 Y3.499434 Z0.000000 I-0.415828 J0.053760
G03 X81.117751 Y3.367303 Z0.000000 I0.582583 J-0.282090
G03 X81.074314 Y3.119364 Z0.000000 I2.029430 J-0.483315
G03 X81.146038 Y3.057784 Z0.000000 I0.056762 J-0.006447
G03 X81.263707 Y3.170764 Z0.000000 I-0.044553 J0.164168
G02 X81.347514 Y3.429493 Z0.000000 I17.077393 J-5.388763
G02 X81.388861 Y3.547345 Z0.000000 I3.576582 J-1.188608
G03 X81.561068 Y4.249988 Z0.000000 I-2.992246 J1.105780
G03 X81.545624 Y4.777815 Z0.000000 I-1.686126 J0.214805
G02 X81.544020 Y4.901957 Z0.000000 I0.355827 J0.066680
G01 X81.566284 Y4.906335 Z0.000000
G02 X81.609168 Y4.793554 Z0.000000 I-0.280749 J-0.171297
G02 X81.661636 Y4.378986 Z0.000000 I-3.882213 J-0.701935
G02 X81.648063 Y3.963871 Z0.000000 I-1.965035 J-0.143530
G02 X81.549969 Y3.576645 Z0.000000 I-1.804907 J0.251188
G03 X81.448858 Y3.193257 Z0.000000 I1.858893 J-0.695274
G03 X81.456732 Y2.990705 Z0.000000 I0.512280 J-0.081516
G03 X81.505964 Y2.785639 Z0.000000 I1436.753571 J344.827623
G03 X81.532383 Y2.675795 Z0.000000 I166.090042 J39.887978
G03 X81.569741 Y2.570690 Z0.000000 I0.516033 J0.124226
G03 X81.656297 Y2.417186 Z0.000000 I1.193324 J0.571718
G02 X81.743796 Y2.263631 Z0.000000 I-1.188789 J-0.779113
G02 X81.803509 Y2.116866 Z0.000000 I-1.026982 J-0.503364
G01 X81.820026 Y2.118730 Z0.000000
G03 X81.818648 Y2.280426 Z0.000000 I-0.799925 J0.074035
G02 X81.818808 Y2.540488 Z0.000000 I1.177850 J0.129308
G01 X81.849177 Y2.555286 Z0.000000
G02 X81.894084 Y2.503096 Z0.000000 I-0.059726 J-0.096806
G02 X81.921098 Y2.386667 Z0.000000 I-0.315609 J-0.134576
G01 X81.938145 Y2.362216 Z0.000000
G01 X81.956718 Y2.371367 Z0.000000
G02 X81.998690 Y2.476946 Z0.000000 I0.428320 J-0.109144
G02 X82.062021 Y2.560897 Z0.000000 I0.331641 J-0.184319
G03 X82.111334 Y2.650199 Z0.000000 I-0.130329 J0.130235
G03 X82.179769 Y3.077738 Z0.000000 I-3.234051 J0.736914
G02 X82.237070 Y3.500470 Z0.000000 I5.146573 J-0.482360
G01 X82.258098 Y3.518088 Z0.000000
G01 X82.294154 Y3.480863 Z0.000000
G02 X82.232201 Y2.712418 Z0.000000 I-7.979876 J0.256630
G03 X82.225696 Y2.430401 Z0.000000 I1.325451 J-0.171654
G01 X82.258412 Y2.396018 Z0.000000
G03 X82.425684 Y2.424339 Z0.000000 I0.037879 J0.284413
G03 X82.499215 Y2.517649 Z0.000000 I-0.063492 J0.125661
G02 X82.617094 Y2.595560 Z0.000000 I0.100344 J-0.023688
G02 X82.791251 Y2.467250 Z0.000000 I-0.041100 J-0.238133
G03 X82.918912 Y2.239071 Z0.000000 I3.039745 J1.550861
G01 X82.936776 Y2.229050 Z0.000000
G01 X82.954510 Y2.239157 Z0.000000
G03 X83.089711 Y2.487231 Z0.000000 I-3.392883 J2.010014
G03 X83.170836 Y2.748468 Z0.000000 I-0.758240 J0.378680
G03 X83.152420 Y2.935431 Z0.000000 I-0.395888 J0.055392
G02 X83.141253 Y3.136631 Z0.000000 I0.344249 J0.120015
G01 X83.205009 Y3.165671 Z0.000000
G02 X83.287982 Y3.092455 Z0.000000 I-0.113901 J-0.212704
G01 X83.289439 Y3.046422 Z0.000000
G01 X83.289343 Y3.009896 Z0.000000
G01 X83.323360 Y2.990822 Z0.000000
G01 X83.358533 Y2.968026 Z0.000000
G02 X83.360150 Y2.908622 Z0.000000 I-0.070733 J-0.031649
G03 X83.385925 Y2.820137 Z0.000000 I0.071105 J-0.027284
G03 X83.476253 Y2.822622 Z0.000000 I0.043579 J0.058837
G01 X83.510373 Y2.813262 Z0.000000
G02 X83.518264 Y2.704922 Z0.000000 I-0.191662 J-0.068416
G03 X83.515274 Y2.549553 Z0.000000 I0.429773 J-0.085982
G01 X83.547594 Y2.522002 Z0.000000
G01 X83.589241 Y2.547035 Z0.000000
G03 X83.617634 Y2.653833 Z0.000000 I-0.215356 J0.114425
G01 X83.639721 Y2.682359 Z0.000000
G01 X83.667934 Y2.668533 Z0.000000
G01 X83.705649 Y2.658893 Z0.000000
G03 X83.756473 Y2.742333 Z0.000000 I-0.096843 J0.116187
G02 X83.815090 Y2.894768 Z0.000000 I0.537796 J-0.119315
G01 X83.847653 Y2.903103 Z0.000000
G01 X83.883926 Y2.909139 Z0.000000
G03 X83.955442 Y3.034434 Z0.000000 I-0.332237 J0.272695
G02 X83.998933 Y3.096069 Z0.000000 I0.135605 J-0.049524
G01 X84.019042 Y3.087134 Z0.000000
G03 X84.052636 Y3.022494 Z0.000000 I0.085942 J0.003615
G03 X84.115162 Y3.013434 Z0.000000 I0.039355 J0.051313
G02 X84.172750 Y3.003978 Z0.000000 I0.020713 J-0.053939
G02 X84.196303 Y2.946435 Z0.000000 I-0.042146 J-0.050843
G03 X84.210843 Y2.634785 Z0.000000 I1.054690 J-0.106957
G01 X84.262034 Y2.612445 Z0.000000
G03 X84.298057 Y2.660115 Z0.000000 I-0.043528 J0.070340
G03 X84.295023 Y2.728245 Z0.000000 I-0.103590 J0.029520
G02 X84.337287 Y2.844730 Z0.000000 I0.088268 J0.033884
G02 X84.497692 Y2.841086 Z0.000000 I0.077098 J-0.138431
G02 X84.530098 Y2.796486 Z0.000000 I-0.038142 J-0.061786
G02 X84.551283 Y2.621176 Z0.000000 I-0.724390 J-0.176473
G01 X84.551283 Y2.434196 Z0.000000
G01 X84.756079 Y2.657187 Z0.000000
G03 X84.905499 Y2.945335 Z0.000000 I-0.457212 J0.419905
G03 X84.858335 Y3.127997 Z0.000000 I-0.204922 J0.044508
G02 X84.834611 Y3.191094 Z0.000000 I0.072045 J0.063097
G01 X84.858335 Y3.207697 Z0.000000
G03 X84.921701 Y3.226020 Z0.000000 I0.019157 J0.052481
G03 X84.960873 Y3.340787 Z0.000000 I-0.148538 J0.114767
G02 X84.982875 Y3.499028 Z0.000000 I0.580031 J0.000002
G02 X85.019463 Y3.547478 Z0.000000 I0.080660 J-0.022873
G01 X85.052844 Y3.538482 Z0.000000
G02 X85.078053 Y3.437568 Z0.000000 I-0.189387 J-0.100915
G03 X85.156006 Y3.051313 Z0.000000 I0.995934 J0.000003
G03 X85.253726 Y3.020068 Z0.000000 I0.062227 J0.026183
G01 X85.291238 Y3.018100 Z0.000000
G02 X85.312427 Y2.974869 Z0.000000 I-0.033510 J-0.043232
G03 X85.338120 Y2.908804 Z0.000000 I0.097781 J0.000000
G03 X85.458912 Y2.815029 Z0.000000 I0.335490 J0.307461
G02 X85.587950 Y2.726184 Z0.000000 I-0.331239 J-0.619215
G02 X85.605398 Y2.687940 Z0.000000 I-0.033190 J-0.038244
G01 X85.623461 Y2.657286 Z0.000000
G03 X85.693288 Y2.639240 Z0.000000 I0.069826 J0.126069
G03 X85.744323 Y2.676930 Z0.000000 I-0.000000 J0.053398
G03 X85.787977 Y2.946850 Z0.000000 I-0.948117 J0.291827
G02 X85.805745 Y3.136977 Z0.000000 I1.339535 J-0.029289
G01 X85.819556 Y3.137280 Z0.000000
G03 X85.844404 Y3.020062 Z0.000000 I120.806105 J25.547648
G03 X85.872477 Y2.888261 Z0.000000 I137.667823 J29.253117
G03 X85.950825 Y2.831238 Z0.000000 I0.070941 J0.015135
G03 X86.015562 Y2.902961 Z0.000000 I-0.007363 J0.071723
G01 X86.077199 Y2.936692 Z0.000000
G02 X86.168369 Y2.805162 Z0.000000 I-0.112007 J-0.175000
G03 X86.299436 Y2.678528 Z0.000000 I0.159728 J0.034175
G03 X86.426439 Y2.759162 Z0.000000 I0.019530 J0.109575
G01 X86.492308 Y3.003783 Z0.000000
G01 X86.631030 Y2.873473 Z0.000000
G01 X86.769751 Y2.743154 Z0.000000
G01 X86.949299 Y2.871004 Z0.000000
G03 X87.100542 Y3.013808 Z0.000000 I-0.438361 J0.615759
G03 X87.130923 Y3.097405 Z0.000000 I-0.107854 J0.086516
G01 X87.153997 Y3.111020 Z0.000000
G02 X87.210953 Y3.055305 Z0.000000 I-0.064719 J-0.123131
G03 X87.289083 Y2.996205 Z0.000000 I0.105754 J0.058612
G03 X87.349457 Y3.022806 Z0.000000 I0.012528 J0.053382
G01 X87.375777 Y3.018695 Z0.000000
G02 X87.386368 Y2.841216 Z0.000000 I-0.619918 J-0.126048
G01 X87.362729 Y2.551436 Z0.000000
G01 X87.482663 Y2.785806 Z0.000000
G01 X87.602593 Y3.020187 Z0.000000
G01 X87.564135 Y2.697916 Z0.000000
G01 X87.525676 Y2.375646 Z0.000000
G01 X87.653779 Y2.536787 Z0.000000
G02 X87.810535 Y2.601099 Z0.000000 I0.135897 J-0.108042
G02 X87.895847 Y2.507488 Z0.000000 I-0.011655 J-0.096301
G01 X87.901148 Y2.317058 Z0.000000
G01 X87.959487 Y2.520458 Z0.000000
G03 X87.983706 Y2.705876 Z0.000000 I-0.603486 J0.173118
G01 X87.955086 Y2.744778 Z0.000000
G01 X87.932095 Y2.781845 Z0.000000
G02 X87.982366 Y2.939818 Z0.000000 I0.487704 J-0.068215
G03 X88.043434 Y3.252877 Z0.000000 I-0.504538 J0.260906
G03 X87.945224 Y3.342448 Z0.000000 I-0.098209 J-0.009056
G02 X87.905193 Y3.357054 Z0.000000 I-0.000000 J0.062160
G01 X87.890584 Y3.388448 Z0.000000
G01 X87.909230 Y3.415799 Z0.000000
G02 X88.007772 Y3.434448 Z0.000000 I0.098543 J-0.251027
G02 X88.102171 Y3.411529 Z0.000000 I0.000001 J-0.205859
G01 X88.125358 Y3.373748 Z0.000000
G03 X88.146187 Y3.324145 Z0.000000 I0.069480 J0.000000
G03 X88.315788 Y3.186569 Z0.000000 I0.813050 J0.828983
G03 X88.689438 Y3.069628 Z0.000000 I0.387176 J0.581692
G03 X88.791498 Y3.177571 Z0.000000 I0.001944 J0.100383
G02 X88.825426 Y3.232005 Z0.000000 I0.054072 J0.004088
G02 X88.985467 Y3.255171 Z0.000000 I0.128009 J-0.319933
G03 X89.159407 Y3.282215 Z0.000000 I0.033282 J0.358839
G03 X89.239781 Y3.362802 Z0.000000 I-0.059033 J0.139251
G02 X89.430453 Y3.682079 Z0.000000 I1.221205 J-0.512731
G01 X89.500553 Y3.685803 Z0.000000
G01 X89.504974 Y3.654820 Z0.000000
G02 X89.350301 Y3.412713 Z0.000000 I-1.919852 J1.056053
G01 X89.170904 Y3.168772 Z0.000000
G01 X89.336410 Y3.023183 Z0.000000
G03 X89.508208 Y2.893560 Z0.000000 I0.945763 J1.074824
G03 X89.565752 Y2.875753 Z0.000000 I0.060810 J0.094632
G02 X89.615366 Y2.852549 Z0.000000 I-0.001712 J-0.068304
G02 X89.696329 Y2.727424 Z0.000000 I-0.383162 J-0.336684
G03 X89.818523 Y2.671759 Z0.000000 I0.093100 J0.042419
G03 X89.893895 Y2.786025 Z0.000000 I-0.030236 J0.101936
G02 X89.945263 Y2.895934 Z0.000000 I0.114635 J0.013382
G01 X90.018552 Y2.867725 Z0.000000
G03 X90.119618 Y2.824804 Z0.000000 I0.067099 J0.017547
G03 X90.245942 Y2.995466 Z0.000000 I-0.127006 J0.226092
G03 X90.211019 Y3.894773 Z0.000000 I-1.747725 J0.382462
G03 X89.752250 Y4.631554 Z0.000000 I-1.593020 J-0.480700
G02 X89.657379 Y4.748197 Z0.000000 I0.373732 J0.400873
G01 X89.661389 Y4.781424 Z0.000000
G02 X89.977771 Y4.735000 Z0.000000 I0.140920 J-0.140919
G02 X90.234333 Y3.717526 Z0.000000 I-1.889302 J-1.017482
G03 X90.252222 Y3.659235 Z0.000000 I0.103917 J0.000000
G01 X90.275313 Y3.657026 Z0.000000
G03 X90.297069 Y3.705522 Z0.000000 I-0.052700 J0.052770
G03 X90.301822 Y4.118796 Z0.000000 I-4.502358 J0.258438
G02 X90.310208 Y4.487032 Z0.000000 I3.236871 J0.110499
G01 X90.331920 Y4.495026 Z0.000000
G02 X90.355406 Y4.441720 Z0.000000 I-0.056850 J-0.056873
G02 X90.378654 Y3.442446 Z0.000000 I-23.651995 J-1.050173
G03 X90.408711 Y2.451702 Z0.000000 I17.578165 J0.037450
G03 X90.439418 Y2.405117 Z0.000000 I0.055636 J0.003260
G01 X90.476051 Y2.416341 Z0.000000
G03 X90.517157 Y2.543187 Z0.000000 I-0.293103 J0.165068
G03 X90.509915 Y2.668956 Z0.000000 I-0.366780 J0.041973
G01 X90.485457 Y2.679137 Z0.000000
G01 X90.461548 Y2.690045 Z0.000000
G02 X90.458026 Y2.848217 Z0.000000 I0.565482 J0.091718
G02 X90.502304 Y3.005553 Z0.000000 I0.515708 J-0.060235
G01 X90.535225 Y3.015467 Z0.000000
G02 X90.571269 Y2.973852 Z0.000000 I-0.048537 J-0.078456
G02 X90.579646 Y2.913397 Z0.000000 I-0.103728 J-0.045180
G03 X90.607170 Y2.541224 Z0.000000 I0.890468 J-0.121250
G03 X90.710423 Y2.463717 Z0.000000 I0.103253 J0.030024
G03 X90.768292 Y2.524096 Z0.000000 I-0.000000 J0.057921
G03 X90.701423 Y2.676367 Z0.000000 I-0.228952 J-0.009724
G02 X90.678759 Y2.742496 Z0.000000 I0.056317 J0.056249
G02 X90.730362 Y2.907818 Z0.000000 I0.484952 J-0.060657
G03 X90.789048 Y3.086447 Z0.000000 I-0.513070 J0.267516
G03 X90.819960 Y3.484228 Z0.000000 I-2.573469 J0.400079
G02 X90.839717 Y3.842534 Z0.000000 I3.258612 J0.000011
G01 X90.860119 Y3.849698 Z0.000000
G02 X90.881341 Y3.802333 Z0.000000 I-0.051649 J-0.051579
G02 X90.893691 Y3.268648 Z0.000000 I-7.698305 J-0.445128
G01 X90.959071 Y3.246402 Z0.000000
G03 X91.081337 Y3.518399 Z0.000000 I-0.541586 J0.406927
G02 X91.154202 Y3.812602 Z0.000000 I3.511930 J-0.713673
G01 X91.167186 Y3.811369 Z0.000000
G01 X91.195053 Y3.792147 Z0.000000
G03 X91.261646 Y3.837269 Z0.000000 I-0.032964 J0.120349
G01 X91.308558 Y3.825280 Z0.000000
G02 X91.284196 Y3.685119 Z0.000000 I-0.224195 J-0.033229
G03 X91.241883 Y3.561237 Z0.000000 I0.356491 J-0.190929
G03 X91.220717 Y3.307669 Z0.000000 I1.508226 J-0.253563
G02 X91.198291 Y3.089042 Z0.000000 I-1.076835 J-0.000004
G01 X91.173148 Y3.078219 Z0.000000
G01 X91.107591 Y3.056561 Z0.000000
G03 X91.054702 Y2.781239 Z0.000000 I0.690165 J-0.275320
G01 X91.114286 Y2.741008 Z0.000000
G03 X91.175604 Y2.829939 Z0.000000 I-0.036601 J0.090842
G02 X91.201351 Y2.900776 Z0.000000 I0.116573 J-0.002273
G01 X91.229294 Y2.896639 Z0.000000
G03 X91.388877 Y2.745600 Z0.000000 I0.244939 J0.098969
G03 X91.507744 Y2.801540 Z0.000000 I0.030523 J0.089402
G02 X91.555757 Y2.896893 Z0.000000 I0.479361 J-0.181605
G02 X91.622711 Y2.980521 Z0.000000 I0.432786 J-0.277881
G03 X91.673016 Y3.069162 Z0.000000 I-0.139344 J0.137674
G03 X91.706029 Y3.302781 Z0.000000 I-1.016287 J0.262758
G02 X91.724827 Y3.441746 Z0.000000 I0.656385 J-0.018033
G01 X91.740249 Y3.441841 Z0.000000
G03 X91.785511 Y3.369088 Z0.000000 I0.138990 J0.036014
G03 X91.835989 Y3.359241 Z0.000000 I0.033866 J0.039299
G01 X91.881838 Y3.341381 Z0.000000
G02 X91.970592 Y3.113462 Z0.000000 I-0.828806 J-0.453985
G01 X92.036873 Y2.844472 Z0.000000
G01 X92.052632 Y3.196032 Z0.000000
G01 X92.068391 Y3.547592 Z0.000000
G01 X92.103932 Y3.283922 Z0.000000
G03 X92.163459 Y3.143780 Z0.000000 I0.285241 J0.038448
G01 X92.211902 Y3.147463 Z0.000000
G03 X92.254020 Y3.281510 Z0.000000 I-0.288427 J0.164266
G03 X92.257430 Y3.645503 Z0.000000 I-2.218221 J0.202793
G01 X92.230519 Y4.016343 Z0.000000
G01 X92.310810 Y3.723373 Z0.000000
G03 X92.372127 Y3.598030 Z0.000000 I0.361044 J0.098951
G01 X92.398500 Y3.606193 Z0.000000
G01 X92.476069 Y3.612134 Z0.000000
G02 X92.574959 Y2.712634 Z0.000000 I-5.199756 J-1.026836
G01 X92.644690 Y2.671032 Z0.000000
G03 X92.776368 Y2.815175 Z0.000000 I-0.125841 J0.247177
G02 X92.878390 Y3.037364 Z0.000000 I2.278165 J-0.911540
G01 X92.898471 Y3.049545 Z0.000000
G01 X92.908754 Y3.037100 Z0.000000
G02 X92.869632 Y2.899235 Z0.000000 I-0.812161 J0.155982
G03 X92.843430 Y2.750903 Z0.000000 I0.375578 J-0.142824
G03 X92.873233 Y2.635315 Z0.000000 I0.252477 J0.003461
G03 X92.945824 Y2.592365 Z0.000000 I0.071711 J0.038382
G03 X93.058491 Y2.637316 Z0.000000 I-0.001820 J0.168232
G01 X93.182941 Y2.753266 Z0.000000
G01 X93.059518 Y3.179556 Z0.000000
G02 X92.854539 Y4.029143 Z0.000000 I9.313147 J2.696489
G02 X92.812898 Y4.450565 Z0.000000 I2.234255 J0.433536
G01 X92.842618 Y4.455609 Z0.000000
G02 X92.952909 Y4.041495 Z0.000000 I-2.899481 J-0.993965
G03 X93.285100 Y2.841479 Z0.000000 I7.698158 J1.485036
G03 X93.386544 Y2.851907 Z0.000000 I0.049407 J0.018010
G03 X93.388123 Y2.976519 Z0.000000 I-0.468433 J0.068252
G03 X93.309242 Y3.496437 Z0.000000 I-8.361023 J-1.002582
G02 X93.070583 Y4.840768 Z0.000000 I110.186399 J20.254675
G02 X92.984466 Y5.392945 Z0.000000 I18.494821 J3.167247
G03 X92.896237 Y5.885492 Z0.000000 I-6.620676 J-0.931781
G03 X92.843934 Y6.037475 Z0.000000 I-0.674014 J-0.146961
G02 X92.787541 Y6.188778 Z0.000000 I0.798266 J0.383686
G02 X92.668712 Y6.682004 Z0.000000 I8.422800 J2.290171
G03 X92.557977 Y7.178628 Z0.000000 I-20.658858 J-4.345736
G03 X92.453810 Y7.593944 Z0.000000 I-14.564850 J-3.432344
G02 X92.359016 Y8.097948 Z0.000000 I3.345769 J0.890200
G01 X92.395369 Y8.114623 Z0.000000
G02 X92.496617 Y7.932293 Z0.000000 I-0.320388 J-0.297190
G02 X92.753672 Y6.799195 Z0.000000 I-13.076996 J-3.562356
G03 X92.860187 Y6.595413 Z0.000000 I0.380978 J0.069407
G01 X92.928645 Y6.623405 Z0.000000
G02 X92.943901 Y7.002553 Z0.000000 I5.578803 J-0.034602
