%
(Header)
(Generated by gcodetools from Inkscape.)
(Using default header. To add your own header create file "header" in the output dir.)
M3
(Header end.)
G21 (All units in mm)

(Start cutting path id: path888)
(Change tool to Cylindrical cutter)

G00 Z5.000000
G00 X55.976056 Y0.396098

G01 Z0.000000 F1000.0(Penetrate)
G02 X55.882799 Y0.675043 Z0.000000 I1.403632 J0.624327 F1100.000000
G02 X55.805952 Y1.133238 Z0.000000 I3.737721 J0.862413
G03 X55.467213 Y2.009857 Z0.000000 I-1.796144 J-0.190302
G03 X55.041549 Y2.177408 Z0.000000 I-0.345314 J-0.252793
G03 X54.750676 Y2.036507 Z0.000000 I0.117295 J-0.612830
G03 X54.666919 Y1.853328 Z0.000000 I0.158431 J-0.183179
G02 X54.586101 Y1.812431 Z0.000000 I-0.050757 J0.000000
G02 X54.007365 Y2.338148 Z0.000000 I2.239412 J3.046662
G03 X53.291618 Y2.880069 Z0.000000 I-1.744913 J-1.560983
G03 X52.814931 Y2.921729 Z0.000000 I-0.292374 J-0.597411
G02 X52.308958 Y2.902966 Z0.000000 I-0.290712 J1.007928
G02 X52.300287 Y3.029699 Z0.000000 I0.013542 J0.064590
G03 X52.447482 Y3.131889 Z0.000000 I-0.114901 J0.322608
G03 X52.494274 Y3.260229 Z0.000000 I-0.152607 J0.128340
G01 X52.439914 Y3.305713 Z0.000000
G03 X52.246471 Y3.215829 Z0.000000 I0.073837 J-0.412009
G02 X52.025064 Y3.152093 Z0.000000 I-0.183546 J0.221173
G02 X51.854396 Y3.267929 Z0.000000 I0.030346 J0.228356
G03 X51.676211 Y3.432003 Z0.000000 I-0.339639 J-0.190059
G03 X51.481440 Y3.437989 Z0.000000 I-0.104524 J-0.229263
G02 X51.320262 Y3.448295 Z0.000000 I-0.069362 J0.180745
G02 X51.252761 Y3.561329 Z0.000000 I0.060892 J0.113034
G03 X50.766636 Y4.655396 Z0.000000 I-1.474207 J0.000001
G03 X50.204923 Y4.507620 Z0.000000 I-0.232553 J-0.257497
G02 X50.010146 Y4.410558 Z0.000000 I-0.145789 J0.048596
G02 X49.856059 Y4.624950 Z0.000000 I0.072105 J0.214392
G03 X49.707774 Y4.825638 Z0.000000 I-0.209948 J0.000000
G03 X49.428690 Y4.756260 Z0.000000 I-0.081902 J-0.266556
G02 X48.655804 Y4.700164 Z0.000000 I-0.418881 J0.418880
G02 X48.148981 Y5.710011 Z0.000000 I0.752649 J1.009846
G03 X47.933614 Y6.053705 Z0.000000 I-0.381927 J0.000000
G03 X47.607402 Y5.972461 Z0.000000 I-0.114420 J-0.236105
G02 X47.418894 Y5.910866 Z0.000000 I-0.137067 J0.100227
G02 X47.087782 Y6.137641 Z0.000000 I0.210670 J0.662709
G02 X46.787374 Y6.566976 Z0.000000 I3.047577 J2.452173
G02 X46.752281 Y6.692921 Z0.000000 I0.208450 J0.125945
G03 X46.694900 Y6.757708 Z0.000000 I-0.065265 J0.000000
G03 X46.381300 Y6.738121 Z0.000000 I-0.104025 J-0.854776
G02 X46.058882 Y6.769474 Z0.000000 I-0.117285 J0.467377
G02 X45.756964 Y7.031682 Z0.000000 I0.313027 J0.665359
G02 X45.576677 Y7.378866 Z0.000000 I1.621561 J1.062450
G01 X45.603479 Y7.418342 Z0.000000
G03 X45.652846 Y7.518910 Z0.000000 I0.000000 J0.062401
G03 X44.207971 Y9.223292 Z0.000000 I-19.633594 J-15.179573
G01 X43.901041 Y9.553952 Z0.000000
G01 X43.642831 Y9.235083 Z0.000000
G02 X43.500197 Y9.257429 Z0.000000 I-0.064842 J0.052505
G02 X43.355457 Y9.976343 Z0.000000 I2.007085 J0.778116
G03 X43.181539 Y11.149076 Z0.000000 I-4.961357 J-0.136514
G03 X43.017020 Y11.213863 Z0.000000 I-0.106483 J-0.029121
G02 X42.935559 Y11.237588 Z0.000000 I-0.030031 J0.048600
G02 X42.872555 Y11.512553 Z0.000000 I0.568497 J0.274965
G03 X42.816737 Y11.869384 Z0.000000 I-1.168488 J0.000000
G03 X42.717367 Y11.996423 Z0.000000 I-0.221845 J-0.071145
G03 X42.611582 Y12.003756 Z0.000000 I-0.059867 J-0.096958
G03 X42.562178 Y11.928023 Z0.000000 I0.033344 J-0.075733
G02 X42.506084 Y11.819759 Z0.000000 I-0.132525 J0.000000
G02 X42.329393 Y11.763673 Z0.000000 I-0.176691 J0.250280
G03 X42.156061 Y11.704193 Z0.000000 I-0.000000 J-0.282295
G03 X42.096610 Y11.582623 Z0.000000 I0.094572 J-0.121570
G02 X42.055893 Y11.499854 Z0.000000 I-0.104486 J0.000000
G01 X41.994359 Y11.503823 Z0.000000
G02 X41.937888 Y11.624232 Z0.000000 I0.138592 J0.138445
G02 X41.916629 Y12.344443 Z0.000000 I5.725994 J0.529441
G03 X41.867028 Y13.065853 Z0.000000 I-3.554732 J0.118002
G03 X41.715213 Y13.514353 Z0.000000 I-1.502576 J-0.258668
G02 X41.556302 Y13.949823 Z0.000000 I1.556015 J0.814551
G02 X41.572108 Y14.161783 Z0.000000 I0.360497 J0.079687
G03 X41.592616 Y14.373744 Z0.000000 I-0.372763 J0.143040
G03 X41.475478 Y14.712963 Z0.000000 I-1.116230 J-0.195618
G03 X41.280229 Y14.847626 Z0.000000 I-0.228348 J-0.122207
G03 X41.080491 Y14.763864 Z0.000000 I-0.027602 J-0.214208
G02 X40.934733 Y14.693080 Z0.000000 I-0.142519 J0.108011
G02 X40.860025 Y14.767864 Z0.000000 I0.001378 J0.076085
G03 X40.783544 Y14.950011 Z0.000000 I-0.265808 J-0.004478
G03 X40.652596 Y14.978344 Z0.000000 I-0.087120 J-0.085877
G02 X40.533959 Y15.026438 Z0.000000 I-0.033593 J0.087506
G02 X40.434566 Y15.448744 Z0.000000 I0.977117 J0.452821
G03 X40.365048 Y15.982506 Z0.000000 I-2.668306 J-0.076117
G03 X40.217463 Y16.373474 Z0.000000 I-1.563909 J-0.367016
G02 X40.138197 Y16.717194 Z0.000000 I0.594309 J0.318054
G02 X40.237023 Y16.886774 Z0.000000 I0.208543 J-0.007946
G03 X40.365773 Y17.034208 Z0.000000 I-0.174657 J0.282457
G03 X40.347196 Y17.134374 Z0.000000 I-0.082168 J0.036567
G03 X40.234072 Y17.157367 Z0.000000 I-0.073931 J-0.073955
G03 X39.924918 Y16.963564 Z0.000000 I0.391044 J-0.967273
G02 X39.809723 Y16.998839 Z0.000000 I-0.047071 J0.052013
G02 X39.842948 Y17.297184 Z0.000000 I0.422957 J0.103921
G03 X40.048680 Y17.932869 Z0.000000 I-2.003893 J0.999671
G03 X40.103744 Y18.880374 Z0.000000 I-4.458647 J0.734462
G03 X39.992972 Y19.269414 Z0.000000 I-0.885136 J-0.041736
G03 X39.860603 Y19.317484 Z0.000000 I-0.093878 J-0.052224
G02 X39.553305 Y19.480436 Z0.000000 I-0.082650 J0.215366
G02 X39.613489 Y20.376594 Z0.000000 I1.497960 J0.349500
G03 X39.588464 Y20.615073 Z0.000000 I-0.248503 J0.094476
G03 X39.420972 Y20.675364 Z0.000000 I-0.123166 J-0.079365
G02 X39.259918 Y20.694097 Z0.000000 I-0.059730 J0.188176
G02 X39.243921 Y20.781254 Z0.000000 I0.030258 J0.050600
G03 X39.540107 Y21.681183 Z0.000000 I-1.080620 J0.854360
G03 X39.187212 Y22.494814 Z0.000000 I-1.206462 J-0.039931
G02 X39.114038 Y22.670740 Z0.000000 I0.176720 J0.176685
G02 X39.184612 Y23.349844 Z0.000000 I3.208859 J0.009749
G03 X39.231173 Y24.044423 Z0.000000 I-2.385258 J0.508745
G03 X39.080011 Y24.718698 Z0.000000 I-2.396209 J-0.183112
G02 X38.931058 Y25.400922 Z0.000000 I2.184872 J0.834407
G02 X38.930613 Y27.009836 Z0.000000 I12.389398 J0.807881
G03 X38.949559 Y28.590275 Z0.000000 I-15.007807 J0.970241
G03 X38.860223 Y28.743136 Z0.000000 I-0.188550 J-0.007657
G02 X38.798814 Y28.883463 Z0.000000 I0.070824 J0.114594
G02 X39.002523 Y29.474389 Z0.000000 I2.201950 J-0.428500
G03 X39.247599 Y30.111217 Z0.000000 I-2.917148 J1.488206
G03 X39.282275 Y30.513476 Z0.000000 I-1.107046 J0.298054
G02 X39.323165 Y30.915560 Z0.000000 I1.052743 J0.096062
G02 X39.689782 Y31.860860 Z0.000000 I6.367486 J-1.925764
G03 X40.139337 Y32.877183 Z0.000000 I-16.827724 J8.051080
G03 X40.214965 Y33.150707 Z0.000000 I-1.126618 J0.458723
G02 X40.261385 Y33.263519 Z0.000000 I0.256240 J-0.039481
G02 X40.560346 Y33.626533 Z0.000000 I3.117082 J-2.262470
G03 X40.808474 Y33.975056 Z0.000000 I-1.195125 J1.113442
G03 X40.794477 Y34.068287 Z0.000000 I-0.070083 J0.037144
G02 X40.769444 Y34.163220 Z0.000000 I0.068911 J0.068938
G02 X40.878577 Y34.372155 Z0.000000 I0.541378 J-0.149809
G03 X40.800696 Y34.496939 Z0.000000 I-0.059623 J0.049483
G03 X40.286958 Y34.228710 Z0.000000 I0.283418 J-1.168926
G02 X38.632729 Y32.961645 Z0.000000 I-9.752650 J11.019287
G02 X38.340000 Y32.945389 Z0.000000 I-0.160323 J0.243231
G01 X38.324128 Y32.927378 Z0.000000
G03 X38.432890 Y32.809100 Z0.000000 I0.457380 J0.311435
G03 X38.734392 Y32.582844 Z0.000000 I3.061279 J3.765361
G03 X38.898457 Y32.487210 Z0.000000 I0.700393 J1.013017
G02 X38.943115 Y32.404915 Z0.000000 I-0.034919 J-0.072214
G02 X38.876447 Y32.313495 Z0.000000 I-0.116201 J0.014722
G03 X38.681948 Y32.011274 Z0.000000 I0.142534 J-0.305426
G03 X38.871047 Y31.746262 Z0.000000 I0.276564 J-0.002629
G02 X38.904511 Y31.651334 Z0.000000 I-0.020168 J-0.060472
G02 X38.522141 Y31.203145 Z0.000000 I-1.837817 J1.180717
G02 X37.982117 Y30.861146 Z0.000000 I-1.299049 J1.453873
G02 X37.782596 Y30.890571 Z0.000000 I-0.075563 J0.178784
G03 X37.586057 Y30.939617 Z0.000000 I-0.149275 J-0.179865
G03 X37.316756 Y30.794391 Z0.000000 I0.107833 J-0.522264
G03 X37.166398 Y30.539942 Z0.000000 I0.419857 J-0.419750
G03 X37.208152 Y30.419756 Z0.000000 I0.105674 J-0.030634
G02 X37.350970 Y30.295995 Z0.000000 I-0.584202 J-0.818438
G02 X37.594909 Y30.015006 Z0.000000 I-2.820096 J-2.694639
G02 X37.601985 Y29.876428 Z0.000000 I-0.094303 J-0.074285
G02 X37.478517 Y29.831479 Z0.000000 I-0.090903 J0.057651
G03 X37.341721 Y29.724211 Z0.000000 I-0.031826 J-0.100274
G03 X37.520237 Y29.205381 Z0.000000 I1.045727 J0.069682
G02 X37.623247 Y28.790981 Z0.000000 I-0.511591 J-0.347173
G02 X37.468476 Y28.732171 Z0.000000 I-0.092399 J0.010107
G03 X36.972895 Y28.974704 Z0.000000 I-0.668823 J-0.739050
G03 X36.820188 Y28.846588 Z0.000000 I-0.022611 J-0.128116
G03 X36.858160 Y28.717148 Z0.000000 I0.239605 J-0.000000
G03 X37.208159 Y28.242227 Z0.000000 I3.856901 J2.475968
G02 X37.576100 Y27.581712 Z0.000000 I-1.521615 J-1.280357
G02 X37.471981 Y27.437979 Z0.000000 I-0.104119 J-0.034155
G02 X37.360612 Y27.468826 Z0.000000 I0.000000 J0.216469
G02 X37.161603 Y27.624206 Z0.000000 I0.531517 J0.885891
G03 X37.043909 Y27.644979 Z0.000000 I-0.073686 J-0.073688
G03 X36.975376 Y27.537446 Z0.000000 I0.050097 J-0.107533
G03 X37.033150 Y27.368089 Z0.000000 I0.277114 J-0.000000
G03 X37.118058 Y27.352651 Z0.000000 I0.051020 J0.039394
G02 X37.221121 Y27.332018 Z0.000000 I0.040484 J-0.065496
G02 X37.436375 Y26.908657 Z0.000000 I-1.277963 J-0.916171
G03 X37.656587 Y26.406872 Z0.000000 I2.749392 J0.907380
G03 X37.836853 Y26.189874 Z0.000000 I0.670317 J0.373476
G02 X38.008084 Y25.978089 Z0.000000 I-0.441749 J-0.532274
G02 X38.061699 Y25.759827 Z0.000000 I-0.417457 J-0.218262
G02 X37.998460 Y25.709986 Z0.000000 I-0.051260 J0.000000
G02 X37.845707 Y25.811737 Z0.000000 I0.062247 J0.258982
G03 X37.611205 Y25.957804 Z0.000000 I-0.298863 J-0.218533
G03 X37.374108 Y25.894987 Z0.000000 I-0.050730 J-0.287384
G03 X37.297984 Y25.672600 Z0.000000 I0.144009 J-0.173517
G03 X37.512504 Y25.271594 Z0.000000 I0.824032 J0.182937
G02 X37.874523 Y24.847501 Z0.000000 I-3.510132 J-3.362921
G02 X37.906510 Y24.752447 Z0.000000 I-0.125241 J-0.095054
G02 X37.706572 Y24.568529 Z0.000000 I-0.184560 J0.000000
G02 X37.179118 Y24.813237 Z0.000000 I0.070460 J0.842673
G03 X36.983990 Y24.744022 Z0.000000 I-0.081080 J-0.081079
G03 X37.109048 Y24.139675 Z0.000000 I1.013350 J-0.105420
G02 X37.365268 Y23.600100 Z0.000000 I-3.809240 J-2.139461
G02 X37.515324 Y23.107265 Z0.000000 I-3.023518 J-1.189849
G02 X37.463061 Y22.816098 Z0.000000 I-0.376508 J-0.082693
G02 X37.301087 Y22.774045 Z0.000000 I-0.103768 J0.066718
G03 X37.090637 Y22.646060 Z0.000000 I-0.067471 J-0.126073
G03 X37.311847 Y21.969665 Z0.000000 I1.193529 J0.015965
G02 X37.472436 Y21.525577 Z0.000000 I-0.716461 J-0.510164
G02 X37.363157 Y21.288625 Z0.000000 I-0.267787 J-0.020175
G03 X37.248155 Y21.062705 Z0.000000 I0.165675 J-0.226564
G03 X37.361956 Y20.766305 Z0.000000 I0.440262 J-0.001010
G02 X37.426079 Y20.467919 Z0.000000 I-0.226178 J-0.204688
G02 X37.252109 Y20.425975 Z0.000000 I-0.099808 J0.032214
G03 X36.934298 Y20.582516 Z0.000000 I-0.389012 J-0.388894
G03 X36.820235 Y20.482375 Z0.000000 I-0.013072 J-0.100141
G03 X36.856750 Y20.368597 Z0.000000 I0.195518 J-0.000000
G03 X37.375489 Y19.706405 Z0.000000 I7.881072 J5.639480
G02 X37.740925 Y19.145115 Z0.000000 I-1.949947 J-1.669148
G02 X37.685867 Y19.057735 Z0.000000 I-0.055058 J-0.026344
G03 X37.556814 Y18.889361 Z0.000000 I-0.000000 J-0.133644
G03 X37.899271 Y18.264755 Z0.000000 I1.455001 J0.391560
G02 X38.074126 Y17.818618 Z0.000000 I-0.493510 J-0.450756
G02 X37.902871 Y17.741915 Z0.000000 I-0.102488 J-0.000708
G03 X37.714279 Y17.821031 Z0.000000 I-0.206718 J-0.228424
G03 X37.655136 Y17.756515 Z0.000000 I-0.003319 J-0.056323
G03 X37.717648 Y17.528419 Z0.000000 I0.963336 J0.141398
G03 X37.798561 Y17.406865 Z0.000000 I0.343302 J0.140814
G02 X37.866865 Y17.282461 Z0.000000 I-0.179720 J-0.179629
G02 X37.906513 Y16.921975 Z0.000000 I-1.618993 J-0.360485
G03 X37.971991 Y16.565963 Z0.000000 I1.000574 J-0.000000
G03 X38.214933 Y16.111875 Z0.000000 I1.892758 J0.720615
G02 X38.331082 Y15.748516 Z0.000000 I-0.510288 J-0.363358
G02 X38.214933 Y15.598085 Z0.000000 I-0.155491 J0.000000
G03 X37.877624 Y15.262324 Z0.000000 I0.119591 J-0.457455
G03 X38.061698 Y15.022805 Z0.000000 I0.184074 J-0.049028
G02 X38.162672 Y14.968598 Z0.000000 I-0.000000 J-0.121149
G02 X38.216887 Y14.788705 Z0.000000 I-0.271349 J-0.179893
G02 X38.137597 Y14.697604 Z0.000000 I-0.091980 J0.000000
G02 X37.910383 Y14.746005 Z0.000000 I-0.046957 J0.337087
G03 X37.513480 Y14.649834 Z0.000000 I-0.151371 J-0.242391
G03 X37.424501 Y13.930125 Z0.000000 I0.774237 J-0.461076
G02 X37.523974 Y13.311692 Z0.000000 I-2.286012 J-0.684914
G02 X37.447880 Y13.091275 Z0.000000 I-0.330596 J-0.009213
G03 X37.352709 Y12.877587 Z0.000000 I0.332836 J-0.276274
G03 X37.380300 Y12.629135 Z0.000000 I0.488801 J-0.071476
G02 X37.331263 Y12.500800 Z0.000000 I-0.096019 J-0.036847
G02 X37.072598 Y12.471125 Z0.000000 I-0.168728 J0.328561
G03 X36.820323 Y12.319451 Z0.000000 I-0.050570 J-0.201526
G03 X36.897782 Y11.763805 Z0.000000 I0.732680 J-0.181085
G02 X37.050273 Y11.191066 Z0.000000 I-1.004114 J-0.574013
G02 X36.898543 Y11.086655 Z0.000000 I-0.111705 J-0.000123
G03 X36.780027 Y11.026054 Z0.000000 I-0.032081 J-0.083450
G03 X36.733382 Y10.461905 Z0.000000 I1.563314 J-0.413260
G03 X36.916948 Y9.797011 Z0.000000 I1.962179 J0.183938
G03 X37.431022 Y9.000085 Z0.000000 I3.362229 J1.604604
G02 X37.929361 Y8.200735 Z0.000000 I-2.525284 J-2.129357
G02 X37.828966 Y8.095405 Z0.000000 I-0.072153 J-0.031738
G03 X37.677250 Y8.066756 Z0.000000 I-0.052646 J-0.137245
G03 X37.596182 Y7.883065 Z0.000000 I0.167577 J-0.183691
G02 X37.494731 Y7.728499 Z0.000000 I-0.168471 J0.000000
G02 X37.225484 Y7.722325 Z0.000000 I-0.142215 J0.327988
G03 X36.884884 Y7.732708 Z0.000000 I-0.185315 J-0.487373
G03 X36.513836 Y7.500345 Z0.000000 I0.256395 J-0.821861
G03 X36.377998 Y6.991348 Z0.000000 I0.405331 J-0.380797
G03 X36.805864 Y6.267615 Z0.000000 I1.378338 J0.326521
G02 X37.082917 Y5.952546 Z0.000000 I-1.238297 J-1.368231
G02 X37.130612 Y5.800345 Z0.000000 I-0.218995 J-0.152200
G03 X37.175384 Y5.643035 Z0.000000 I0.298751 J-0.000000
G03 X37.572361 Y5.087245 Z0.000000 I4.423225 J2.739656
G02 X38.244342 Y4.064480 Z0.000000 I-4.534659 J-3.711515
G02 X38.372126 Y3.538535 Z0.000000 I-1.018469 J-0.525945
G03 X38.470496 Y3.341924 Z0.000000 I0.245666 J-0.000000
G03 X38.682504 Y3.306005 Z0.000000 I0.140915 J0.188093
G02 X38.837882 Y3.155944 Z0.000000 I0.037142 J-0.117014
G02 X38.459763 Y2.509065 Z0.000000 I-1.422638 J0.397621
G02 X37.886853 Y2.115944 Z0.000000 I-1.342606 J1.342610
G02 X37.489830 Y2.078955 Z0.000000 I-0.253493 J0.571649
G02 X36.277754 Y2.608136 Z0.000000 I0.847431 J3.593727
G02 X36.049224 Y3.047086 Z0.000000 I0.288373 J0.429099
G02 X36.119490 Y3.105071 Z0.000000 I0.060008 J-0.001151
G02 X36.280405 Y3.006985 Z0.000000 I-0.043893 J-0.253049
G03 X36.505276 Y2.768052 Z0.000000 I1.220339 J0.923230
G01 X36.552168 Y2.774195 Z0.000000
G02 X36.598907 Y2.839508 Z0.000000 I1.765325 J-1.213904
G02 X36.825352 Y3.141115 Z0.000000 I36.536534 J-27.195704
G03 X36.859578 Y3.297531 Z0.000000 I-0.152182 J0.115252
G03 X36.781442 Y3.339955 Z0.000000 I-0.057477 J-0.012692
G02 X36.606729 Y3.377922 Z0.000000 I-0.057898 J0.154544
G02 X36.509862 Y3.612115 Z0.000000 I0.234670 J0.234194
G03 X36.454654 Y3.955287 Z0.000000 I-1.094172 J0.000000
G03 X36.354673 Y4.081975 Z0.000000 I-0.224010 J-0.073991
G03 X36.263997 Y4.060315 Z0.000000 I-0.034595 J-0.055800
G03 X36.194764 Y3.819556 Z0.000000 I0.405781 J-0.247022
G02 X36.124552 Y3.710605 Z0.000000 I-0.122087 J0.001579
G02 X36.027316 Y3.740956 Z0.000000 I-0.032044 J0.068274
G02 X35.960835 Y4.012666 Z0.000000 I0.427119 J0.248496
G02 X36.051037 Y4.245316 Z0.000000 I0.392770 J-0.018472
G03 X36.044620 Y4.379399 Z0.000000 I-0.076552 J0.063532
G03 X35.825052 Y4.469966 Z0.000000 I-0.219568 J-0.220875
G02 X35.593196 Y4.578094 Z0.000000 I0.000000 J0.302644
G02 X35.573266 Y4.770146 Z0.000000 I0.132023 J0.110761
G03 X35.741878 Y5.503057 Z0.000000 I-1.264582 J0.676779
G03 X35.512397 Y6.324416 Z0.000000 I-1.842992 J-0.072182
G02 X35.360780 Y6.708694 Z0.000000 I1.394450 J0.772226
G02 X35.371482 Y6.885986 Z0.000000 I0.285811 J0.071717
G03 X35.345255 Y7.018214 Z0.000000 I-0.118064 J0.045297
G03 X35.120409 Y7.151256 Z0.000000 I-0.345030 J-0.326593
G02 X34.949061 Y7.312106 Z0.000000 I0.062342 J0.238101
G02 X34.956445 Y7.647336 Z0.000000 I0.475605 J0.157220
G03 X35.036286 Y8.074565 Z0.000000 I-1.143513 J0.434777
G03 X34.959345 Y8.117776 Z0.000000 I-0.050430 J0.000311
G02 X34.370471 Y8.130607 Z0.000000 I-0.284545 J0.460406
G02 X34.031692 Y8.748516 Z0.000000 I0.435616 J0.640659
G02 X34.074906 Y8.896874 Z0.000000 I0.250806 J0.007417
G02 X34.505817 Y9.446866 Z0.000000 I4.244636 J-2.881803
G03 X35.231643 Y10.478475 Z0.000000 I-3.929176 J3.535661
G03 X35.477352 Y11.252916 Z0.000000 I-1.931516 J1.039015
G02 X35.803973 Y12.475561 Z0.000000 I4.497189 J-0.546444
G02 X36.183631 Y12.917996 Z0.000000 I0.885197 J-0.375487
G03 X36.313526 Y13.046527 Z0.000000 I-0.212623 J0.344779
G03 X36.354655 Y13.188715 Z0.000000 I-0.225214 J0.142188
G01 X36.297249 Y13.238074 Z0.000000
G03 X36.083073 Y13.147516 Z0.000000 I0.070577 J-0.465468
G01 X36.061961 Y13.167987 Z0.000000
G02 X36.344048 Y13.514155 Z0.000000 I2.796257 J-1.990613
G03 X36.396926 Y13.816566 Z0.000000 I-0.206465 J0.191929
G03 X36.197848 Y13.857346 Z0.000000 I-0.113631 J-0.048408
G02 X36.112515 Y13.904961 Z0.000000 I-0.035358 J0.036906
G02 X36.276908 Y14.226275 Z0.000000 I0.681773 J-0.146102
G03 X37.070655 Y15.520521 Z0.000000 I-3.069149 J2.772797
G03 X36.878419 Y15.797785 Z0.000000 I-0.190759 J0.073014
G03 X36.771134 Y15.747725 Z0.000000 I0.000893 J-0.141907
G03 X36.450106 Y15.293415 Z0.000000 I2.391604 J-2.030554
G02 X36.173039 Y14.959595 Z0.000000 I-1.132783 J0.658304
G02 X36.088753 Y14.981766 Z0.000000 I-0.034529 J0.040033
G02 X36.091500 Y15.163611 Z0.000000 I0.243054 J0.087272
G02 X36.342478 Y15.626465 Z0.000000 I2.014060 J-0.792633
G03 X36.549998 Y16.137291 Z0.000000 I-0.973028 J0.692851
G03 X36.445057 Y16.291745 Z0.000000 I-0.135407 J0.020878
G02 X36.347390 Y16.409745 Z0.000000 I0.027914 J0.122522
G02 X36.422717 Y16.912085 Z0.000000 I1.381018 J0.049733
G03 X36.416136 Y17.586745 Z0.000000 I-0.946622 J0.328128
G03 X36.125437 Y17.718526 Z0.000000 I-0.210375 J-0.077552
G02 X36.057061 Y17.779601 Z0.000000 I-0.018477 J0.048126
G02 X36.254236 Y18.214855 Z0.000000 I1.355449 J-0.351745
G03 X36.507201 Y18.881596 Z0.000000 I-1.270738 J0.863483
G03 X36.357355 Y19.013475 Z0.000000 I-0.119389 J0.015416
G02 X36.203970 Y19.055656 Z0.000000 I-0.040279 J0.153505
G02 X36.184143 Y19.189366 Z0.000000 I0.081732 J0.080445
G03 X36.624625 Y20.531480 Z0.000000 I-3.788444 J1.986708
G03 X36.424151 Y20.764825 Z0.000000 I-0.200473 J0.030557
G03 X36.328665 Y20.729689 Z0.000000 I-0.000000 J-0.147316
G03 X36.105069 Y20.493236 Z0.000000 I0.977063 J-1.147877
G02 X35.911563 Y20.576439 Z0.000000 I-0.086430 J0.065611
G02 X36.291756 Y21.629515 Z0.000000 I3.025270 J-0.497046
G03 X36.332586 Y21.939511 Z0.000000 I-0.347080 J0.203401
G03 X36.198876 Y21.967526 Z0.000000 I-0.074053 J-0.020349
G02 X35.910507 Y21.717712 Z0.000000 I-0.848054 J0.687594
G02 X35.802711 Y21.730996 Z0.000000 I-0.045355 J0.075965
G02 X35.767003 Y21.847344 Z0.000000 I0.091436 J0.091716
G02 X35.865601 Y22.055646 Z0.000000 I0.455956 J-0.088338
G03 X35.971587 Y22.264434 Z0.000000 I-0.407430 J0.338116
G03 X35.943671 Y22.365556 Z0.000000 I-0.103065 J0.025962
G02 X35.926509 Y22.468811 Z0.000000 I0.063573 J0.063621
G02 X36.255395 Y23.000485 Z0.000000 I2.879035 J-1.413371
G03 X36.541170 Y23.585715 Z0.000000 I-1.320469 J1.007189
G03 X36.442683 Y23.713415 Z0.000000 I-0.098486 J0.025872
G03 X36.271140 Y23.644016 Z0.000000 I-0.000000 J-0.246712
G03 X36.121846 Y23.403026 Z0.000000 I0.402625 J-0.416165
G02 X35.985328 Y23.144604 Z0.000000 I-0.783867 J0.248828
G02 X35.878605 Y23.092646 Z0.000000 I-0.106723 J0.083626
G02 X35.790070 Y23.203245 Z0.000000 I0.000000 J0.090736
G02 X36.044834 Y23.833556 Z0.000000 I2.038774 J-0.457406
G03 X36.344596 Y24.637286 Z0.000000 I-1.933613 J1.178934
G03 X36.207154 Y24.799745 Z0.000000 I-0.137442 J0.023090
G03 X36.086123 Y24.753743 Z0.000000 I-0.000000 J-0.182220
G03 X35.901494 Y24.528156 Z0.000000 I0.613413 J-0.690386
G02 X35.789496 Y24.435403 Z0.000000 I-0.182382 J0.106230
G01 X35.738595 Y24.470556 Z0.000000
G02 X35.779505 Y24.672843 Z0.000000 I0.469292 J0.010372
G02 X36.197275 Y25.494380 Z0.000000 I8.541849 J-3.826738
G03 X36.351471 Y26.153663 Z0.000000 I-1.027842 J0.588070
G03 X36.152615 Y26.235657 Z0.000000 I-0.119295 J-0.007187
G02 X36.011923 Y26.222882 Z0.000000 I-0.078962 J0.088512
G02 X35.962196 Y26.351711 Z0.000000 I0.058983 J0.096779
G02 X36.102079 Y26.728160 Z0.000000 I2.791980 J-0.823250
G02 X36.293199 Y27.083402 Z0.000000 I2.674407 J-1.209792
G03 X36.466221 Y27.439714 Z0.000000 I-1.521973 J0.959221
G03 X36.509824 Y27.692407 Z0.000000 I-0.710412 J0.252694
G03 X36.425082 Y27.761824 Z0.000000 I-0.070802 J0.000000
G03 X36.150645 Y27.620278 Z0.000000 I0.110768 J-0.551580
G02 X35.757670 Y27.389685 Z0.000000 I-0.703643 J0.748998
G02 X35.698338 Y27.476834 Z0.000000 I-0.016633 J0.052447
G03 X35.842789 Y27.679765 Z0.000000 I-1.515108 J1.231361
G03 X36.190512 Y28.271040 Z0.000000 I-12.587909 J7.800732
G03 X36.306745 Y28.791111 Z0.000000 I-0.817838 J0.455806
G03 X36.150113 Y28.858203 Z0.000000 I-0.095499 J-0.006571
G02 X35.872651 Y28.808278 Z0.000000 I-0.182869 J0.220342
G02 X35.733871 Y29.003887 Z0.000000 I0.068462 J0.195608
G02 X35.765648 Y29.109786 Z0.000000 I0.192348 J-0.000000
G02 X36.100608 Y29.559981 Z0.000000 I4.137729 J-2.728906
G03 X36.425178 Y30.021412 Z0.000000 I-2.600281 J2.173901
G03 X36.584607 Y30.386630 Z0.000000 I-1.459514 J0.854530
G03 X36.511852 Y30.467743 Z0.000000 I-0.061028 J0.018445
G03 X36.216845 Y30.317811 Z0.000000 I0.108165 J-0.578020
G02 X35.733730 Y29.988280 Z0.000000 I-1.283612 J1.362963
G02 X35.577455 Y30.015395 Z0.000000 I-0.058887 J0.124506
G02 X35.557047 Y30.170606 Z0.000000 I0.090898 J0.090899
G02 X36.020708 Y30.782562 Z0.000000 I2.677433 J-1.546986
G03 X36.664980 Y31.730644 Z0.000000 I-2.343365 J2.285387
G03 X36.499024 Y31.851150 Z0.000000 I-0.095643 J0.042811
G02 X36.305347 Y31.818716 Z0.000000 I-0.122160 J0.134986
G02 X36.199438 Y31.979125 Z0.000000 I0.068521 J0.160409
G03 X36.132351 Y32.329853 Z0.000000 I-0.950350 J0.000000
G03 X36.016773 Y32.439102 Z0.000000 I-0.175168 J-0.069556
G01 X35.996584 Y32.518909 Z0.000000
G02 X36.404747 Y32.852666 Z0.000000 I1.462159 J-1.371667
G03 X36.821549 Y33.291107 Z0.000000 I-0.625315 J1.011790
G03 X36.975385 Y33.889852 Z0.000000 I-1.088278 J0.598746
G02 X37.076307 Y34.537070 Z0.000000 I2.125768 J-0.000001
G02 X37.324560 Y34.982261 Z0.000000 I1.226139 J-0.391921
G02 X38.755720 Y36.161711 Z0.000000 I4.079822 J-3.492488
G02 X41.398276 Y37.291766 Z0.000000 I6.361111 J-11.220276
G03 X42.284874 Y37.629020 Z0.000000 I-1.926707 J6.399080
G03 X42.453512 Y37.781506 Z0.000000 I-0.161611 J0.348223
G02 X42.608273 Y37.937062 Z0.000000 I0.384786 J-0.228057
G02 X42.802687 Y37.990883 Z0.000000 I0.194414 J-0.324224
G03 X42.932368 Y38.121169 Z0.000000 I0.000000 J0.129682
G03 X42.799587 Y38.657446 Z0.000000 I-1.171365 J-0.005450
G02 X42.705923 Y39.041043 Z0.000000 I0.732570 J0.382108
G02 X42.800526 Y39.178411 Z0.000000 I0.147420 J-0.000266
G03 X43.086210 Y39.549396 Z0.000000 I-0.160939 J0.419426
G03 X42.876516 Y39.879018 Z0.000000 I-0.310909 J0.033721
G02 X42.667508 Y40.299209 Z0.000000 I0.108018 J0.315806
G02 X43.123440 Y40.629099 Z0.000000 I0.455932 J-0.150121
G03 X43.305083 Y40.772592 Z0.000000 I0.000000 J0.186714
G03 X43.203450 Y40.965340 Z0.000000 I-0.160957 J0.038299
G02 X43.103093 Y41.049201 Z0.000000 I0.072508 J0.188750
G02 X42.960211 Y41.366247 Z0.000000 I1.221794 J0.741344
G02 X42.990575 Y41.613121 Z0.000000 I0.288782 J0.089785
G02 X43.172481 Y41.715421 Z0.000000 I0.181905 J-0.110578
G03 X43.359424 Y41.874055 Z0.000000 I0.000000 J0.189469
G03 X43.234571 Y42.091880 Z0.000000 I-0.196030 J0.032334
G02 X43.114845 Y42.220722 Z0.000000 I0.071596 J0.186580
G02 X43.151571 Y42.366904 Z0.000000 I0.140510 J0.042403
G03 X43.198282 Y42.533163 Z0.000000 I-0.124731 J0.124735
G03 X43.061131 Y42.740302 Z0.000000 I-0.354777 J-0.085931
G02 X42.963765 Y42.948516 Z0.000000 I0.144332 J0.194365
G02 X43.088561 Y43.219031 Z0.000000 I0.406019 J-0.023264
G02 X43.246651 Y43.289213 Z0.000000 I0.176454 J-0.184330
G01 X43.289325 Y43.233521 Z0.000000
G03 X43.254653 Y42.987554 Z0.000000 I0.605011 J-0.210712
G03 X43.307805 Y42.898107 Z0.000000 I0.112251 J0.006186
G03 X43.927955 Y42.906284 Z0.000000 I0.303651 J0.491304
G03 X43.947542 Y43.317201 Z0.000000 I-0.139251 J0.212563
G03 X43.879546 Y43.367964 Z0.000000 I-0.773990 J-0.965830
G03 X43.493303 Y43.632697 Z0.000000 I-21.744214 J-31.310519
G01 X43.105331 Y43.895128 Z0.000000
G01 X43.590875 Y43.798388 Z0.000000
G03 X44.039361 Y43.919306 Z0.000000 I0.102223 J0.513031
G03 X43.985224 Y44.146623 Z0.000000 I-0.087632 J0.099235
G02 X43.779959 Y44.285523 Z0.000000 I0.094188 J0.360309
G02 X43.756852 Y44.455472 Z0.000000 I0.143426 J0.106047
G02 X43.883322 Y44.592995 Z0.000000 I0.236803 J-0.090858
G02 X44.056491 Y44.600242 Z0.000000 I0.094963 J-0.196566
G03 X44.158318 Y44.677680 Z0.000000 I0.026950 J0.070230
G03 X44.018571 Y44.994192 Z0.000000 I-0.547708 J-0.052718
G02 X43.909823 Y45.267649 Z0.000000 I0.312144 J0.282485
G02 X44.007491 Y45.510777 Z0.000000 I0.333631 J0.007157
G02 X44.263982 Y45.709569 Z0.000000 I0.912395 J-0.912354
G02 X44.413356 Y45.750367 Z0.000000 I0.149374 J-0.253050
G03 X44.532345 Y45.899068 Z0.000000 I0.000000 J0.121957
G03 X44.308047 Y46.218903 Z0.000000 I-0.500630 J-0.112520
G01 X44.303770 Y46.282491 Z0.000000
G02 X44.416365 Y46.310703 Z0.000000 I0.084946 J-0.100231
G03 X44.986906 Y46.421043 Z0.000000 I0.155885 J0.724198
G03 X45.096965 Y46.770445 Z0.000000 I-0.164779 J0.243938
G02 X45.128826 Y46.911576 Z0.000000 I0.121666 J0.046695
G02 X45.329812 Y46.991883 Z0.000000 I0.200985 J-0.211352
G03 X45.618029 Y47.239198 Z0.000000 I0.000000 J0.291599
G03 X45.438418 Y47.698725 Z0.000000 I-0.486429 J0.074739
G02 X45.211566 Y48.165244 Z0.000000 I0.375641 J0.471077
G02 X45.433218 Y48.388580 Z0.000000 I0.221653 J0.001677
G03 X45.622952 Y48.432952 Z0.000000 I0.000000 J0.427830
G03 X45.742153 Y48.541425 Z0.000000 I-0.129843 J0.262418
G01 X45.710728 Y48.607239 Z0.000000
G03 X45.324541 Y48.594445 Z0.000000 I-0.153298 J-1.207562
G03 X44.847808 Y48.452031 Z0.000000 I0.487571 J-2.501296
G03 X44.760733 Y48.364002 Z0.000000 I0.059765 J-0.146197
G02 X44.672791 Y48.286698 Z0.000000 I-0.119580 J0.047363
G02 X44.246166 Y48.233408 Z0.000000 I-0.426624 J1.681066
G03 X43.466223 Y48.093786 Z0.000000 I-0.000001 J-2.248225
G03 X43.027787 Y47.782746 Z0.000000 I0.358996 J-0.970558
G02 X42.210311 Y47.224363 Z0.000000 I-1.377752 J1.139452
G02 X41.105273 Y47.148324 Z0.000000 I-0.701391 J2.125464
G03 X40.983343 Y47.133607 Z0.000000 I-0.037300 J-0.203431
G03 X40.872491 Y47.043951 Z0.000000 I0.114104 J-0.254436
G02 X39.920710 Y46.138455 Z0.000000 I-2.989429 J2.189274
G02 X39.143523 Y45.905572 Z0.000000 I-0.777186 J1.180386
G03 X39.011915 Y45.763972 Z0.000000 I-0.000000 J-0.131961
G03 X39.168653 Y45.562471 Z0.000000 I0.229504 J0.016810
G02 X39.299030 Y45.192678 Z0.000000 I-0.078525 J-0.235565
G02 X38.636660 Y44.734520 Z0.000000 I-0.881349 J0.566306
G03 X38.156182 Y44.592821 Z0.000000 I0.688260 J-3.219245
G03 X37.945343 Y44.471950 Z0.000000 I0.274861 J-0.723769
G02 X37.806039 Y44.429935 Z0.000000 I-0.121465 J0.150785
G02 X37.751357 Y44.489910 Z0.000000 I0.005549 J0.059975
G03 X37.704104 Y44.616846 Z0.000000 I-0.194122 J0.000000
G03 X37.600807 Y44.664100 Z0.000000 I-0.103297 J-0.089277
G03 X37.519825 Y44.598831 Z0.000000 I-0.000000 J-0.082873
G03 X37.484416 Y44.128659 Z0.000000 I1.664181 J-0.361753
G02 X37.445502 Y43.676792 Z0.000000 I-1.518179 J-0.096867
G02 X37.363384 Y43.624291 Z0.000000 I-0.068325 J0.016397
G02 X37.262976 Y43.695399 Z0.000000 I0.029667 J0.148336
G02 X37.229750 Y43.849353 Z0.000000 I0.213188 J0.126573
G03 X37.197852 Y43.995498 Z0.000000 I-0.232456 J0.025818
G03 X37.113358 Y44.043340 Z0.000000 I-0.084495 J-0.050693
G03 X37.017374 Y43.997331 Z0.000000 I-0.000000 J-0.123124
G03 X36.957511 Y43.849353 Z0.000000 I0.215850 J-0.173418
G03 X36.939766 Y43.655358 Z0.000000 I255.171793 J-23.438326
G03 X36.918710 Y43.422586 Z0.000000 I185.665924 J-16.911805
G02 X36.839941 Y43.267441 Z0.000000 I-0.233478 J0.020972
G02 X36.699508 Y43.230042 Z0.000000 I-0.107911 J0.122843
G03 X36.540629 Y43.198463 Z0.000000 I-0.041696 J-0.205682
G03 X36.411326 Y43.036055 Z0.000000 I0.192404 J-0.285862
G02 X36.200126 Y42.920701 Z0.000000 I-0.173458 J0.066563
G02 X36.044274 Y43.112206 Z0.000000 I0.039731 J0.191505
G03 X35.984995 Y43.363311 Z0.000000 I-0.561476 J0.000000
G03 X35.889085 Y43.422586 Z0.000000 I-0.095910 J-0.047956
G02 X35.788746 Y43.477431 Z0.000000 I0.000000 J0.119208
G02 X35.733896 Y43.664528 Z0.000000 I0.291676 J0.187097
G02 X35.788217 Y43.809043 Z0.000000 I0.219398 J-0.000000
G02 X35.871340 Y43.821528 Z0.000000 I0.048933 J-0.042838
G03 X35.963144 Y43.840391 Z0.000000 I0.035910 J0.058063
G03 X36.082604 Y44.122746 Z0.000000 I-0.598229 J0.419549
G03 X35.979036 Y44.323689 Z0.000000 I-0.179973 J0.034402
G03 X35.627608 Y44.331484 Z0.000000 I-0.184731 J-0.402665
G02 X35.182979 Y44.189259 Z0.000000 I-1.154073 J2.841780
G02 X34.802762 Y44.135380 Z0.000000 I-0.480046 J2.019130
G03 X34.553684 Y43.997996 Z0.000000 I0.015521 J-0.322621
G03 X34.465219 Y43.653249 Z0.000000 I0.414297 J-0.290035
G03 X34.570136 Y43.214217 Z0.000000 I1.783023 J0.194041
G03 X34.729409 Y42.952965 Z0.000000 I0.770986 J0.290858
G02 X34.887242 Y42.689353 Z0.000000 I-0.589362 J-0.531925
G02 X35.046503 Y42.069927 Z0.000000 I-3.237653 J-1.162620
G02 X34.923177 Y41.014590 Z0.000000 I-1.932603 J-0.309032
G02 X33.982351 Y39.490084 Z0.000000 I-5.143294 J2.121547
G03 X33.514718 Y38.860912 Z0.000000 I3.926869 J-3.407019
G03 X32.891422 Y37.764268 Z0.000000 I11.379247 J-7.193034
G02 X31.725280 Y36.107974 Z0.000000 I-6.315085 J3.207577
G02 X31.053218 Y35.818325 Z0.000000 I-0.672061 J0.634852
G03 X30.676745 Y35.714025 Z0.000000 I-0.000000 J-0.731599
G03 X30.471400 Y35.469145 Z0.000000 I0.251946 J-0.419805
G02 X30.282455 Y35.160373 Z0.000000 I-0.924965 J0.353813
G02 X29.689001 Y34.600024 Z0.000000 I-3.742041 J3.368689
G02 X29.067248 Y34.284087 Z0.000000 I-1.068953 J1.333898
G02 X28.830193 Y34.367239 Z0.000000 I-0.058023 J0.214064
G03 X28.601959 Y34.472599 Z0.000000 I-0.208977 J-0.152811
G03 X28.258526 Y34.324600 Z0.000000 I0.042619 J-0.571367
G02 X27.879826 Y34.019256 Z0.000000 I-2.700000 J2.961142
G02 X27.521158 Y33.800591 Z0.000000 I-1.731092 J2.435957
G02 X27.175814 Y33.735304 Z0.000000 I-0.281933 J0.545308
G02 X26.960886 Y33.858771 Z0.000000 I0.031540 J0.303709
G03 X26.579076 Y33.989761 Z0.000000 I-0.284826 J-0.208268
G03 X25.606337 Y33.471549 Z0.000000 I0.723051 J-2.529316
G02 X24.803930 Y32.982232 Z0.000000 I-1.988463 J2.358211
G02 X24.259916 Y32.910740 Z0.000000 I-0.404247 J0.970531
G02 X22.950033 Y33.316507 Z0.000000 I0.548181 J4.086764
G02 X22.905469 Y33.594448 Z0.000000 I0.078288 J0.155095
G02 X22.978134 Y33.619499 Z0.000000 I0.062038 J-0.062038
G02 X23.644559 Y33.504258 Z0.000000 I-0.822561 J-6.741318
G03 X24.291910 Y33.465303 Z0.000000 I0.443667 J1.974557
G03 X24.596169 Y33.600517 Z0.000000 I-0.053689 J0.530741
G03 X24.760405 Y34.006959 Z0.000000 I-0.337281 J0.372692
G03 X24.533800 Y34.527352 Z0.000000 I-0.840771 J-0.056580
G02 X24.514569 Y34.784987 Z0.000000 I0.149786 J0.140716
G02 X24.739959 Y34.825374 Z0.000000 I0.132771 J-0.091846
G03 X26.083746 Y34.410636 Z0.000000 I1.315597 J1.878287
G03 X26.607340 Y34.848363 Z0.000000 I-0.006638 J0.539956
G02 X26.753367 Y35.006493 Z0.000000 I0.200487 J-0.038653
G02 X27.588653 Y35.119944 Z0.000000 I0.835285 J-3.018168
G03 X28.366124 Y35.252293 Z0.000000 I0.000001 J2.349747
G03 X28.475521 Y35.430910 Z0.000000 I-0.054836 J0.156395
G02 X28.524722 Y35.694427 Z0.000000 I0.423409 J0.057297
G02 X28.732092 Y35.896477 Z0.000000 I0.436488 J-0.240541
G03 X29.030718 Y36.051130 Z0.000000 I-430.667295 J832.006323
G03 X29.587517 Y36.339678 Z0.000000 I-1606.975021 J3101.203137
G03 X30.047695 Y36.707454 Z0.000000 I-0.695888 J1.342515
G03 X30.307173 Y37.193213 Z0.000000 I-1.010358 J0.851884
G02 X30.516995 Y37.737697 Z0.000000 I3.222404 J-0.929112
G02 X31.076925 Y38.766886 Z0.000000 I12.147185 J-5.941763
G03 X31.664227 Y39.786466 Z0.000000 I-26.530037 J15.960863
G03 X32.316780 Y41.017128 Z0.000000 I-38.009944 J20.942960
G02 X33.035425 Y42.181587 Z0.000000 I7.493341 J-3.820524
G02 X33.488292 Y42.609241 Z0.000000 I1.403785 J-1.032939
G03 X33.898024 Y43.029674 Z0.000000 I-0.730035 J1.121322
G03 X34.026813 Y43.484971 Z0.000000 I-0.740394 J0.455297
G03 X33.932526 Y43.945297 Z0.000000 I-1.170831 J0.000000
G03 X33.758194 Y44.113186 Z0.000000 I-0.285629 J-0.122133
G03 X33.528486 Y44.133927 Z0.000000 I-0.151396 J-0.394351
G03 X33.434883 Y44.052197 Z0.000000 I0.022734 J-0.120502
G02 X31.985529 Y43.064120 Z0.000000 I-1.373695 J0.457969
G02 X30.923033 Y44.183661 Z0.000000 I0.058576 J1.119540
G02 X30.971783 Y44.236265 Z0.000000 I0.052756 J-0.000000
G02 X32.196995 Y44.280660 Z0.000000 I1.170220 J-15.366618
G03 X33.381520 Y44.421866 Z0.000000 I0.016994 J4.896309
G03 X33.653317 Y44.638346 Z0.000000 I-0.098985 J0.403144
G02 X34.119750 Y45.111038 Z0.000000 I0.965123 J-0.485867
G02 X34.941931 Y45.308745 Z0.000000 I0.808612 J-1.554277
G03 X35.610743 Y45.426732 Z0.000000 I0.014532 J1.872200
G03 X35.733894 Y45.604103 Z0.000000 I-0.066155 J0.177370
G03 X35.675101 Y45.846793 Z0.000000 I-0.530286 J0.000000
G03 X35.578705 Y45.905591 Z0.000000 I-0.096395 J-0.049617
G02 X35.447216 Y46.053153 Z0.000000 I0.000000 J0.132365
G02 X35.642446 Y46.457069 Z0.000000 I0.677442 J-0.078297
G03 X35.840354 Y46.689941 Z0.000000 I-1.335721 J1.335711
G03 X35.941359 Y46.872751 Z0.000000 I-0.716161 J0.514994
G02 X36.044334 Y46.915172 Z0.000000 I0.072336 J-0.029397
G02 X36.308105 Y46.716290 Z0.000000 I-0.269574 J-0.631886
G03 X36.678447 Y46.691978 Z0.000000 I0.196439 J0.159482
G03 X36.864782 Y47.243009 Z0.000000 I-0.427175 J0.451473
G02 X36.866928 Y47.693570 Z0.000000 I1.348687 J0.218861
G02 X36.955092 Y47.767859 Z0.000000 I0.088164 J-0.015170
G03 X37.072209 Y47.826236 Z0.000000 I0.000000 J0.146669
G03 X37.130585 Y48.000644 Z0.000000 I-0.231347 J0.174408
G02 X37.297384 Y48.167875 Z0.000000 I0.167231 J-0.000000
G02 X37.539691 Y48.001844 Z0.000000 I0.000670 J-0.258851
G03 X37.746780 Y47.954488 Z0.000000 I0.119440 J0.045834
G03 X37.876898 Y48.319001 Z0.000000 I-0.290942 J0.309337
G02 X37.900090 Y48.624199 Z0.000000 I0.741306 J0.097150
G02 X37.984125 Y48.689101 Z0.000000 I0.086416 J-0.025036
G02 X38.066999 Y48.623692 Z0.000000 I0.002220 J-0.082392
G02 X38.102263 Y48.128097 Z0.000000 I-1.786377 J-0.376162
G03 X38.132695 Y47.584869 Z0.000000 I2.240834 J-0.146933
G03 X38.241683 Y47.350350 Z0.000000 I0.499524 J0.089558
G02 X38.284005 Y47.154036 Z0.000000 I-0.167204 J-0.138765
G02 X38.123545 Y46.920229 Z0.000000 I-0.417763 J0.114743
G02 X37.835677 Y46.798689 Z0.000000 I-0.396189 J0.536700
G02 X37.681507 Y46.847489 Z0.000000 I-0.029010 J0.176282
G03 X37.437227 Y46.897315 Z0.000000 I-0.160584 J-0.163565
G03 X37.351837 Y46.718191 Z0.000000 I0.053025 J-0.135193
G02 X37.324973 Y46.495603 Z0.000000 I-0.257742 J-0.081808
G02 X37.091620 Y46.291423 Z0.000000 I-0.441618 J0.269279
G03 X36.714534 Y45.844642 Z0.000000 I0.267635 J-0.608406
G03 X36.922893 Y45.618379 Z0.000000 I0.178452 J-0.044736
G02 X37.199350 Y45.621055 Z0.000000 I0.146863 J-0.890761
G02 X37.390252 Y45.551059 Z0.000000 I-0.070876 J-0.488628
G03 X37.889574 Y45.540659 Z0.000000 I0.258339 J0.411468
G03 X39.197810 Y46.583582 Z0.000000 I-2.704370 J4.734326
G03 X39.500651 Y47.098079 Z0.000000 I-1.045417 J0.961729
G03 X39.534435 Y47.598397 Z0.000000 I-0.951220 J0.315530
G02 X39.573908 Y47.898410 Z0.000000 I0.478134 J0.089695
G02 X39.690515 Y47.923934 Z0.000000 I0.068261 J-0.032728
G02 X39.840980 Y47.671970 Z0.000000 I-0.281212 J-0.338839
G02 X39.844349 Y47.159529 Z0.000000 I-1.316208 J-0.264885
G03 X39.895317 Y46.879711 Z0.000000 I0.390941 J-0.073343
G03 X40.026476 Y46.859642 Z0.000000 I0.073991 J0.044937
G02 X40.332358 Y47.074140 Z0.000000 I1.126047 J-1.280433
G02 X40.699934 Y47.229116 Z0.000000 I0.934966 J-1.704182
G03 X41.602596 Y47.681651 Z0.000000 I-0.878891 J2.879632
G03 X41.781382 Y48.022930 Z0.000000 I-0.259362 J0.353342
G03 X41.717851 Y48.148225 Z0.000000 I-0.147268 J0.004081
G03 X41.375839 Y48.303102 Z0.000000 I-0.598218 J-0.865959
G02 X41.141531 Y48.454799 Z0.000000 I0.105245 J0.419362
G02 X41.149518 Y48.590207 Z0.000000 I0.080186 J0.063210
G02 X41.318834 Y48.647373 Z0.000000 I0.142381 J-0.142380
G02 X41.474503 Y48.546336 Z0.000000 I-0.029046 J-0.215192
G03 X41.994463 Y48.257783 Z0.000000 I0.517557 J0.319865
G03 X43.260554 Y48.553336 Z0.000000 I-0.011483 J2.908813
G03 X43.616722 Y48.850571 Z0.000000 I-0.427470 J0.874233
G03 X43.733187 Y49.195230 Z0.000000 I-0.481954 J0.354866
G03 X43.676773 Y49.497876 Z0.000000 I-0.769369 J0.013170
G03 X43.600170 Y49.522902 Z0.000000 I-0.048872 J-0.019843
G01 X43.546472 Y49.547112 Z0.000000
G02 X43.560620 Y49.753077 Z0.000000 I0.430179 J0.073919
G03 X43.584015 Y50.041237 Z0.000000 I-0.613919 J0.194873
G03 X43.499650 Y50.169645 Z0.000000 I-0.180008 J-0.026349
G02 X43.405265 Y50.408169 Z0.000000 I0.112809 J0.182575
G02 X43.605463 Y50.561478 Z0.000000 I0.200198 J-0.054060
G03 X43.657095 Y50.629500 Z0.000000 I0.000000 J0.053606
G03 X43.540473 Y50.794229 Z0.000000 I-0.288392 J-0.080525
G03 X43.197391 Y50.941884 Z0.000000 I-0.527338 J-0.752876
G03 X42.923983 Y50.920365 Z0.000000 I-0.099337 J-0.485503
G02 X42.825512 Y50.947488 Z0.000000 I-0.030545 J0.081418
G02 X42.825853 Y51.043134 Z0.000000 I0.059564 J0.047611
G03 X42.968714 Y51.292219 Z0.000000 I-0.696661 J0.565076
G03 X43.099648 Y51.770539 Z0.000000 I-2.504255 J0.942586
G03 X43.073467 Y52.172956 Z0.000000 I-0.837603 J0.147567
G03 X42.943230 Y52.268561 Z0.000000 I-0.130237 J-0.040905
G02 X42.808297 Y52.329447 Z0.000000 I0.000000 J0.179959
G02 X42.799644 Y52.431284 Z0.000000 I0.064309 J0.056751
G02 X42.916785 Y52.503333 Z0.000000 I0.130236 J-0.080494
G02 X43.080383 Y52.455394 Z0.000000 I0.020125 J-0.234439
G03 X43.624340 Y52.263176 Z0.000000 I0.565764 J0.735275
G03 X43.803716 Y52.438383 Z0.000000 I0.004119 J0.175208
G03 X43.715796 Y52.650085 Z0.000000 I-0.298836 J0.000000
G03 X43.532135 Y52.708966 Z0.000000 I-0.149318 J-0.149873
G02 X43.270239 Y52.712503 Z0.000000 I-0.121036 J0.735527
G02 X43.036930 Y52.804276 Z0.000000 I0.129016 J0.670443
G03 X42.849573 Y52.843286 Z0.000000 I-0.146445 J-0.233923
G03 X42.752415 Y52.761636 Z0.000000 I0.017994 J-0.120043
G02 X42.658432 Y52.624900 Z0.000000 I-0.284310 J0.094748
G02 X42.530267 Y52.578976 Z0.000000 I-0.128165 J0.155880
G01 X42.484505 Y52.633210 Z0.000000
G02 X42.572017 Y52.823587 Z0.000000 I0.398972 J-0.068096
G03 X42.669561 Y53.051882 Z0.000000 I-0.335226 J0.278219
G03 X42.612297 Y53.172760 Z0.000000 I-0.125622 J0.014492
G02 X42.394084 Y53.623719 Z0.000000 I0.259494 J0.403841
G02 X42.706128 Y54.123896 Z0.000000 I0.661469 J-0.065243
G03 X42.818742 Y54.478206 Z0.000000 I-0.150018 J0.242733
G03 X42.291029 Y55.100970 Z0.000000 I-1.266096 J-0.537888
G02 X41.206830 Y55.825870 Z0.000000 I15.388805 J24.189570
G02 X40.614845 Y56.277708 Z0.000000 I5.371274 J7.651013
G03 X40.447797 Y56.406729 Z0.000000 I-1.969992 J-2.377969
G03 X39.606117 Y57.003168 Z0.000000 I-43.146760 J-59.995467
G02 X38.780183 Y57.613444 Z0.000000 I10.953603 J15.688402
G02 X38.664651 Y57.738672 Z0.000000 I0.324262 J0.415065
G03 X38.550583 Y57.863713 Z0.000000 I-0.452266 J-0.298027
G03 X38.258408 Y58.063426 Z0.000000 I-1.478989 J-1.850144
G02 X37.952768 Y58.251445 Z0.000000 I3.367458 J5.816507
G02 X37.525849 Y58.541483 Z0.000000 I7.601036 J11.647480
G03 X37.129115 Y58.716814 Z0.000000 I-0.632672 J-0.895068
G03 X36.992519 Y58.659040 Z0.000000 I-0.027585 J-0.125146
G02 X36.864443 Y58.628871 Z0.000000 I-0.079108 J0.048891
G02 X36.268616 Y59.107416 Z0.000000 I1.651671 J2.666661
G03 X35.628207 Y59.703744 Z0.000000 I-6.399227 J-6.230228
G03 X34.752307 Y60.386562 Z0.000000 I-9.276650 J-10.996625
G02 X33.850747 Y61.040103 Z0.000000 I87.897524 J122.203312
G02 X33.149592 Y61.557437 Z0.000000 I54.386112 J74.444681
G03 X32.421166 Y61.997906 Z0.000000 I-2.638522 J-3.540898
G03 X31.999157 Y62.109367 Z0.000000 I-0.502195 J-1.046766
G03 X31.761295 Y62.011728 Z0.000000 I-0.020054 J-0.289697
G03 X31.745312 Y61.821493 Z0.000000 I0.120072 J-0.105877
G02 X32.249029 Y60.773121 Z0.000000 I-4.624456 J-2.867136
G02 X32.161218 Y60.648808 Z0.000000 I-0.087811 J-0.031143
G02 X32.058636 Y60.698476 Z0.000000 I0.000000 J0.130769
G02 X32.007848 Y60.842795 Z0.000000 I0.184859 J0.146150
G03 X31.956918 Y61.019298 Z0.000000 I-0.339728 J-0.002429
G03 X31.468891 Y61.712862 Z0.000000 I-6.166952 J-3.820902
G03 X30.998699 Y61.842536 Z0.000000 I-0.324013 J-0.257573
G03 X30.544033 Y61.363745 Z0.000000 I0.267885 J-0.709661
G02 X30.436287 Y61.374346 Z0.000000 I-0.052736 J0.016850
G02 X30.468443 Y62.029123 Z0.000000 I2.016972 J0.229126
G03 X30.588322 Y62.829875 Z0.000000 I-6.322784 J1.355921
G03 X30.556723 Y63.053727 Z0.000000 I-0.502163 J0.043272
G03 X30.422697 Y63.229129 Z0.000000 I-0.365177 J-0.140127
G03 X29.727779 Y63.661000 Z0.000000 I-3.175677 J-4.334915
G02 X29.266348 Y63.982444 Z0.000000 I1.012166 J1.944871
G01 X29.293540 Y64.055162 Z0.000000
G02 X29.588647 Y64.005066 Z0.000000 I0.016774 J-0.795445
G02 X30.123083 Y63.745290 Z0.000000 I-1.095118 J-2.932617
G03 X30.633396 Y63.550458 Z0.000000 I0.782172 J1.282967
G03 X30.860231 Y63.609686 Z0.000000 I0.050076 J0.272208
G02 X31.003264 Y63.626723 Z0.000000 I0.084686 J-0.102043
G02 X31.084066 Y63.500011 Z0.000000 I-0.063510 J-0.129619
G03 X31.198273 Y63.268742 Z0.000000 I0.303662 J0.006123
G03 X33.295509 Y61.735132 Z0.000000 I19.222130 J24.085753
G02 X35.649144 Y60.121844 Z0.000000 I-67.977166 J-101.695843
G02 X37.483710 Y58.791965 Z0.000000 I-44.346493 J-63.106209
G03 X38.373260 Y58.215643 Z0.000000 I4.735969 J6.335286
G03 X38.489995 Y58.231950 Z0.000000 I0.047567 J0.085473
G03 X38.495014 Y58.341177 Z0.000000 I-0.057365 J0.057365
G03 X37.554916 Y59.356705 Z0.000000 I-9.991861 J-8.306801
G02 X36.530986 Y60.380404 Z0.000000 I34.518808 J35.550543
G02 X36.509832 Y60.432538 Z0.000000 I0.053669 J0.052135
G02 X36.647159 Y60.524945 Z0.000000 I0.099753 J-0.000000
G02 X37.277285 Y60.120494 Z0.000000 I-0.768930 J-1.891064
G03 X37.946530 Y59.616126 Z0.000000 I2.633604 J2.798330
G03 X40.467153 Y58.223243 Z0.000000 I23.198551 J39.003972
G02 X41.861766 Y57.504339 Z0.000000 I-124.968493 J-244.140429
G02 X42.385068 Y57.227628 Z0.000000 I-17.980713 J-34.637425
G03 X43.047510 Y57.188823 Z0.000000 I0.372923 J0.692488
G03 X43.621142 Y57.716991 Z0.000000 I-0.399767 J1.009768
G03 X43.805059 Y58.342104 Z0.000000 I-1.693463 J0.837852
G03 X43.764768 Y58.984486 Z0.000000 I-1.831731 J0.207565
G03 X43.571766 Y59.622116 Z0.000000 I-5.804033 J-1.408776
G03 X43.471897 Y59.787505 Z0.000000 I-0.471898 J-0.172107
G02 X43.384369 Y59.952779 Z0.000000 I0.280270 J0.254244
G02 X43.338149 Y60.340430 Z0.000000 I1.602535 J0.387650
G03 X43.089925 Y60.938217 Z0.000000 I-0.843925 J0.000000
G03 X41.677754 Y61.995026 Z0.000000 I-4.423404 J-4.438897
G02 X39.149981 Y63.736177 Z0.000000 I7.247797 J13.227690
G02 X38.837670 Y64.412070 Z0.000000 I0.575216 J0.675893
G03 X38.470019 Y65.367932 Z0.000000 I-1.426403 J0.000001
G03 X37.169387 Y66.259927 Z0.000000 I-2.510790 J-2.266788
G02 X36.754266 Y66.564902 Z0.000000 I0.348269 J0.909063
G02 X36.820212 Y66.701181 Z0.000000 I0.065946 J0.052184
G03 X37.040796 Y66.933975 Z0.000000 I0.000000 J0.220904
G03 X36.766162 Y67.703958 Z0.000000 I-1.433321 J-0.077261
G03 X36.537341 Y67.889877 Z0.000000 I-0.467978 J-0.342198
G03 X36.378188 Y67.879648 Z0.000000 I-0.069974 J-0.154521
G03 X36.222147 Y67.554667 Z0.000000 I0.175725 J-0.284327
G03 X36.454448 Y67.257293 Z0.000000 I0.363509 J0.044544
G02 X36.617164 Y67.139822 Z0.000000 I-0.140435 J-0.365955
G02 X36.613387 Y67.063384 Z0.000000 I-0.044083 J-0.036134
G02 X36.280802 Y67.065312 Z0.000000 I-0.165340 J0.165342
G02 X36.044263 Y67.645858 Z0.000000 I0.594156 J0.580545
G03 X35.831740 Y68.040547 Z0.000000 I-0.472762 J0.000000
G03 X35.123330 Y68.253073 Z0.000000 I-0.708410 J-1.074406
G02 X34.892480 Y68.342799 Z0.000000 I0.000000 J0.341832
G02 X34.802751 Y68.546627 Z0.000000 I0.186643 J0.203828
G03 X34.710900 Y68.768535 Z0.000000 I-0.313983 J0.000000
G03 X34.411361 Y68.938412 Z0.000000 I-0.456672 J-0.456211
G02 X34.183559 Y69.109067 Z0.000000 I0.089614 J0.356992
G02 X34.179122 Y69.334027 Z0.000000 I0.198343 J0.116436
G03 X34.200162 Y69.598461 Z0.000000 I-0.292031 J0.156290
G03 X33.992821 Y69.873374 Z0.000000 I-0.527535 J-0.182224
G02 X33.754844 Y70.081446 Z0.000000 I0.845587 J1.207245
G01 X33.769696 Y70.115342 Z0.000000
G02 X34.154006 Y70.008389 Z0.000000 I-0.000000 J-0.743937
G02 X34.979716 Y69.385303 Z0.000000 I-2.584166 J-4.283177
G03 X35.371140 Y69.139889 Z0.000000 I0.833717 J0.894884
G03 X35.500535 Y69.183288 Z0.000000 I0.038599 J0.099514
G02 X35.615055 Y69.203829 Z0.000000 I0.066472 J-0.041084
G02 X35.996513 Y68.796574 Z0.000000 I-1.105149 J-1.417416
G03 X36.416582 Y68.342321 Z0.000000 I1.718185 J1.167536
G03 X36.599587 Y68.313858 Z0.000000 I0.116318 J0.145321
G02 X36.775710 Y68.287055 Z0.000000 I0.064515 J-0.168118
G02 X37.041558 Y67.964803 Z0.000000 I-0.613734 J-0.777098
G03 X37.307809 Y67.562804 Z0.000000 I1.991673 J1.029945
G03 X38.129106 Y66.654365 Z0.000000 I11.130199 J9.237058
G02 X38.899685 Y65.738548 Z0.000000 I-5.479126 J-5.392295
G02 X38.992855 Y65.448467 Z0.000000 I-0.404987 J-0.290080
G03 X39.076347 Y65.184698 Z0.000000 I0.458395 J-0.000000
G03 X39.275860 Y65.046225 Z0.000000 I0.288870 J0.203239
G02 X39.500463 Y64.903453 Z0.000000 I-0.110233 J-0.421467
G02 X39.812731 Y64.401200 Z0.000000 I-1.653391 J-1.376170
G01 X40.066598 Y63.830181 Z0.000000
G01 X39.692358 Y64.256952 Z0.000000
G03 X39.266015 Y64.566786 Z0.000000 I-0.898059 J-0.787513
G03 X39.150842 Y64.489735 Z0.000000 I-0.032610 J-0.075860
G03 X39.214570 Y64.324901 Z0.000000 I0.254284 J0.003575
G03 X39.787545 Y63.769232 Z0.000000 I3.890046 J3.437954
G03 X40.399359 Y63.406780 Z0.000000 I1.441232 J1.735190
G03 X40.572507 Y63.458854 Z0.000000 I0.053621 J0.135610
G02 X40.708339 Y63.539354 Z0.000000 I0.156657 J-0.109486
G02 X40.801300 Y63.483934 Z0.000000 I0.009784 J-0.089263
G03 X42.269467 Y61.887601 Z0.000000 I2.872833 J1.168867
G03 X43.027770 Y62.352930 Z0.000000 I0.236378 J0.465329
G02 X43.087407 Y62.451439 Z0.000000 I0.111178 J-0.000000
G02 X43.330037 Y62.511077 Z0.000000 I0.242630 J-0.463738
G03 X43.516848 Y62.633834 Z0.000000 I0.000000 J0.203522
G03 X43.682277 Y63.325819 Z0.000000 I-1.892532 J0.818206
G02 X43.808939 Y63.706836 Z0.000000 I0.780401 J-0.047867
G02 X43.925741 Y63.696923 Z0.000000 I0.055719 J-0.036555
G03 X44.160005 Y63.424777 Z0.000000 I0.557883 J0.243325
G03 X44.340236 Y63.436698 Z0.000000 I0.081883 J0.130426
G03 X44.514761 Y63.647726 Z0.000000 I-0.470195 J0.566544
G03 X44.627658 Y63.957930 Z0.000000 I-0.936857 J0.516608
G01 X44.644322 Y63.956920 Z0.000000
G02 X44.641948 Y63.762590 Z0.000000 I-1.138298 J-0.083270
G03 X44.692904 Y63.251527 Z0.000000 I1.306836 J-0.127772
G03 X45.050304 Y62.424595 Z0.000000 I3.863686 J1.179186
G02 X45.415976 Y61.594548 Z0.000000 I-3.765805 J-2.154570
G02 X45.510786 Y60.988250 Z0.000000 I-1.891173 J-0.606297
G03 X45.568299 Y60.388809 Z0.000000 I3.152674 J-0.000001
G03 X45.649715 Y60.270883 Z0.000000 I0.175283 J0.033947
G03 X45.861312 Y60.329604 Z0.000000 I0.078637 J0.127237
G03 X46.044383 Y61.036779 Z0.000000 I-1.471296 J0.758168
G02 X46.155139 Y61.241283 Z0.000000 I0.258863 J-0.007952
G02 X46.480808 Y61.341032 Z0.000000 I0.317697 J-0.455729
G03 X46.783496 Y61.428900 Z0.000000 I0.007740 J0.538629
G03 X46.836571 Y61.573815 Z0.000000 I-0.070719 J0.108077
G02 X46.948768 Y62.219412 Z0.000000 I0.705502 J0.209940
G02 X47.524781 Y62.511075 Z0.000000 I0.576013 J-0.422960
G03 X47.609411 Y62.580547 Z0.000000 I0.000000 J0.086284
G03 X47.593901 Y62.859032 Z0.000000 I-0.549149 J0.109090
G02 X47.626225 Y62.995011 Z0.000000 I0.129399 J0.041071
G02 X47.732237 Y63.000527 Z0.000000 I0.055998 J-0.054748
G03 X47.919113 Y62.983335 Z0.000000 I0.105976 J0.127693
G03 X48.081828 Y63.195730 Z0.000000 I-0.164446 J0.294507
G02 X48.309093 Y63.417329 Z0.000000 I0.293496 J-0.073662
G02 X48.661759 Y63.325817 Z0.000000 I0.087262 J-0.389014
G03 X48.807762 Y63.300284 Z0.000000 I0.093577 J0.104893
G03 X48.857202 Y63.404376 Z0.000000 I-0.031690 J0.078839
G02 X48.881092 Y63.715620 Z0.000000 I0.403433 J0.125573
G02 X49.224553 Y64.155318 Z0.000000 I1.212582 J-0.593189
G03 X49.579995 Y64.612394 Z0.000000 I-0.892791 J1.061017
G03 X49.700882 Y65.139803 Z0.000000 I-1.090058 J0.527410
G02 X50.356081 Y66.880404 Z0.000000 I2.639642 J-0.000001
G02 X52.233401 Y68.027102 Z0.000000 I2.776313 J-2.435170
G03 X52.585899 Y68.358079 Z0.000000 I-0.120987 J0.482051
G03 X52.589118 Y69.141970 Z0.000000 I-1.244443 J0.397061
G03 X51.078509 Y73.067763 Z0.000000 I-30.148118 J-9.347182
G03 X49.749988 Y75.267621 Z0.000000 I-10.689193 J-4.954251
G03 X48.977000 Y76.162117 Z0.000000 I-7.821300 J-5.977624
G03 X46.829889 Y78.262583 Z0.000000 I-45.496651 J-44.359338
G03 X46.008880 Y78.922175 Z0.000000 I-4.860555 J-5.209285
G03 X44.999454 Y79.522470 Z0.000000 I-5.023499 J-7.298418
G02 X43.932101 Y80.347363 Z0.000000 I1.636943 J3.221074
G02 X43.943181 Y80.714564 Z0.000000 I0.200568 J0.177716
G02 X44.401273 Y80.784830 Z0.000000 I0.276910 J-0.276911
G02 X46.362027 Y79.452238 Z0.000000 I-4.741072 J-9.084740
G02 X48.679382 Y77.334803 Z0.000000 I-37.345482 J-43.198286
G02 X49.603238 Y76.322905 Z0.000000 I-7.556977 J-7.827152
G02 X51.589399 Y73.311313 Z0.000000 I-14.994806 J-12.049892
G02 X53.196383 Y69.572178 Z0.000000 I-21.611548 J-11.502976
G03 X53.624458 Y68.338450 Z0.000000 I54.892609 J18.355366
G03 X53.661968 Y68.277698 Z0.000000 I0.162776 J0.058545
G03 X54.085492 Y68.226014 Z0.000000 I0.243176 J0.231577
G03 X54.356555 Y68.719936 Z0.000000 I-0.314474 J0.493923
G02 X54.407261 Y68.982423 Z0.000000 I0.704762 J-0.000000
G02 X54.511743 Y69.106610 Z0.000000 I0.241010 J-0.096723
G03 X54.613021 Y69.234116 Z0.000000 I-0.126229 J0.204241
G03 X54.684937 Y69.620132 Z0.000000 I-1.322737 J0.446136
G02 X54.731241 Y69.772432 Z0.000000 I0.318793 J-0.013735
G01 X54.773907 Y69.766163 Z0.000000
G03 X54.975540 Y69.597706 Z0.000000 I0.219005 J0.057236
G03 X55.191184 Y69.734043 Z0.000000 I0.016379 J0.212803
G02 X55.329072 Y69.850024 Z0.000000 I0.173832 J-0.066710
G02 X55.585557 Y69.811633 Z0.000000 I0.074465 J-0.378476
G03 X55.942736 Y69.735796 Z0.000000 I0.309382 J0.578095
G03 X56.024835 Y69.843743 Z0.000000 I-0.006593 J0.090208
G02 X56.077443 Y69.954545 Z0.000000 I0.100614 J0.020119
G02 X56.324898 Y70.002588 Z0.000000 I0.202751 J-0.383002
G03 X56.583913 Y70.071208 Z0.000000 I0.038988 J0.375990
G03 X56.712873 Y70.280317 Z0.000000 I-0.184964 J0.258389
G02 X56.924726 Y70.446376 Z0.000000 I0.195002 J-0.030611
G02 X57.173283 Y70.240867 Z0.000000 I-0.024190 J-0.282323
G03 X57.248405 Y70.122266 Z0.000000 I0.236223 J0.066533
G01 X57.289676 Y70.139584 Z0.000000
G02 X57.384175 Y70.287668 Z0.000000 I0.180301 J-0.010864
G02 X57.615525 Y70.315471 Z0.000000 I0.150951 J-0.279640
G02 X57.875084 Y70.195069 Z0.000000 I-0.203788 J-0.779296
G02 X57.925898 Y70.097215 Z0.000000 I-0.068813 J-0.097855
G03 X57.979981 Y70.014205 Z0.000000 I0.090745 J-0.000000
G03 X58.236278 Y69.960126 Z0.000000 I0.256298 J0.580291
G02 X58.463478 Y69.876946 Z0.000000 I-0.000000 J-0.351880
G02 X58.546659 Y69.697681 Z0.000000 I-0.151578 J-0.179265
G03 X58.615288 Y69.639751 Z0.000000 I0.058764 J-0.000000
G03 X58.774506 Y69.736480 Z0.000000 I-0.042449 J0.249273
G02 X58.921797 Y69.791936 Z0.000000 I0.117563 J-0.088920
G02 X59.007286 Y69.688550 Z0.000000 I-0.021599 J-0.104898
G03 X59.184914 Y69.470576 Z0.000000 I0.226608 J0.003302
G03 X59.533215 Y69.572158 Z0.000000 I0.081534 J0.368349
G02 X59.786419 Y69.603414 Z0.000000 I0.146632 J-0.146633
G02 X59.943360 Y69.326441 Z0.000000 I-0.165934 J-0.276973
G03 X60.150726 Y69.129271 Z0.000000 I0.197420 J-0.000000
G03 X60.427972 Y69.350891 Z0.000000 I-0.015304 J0.303371
G01 X60.491666 Y69.378939 Z0.000000
G02 X60.548647 Y69.289791 Z0.000000 I-0.046998 J-0.092824
G03 X60.673339 Y68.983317 Z0.000000 I0.480673 J0.016965
G03 X60.901135 Y68.901819 Z0.000000 I0.190354 J0.172952
G03 X61.165275 Y69.038227 Z0.000000 I-0.066651 J0.453007
G03 X61.391694 Y69.414363 Z0.000000 I-0.721455 J0.690502
G02 X61.591960 Y69.852646 Z0.000000 I2.114644 J-0.701358
G02 X62.102201 Y70.607884 Z0.000000 I6.849338 J-4.077453
G03 X63.177755 Y72.113625 Z0.000000 I-23.649921 J18.030184
G03 X63.482469 Y72.673176 Z0.000000 I-2.931353 J1.959071
G02 X63.723803 Y73.115788 Z0.000000 I2.546158 J-1.101190
G02 X64.056042 Y73.529485 Z0.000000 I2.552877 J-1.709951
G03 X64.409446 Y73.932212 Z0.000000 I-4.524602 J4.326878
G03 X65.017414 Y74.724546 Z0.000000 I-16.945033 J13.631569
G02 X66.712635 Y76.965926 Z0.000000 I70.816783 J-51.799027
G02 X67.801152 Y78.285154 Z0.000000 I25.604692 J-20.018182
G03 X68.087221 Y78.620954 Z0.000000 I-15.711587 J13.674491
G03 X68.944327 Y79.656212 Z0.000000 I-148.480426 J123.801553
G02 X71.628850 Y82.282299 Z0.000000 I13.413942 J-11.027263
G02 X72.239635 Y82.245808 Z0.000000 I0.284828 J-0.362449
G02 X72.285370 Y81.786938 Z0.000000 I-0.257365 J-0.257366
G02 X71.087614 Y80.512990 Z0.000000 I-4.357693 J2.897034
G03 X68.601301 Y78.288330 Z0.000000 I12.365674 J-16.321763
G03 X65.885402 Y75.032199 Z0.000000 I23.988465 J-22.769199
G02 X65.444001 Y74.446751 Z0.000000 I-19.763553 J14.441708
G02 X65.219787 Y74.176346 Z0.000000 I-4.433534 J3.448032
G03 X63.765932 Y72.353262 Z0.000000 I17.356712 J-15.332697
G03 X62.971925 Y71.046459 Z0.000000 I8.088931 J-5.809412
G02 X62.671967 Y70.518368 Z0.000000 I-5.714426 J2.896582
G02 X62.173519 Y69.784156 Z0.000000 I-11.561834 J7.312909
G03 X61.831588 Y68.936054 Z0.000000 I1.520622 J-1.106052
G03 X62.017838 Y68.660059 Z0.000000 I0.246938 J-0.034199
G02 X63.421524 Y67.733741 Z0.000000 I-0.618350 J-2.463699
G02 X63.978270 Y66.081606 Z0.000000 I-2.172964 J-1.652134
G03 X64.021444 Y65.769116 Z0.000000 I1.152485 J-0.000000
G03 X64.231381 Y65.183087 Z0.000000 I4.319583 J1.216815
G02 X64.429725 Y64.596006 Z0.000000 I-3.243531 J-1.422865
G02 X64.465697 Y64.218140 Z0.000000 I-1.291356 J-0.313578
G03 X64.525367 Y64.056881 Z0.000000 I0.219055 J-0.010613
G03 X64.612374 Y64.062950 Z0.000000 I0.041011 J0.038763
G02 X64.761463 Y64.155428 Z0.000000 I0.184638 J-0.131250
G02 X64.856557 Y64.101750 Z0.000000 I0.013772 J-0.086673
G03 X65.063646 Y64.014480 Z0.000000 I0.147083 J0.059681
G03 X65.171611 Y64.230399 Z0.000000 I-0.069244 J0.169576
G02 X65.202502 Y64.424274 Z0.000000 I0.236191 J0.061764
G02 X65.321396 Y64.463184 Z0.000000 I0.083371 J-0.053650
G03 X65.558583 Y64.389737 Z0.000000 I0.673126 J1.754075
G03 X65.698045 Y64.373334 Z0.000000 I0.139462 J0.584645
G02 X65.809225 Y64.240983 Z0.000000 I-0.000000 J-0.112874
G02 X65.606565 Y63.851152 Z0.000000 I-0.718323 J0.125839
G03 X65.661061 Y63.652319 Z0.000000 I0.083892 J-0.083891
G03 X66.022979 Y63.744659 Z0.000000 I0.096483 J0.377266
G02 X66.378252 Y64.028356 Z0.000000 I2.036244 J-2.185675
G02 X66.490559 Y64.062953 Z0.000000 I0.112306 J-0.164980
G02 X66.670112 Y63.872615 Z0.000000 I-0.000000 J-0.179859
G02 X66.458758 Y63.518227 Z0.000000 I-0.446481 J0.026059
G03 X66.424401 Y63.303598 Z0.000000 I0.075493 J-0.122149
G03 X66.699047 Y63.232794 Z0.000000 I0.187045 J0.157470
G02 X66.867447 Y63.233785 Z0.000000 I0.085514 J-0.222803
G02 X66.926859 Y63.148424 Z0.000000 I-0.031615 J-0.085361
G03 X66.987255 Y63.037025 Z0.000000 I0.132936 J-0.000000
G03 X67.190680 Y62.976630 Z0.000000 I0.203425 J0.312399
G02 X67.291780 Y62.909227 Z0.000000 I-0.000000 J-0.109524
G02 X67.268270 Y62.790403 Z0.000000 I-0.100472 J-0.041859
G03 X67.153977 Y62.323348 Z0.000000 I0.327706 J-0.327705
G03 X67.552714 Y61.888194 Z0.000000 I0.665949 J0.209955
G02 X67.814279 Y61.646199 Z0.000000 I-0.196770 J-0.475039
G02 X67.785494 Y61.430376 Z0.000000 I-0.171121 J-0.087008
G03 X67.679957 Y61.058308 Z0.000000 I0.323495 J-0.292760
G03 X67.871283 Y60.966286 Z0.000000 I0.129288 J0.023899
G02 X68.058126 Y60.874110 Z0.000000 I0.060442 J-0.112937
G02 X67.937833 Y60.561115 Z0.000000 I-0.327416 J-0.053779
G01 X67.474512 Y60.190879 Z0.000000
G01 X68.046289 Y60.283669 Z0.000000
G02 X68.899770 Y60.111042 Z0.000000 I0.197739 J-1.218518
G02 X69.009032 Y59.680056 Z0.000000 I-0.170965 J-0.272685
G01 X69.027527 Y59.647919 Z0.000000
G03 X69.107772 Y59.678856 Z0.000000 I0.001408 J0.115885
G02 X69.419912 Y59.818115 Z0.000000 I0.360321 J-0.388189
G02 X69.484778 Y59.713296 Z0.000000 I0.006267 J-0.068602
G03 X69.413153 Y59.544216 Z0.000000 I0.512157 J-0.316669
G03 X69.327802 Y59.092540 Z0.000000 I3.663348 J-0.926148
G03 X69.369304 Y58.719381 Z0.000000 I0.794211 J-0.100556
G03 X69.494840 Y58.631330 Z0.000000 I0.125537 J0.045465
G02 X69.653175 Y58.564249 Z0.000000 I-0.000000 J-0.220403
G02 X69.720255 Y58.398546 Z0.000000 I-0.171121 J-0.165703
G03 X69.789415 Y58.234922 Z0.000000 I0.228138 J-0.000000
G03 X69.959839 Y58.165763 Z0.000000 I0.170425 J0.175404
G03 X70.118736 Y58.230777 Z0.000000 I0.000000 J0.226681
G03 X70.157204 Y58.359749 Z0.000000 I-0.097645 J0.099348
G02 X70.424746 Y59.647862 Z0.000000 I1.579782 J0.343719
G02 X71.469621 Y60.183220 Z0.000000 I1.044874 J-0.751976
G02 X71.526040 Y60.141509 Z0.000000 I-0.000000 J-0.059011
G02 X71.513151 Y60.041285 Z0.000000 I-0.117042 J-0.035889
G03 X71.508263 Y59.928183 Z0.000000 I0.098506 J-0.060914
G03 X71.620389 Y59.828777 Z0.000000 I0.181224 J0.091474
G02 X71.703082 Y59.717679 Z0.000000 I-0.042785 J-0.118170
G02 X71.641099 Y59.461254 Z0.000000 I-0.455263 J-0.025658
G03 X71.224589 Y58.362574 Z0.000000 I3.024859 J-1.775014
G03 X71.386486 Y58.165762 Z0.000000 I0.161897 J-0.031818
G03 X71.487039 Y58.223732 Z0.000000 I0.000000 J0.116193
G03 X71.903183 Y59.058099 Z0.000000 I-6.488924 J3.757332
G03 X72.386903 Y61.111532 Z0.000000 I-5.772245 J2.443438
G03 X72.081528 Y61.918980 Z0.000000 I-1.047514 J0.065303
G02 X71.960952 Y62.224845 Z0.000000 I0.291690 J0.291686
G02 X72.096558 Y62.355867 Z0.000000 I0.135606 J-0.004664
G02 X72.268317 Y62.292739 Z0.000000 I-0.000000 J-0.265226
G02 X72.644364 Y61.890299 Z0.000000 I-1.556080 J-1.830938
G03 X73.124428 Y61.518923 Z0.000000 I0.896449 J0.662840
G03 X73.289654 Y61.630516 Z0.000000 I0.044928 J0.111592
G02 X73.561184 Y62.239576 Z0.000000 I0.818846 J-0.000000
G02 X74.269588 Y62.511106 Z0.000000 I0.708403 J-0.788322
G03 X74.482761 Y62.559521 Z0.000000 I0.000000 J0.493511
G03 X74.531169 Y62.636379 Z0.000000 I-0.036810 J0.076858
G02 X74.963030 Y63.172644 Z0.000000 I0.548886 J-0.000000
G02 X77.274546 Y63.235043 Z0.000000 I1.319873 J-6.048335
G03 X78.080764 Y63.359704 Z0.000000 I0.211357 J1.302448
G03 X79.603339 Y64.411241 Z0.000000 I-3.060372 J6.059343
G02 X80.428223 Y65.039769 Z0.000000 I3.894181 J-4.255192
G02 X80.635658 Y65.060027 Z0.000000 I0.123970 J-0.197255
G03 X80.833204 Y65.084037 Z0.000000 I0.076124 J0.198357
G03 X81.305482 Y65.526518 Z0.000000 I-1.284224 J1.843984
G02 X81.777087 Y66.018901 Z0.000000 I2.952116 J-2.355499
G02 X81.941446 Y66.080446 Z0.000000 I0.164367 J-0.188710
G03 X82.070520 Y66.146191 Z0.000000 I-0.000006 J0.159587
G03 X82.138889 Y66.352032 Z0.000000 I-0.289403 J0.210397
G02 X82.195690 Y66.605063 Z0.000000 I0.625561 J-0.007539
G02 X82.440887 Y67.011585 Z0.000000 I1.911510 J-0.875732
G02 X82.749658 Y67.243815 Z0.000000 I0.573809 J-0.441547
G02 X82.934039 Y67.205572 Z0.000000 I0.062959 J-0.160054
G03 X83.248193 Y67.075738 Z0.000000 I0.314154 J0.315156
G03 X83.380262 Y67.205572 Z0.000000 I0.000000 J0.132088
G02 X83.744249 Y67.900990 Z0.000000 I0.874557 J-0.014783
G02 X84.837242 Y68.253098 Z0.000000 I1.092993 J-1.520350
G03 X85.017374 Y68.319754 Z0.000000 I0.000000 J0.276722
G03 X85.084030 Y68.464719 Z0.000000 I-0.124307 J0.144965
G02 X85.373778 Y69.204863 Z0.000000 I1.090204 J-0.000000
G02 X86.036322 Y69.494610 Z0.000000 I0.662543 J-0.612623
G02 X86.121884 Y69.446137 Z0.000000 I-0.000000 J-0.099753
G02 X86.170353 Y69.270985 Z0.000000 I-0.292245 J-0.175153
G03 X86.354151 Y69.003656 Z0.000000 I0.286309 J-0.000000
G03 X86.795358 Y69.031316 Z0.000000 I0.190350 J0.496394
G03 X87.003296 Y69.249104 Z0.000000 I-0.227814 J0.425671
G03 X87.020890 Y69.504060 Z0.000000 I-0.313889 J0.149746
G02 X87.120180 Y69.669934 Z0.000000 I0.122990 J0.039034
G02 X87.317668 Y69.559510 Z0.000000 I0.032464 J-0.173750
G02 X87.402788 Y69.312356 Z0.000000 I-3.526798 J-1.352872
G02 X87.411858 Y69.251747 Z0.000000 I-0.197983 J-0.060609
G02 X87.378193 Y69.193784 Z0.000000 I-0.066732 J0.000000
G02 X85.528832 Y68.177498 Z0.000000 I-32.771700 J57.444653
G03 X85.302884 Y67.985958 Z0.000000 I0.322103 J-0.609006
G03 X85.239209 Y67.797285 Z0.000000 I0.247691 J-0.188673
G02 X85.176819 Y67.720862 Z0.000000 I-0.078001 J0.000000
G02 X85.050699 Y67.758775 Z0.000000 I-0.027819 J0.136189
G03 X84.866429 Y67.783572 Z0.000000 I-0.108389 J-0.108383
G03 X84.313553 Y67.338777 Z0.000000 I1.105230 J-1.939797
G03 X83.783668 Y66.716442 Z0.000000 I10.695432 J-9.643333
G03 X83.594612 Y66.444162 Z0.000000 I1.846334 J-1.483769
G02 X82.575018 Y65.402415 Z0.000000 I-2.659270 J1.582891
G02 X82.102202 Y65.511815 Z0.000000 I-0.181750 J0.290928
G01 X82.022092 Y65.512906 Z0.000000
G03 X81.887885 Y65.188118 Z0.000000 I0.763913 J-0.505783
G02 X81.704707 Y64.783367 Z0.000000 I-0.971175 J0.195698
G02 X81.503567 Y64.683754 Z0.000000 I-0.201140 J0.153268
G03 X81.271875 Y64.588596 Z0.000000 I-0.000000 J-0.329642
G03 X80.679007 Y63.869011 Z0.000000 I3.210350 J-3.249040
G02 X79.352586 Y62.277046 Z0.000000 I-8.022246 J5.335546
G02 X78.155952 Y61.430339 Z0.000000 I-3.350980 J3.466929
G02 X75.702351 Y60.752611 Z0.000000 I-2.954447 J5.915798
G02 X73.989078 Y61.113828 Z0.000000 I-0.236974 J3.119704
G03 X73.616303 Y61.234369 Z0.000000 I-0.520159 J-0.971923
G03 X73.338915 Y61.201539 Z0.000000 I-0.074914 J-0.555293
G03 X73.234043 Y61.067861 Z0.000000 I0.060116 J-0.155138
G03 X73.300905 Y60.909338 Z0.000000 I0.169179 J-0.022006
G02 X73.571895 Y60.246787 Z0.000000 I-0.417920 J-0.557627
G02 X72.934257 Y58.502014 Z0.000000 I-4.639407 J0.706597
G03 X71.824150 Y56.431063 Z0.000000 I17.417187 J-10.669271
G03 X71.517847 Y55.450007 Z0.000000 I3.544730 J-1.645071
G02 X71.399879 Y54.831787 Z0.000000 I-17.421128 J3.003905
G02 X71.331040 Y54.557664 Z0.000000 I-3.486270 J0.729792
G03 X71.408075 Y54.403453 Z0.000000 I0.121453 J-0.035676
G03 X72.055764 Y54.286084 Z0.000000 I0.647690 J1.728424
G02 X72.664703 Y54.141950 Z0.000000 I-0.000001 J-1.358394
G02 X72.752047 Y53.936909 Z0.000000 I-0.077244 J-0.154028
G03 X72.577986 Y53.001582 Z0.000000 I3.906995 J-1.210936
G03 X72.683376 Y52.920087 Z0.000000 I0.080025 J-0.005404
G03 X72.841697 Y53.044318 Z0.000000 I-0.094521 J0.283457
G03 X73.038169 Y53.483502 Z0.000000 I-1.444918 J0.909932
G02 X73.220086 Y53.921628 Z0.000000 I1.999998 J-0.573599
G02 X73.312073 Y53.975710 Z0.000000 I0.091986 J-0.051189
G03 X73.411282 Y54.121474 Z0.000000 I0.000000 J0.106644
G03 X73.173233 Y54.327810 Z0.000000 I-0.316692 J-0.124880
G01 X73.163597 Y54.396166 Z0.000000
G02 X73.638801 Y54.590393 Z0.000000 I1.007642 J-1.786907
G03 X74.316983 Y54.833713 Z0.000000 I-1.142336 J4.250689
G03 X74.375948 Y54.925265 Z0.000000 I-0.041592 J0.091552
G02 X74.424872 Y55.013104 Z0.000000 I0.103316 J-0.000000
G02 X74.596822 Y55.062032 Z0.000000 I0.171950 J-0.277684
G03 X74.797786 Y55.116610 Z0.000000 I0.000000 J0.397280
G03 X75.324591 Y55.488802 Z0.000000 I-1.928096 J3.287969
G02 X77.651708 Y57.200436 Z0.000000 I14.186617 J-16.850169
G02 X78.300028 Y57.389867 Z0.000000 I0.648319 J-1.014712
G01 X78.319419 Y57.347819 Z0.000000
G02 X77.956785 Y56.987749 Z0.000000 I-2.362495 J2.016672
G03 X77.583241 Y56.568916 Z0.000000 I1.267934 J-1.506821
G03 X77.580888 Y56.420608 Z0.000000 I0.114651 J-0.075992
G01 X77.571826 Y56.366638 Z0.000000
G02 X77.509778 Y56.362568 Z0.000000 I-0.033881 J0.041509
G03 X76.850469 Y56.369120 Z0.000000 I-0.335074 J-0.542159
G03 X76.170808 Y55.571369 Z0.000000 I0.819176 J-1.386315
G03 X76.292177 Y55.403610 Z0.000000 I0.114484 J-0.044956
G03 X76.865959 Y55.610338 Z0.000000 I-0.059734 J1.065437
G02 X77.638330 Y55.991675 Z0.000000 I1.452045 J-1.968152
G02 X77.786935 Y55.876763 Z0.000000 I0.032325 J-0.111742
G02 X77.739858 Y55.785659 Z0.000000 I-0.118119 J0.003322
G02 X76.945225 Y55.243575 Z0.000000 I-6.241522 J8.295901
G03 X76.149988 Y54.690867 Z0.000000 I4.617513 J-7.492126
G03 X76.031517 Y54.530875 Z0.000000 I0.228704 J-0.293210
G02 X75.912999 Y54.375107 Z0.000000 I-0.326102 J0.125147
G02 X75.425532 Y54.083079 Z0.000000 I-1.749617 J2.367679
G03 X74.985994 Y53.735190 Z0.000000 I0.535117 J-1.127700
G03 X74.217947 Y52.573768 Z0.000000 I6.013874 J-4.811633
G02 X73.380350 Y51.212122 Z0.000000 I-12.202074 J6.567489
G01 X73.297693 Y51.254808 Z0.000000
G02 X73.488255 Y51.700744 Z0.000000 I3.829816 J-1.372918
G02 X73.626338 Y51.912386 Z0.000000 I0.988333 J-0.493957
G03 X73.724909 Y52.120179 Z0.000000 I-0.357888 J0.297049
G03 X73.707088 Y52.325327 Z0.000000 I-0.365949 J0.071558
G02 X73.693257 Y52.526424 Z0.000000 I0.320633 J0.123077
G02 X73.798358 Y52.715277 Z0.000000 I0.382586 J-0.089245
G03 X73.859337 Y52.842526 Z0.000000 I-0.150223 J0.150223
G01 X73.817308 Y52.889374 Z0.000000
G03 X73.675848 Y52.856254 Z0.000000 I-0.000000 J-0.318653
G03 X73.509683 Y52.736945 Z0.000000 I0.280250 J-0.565678
G02 X73.340910 Y52.606998 Z0.000000 I-0.584280 J0.584280
G02 X72.450824 Y52.120949 Z0.000000 I-9.418154 J16.189161
G02 X71.545483 Y51.774707 Z0.000000 I-2.057558 J4.023281
G02 X71.263312 Y51.807811 Z0.000000 I-0.098987 J0.375386
G03 X70.973383 Y51.922948 Z0.000000 I-0.650473 J-1.215362
G03 X70.708204 Y51.958242 Z0.000000 I-0.265180 J-0.978581
G03 X70.599944 Y51.889594 Z0.000000 I-0.000000 J-0.119688
G03 X70.620414 Y51.772015 Z0.000000 I0.093829 J-0.044236
G02 X70.727834 Y51.472984 Z0.000000 I-0.263435 J-0.263443
G02 X70.578714 Y51.337488 Z0.000000 I-0.149121 J0.014310
G03 X70.457420 Y51.264199 Z0.000000 I-0.000000 J-0.137015
G03 X70.446998 Y51.086794 Z0.000000 I0.190743 J-0.100214
G02 X70.405899 Y50.965510 Z0.000000 I-0.093558 J-0.035902
G02 X70.210735 Y50.941625 Z0.000000 I-0.123679 J0.201304
G03 X69.820860 Y50.841005 Z0.000000 I-0.114674 J-0.361309
G03 X69.757847 Y50.463518 Z0.000000 I0.248613 J-0.235503
G02 X69.806967 Y50.109402 Z0.000000 I-0.569425 J-0.259451
G02 X69.674387 Y49.918185 Z0.000000 I-0.262019 J0.040101
G03 X69.431698 Y49.551781 Z0.000000 I0.234388 J-0.418823
G03 X69.603897 Y49.276616 Z0.000000 I0.260255 J-0.028596
G02 X69.706180 Y49.184871 Z0.000000 I-0.061101 J-0.171009
G02 X69.692607 Y49.093739 Z0.000000 I-0.073456 J-0.035636
G02 X69.589241 Y49.077079 Z0.000000 I-0.062334 J0.057755
G02 X69.308940 Y49.305274 Z0.000000 I0.489085 J0.887013
G03 X68.973146 Y49.420110 Z0.000000 I-0.265181 J-0.227053
G03 X68.816848 Y49.203639 Z0.000000 I0.039970 J-0.193520
G02 X68.735033 Y48.907123 Z0.000000 I-0.406161 J-0.047477
G02 X68.517578 Y48.813836 Z0.000000 I-0.191971 J0.147399
G03 X68.197521 Y48.818478 Z0.000000 I-0.185450 J-1.750160
G01 X68.168398 Y48.787036 Z0.000000
G03 X68.338533 Y48.474923 Z0.000000 I0.371352 J-0.000000
G03 X71.671949 Y46.528312 Z0.000000 I23.730168 J36.808608
G01 X73.143363 Y45.753920 Z0.000000
G01 X73.294092 Y46.150375 Z0.000000
G03 X73.425497 Y46.550379 Z0.000000 I-4.287950 J1.630214
G03 X73.444830 Y46.691917 Z0.000000 I-0.508453 J0.141537
G02 X73.580985 Y46.830315 Z0.000000 I0.138417 J-0.000000
G02 X73.822750 Y46.698116 Z0.000000 I0.004556 J-0.278836
G02 X73.821975 Y46.588415 Z0.000000 I-0.087760 J-0.054234
G02 X73.677663 Y46.470563 Z0.000000 I-0.250969 J0.160033
G03 X73.574159 Y46.109679 Z0.000000 I0.084202 J-0.219434
G03 X74.658998 Y45.168275 Z0.000000 I2.747700 J2.070582
G02 X75.525376 Y44.659434 Z0.000000 I-9.121444 J-16.522614
G02 X76.071929 Y44.287032 Z0.000000 I-4.328034 J-6.939266
G03 X76.279015 Y44.313829 Z0.000000 I0.089649 J0.120770
G03 X76.265868 Y44.529396 Z0.000000 I-0.125623 J0.100523
G02 X75.851504 Y45.044780 Z0.000000 I1.938836 J1.983070
G02 X75.772664 Y45.320166 Z0.000000 I0.441536 J0.275385
G03 X75.690820 Y45.509671 Z0.000000 I-0.260315 J0.000000
G03 X75.539878 Y45.539404 Z0.000000 I-0.099135 J-0.105264
G02 X75.394836 Y45.577724 Z0.000000 I-0.045949 J0.119736
G02 X75.307096 Y45.822728 Z0.000000 I0.298201 J0.245004
G03 X75.215482 Y46.128329 Z0.000000 I-0.555511 J0.000000
G03 X74.996718 Y46.293879 Z0.000000 I-0.343030 J-0.225978
G02 X74.734879 Y46.427914 Z0.000000 I0.269858 J0.849941
G02 X74.686338 Y46.524429 Z0.000000 I0.071681 J0.096515
G03 X74.671002 Y46.653623 Z0.000000 I-0.551842 J0.000000
G03 X74.600948 Y46.878990 Z0.000000 I-1.764367 J-0.424869
G02 X74.620648 Y47.067595 Z0.000000 I0.195231 J0.074939
G02 X74.914127 Y47.362658 Z0.000000 I0.845594 J-0.547569
G02 X75.214757 Y47.390006 Z0.000000 I0.175993 J-0.268596
G02 X75.406382 Y47.155349 Z0.000000 I-0.125540 J-0.298089
G03 X75.549814 Y46.801343 Z0.000000 I1.004885 J0.201090
G03 X75.648981 Y46.778919 Z0.000000 I0.061008 J0.039312
G02 X76.311835 Y46.727807 Z0.000000 I0.296415 J-0.479613
G02 X76.703799 Y45.876869 Z0.000000 I-0.727690 J-0.850937
G02 X76.657955 Y45.796579 Z0.000000 I-0.093232 J0.000000
G02 X76.490016 Y45.750716 Z0.000000 I-0.167938 J0.284548
G03 X76.298730 Y45.702810 Z0.000000 I-0.000000 J-0.405849
G03 X76.105842 Y45.545411 Z0.000000 I0.304887 J-0.570516
G03 X76.082533 Y45.347101 Z0.000000 I0.141112 J-0.117111
G03 X76.469886 Y44.808261 Z0.000000 I1.816023 J0.896830
G02 X76.957391 Y44.256083 Z0.000000 I-4.027039 J-4.046668
G02 X77.009246 Y44.111468 Z0.000000 I-0.196409 J-0.152031
G03 X77.060561 Y43.967380 Z0.000000 I0.250424 J0.008004
G03 X77.440945 Y43.546740 Z0.000000 I2.722357 J2.079512
G03 X79.449444 Y42.531481 Z0.000000 I2.738654 J2.923564
G03 X86.472950 Y41.872442 Z0.000000 I7.174072 J38.700532
G02 X86.691645 Y41.804405 Z0.000000 I-0.001876 J-0.391528
G02 X86.699783 Y41.717607 Z0.000000 I-0.031890 J-0.046770
G02 X86.517821 Y41.628713 Z0.000000 I-0.220363 J0.220389
G02 X84.767680 Y41.477718 Z0.000000 I-2.889229 J23.270122
G03 X82.989486 Y41.383199 Z0.000000 I9.547872 J-196.399301
G03 X82.371084 Y41.339483 Z0.000000 I1.379578 J-23.911015
G02 X80.325150 Y41.476053 Z0.000000 I-0.571751 J6.827876
G02 X79.072134 Y42.066221 Z0.000000 I0.672748 J3.053601
G02 X78.957884 Y42.230475 Z0.000000 I0.208817 J0.267107
G02 X78.975184 Y42.370765 Z0.000000 I0.161229 J0.051330
G01 X78.949124 Y42.430357 Z0.000000
G03 X78.733247 Y42.417986 Z0.000000 I-0.083709 J-0.428971
G02 X78.411170 Y42.388731 Z0.000000 I-0.227469 J0.716734
G02 X78.182860 Y42.487816 Z0.000000 I0.056009 J0.441630
G03 X78.083516 Y42.485969 Z0.000000 I-0.048601 J-0.058560
G03 X78.047627 Y42.366817 Z0.000000 I0.079590 J-0.088954
G02 X78.007002 Y42.138331 Z0.000000 I-0.268351 J-0.070142
G02 X77.777115 Y41.977836 Z0.000000 I-0.332261 J0.231030
G03 X77.598693 Y41.832054 Z0.000000 I0.070029 J-0.267784
G03 X77.619488 Y41.656844 Z0.000000 I0.145701 J-0.071547
G02 X77.753500 Y41.405552 Z0.000000 I-0.544049 J-0.451517
G02 X77.823362 Y40.966445 Z0.000000 I-1.652927 J-0.488094
G03 X78.009937 Y40.454473 Z0.000000 I0.863158 J0.024573
G03 X79.547724 Y38.792040 Z0.000000 I11.685087 J9.266503
G02 X80.199788 Y38.086510 Z0.000000 I-4.280293 J-4.610018
G02 X80.273145 Y37.875651 Z0.000000 I-0.266369 J-0.210859
G02 X80.197535 Y37.803229 Z0.000000 I-0.072490 J0.000000
G02 X79.991382 Y37.887791 Z0.000000 I0.014135 J0.328028
G03 X79.683251 Y38.090419 Z0.000000 I-0.807297 J-0.892039
G03 X79.215435 Y38.241622 Z0.000000 I-0.887171 J-1.945558
G02 X78.859093 Y38.472752 Z0.000000 I0.112844 J0.564236
G02 X78.915243 Y38.664447 Z0.000000 I0.103773 J0.073675
G01 X78.918480 Y38.709153 Z0.000000
G03 X78.760056 Y38.754977 Z0.000000 I-0.170280 J-0.291923
G03 X78.448023 Y38.550312 Z0.000000 I-0.011304 J-0.322962
G03 X78.554126 Y38.231448 Z0.000000 I0.243879 J-0.095934
G02 X78.656779 Y38.114145 Z0.000000 I-0.139313 J-0.225482
G02 X78.797472 Y37.687182 Z0.000000 I-2.013037 J-0.900000
G03 X79.467767 Y36.431466 Z0.000000 I2.567978 J0.564015
G03 X80.531135 Y35.879251 Z0.000000 I1.344694 J1.289457
G03 X80.982589 Y35.890654 Z0.000000 I0.193797 J1.269773
G03 X81.148599 Y36.005446 Z0.000000 I-0.051615 J0.252082
G02 X81.236606 Y36.010070 Z0.000000 I0.045635 J-0.028743
G02 X81.356809 Y35.741038 Z0.000000 I-0.473645 J-0.372994
G03 X81.566315 Y35.401225 Z0.000000 I0.531171 J0.092994
G03 X82.174840 Y35.133070 Z0.000000 I0.892575 J1.200979
G02 X82.798182 Y34.897281 Z0.000000 I-0.372481 J-1.926548
G02 X82.911361 Y34.699270 Z0.000000 I-0.116625 J-0.198011
G03 X83.021809 Y34.540967 Z0.000000 I0.168669 J-0.000000
G03 X83.436052 Y34.506303 Z0.000000 I0.270007 J0.734146
G02 X83.908438 Y34.476426 Z0.000000 I0.177354 J-0.945245
G02 X84.202743 Y34.259234 Z0.000000 I-0.176242 J-0.546809
G03 X84.501388 Y34.047506 Z0.000000 I0.445695 J0.312174
G03 X85.074748 Y34.014482 Z0.000000 I0.361894 J1.289344
G02 X85.607311 Y34.000937 Z0.000000 I0.229885 J-1.437809
G02 X85.704764 Y33.880598 Z0.000000 I-0.025574 J-0.120339
G03 X85.810986 Y33.752206 Z0.000000 I0.130704 J-0.000000
G03 X86.935191 Y33.645981 Z0.000000 I1.124208 J5.895768
G03 X88.368989 Y33.930346 Z0.000000 I0.000002 J3.756854
G03 X88.653355 Y34.355414 Z0.000000 I-0.175511 J0.425068
G02 X88.706493 Y34.523980 Z0.000000 I0.293937 J-0.000000
G02 X88.808548 Y34.577114 Z0.000000 I0.102055 J-0.071442
G02 X88.910100 Y34.523481 Z0.000000 I-0.000000 J-0.122959
G02 X88.963734 Y34.349788 Z0.000000 I-0.254435 J-0.173693
G03 X89.287126 Y33.841740 Z0.000000 I0.560768 J-0.000000
G03 X89.757039 Y33.979129 Z0.000000 I0.156875 J0.335756
G03 X89.869371 Y34.195390 Z0.000000 I-1.203176 J0.762272
G03 X89.892493 Y34.305534 Z0.000000 I-0.280297 J0.116339
G02 X89.932665 Y34.383296 Z0.000000 I0.098938 J-0.001855
G02 X90.050055 Y34.421927 Z0.000000 I0.117389 J-0.159041
G02 X90.383200 Y33.900178 Z0.000000 I-0.000000 J-0.367234
G02 X89.253074 Y32.703589 Z0.000000 I-2.355078 J1.092296
G02 X88.524184 Y32.532230 Z0.000000 I-0.685873 J1.281538
G02 X86.802621 Y32.776140 Z0.000000 I0.231969 J7.834781
G03 X85.830479 Y32.941098 Z0.000000 I-1.468006 J-5.704324
G03 X85.646460 Y32.873811 Z0.000000 I-0.019578 J-0.231730
G02 X85.161601 Y32.681753 Z0.000000 I-0.464438 J0.464440
G02 X84.645603 Y32.904951 Z0.000000 I0.023731 J0.762914
G03 X84.443676 Y32.991343 Z0.000000 I-0.208759 J-0.208757
G03 X84.168782 Y32.915981 Z0.000000 I-0.011505 J-0.497070
G02 X83.884604 Y32.869059 Z0.000000 I-0.198425 J0.317729
G02 X83.327347 Y33.113853 Z0.000000 I0.382953 J1.628443
G03 X82.752098 Y33.425616 Z0.000000 I-1.838263 J-2.705271
G03 X82.415228 Y33.495691 Z0.000000 I-0.349284 J-0.834355
G02 X82.121103 Y33.611263 Z0.000000 I0.006138 J0.447674
G02 X81.629549 Y34.206046 Z0.000000 I1.790149 J1.979967
G03 X81.129792 Y34.744507 Z0.000000 I-1.561053 J-0.947699
G03 X80.773323 Y34.817497 Z0.000000 I-0.260360 J-0.364588
G02 X80.368686 Y34.833021 Z0.000000 I-0.172486 J0.785332
G02 X79.833989 Y35.100786 Z0.000000 I0.506214 J1.678601
G02 X78.528160 Y36.571909 Z0.000000 I2.811465 J3.810687
G02 X77.243578 Y39.659556 Z0.000000 I11.899916 J6.761873
G03 X76.905352 Y40.540042 Z0.000000 I-4.790878 J-1.335140
G03 X76.760941 Y40.629485 Z0.000000 I-0.144411 J-0.071858
G03 X76.621119 Y40.556979 Z0.000000 I-0.000000 J-0.171070
G03 X76.548609 Y40.328266 Z0.000000 I0.324451 J-0.228712
G02 X76.492407 Y40.058382 Z0.000000 I-0.676094 J0.000000
G02 X76.369197 Y39.916163 Z0.000000 I-0.288840 J0.125753
G02 X76.289179 Y39.948320 Z0.000000 I-0.028160 J0.045563
G02 X76.280537 Y40.259084 Z0.000000 I0.673983 J0.174246
G03 X76.110892 Y41.213528 Z0.000000 I-1.303266 J0.260652
G03 X75.718424 Y41.177557 Z0.000000 I-0.187372 J-0.114674
G03 X75.665141 Y40.916420 Z0.000000 I0.756831 J-0.290432
G03 X75.703704 Y40.770673 Z0.000000 I0.259268 J-0.009376
G02 X75.690203 Y40.685655 Z0.000000 I-0.056110 J-0.034670
G02 X75.536884 Y40.629486 Z0.000000 I-0.153319 J0.181163
G02 X75.393737 Y40.731135 Z0.000000 I0.000000 J0.151618
G02 X75.333737 Y41.211446 Z0.000000 I1.088104 J0.379828
G03 X75.264653 Y41.663640 Z0.000000 I-0.962913 J0.084265
G03 X75.113092 Y41.747804 Z0.000000 I-0.128529 J-0.052907
G02 X74.913671 Y41.787473 Z0.000000 I-0.047451 J0.282548
G02 X74.841512 Y41.917743 Z0.000000 I0.081510 J0.130270
G03 X74.787179 Y42.109163 Z0.000000 I-0.364362 J0.000000
G03 X74.539930 Y42.406201 Z0.000000 I-1.169651 J-0.722174
G02 X74.297027 Y42.713176 Z0.000000 I0.795499 J0.879050
G02 X74.138096 Y43.135560 Z0.000000 I1.380453 J0.760517
G03 X73.977661 Y43.560522 Z0.000000 I-1.537248 J-0.337590
G03 X73.658735 Y44.001068 Z0.000000 I-1.973835 J-1.093215
G02 X73.366808 Y44.437643 Z0.000000 I1.223961 J1.134320
G02 X73.323414 Y44.729558 Z0.000000 I0.478713 J0.220346
G03 X73.284038 Y44.977040 Z0.000000 I-0.428514 J0.058695
G03 X73.167571 Y45.050677 Z0.000000 I-0.117577 J-0.057041
G02 X72.990212 Y45.094770 Z0.000000 I0.004330 J0.396164
G02 X72.857190 Y45.211262 Z0.000000 I0.168613 J0.326734
G03 X72.720102 Y45.340089 Z0.000000 I-0.374004 J-0.260634
G03 X71.737730 Y45.892259 Z0.000000 I-8.503539 J-13.978768
G02 X70.749256 Y46.446134 Z0.000000 I7.863961 J15.193425
G02 X70.203995 Y46.819698 Z0.000000 I3.012283 J4.981506
G03 X67.843362 Y48.445043 Z0.000000 I-16.082538 J-20.831151
G03 X67.628141 Y48.393660 Z0.000000 I-0.081788 J-0.133850
G03 X67.612376 Y48.271679 Z0.000000 I0.126738 J-0.078389
G03 X67.700281 Y48.157724 Z0.000000 I0.195235 J0.059722
G02 X67.818362 Y48.038153 Z0.000000 I-0.187313 J-0.303068
G02 X67.858001 Y47.895218 Z0.000000 I-0.237886 J-0.142935
G02 X67.804001 Y47.845183 Z0.000000 I-0.050180 J0.000000
G02 X67.639033 Y47.911938 Z0.000000 I0.022318 J0.292371
G03 X67.440683 Y47.858511 Z0.000000 I-0.080307 J-0.096763
G03 X67.512488 Y47.567236 Z0.000000 I0.251758 J-0.092424
G03 X67.794606 Y47.357532 Z0.000000 I1.225549 J1.354130
G03 X67.935595 Y47.311971 Z0.000000 I0.167671 J0.277932
G02 X68.047587 Y47.254859 Z0.000000 I-0.013522 J-0.164875
G02 X68.111680 Y47.106929 Z0.000000 I-0.206557 J-0.177344
G02 X68.132181 Y46.914624 Z0.000000 I-45.327540 J-4.929591
G02 X68.150450 Y46.735221 Z0.000000 I-34.373280 J-3.590806
G03 X68.227874 Y46.641333 Z0.000000 I0.108776 J0.010834
G03 X68.478727 Y46.636931 Z0.000000 I0.133277 J0.445165
G02 X68.666302 Y46.524714 Z0.000000 I0.038733 J-0.148135
G02 X68.556317 Y46.315395 Z0.000000 I-0.174181 J-0.042033
G03 X68.284852 Y45.973097 Z0.000000 I0.153764 J-0.400739
G03 X68.478716 Y45.750767 Z0.000000 I0.193864 J-0.026644
G03 X68.588447 Y45.796217 Z0.000000 I0.000000 J0.155188
G03 X68.633903 Y45.905953 Z0.000000 I-0.109729 J0.109736
G02 X68.697532 Y45.997510 Z0.000000 I0.097686 J-0.000000
G02 X69.051137 Y46.061146 Z0.000000 I0.353605 J-0.950603
G01 X69.468322 Y46.061146 Z0.000000
G01 X69.128679 Y45.744718 Z0.000000
G03 X68.987507 Y45.451442 Z0.000000 I0.305094 J-0.327477
G03 X69.099409 Y45.362791 Z0.000000 I0.085854 J-0.006580
G02 X69.294880 Y45.231145 Z0.000000 I0.045505 J-0.143375
G02 X69.138179 Y44.866976 Z0.000000 I-0.424375 J-0.033191
G01 X69.143336 Y44.823297 Z0.000000
G03 X69.229069 Y44.823626 Z0.000000 I0.042525 J0.089161
G02 X69.398167 Y44.758032 Z0.000000 I0.054117 J-0.111249
G02 X69.340341 Y44.543386 Z0.000000 I-0.172721 J-0.068581
G03 X69.249559 Y44.058373 Z0.000000 I0.231525 J-0.294338
G03 X69.819585 Y43.733291 Z0.000000 I0.570026 J0.337225
G02 X70.077927 Y43.662980 Z0.000000 I-0.000000 J-0.509764
G02 X70.101577 Y43.567523 Z0.000000 I-0.034858 J-0.059295
G02 X69.976788 Y43.466996 Z0.000000 I-0.205022 J0.126787
G02 X69.820835 Y43.468453 Z0.000000 I-0.075971 J0.215243
G03 X69.642962 Y43.490217 Z0.000000 I-0.134191 J-0.358977
G03 X69.332170 Y43.412333 Z0.000000 I0.139458 J-1.215546
G03 X69.304222 Y43.335590 Z0.000000 I0.020091 J-0.050777
G03 X69.409760 Y43.268782 Z0.000000 I0.112359 J0.060732
G02 X69.495060 Y43.197828 Z0.000000 I-0.004958 J-0.092711
G02 X69.448590 Y43.107689 Z0.000000 I-0.075402 J-0.018175
G03 X69.155500 Y42.929426 Z0.000000 I0.391291 J-0.973414
G03 X69.099410 Y42.807146 Z0.000000 I0.105246 J-0.122280
G03 X69.161625 Y42.707032 Z0.000000 I0.111658 J-0.000000
G03 X69.448590 Y42.634703 Z0.000000 I0.311646 J0.631026
G02 X69.607011 Y42.588891 Z0.000000 I-0.011776 J-0.337544
G01 X69.603778 Y42.544173 Z0.000000
G03 X69.449210 Y42.439298 Z0.000000 I0.165592 J-0.410395
G03 X69.409790 Y42.340889 Z0.000000 I0.103124 J-0.098409
G03 X69.454193 Y42.261970 Z0.000000 I0.092335 J-0.000000
G03 X69.603778 Y42.223078 Z0.000000 I0.139613 J0.229868
G02 X70.201335 Y42.105597 Z0.000000 I0.049333 J-1.327525
G02 X70.340925 Y41.889107 Z0.000000 I-0.098083 J-0.216491
G02 X70.258357 Y41.660588 Z0.000000 I-0.357515 J0.000000
G02 X70.030544 Y41.515668 Z0.000000 I-0.339499 J0.282170
G03 X69.982441 Y41.324583 Z0.000000 I0.028441 J-0.108757
G03 X70.379724 Y41.191022 Z0.000000 I0.346319 J0.372490
G02 X70.649980 Y41.149523 Z0.000000 I0.054784 J-0.543973
G01 X70.651305 Y41.074564 Z0.000000
G02 X70.257628 Y40.931773 Z0.000000 I-0.966439 J2.050414
G02 X70.069343 Y40.922586 Z0.000000 I-0.116050 J0.444376
G03 X69.945840 Y40.870894 Z0.000000 I-0.020018 J-0.125557
G03 X69.875357 Y40.650828 Z0.000000 I0.308312 J-0.220066
G03 X69.968846 Y40.469262 Z0.000000 I0.223056 J-0.000000
G03 X70.185736 Y40.429341 Z0.000000 I0.151089 J0.211725
G02 X70.431754 Y40.427057 Z0.000000 I0.118801 J-0.454411
G02 X70.496112 Y40.342091 Z0.000000 I-0.023907 J-0.084966
G02 X70.439372 Y40.256220 Z0.000000 I-0.093349 J0.000000
G02 X70.288193 Y40.253451 Z0.000000 I-0.079010 J0.185326
G03 X70.100623 Y40.255454 Z0.000000 I-0.096482 J-0.251503
G03 X69.897505 Y40.113023 Z0.000000 I0.159210 J-0.443093
G03 X69.868929 Y39.915949 Z0.000000 I0.146893 J-0.121908
G03 X70.099966 Y39.640394 Z0.000000 I0.572174 J0.245101
G03 X70.498441 Y39.432368 Z0.000000 I1.247427 J1.903796
G03 X70.727859 Y39.387981 Z0.000000 I0.229418 J0.570692
G02 X71.882078 Y39.108818 Z0.000000 I-0.000001 J-2.525690
G02 X72.968629 Y38.236728 Z0.000000 I-1.588879 J-3.092531
G03 X73.196181 Y38.042059 Z0.000000 I0.679374 J0.563803
G03 X73.380650 Y37.991279 Z0.000000 I0.184470 J0.309668
G02 X73.553481 Y37.932022 Z0.000000 I-0.000000 J-0.281672
G02 X73.737284 Y37.714154 Z0.000000 I-0.420672 J-0.541363
G02 X73.739981 Y37.524257 Z0.000000 I-0.182290 J-0.097556
G02 X73.598949 Y37.437031 Z0.000000 I-0.141032 J0.070399
G02 X73.405343 Y37.488878 Z0.000000 I0.000000 J0.387404
G02 X73.387666 Y37.558968 Z0.000000 I0.025168 J0.043621
G01 X73.368554 Y37.628238 Z0.000000
G03 X73.152644 Y37.680904 Z0.000000 I-0.215910 J-0.416244
G02 X72.870380 Y37.731328 Z0.000000 I0.000000 J0.815237
G02 X72.750540 Y37.829310 Z0.000000 I0.082261 J0.222890
G03 X72.471559 Y37.920802 Z0.000000 I-0.193766 J-0.119752
G03 X72.139164 Y37.582706 Z0.000000 I0.222248 J-0.550943
G03 X72.229974 Y36.849247 Z0.000000 I0.733640 J-0.281519
G03 X73.380572 Y35.816922 Z0.000000 I2.812431 J1.977277
G03 X73.710149 Y35.743433 Z0.000000 I0.290160 J0.525517
G03 X74.272914 Y35.875641 Z0.000000 I-0.115527 J1.755614
G03 X74.662354 Y36.260377 Z0.000000 I-0.281992 J0.674909
G03 X74.547787 Y36.511663 Z0.000000 I-0.170883 J0.073850
G02 X74.100174 Y36.934145 Z0.000000 I0.214403 J0.675517
G02 X74.202659 Y37.414608 Z0.000000 I0.421749 J0.161201
G02 X74.839833 Y37.391140 Z0.000000 I0.307686 J-0.307687
G02 X75.306974 Y36.134405 Z0.000000 I-1.456903 J-1.256734
G02 X75.216737 Y35.918155 Z0.000000 I-0.304236 J0.000000
G02 X74.957795 Y35.788862 Z0.000000 I-0.326481 J0.329917
G01 X74.944594 Y35.709581 Z0.000000
G03 X75.806502 Y35.351296 Z0.000000 I2.608830 J5.060054
G02 X76.929414 Y34.915342 Z0.000000 I-3.163950 J-9.813729
G02 X76.990834 Y34.809900 Z0.000000 I-0.043991 J-0.096234
G03 X77.085652 Y34.448605 Z0.000000 I0.552073 J-0.048205
G03 X77.318079 Y34.332015 Z0.000000 I0.221550 J0.151699
G02 X77.427168 Y34.167520 Z0.000000 I0.004668 J-0.115325
G02 X77.136549 Y33.946499 Z0.000000 I-0.357314 J0.168253
G01 X76.626078 Y33.859039 Z0.000000
G01 X77.052849 Y33.650007 Z0.000000
G02 X77.258780 Y33.384614 Z0.000000 I-0.167965 J-0.342924
G02 X77.131659 Y33.269940 Z0.000000 I-0.097117 J-0.020138
G03 X77.003545 Y33.232318 Z0.000000 I-0.036142 J-0.113872
G03 X77.003575 Y33.115446 Z0.000000 I0.070463 J-0.058418
G02 X76.994347 Y32.994789 Z0.000000 I-0.066948 J-0.055561
G02 X76.819213 Y32.951977 Z0.000000 I-0.128122 J0.144497
G03 X76.563273 Y32.906597 Z0.000000 I-0.077350 J-0.308181
G03 X76.498504 Y32.734035 Z0.000000 I0.089798 J-0.132141
G03 X76.622160 Y32.440195 Z0.000000 I1.085152 J0.283721
G03 X76.798039 Y32.235364 Z0.000000 I0.689720 J0.414308
G02 X76.967345 Y32.034157 Z0.000000 I-0.472695 J-0.569583
G02 X77.014051 Y31.858910 Z0.000000 I-0.305418 J-0.175246
G03 X77.072056 Y31.701603 Z0.000000 I0.242308 J-0.000000
G03 X77.264317 Y31.565698 Z0.000000 I0.363443 J0.310207
G02 X77.377421 Y31.433791 Z0.000000 I-0.065455 J-0.170569
G02 X77.332587 Y31.250391 Z0.000000 I-0.210809 J-0.045645
G03 X77.281580 Y31.022612 Z0.000000 I0.197367 J-0.163796
G03 X77.553477 Y30.392914 Z0.000000 I2.144594 J0.552462
G02 X77.699868 Y29.713945 Z0.000000 I-0.854697 J-0.539546
G02 X77.435723 Y29.547403 Z0.000000 I-0.202342 J0.028181
G03 X77.361841 Y29.481562 Z0.000000 I-0.017406 J-0.054841
G03 X77.508163 Y29.175482 Z0.000000 I0.663702 J0.129270
G02 X77.762093 Y28.660811 Z0.000000 I-0.919334 J-0.773563
G02 X77.773250 Y27.974122 Z0.000000 I-1.680109 J-0.370732
G03 X77.690792 Y27.258728 Z0.000000 I5.064238 J-0.946170
G03 X77.733770 Y27.093489 Z0.000000 I0.289269 J-0.012971
G02 X77.748956 Y26.957224 Z0.000000 I-0.136209 J-0.084158
G02 X77.639920 Y26.820818 Z0.000000 I-0.245582 J0.084524
G03 X77.519128 Y26.663678 Z0.000000 I0.147183 J-0.238134
G03 X77.434090 Y26.139820 Z0.000000 I1.921347 J-0.580721
G02 X77.364395 Y25.631419 Z0.000000 I-2.382491 J0.067630
G02 X77.293678 Y25.576154 Z0.000000 I-0.070717 J0.017613
G02 X77.212144 Y25.619054 Z0.000000 I0.000000 J0.098931
G02 X77.169249 Y25.757207 Z0.000000 I0.201033 J0.138153
G03 X77.134377 Y25.854095 Z0.000000 I-0.152031 J0.000000
G01 X77.087299 Y25.856317 Z0.000000
G03 X77.056925 Y25.763363 Z0.000000 I0.076407 J-0.076407
G03 X77.165149 Y25.354116 Z0.000000 I1.999835 J0.309917
G02 X77.261045 Y24.405581 Z0.000000 I-1.716675 J-0.652669
G02 X77.001963 Y24.354179 Z0.000000 I-0.139146 J0.022713
G03 X76.866185 Y24.476452 Z0.000000 I-0.277222 J-0.171318
G03 X76.778947 Y24.461639 Z0.000000 I-0.033182 J-0.068874
G03 X76.750117 Y24.357022 Z0.000000 I0.077771 J-0.077713
G03 X76.885434 Y24.039359 Z0.000000 I1.081015 J0.272834
G02 X76.986565 Y23.713874 Z0.000000 I-0.568688 J-0.355151
G02 X76.912353 Y23.431489 Z0.000000 I-0.491526 J-0.021769
G03 X76.805079 Y23.136204 Z0.000000 I0.639843 J-0.399578
G03 X76.815143 Y22.735089 Z0.000000 I1.218597 J-0.170108
G02 X76.794925 Y22.376492 Z0.000000 I-0.726427 J-0.138911
G02 X76.657833 Y22.230299 Z0.000000 I-0.219214 J0.068193
G03 X76.537252 Y22.081893 Z0.000000 I0.068660 J-0.178976
G03 X76.563513 Y21.646419 Z0.000000 I0.985060 J-0.159126
G02 X76.592594 Y21.191682 Z0.000000 I-1.018060 J-0.293406
G02 X76.459600 Y20.972009 Z0.000000 I-0.332547 J0.051235
G03 X76.329216 Y20.764587 Z0.000000 I0.198616 J-0.269539
G03 X76.370140 Y20.498159 Z0.000000 I0.398231 J-0.075187
G02 X76.400463 Y20.239267 Z0.000000 I-0.313839 J-0.167981
G02 X76.246666 Y20.030700 Z0.000000 I-0.340180 J0.089860
G03 X75.956522 Y19.501591 Z0.000000 I0.326811 J-0.523318
G03 X76.256676 Y18.969159 Z0.000000 I0.632844 J0.005940
G02 X76.309617 Y18.757759 Z0.000000 I-0.082139 J-0.132899
G02 X76.082959 Y18.670240 Z0.000000 I-0.167903 J0.097576
G03 X75.886144 Y18.540967 Z0.000000 I-0.045889 J-0.144595
G03 X76.006319 Y17.915340 Z0.000000 I1.104717 J-0.112154
G02 X76.103289 Y17.517502 Z0.000000 I-0.758608 J-0.395640
G02 X76.005119 Y17.450190 Z0.000000 I-0.072289 J0.000186
G03 X75.848986 Y17.427995 Z0.000000 I-0.058145 J-0.151239
G03 X75.772332 Y17.273540 Z0.000000 I0.117283 J-0.154455
G03 X75.847162 Y17.116404 Z0.000000 I0.202400 J-0.000000
G03 X75.994807 Y17.092920 Z0.000000 I0.094133 J0.115949
G02 X76.278575 Y16.904371 Z0.000000 I0.074883 J-0.195112
G02 X76.016917 Y16.389550 Z0.000000 I-0.600188 J-0.018858
G03 X75.990860 Y16.296911 Z0.000000 I0.042289 J-0.061879
G03 X76.108716 Y16.185530 Z0.000000 I0.194127 J0.087368
G02 X76.263921 Y16.040812 Z0.000000 I-0.101704 J-0.264659
G02 X76.285078 Y15.807669 Z0.000000 I-0.312485 J-0.145888
G03 X76.318479 Y15.554796 Z0.000000 I0.326869 J-0.085469
G03 X76.757349 Y14.979769 Z0.000000 I2.360128 J1.346301
G02 X77.180218 Y14.400398 Z0.000000 I-1.643735 J-1.643730
G02 X77.214171 Y14.092769 Z0.000000 I-0.384739 J-0.198151
G02 X77.043117 Y13.882746 Z0.000000 I-0.315886 J0.082604
G02 X76.697855 Y13.837219 Z0.000000 I-0.239418 J0.483734
G03 X76.415960 Y13.785608 Z0.000000 I-0.076014 J-0.380464
G03 X76.350001 Y13.619419 Z0.000000 I0.080126 J-0.127985
G02 X76.318997 Y13.401215 Z0.000000 I-0.275778 J-0.072119
G02 X76.169252 Y13.316200 Z0.000000 I-0.149744 J0.089370
G03 X76.122869 Y13.178214 Z0.000000 I-0.000000 J-0.076788
G03 X76.784933 Y12.849559 Z0.000000 I1.195805 J1.577728
G02 X77.354652 Y12.559088 Z0.000000 I-0.437179 J-1.561411
G02 X77.448411 Y12.323919 Z0.000000 I-0.157808 J-0.199191
G02 X77.242946 Y12.099389 Z0.000000 I-0.267161 J0.038202
G02 X76.683696 Y12.144349 Z0.000000 I-0.209656 J0.892811
G03 X76.521646 Y12.088723 Z0.000000 I-0.049421 J-0.119882
G03 X76.319864 Y11.506549 Z0.000000 I1.456240 J-0.830792
G03 X76.373336 Y10.824033 Z0.000000 I1.503958 J-0.225524
G03 X76.688821 Y10.335499 Z0.000000 I1.046612 J0.329748
G02 X77.174622 Y9.723991 Z0.000000 I-1.535650 J-1.718688
G02 X77.096227 Y9.591669 Z0.000000 I-0.078395 J-0.042938
G02 X77.027145 Y9.606987 Z0.000000 I0.000000 J0.163438
G02 X76.404179 Y9.914439 Z0.000000 I6.656970 J14.273327
G02 X75.948354 Y10.349335 Z0.000000 I0.524210 J1.005766
G02 X75.681003 Y11.155940 Z0.000000 I1.782965 J1.038576
G03 X75.521834 Y12.012895 Z0.000000 I-6.108845 J-0.691385
G03 X75.441887 Y12.074700 Z0.000000 I-0.079948 J-0.020806
G02 X75.354142 Y12.122058 Z0.000000 I0.000000 J0.104965
G02 X75.306749 Y12.280600 Z0.000000 I0.241484 J0.158542
G02 X75.389256 Y12.391013 Z0.000000 I0.115132 J-0.000000
G02 X75.772316 Y12.418180 Z0.000000 I0.253287 J-0.857210
G03 X76.171846 Y12.425602 Z0.000000 I0.177390 J1.208044
G03 X76.237884 Y12.504980 Z0.000000 I-0.014686 J0.079377
G03 X75.996178 Y12.919406 Z0.000000 I-0.476139 J0.000000
G03 X75.078220 Y13.161050 Z0.000000 I-0.917959 J-1.622752
G02 X74.986180 Y13.189890 Z0.000000 I0.000000 J0.161291
G02 X74.737087 Y13.398160 Z0.000000 I1.041301 J1.498495
G02 X74.614246 Y13.640561 Z0.000000 I0.308780 J0.308806
G02 X74.669228 Y13.839200 Z0.000000 I0.248301 J0.038202
G03 X74.620182 Y14.029893 Z0.000000 I-0.093506 J0.077604
G03 X74.310609 Y13.980240 Z0.000000 I-0.112765 J-0.286822
G02 X74.194901 Y13.913912 Z0.000000 I-0.249068 J0.300401
G01 X74.181624 Y13.933340 Z0.000000
G03 X74.275200 Y14.259603 Z0.000000 I-0.298557 J0.262181
G03 X74.104034 Y14.408130 Z0.000000 I-0.174814 J-0.028567
G02 X74.052002 Y14.489753 Z0.000000 I0.001356 J0.058261
G02 X74.259221 Y14.763130 Z0.000000 I0.671705 J-0.293926
G03 X74.645973 Y15.374618 Z0.000000 I-0.726903 J0.887799
G03 X74.453207 Y15.544980 Z0.000000 I-0.140792 J0.034932
G02 X74.338224 Y15.635864 Z0.000000 I-0.030527 J0.079556
G02 X74.541707 Y16.204860 Z0.000000 I1.435746 J-0.192566
G03 X74.644684 Y16.771780 Z0.000000 I-0.671004 J0.414695
G03 X74.413977 Y16.854300 Z0.000000 I-0.139958 J-0.027526
G01 X74.350716 Y16.874279 Z0.000000
G02 X74.367227 Y17.023600 Z0.000000 I0.195433 J0.053964
G03 X74.799399 Y18.139013 Z0.000000 I-4.406911 J2.348908
G03 X74.688077 Y18.282270 Z0.000000 I-0.111321 J0.028376
G03 X74.581841 Y18.242520 Z0.000000 I-0.000000 J-0.161838
G03 X74.465116 Y18.088280 Z0.000000 I0.309058 J-0.355175
G01 X74.428880 Y18.095231 Z0.000000
G02 X74.436666 Y18.548480 Z0.000000 I2.869734 J0.177394
G02 X74.578010 Y19.171309 Z0.000000 I2.510281 J-0.242225
G02 X74.827825 Y19.619690 Z0.000000 I1.530244 J-0.558792
G03 X75.080661 Y20.032259 Z0.000000 I-1.633124 J1.284592
G03 X75.063403 Y20.129180 Z0.000000 I-0.078066 J0.036096
G03 X74.977307 Y20.139336 Z0.000000 I-0.049478 J-0.049430
G03 X74.772544 Y19.950310 Z0.000000 I0.377628 J-0.614484
G02 X74.538200 Y19.863757 Z0.000000 I-0.182426 J0.133400
G02 X74.442931 Y20.028110 Z0.000000 I0.030022 J0.127191
G03 X74.527075 Y20.381325 Z0.000000 I-3.204087 J0.949917
G03 X74.627950 Y21.047850 Z0.000000 I-11.317767 J2.053789
G02 X74.773522 Y21.696686 Z0.000000 I3.312674 J-0.402477
G02 X75.032106 Y22.265350 Z0.000000 I2.794754 J-0.927713
G03 X75.218502 Y22.778614 Z0.000000 I-1.280427 J0.755476
G03 X75.143937 Y22.942590 Z0.000000 I-0.159620 J0.026358
G02 X75.053144 Y23.105221 Z0.000000 I0.100646 J0.162848
G02 X75.143349 Y23.465680 Z0.000000 I0.761842 J0.000864
G03 X75.251504 Y23.848171 Z0.000000 I-0.818331 J0.437932
G03 X75.179420 Y24.068310 Z0.000000 I-0.314678 J0.018830
G02 X75.114061 Y24.282629 Z0.000000 I0.223119 J0.185168
G02 X75.233560 Y24.604158 Z0.000000 I0.676151 J-0.068327
G03 X75.389726 Y24.939017 Z0.000000 I-0.870864 J0.609983
G03 X75.378858 Y25.146541 Z0.000000 I-0.324890 J0.087032
G02 X75.384756 Y25.341690 Z0.000000 I0.235834 J0.090536
G02 X75.604319 Y25.642111 Z0.000000 I0.835285 J-0.380025
G03 X75.806256 Y25.956474 Z0.000000 I-0.480004 J0.530380
G03 X75.827640 Y26.347134 Z0.000000 I-0.747675 J0.236840
G02 X75.856026 Y26.710424 Z0.000000 I0.657025 J0.131417
G02 X76.024635 Y26.881250 Z0.000000 I0.272776 J-0.100613
G03 X76.132878 Y27.005848 Z0.000000 I-0.062928 J0.163984
G03 X76.081575 Y27.128712 Z0.000000 I-0.111391 J0.025631
G02 X75.770579 Y27.706120 Z0.000000 I0.345037 J0.558295
G02 X76.125975 Y28.652939 Z0.000000 I1.559997 J-0.045448
G03 X76.184095 Y28.840302 Z0.000000 I-0.199987 J0.164731
G03 X76.097176 Y28.981320 Z0.000000 I-0.184035 J-0.016138
G02 X76.012932 Y29.130493 Z0.000000 I0.093405 J0.151124
G02 X76.092476 Y29.413524 Z0.000000 I0.522880 J0.005740
G03 X76.168719 Y29.720072 Z0.000000 I-0.433098 J0.270474
G03 X76.046316 Y30.065119 Z0.000000 I-0.684120 J-0.048454
G02 X75.886445 Y30.421363 Z0.000000 I0.850169 J0.595523
G02 X75.889961 Y30.725078 Z0.000000 I0.611231 J0.144801
G03 X75.828693 Y30.891810 Z0.000000 I-0.150444 J0.039340
G03 X75.601231 Y30.927194 Z0.000000 I-0.149765 J-0.213946
G02 X75.486785 Y30.977108 Z0.000000 I-0.028382 J0.091085
G02 X75.507531 Y31.123065 Z0.000000 I0.119986 J0.057398
G03 X76.060728 Y32.233214 Z0.000000 I-1.758572 J1.569216
G03 X75.792751 Y32.559638 Z0.000000 I-0.267977 J0.053214
G03 X75.673873 Y32.503025 Z0.000000 I-0.000000 J-0.153120
G03 X75.617256 Y32.343456 Z0.000000 I0.196558 J-0.159569
G02 X75.557324 Y32.168472 Z0.000000 I-0.285416 J0.000000
G02 X75.378341 Y32.035595 Z0.000000 I-0.327495 J0.254147
G02 X74.779626 Y32.070556 Z0.000000 I-0.260707 J0.679372
G02 X74.529980 Y32.480573 Z0.000000 I0.216556 J0.412863
G03 X74.500936 Y32.630160 Z0.000000 I-0.411134 J-0.002214
G03 X74.282882 Y33.102800 Z0.000000 I-4.474112 J-1.777520
G02 X74.126655 Y33.585294 Z0.000000 I1.300689 J0.687691
G02 X74.117748 Y34.275196 Z0.000000 I2.696804 J0.379827
G03 X74.020047 Y35.201208 Z0.000000 I-2.126973 J0.243750
G03 X73.776896 Y35.288987 Z0.000000 I-0.156403 J-0.052584
G02 X73.286272 Y35.295099 Z0.000000 I-0.240502 J0.389142
G02 X72.303670 Y36.251027 Z0.000000 I1.952397 J2.989852
G03 X71.383472 Y37.009447 Z0.000000 I-1.801732 J-1.248605
G03 X70.705497 Y36.952982 Z0.000000 I-0.286931 J-0.653268
G01 X70.306643 Y36.691650 Z0.000000
G01 X70.655916 Y36.562445 Z0.000000
G02 X71.864839 Y35.920035 Z0.000000 I-1.775965 J-4.800830
G02 X72.047913 Y35.563271 Z0.000000 I-0.256083 J-0.356764
G03 X72.124246 Y35.240581 Z0.000000 I0.720235 J-0.000000
G03 X72.280694 Y35.098783 Z0.000000 I0.261065 J0.130832
G02 X72.458183 Y34.971435 Z0.000000 I-0.154693 J-0.402961
G02 X72.513480 Y34.818188 Z0.000000 I-0.184701 J-0.153247
G03 X72.578655 Y34.667498 Z0.000000 I0.206791 J-0.000000
G03 X72.940249 Y34.417117 Z0.000000 I1.016311 J1.081437
G02 X73.081056 Y34.249130 Z0.000000 I-0.119576 J-0.243235
G02 X73.017839 Y34.148626 Z0.000000 I-0.076399 J-0.022079
G03 X72.729269 Y34.038679 Z0.000000 I0.130292 J-0.775638
G03 X72.668666 Y33.928945 Z0.000000 I0.069046 J-0.109734
G03 X72.726251 Y33.851726 Z0.000000 I0.080566 J-0.000000
G03 X72.904972 Y33.858625 Z0.000000 I0.079218 J0.266193
G02 X73.121320 Y33.855467 Z0.000000 I0.104233 J-0.271580
G02 X73.466449 Y33.624125 Z0.000000 I-0.413511 J-0.990011
G02 X73.640441 Y33.314348 Z0.000000 I-0.464852 J-0.464842
G02 X73.579317 Y33.159127 Z0.000000 I-0.140838 J-0.034185
G03 X73.521973 Y33.013930 Z0.000000 I0.074702 J-0.113425
G03 X73.668257 Y32.789471 Z0.000000 I0.388939 J0.093580
G02 X73.802928 Y32.615927 Z0.000000 I-0.260000 J-0.340785
G01 X73.765647 Y32.559639 Z0.000000
G03 X73.686316 Y32.498890 Z0.000000 I-0.000000 J-0.082172
G03 X73.713267 Y32.365655 Z0.000000 I0.146816 J-0.039646
G02 X73.830377 Y32.155007 Z0.000000 I-0.613120 J-0.478743
G02 X74.025031 Y31.516495 Z0.000000 I-5.602261 J-2.056807
G02 X74.075326 Y30.897663 Z0.000000 I-1.906282 J-0.466393
G02 X73.959370 Y30.673798 Z0.000000 I-0.322599 J0.025134
G03 X73.823319 Y30.458986 Z0.000000 I0.263287 J-0.317244
G03 X73.828871 Y30.165050 Z0.000000 I0.533856 J-0.136936
G02 X73.956467 Y29.654510 Z0.000000 I-5.740466 J-1.705889
G02 X74.155749 Y28.560390 Z0.000000 I-26.210098 J-5.339107
G02 X74.144927 Y28.042248 Z0.000000 I-1.427148 J-0.229375
G02 X74.038165 Y27.983697 Z0.000000 I-0.078177 J0.015939
G03 X73.912890 Y27.936061 Z0.000000 I-0.036010 J-0.093844
G03 X73.845756 Y27.611982 Z0.000000 I0.544288 J-0.281743
G03 X74.074992 Y26.372562 Z0.000000 I5.540710 J0.383867
G03 X74.394494 Y25.816673 Z0.000000 I1.373865 J0.419879
G02 X74.482421 Y25.650957 Z0.000000 I-0.268796 J-0.248803
G02 X74.521010 Y25.273512 Z0.000000 I-1.459275 J-0.339890
G02 X74.435574 Y25.218072 Z0.000000 I-0.061711 J0.001548
G02 X74.260071 Y25.382145 Z0.000000 I0.132023 J0.317120
G03 X73.951429 Y25.656443 Z0.000000 I-0.495266 J-0.246484
G03 X73.827015 Y25.537332 Z0.000000 I-0.032472 J-0.090614
G02 X73.996048 Y24.632858 Z0.000000 I-3.803724 J-1.178891
G02 X73.893885 Y24.569217 Z0.000000 I-0.067978 J-0.004696
G03 X73.803256 Y24.593074 Z0.000000 I-0.088784 J-0.153207
G01 X73.792442 Y24.568228 Z0.000000
G02 X73.838081 Y24.438674 Z0.000000 I-0.131640 J-0.119190
G02 X73.775082 Y24.271770 Z0.000000 I-0.298881 J0.017474
G03 X73.683864 Y24.085070 Z0.000000 I0.394984 J-0.308613
G03 X73.545250 Y23.355201 Z0.000000 I6.215743 J-1.558567
G03 X73.611896 Y22.797761 Z0.000000 I1.130889 J-0.147499
G03 X73.795385 Y22.705810 Z0.000000 I0.142240 J0.054790
G02 X73.941424 Y22.708073 Z0.000000 I0.077288 J-0.274334
G01 X73.948914 Y22.667710 Z0.000000
G03 X73.841042 Y22.491560 Z0.000000 I0.148067 J-0.211779
G03 X73.820327 Y21.744130 Z0.000000 I3.354549 J-0.466975
G02 X73.762443 Y21.102667 Z0.000000 I-1.865421 J-0.155015
G02 X73.626403 Y21.023461 Z0.000000 I-0.108001 J0.029065
G03 X73.486885 Y20.935743 Z0.000000 I-0.028382 J-0.109672
G03 X73.367009 Y19.710351 Z0.000000 I6.203190 J-1.225395
G02 X73.294240 Y18.355373 Z0.000000 I-12.651589 J0.000005
G02 X73.194860 Y18.112381 Z0.000000 I-0.470743 J0.050708
G03 X72.778454 Y17.153854 Z0.000000 I1.598822 J-1.264276
G03 X73.008786 Y16.885941 Z0.000000 I0.230332 J-0.034946
G02 X73.090009 Y16.846185 Z0.000000 I-0.000000 J-0.102849
G01 X73.086246 Y16.786241 Z0.000000
G02 X72.983204 Y16.759654 Z0.000000 I-0.074126 J0.074315
G02 X72.750006 Y16.882841 Z0.000000 I0.176843 J0.617093
G03 X72.581643 Y16.933938 Z0.000000 I-0.144975 J-0.174762
G03 X72.513470 Y16.858341 Z0.000000 I0.007828 J-0.075597
G03 X72.557595 Y16.655857 Z0.000000 I0.486640 J-0.000000
G03 X72.699697 Y16.451361 Z0.000000 I0.638916 J0.292352
G02 X72.724727 Y16.331899 Z0.000000 I-0.078887 J-0.078882
G02 X72.626977 Y16.265131 Z0.000000 I-0.097751 J0.038171
G03 X72.479267 Y16.188654 Z0.000000 I-0.000000 J-0.180883
G03 X72.459137 Y16.027701 Z0.000000 I0.140495 J-0.099306
G02 X72.452449 Y15.814708 Z0.000000 I-0.256897 J-0.098535
G02 X72.219206 Y15.503161 Z0.000000 I-0.834738 J0.381852
G03 X71.989655 Y15.190675 Z0.000000 I0.574949 J-0.662913
G03 X71.984637 Y14.964651 Z0.000000 I0.273517 J-0.119140
G02 X71.949616 Y14.803698 Z0.000000 I-0.140167 J-0.053789
G02 X71.728266 Y14.713241 Z0.000000 I-0.221350 J0.225599
G03 X71.484604 Y14.668009 Z0.000000 I-0.000000 J-0.678907
G01 X71.473402 Y14.615241 Z0.000000
G02 X71.499414 Y14.510976 Z0.000000 I-0.073786 J-0.073786
G02 X71.344075 Y14.192741 Z0.000000 I-1.078357 J0.329347
G03 X71.168388 Y13.851935 Z0.000000 I1.166505 J-0.817025
