%
(Header)
(Generated by gcodetools from Inkscape.)
(Using default header. To add your own header create file "header" in the output dir.)
M3
(Header end.)
G21 (All units in mm)

(Pass at depth -1.0)
(Start cutting path id: path847)
(Change tool to Cylindrical cutter)

G00 Z5.000000
G00 X39.947727 Y1.333664

G01 Z-1.000000 F1000.0(Penetrate)
G02 X40.152281 Y3.091312 Z-1.000000 I7.653608 J0.000005 F1100.000000
G02 X40.692558 Y4.490304 Z-1.000000 I5.350430 J-1.262462
G02 X41.135918 Y5.075871 Z-1.000000 I2.259484 J-1.250133
G02 X42.134124 Y5.916495 Z-1.000000 I5.733405 J-5.795204
G03 X43.133829 Y6.730589 Z-1.000000 I-5.886942 J8.250014
G03 X43.233747 Y6.934886 Z-1.000000 I-0.214300 J0.231393
G02 X43.319661 Y7.356769 Z-1.000000 I1.871138 J-0.161357
G02 X43.526449 Y7.830806 Z-1.000000 I2.575891 J-0.841554
G03 X43.595801 Y8.166588 Z-1.000000 I-0.501893 J0.278713
G03 X43.477409 Y8.321686 Z-1.000000 I-0.185000 J-0.018482
G02 X43.298050 Y8.617830 Z-1.000000 I0.101172 J0.263661
G02 X43.666884 Y9.958066 Z-1.000000 I4.522061 J-0.523605
G03 X44.057660 Y10.959339 Z-1.000000 I-9.862907 J4.426175
G03 X44.034350 Y11.058216 Z-1.000000 I-0.091594 J0.030594
G03 X43.699716 Y11.090695 Z-1.000000 I-0.187048 J-0.187050
G03 X41.876978 Y9.607845 Z-1.000000 I7.208899 J-10.722961
G02 X40.595857 Y8.464537 Z-1.000000 I-13.232093 J13.537657
G02 X40.376844 Y8.386664 Z-1.000000 I-0.219013 J0.269043
G02 X40.193381 Y8.472919 Z-1.000000 I-0.000000 J0.238240
G02 X40.017098 Y8.820934 Z-1.000000 I0.679287 J0.562739
G02 X40.099142 Y9.201690 Z-1.000000 I0.427077 J0.107191
G02 X41.989732 Y11.308915 Z-1.000000 I18.228385 J-14.452668
G03 X44.014004 Y13.386626 Z-1.000000 I-51.518131 J52.218036
G03 X44.071361 Y13.531786 Z-1.000000 I-0.155009 J0.145160
G02 X44.127179 Y13.667459 Z-1.000000 I0.192794 J0.000000
G02 X44.428001 Y13.891797 Z-1.000000 I0.895591 J-0.887070
G02 X44.666710 Y13.907208 Z-1.000000 I0.136293 J-0.254659
G02 X44.751852 Y13.768987 Z-1.000000 I-0.047172 J-0.124391
G03 X44.859951 Y13.404619 Z-1.000000 I0.494060 J-0.051644
G03 X45.083689 Y13.359447 Z-1.000000 I0.139200 J0.112787
G02 X45.410360 Y13.420573 Z-1.000000 I0.259931 J-0.485669
G02 X45.975753 Y13.250548 Z-1.000000 I-0.210592 J-1.725367
G03 X46.539536 Y13.135968 Z-1.000000 I0.495319 J0.992869
G03 X47.197062 Y13.326048 Z-1.000000 I-0.096906 J1.567518
G02 X47.591074 Y13.363596 Z-1.000000 I0.240664 J-0.439359
G02 X47.667383 Y13.174819 Z-1.000000 I-0.040585 J-0.126218
G03 X47.522815 Y12.817401 Z-1.000000 I1.590940 J-0.851451
G03 X47.340460 Y12.026338 Z-1.000000 I7.693488 J-2.190043
G02 X47.166973 Y11.228833 Z-1.000000 I-10.466494 J1.859222
G02 X46.684466 Y9.484788 Z-1.000000 I-50.607901 J13.062399
G02 X45.770667 Y7.257476 Z-1.000000 I-11.325887 J3.345563
G02 X45.361001 Y7.012087 Z-1.000000 I-0.409666 J0.219266
G03 X45.204289 Y6.955748 Z-1.000000 I0.000000 J-0.246121
G03 X44.411232 Y6.227837 Z-1.000000 I6.549688 J-7.931837
G02 X43.636727 Y5.448753 Z-1.000000 I-59.442073 J58.318291
G02 X43.069879 Y4.896246 Z-1.000000 I-30.439310 J30.662313
G03 X41.664270 Y3.077711 Z-1.000000 I5.339925 J-5.579903
G03 X41.322278 Y1.762165 Z-1.000000 I2.359261 J-1.315545
G02 X41.007643 Y0.969440 Z-1.000000 I-1.155951 J-0.000001
G02 X40.278899 Y0.654814 Z-1.000000 I-0.728745 J0.686654
G02 X40.075078 Y0.782162 Z-1.000000 I-0.000000 J0.226782
G02 X39.947732 Y1.333634 Z-1.000000 I1.130409 J0.551473
G01 X39.947727 Y1.333664 Z-1.000000
G00 Z5.000000

(Change tool to Cylindrical cutter)

G00 Z5.000000
G00 X43.526070 Y1.162536

G01 Z-1.000000 F1000.0(Penetrate)
G02 X43.906716 Y1.654249 Z-1.000000 I2.368746 J-1.440508 F1100.000000
G02 X44.542498 Y2.208367 Z-1.000000 I3.657327 J-3.554533
G03 X45.129064 Y2.779202 Z-1.000000 I-1.766111 J2.401564
G03 X45.332530 Y3.223627 Z-1.000000 I-0.839102 J0.652945
G02 X45.531657 Y3.659497 Z-1.000000 I1.025556 J-0.205104
G02 X45.923677 Y3.985808 Z-1.000000 I0.936258 J-0.726157
G03 X46.373632 Y4.291853 Z-1.000000 I-1.043658 J2.018201
G03 X47.515506 Y5.374449 Z-1.000000 I-12.488747 J14.316076
G02 X48.667487 Y6.420305 Z-1.000000 I8.862348 J-8.604259
G02 X49.050826 Y6.601149 Z-1.000000 I0.572151 J-0.716091
G03 X49.478049 Y6.710570 Z-1.000000 I-1.049287 J4.985584
G03 X49.875043 Y6.850700 Z-1.000000 I-1.347136 J4.448909
G02 X50.191558 Y6.837499 Z-1.000000 I0.143725 J-0.355051
G02 X50.434143 Y6.568090 Z-1.000000 I-0.226276 J-0.447667
G03 X50.633049 Y6.143209 Z-1.000000 I2.944651 J1.119525
G03 X51.085641 Y5.409811 Z-1.000000 I9.266548 J5.212181
G02 X51.535768 Y4.674728 Z-1.000000 I-8.126069 J-5.481355
G02 X51.797401 Y4.123701 Z-1.000000 I-4.294646 J-2.376759
G03 X52.095791 Y3.608408 Z-1.000000 I1.929100 J0.773041
G03 X52.582650 Y3.129772 Z-1.000000 I2.143792 J1.693693
G02 X53.036705 Y2.634715 Z-1.000000 I-1.157034 J-1.516959
G02 X53.366149 Y1.894542 Z-1.000000 I-2.343537 J-1.486488
G03 X53.593465 Y1.084708 Z-1.000000 I294.120671 J82.121365
G03 X53.655365 Y0.869622 Z-1.000000 I20.749179 J5.855030
G02 X53.584203 Y0.755314 Z-1.000000 I-0.086583 J-0.025402
G02 X52.417145 Y0.654851 Z-1.000000 I-1.167062 J6.728565
G02 X51.221248 Y0.760241 Z-1.000000 I-0.000004 J6.837784
G02 X51.115909 Y0.885941 Z-1.000000 I0.022328 J0.125700
G03 X51.056724 Y1.090785 Z-1.000000 I-0.384085 J-0.000000
G03 X50.776609 Y1.424110 Z-1.000000 I-1.354885 J-0.854237
G02 X50.483046 Y1.765442 Z-1.000000 I1.212340 J1.339583
G02 X50.069697 Y2.490550 Z-1.000000 I5.174113 J3.429882
G03 X48.686077 Y3.442624 Z-1.000000 I-1.528538 J-0.739955
G03 X47.001377 Y2.753338 Z-1.000000 I-0.170218 J-1.987416
G03 X46.378429 Y1.916959 Z-1.000000 I5.789488 J-4.962280
G03 X46.306111 Y1.672758 Z-1.000000 I0.382425 J-0.246061
G02 X45.949983 Y1.090890 Z-1.000000 I-0.657676 J0.002608
G02 X44.364832 Y0.671147 Z-1.000000 I-1.742451 J3.377314
G01 X43.197843 Y0.622846 Z-1.000000
G01 X43.526070 Y1.162536 Z-1.000000
G00 Z5.000000

(Change tool to Cylindrical cutter)

G00 Z5.000000
G00 X64.011664 Y1.015898

G01 Z-1.000000 F1000.0(Penetrate)
G02 X64.489706 Y1.280278 Z-1.000000 I1.076463 J-1.382040 F1100.000000
G02 X65.611151 Y1.597259 Z-1.000000 I2.723386 J-7.492780
G03 X65.978375 Y1.754261 Z-1.000000 I-0.200959 J0.978008
G03 X66.728166 Y2.370440 Z-1.000000 I-3.350195 J4.840921
G02 X67.452241 Y3.027725 Z-1.000000 I10.219056 J-10.530008
G02 X67.540992 Y3.060311 Z-1.000000 I0.088751 J-0.104569
G03 X68.142383 Y3.324650 Z-1.000000 I-0.000000 J0.816274
G03 X69.771762 Y5.490972 Z-1.000000 I-10.239650 J9.397579
G02 X70.612786 Y6.448421 Z-1.000000 I3.151071 J-1.919802
G02 X71.238414 Y6.668493 Z-1.000000 I0.625628 J-0.779244
G03 X71.537393 Y6.756207 Z-1.000000 I-0.000000 J0.553403
G03 X72.175090 Y7.269863 Z-1.000000 I-2.064674 J3.215935
G02 X72.788728 Y7.841588 Z-1.000000 I8.391428 J-8.391443
G02 X72.868099 Y7.871224 Z-1.000000 I0.079371 J-0.091468
G02 X72.952287 Y7.847726 Z-1.000000 I0.000000 J-0.162564
G02 X73.506687 Y7.484634 Z-1.000000 I-4.838916 J-7.993263
G03 X74.069094 Y7.133549 Z-1.000000 I3.346102 J4.734154
G03 X74.311360 Y7.044165 Z-1.000000 I0.422150 J0.771182
G02 X75.321300 Y6.540396 Z-1.000000 I-0.454945 J-2.176292
G02 X76.193855 Y5.395376 Z-1.000000 I-2.383382 J-2.721213
G02 X76.733184 Y3.617432 Z-1.000000 I-5.371034 J-2.600046
G02 X76.573594 Y2.665276 Z-1.000000 I-1.595847 J-0.221975
G03 X76.435655 Y2.272358 Z-1.000000 I1.402781 J-0.713139
G03 X76.334311 Y1.513956 Z-1.000000 I5.201040 J-1.080976
G01 X76.287282 Y0.740766 Z-1.000000
G01 X74.268422 Y0.692365 Z-1.000000
G01 X72.249555 Y0.643963 Z-1.000000
G01 X72.249554 Y1.317653 Z-1.000000
G03 X72.158594 Y1.958659 Z-1.000000 I-2.304108 J-0.000001
G03 X71.948872 Y2.355803 Z-1.000000 I-1.065032 J-0.308471
G03 X71.605133 Y2.532680 Z-1.000000 I-0.377730 J-0.311626
G03 X70.997427 Y2.422003 Z-1.000000 I-0.086786 J-1.247211
G03 X70.321063 Y1.801068 Z-1.000000 I0.621213 J-1.355505
G03 X70.164496 Y0.950682 Z-1.000000 I1.150809 J-0.651484
G02 X70.040303 Y0.792802 Z-1.000000 I-0.136123 J-0.020709
G02 X66.901247 Y0.666890 Z-1.000000 I-2.917892 J33.552427
G02 X64.058464 Y0.847307 Z-1.000000 I0.164713 J25.082022
G02 X64.011670 Y1.015878 Z-1.000000 I0.011344 J0.093929
G01 X64.011664 Y1.015898 Z-1.000000
G00 Z5.000000

(Change tool to Cylindrical cutter)

G00 Z5.000000
G00 X79.796397 Y0.783728

G01 Z-1.000000 F1000.0(Penetrate)
G03 X79.776581 Y0.911402 Z-1.000000 I-1.157602 J-0.114291 F1100.000000
G03 X79.696288 Y1.256228 Z-1.000000 I-9.004152 J-1.914852
G02 X79.629675 Y1.602538 Z-1.000000 I2.962528 J0.749412
G02 X79.604858 Y1.943498 Z-1.000000 I2.842664 J0.378286
G03 X79.378900 Y4.017281 Z-1.000000 I-10.932558 J-0.142003
G03 X79.086037 Y4.450337 Z-1.000000 I-0.672376 J-0.139152
G02 X78.470883 Y5.786328 Z-1.000000 I0.773099 J1.165591
G02 X79.602780 Y8.660258 Z-1.000000 I6.122563 J-0.751507
G02 X79.917100 Y9.022798 Z-1.000000 I2.258680 J-1.640734
G02 X80.023432 Y9.068558 Z-1.000000 I0.113207 J-0.116638
G03 X80.316232 Y9.265212 Z-1.000000 I-0.014268 J0.337548
G03 X80.971950 Y11.135769 Z-1.000000 I-9.698386 J4.449949
G01 X81.121755 Y11.737139 Z-1.000000
G01 X82.312695 Y11.678139 Z-1.000000
G02 X84.430537 Y11.160264 Z-1.000000 I-0.285381 J-5.756433
G02 X85.217980 Y10.345321 Z-1.000000 I-0.649259 J-1.415257
G03 X85.522910 Y9.880254 Z-1.000000 I1.397900 J0.584060
G03 X85.665797 Y9.878791 Z-1.000000 I0.072160 J0.069265
G02 X86.302865 Y10.000393 Z-1.000000 I0.408021 J-0.408016
G02 X87.222655 Y9.205472 Z-1.000000 I-0.804721 J-1.860728
G03 X87.378800 Y9.022555 Z-1.000000 I0.672064 J0.415593
G03 X87.492139 Y8.973242 Z-1.000000 I0.136084 J0.157869
G02 X87.623456 Y8.944320 Z-1.000000 I-0.065792 J-0.611293
G02 X87.927953 Y8.825993 Z-1.000000 I-1.182911 J-3.494985
G02 X88.086628 Y8.600960 Z-1.000000 I-0.107580 J-0.244316
G02 X88.228633 Y4.674243 Z-1.000000 I-54.220517 J-3.926750
G01 X88.228636 Y0.654903 Z-1.000000
G01 X87.443875 Y0.654902 Z-1.000000
G02 X86.844370 Y0.790450 Z-1.000000 I-0.000001 J1.393521
G02 X86.762224 Y0.979772 Z-1.000000 I0.067579 J0.141805
G03 X86.711478 Y1.227643 Z-1.000000 I-0.247315 J0.078498
G03 X86.317862 Y1.495492 Z-1.000000 I-0.696081 J-0.599780
G02 X86.000622 Y1.751098 Z-1.000000 I0.199500 J0.572276
G02 X86.016808 Y1.986752 Z-1.000000 I0.173707 J0.106451
G03 X86.162302 Y2.316719 Z-1.000000 I-0.519515 J0.426133
G03 X86.172065 Y3.060352 Z-1.000000 I-2.828462 J0.409015
G03 X85.966103 Y3.679787 Z-1.000000 I-1.602550 J-0.188888
G03 X85.756894 Y3.777701 Z-1.000000 I-0.174893 J-0.101226
G02 X85.575555 Y3.839017 Z-1.000000 I-0.034089 J0.197992
G02 X85.542832 Y4.008361 Z-1.000000 I0.119508 J0.110927
G03 X85.521980 Y4.227576 Z-1.000000 I-0.230938 J0.088632
G03 X85.308438 Y4.384931 Z-1.000000 I-0.303974 J-0.188941
G02 X85.020381 Y4.518428 Z-1.000000 I0.226284 J0.865801
G02 X84.964091 Y4.626751 Z-1.000000 I0.076082 J0.108323
G03 X84.914760 Y4.729219 Z-1.000000 I-0.131086 J-0.000000
G03 X84.773886 Y4.778531 Z-1.000000 I-0.140873 J-0.176566
G03 X84.681216 Y4.711496 Z-1.000000 I0.000000 J-0.097572
G03 X84.686016 Y4.511881 Z-1.000000 I0.282439 J-0.093073
G02 X84.690248 Y4.363636 Z-1.000000 I-0.208711 J-0.080140
G01 X84.631736 Y4.342031 Z-1.000000
G02 X84.521447 Y4.471371 Z-1.000000 I0.146305 J0.236448
G02 X84.359117 Y4.995281 Z-1.000000 I2.668724 J1.113988
G03 X83.904288 Y6.106387 Z-1.000000 I-3.229010 J-0.673143
G03 X83.503960 Y6.324890 Z-1.000000 I-0.400328 J-0.257476
G03 X83.390475 Y6.231099 Z-1.000000 I0.000000 J-0.115553
G03 X83.420310 Y5.888640 Z-1.000000 I0.618652 J-0.118631
G02 X83.496578 Y5.443682 Z-1.000000 I-1.096817 J-0.417014
G02 X83.381471 Y4.258860 Z-1.000000 I-8.154946 J0.194258
G03 X83.366187 Y3.122152 Z-1.000000 I3.597141 J-0.616824
G03 X83.621598 Y2.590350 Z-1.000000 I0.972871 J0.140011
G02 X84.017831 Y2.087384 Z-1.000000 I-2.741771 J-2.567501
G02 X84.178253 Y1.744281 Z-1.000000 I-1.098257 J-0.722558
G03 X84.333637 Y1.402052 Z-1.000000 I1.353358 J0.408084
G03 X84.541192 Y1.164841 Z-1.000000 I0.842139 J0.527447
G02 X84.750901 Y0.937038 Z-1.000000 I-0.740148 J-0.891789
G02 X84.792262 Y0.805681 Z-1.000000 I-0.187912 J-0.131358
G02 X84.704182 Y0.713788 Z-1.000000 I-0.091975 J-0.000000
G02 X82.301317 Y0.657603 Z-1.000000 I-2.680362 J63.221386
G02 X79.894071 Y0.692543 Z-1.000000 I-0.279338 J63.697290
G02 X79.796388 Y0.783778 Z-1.000000 I0.003394 J0.101545
G01 X79.796397 Y0.783728 Z-1.000000
G00 Z5.000000

(Change tool to Cylindrical cutter)

G00 Z5.000000
G00 X59.258204 Y2.162076

G01 Z-1.000000 F1000.0(Penetrate)
G02 X58.735679 Y2.764848 Z-1.000000 I1.487347 J1.817202 F1100.000000
G02 X58.248286 Y3.833495 Z-1.000000 I4.356934 J2.632598
G03 X58.113834 Y3.941909 Z-1.000000 I-0.149979 J-0.048421
G03 X57.960442 Y3.861995 Z-1.000000 I-0.015572 J-0.157284
G02 X57.772480 Y3.768697 Z-1.000000 I-0.162377 J0.091144
G02 X57.519950 Y3.923095 Z-1.000000 I0.050905 J0.366976
G02 X57.332103 Y4.324395 Z-1.000000 I1.052717 J0.737386
G02 X57.239038 Y4.959984 Z-1.000000 I2.607502 J0.706407
G03 X57.115323 Y5.549536 Z-1.000000 I-1.676222 J-0.043991
G03 X56.913299 Y5.758184 Z-1.000000 I-0.360830 J-0.147247
G02 X56.839610 Y5.940975 Z-1.000000 I0.057805 J0.129551
G02 X57.229302 Y6.538664 Z-1.000000 I1.723426 J-0.697787
G02 X57.911925 Y7.085387 Z-1.000000 I2.522723 J-2.450287
G02 X58.672335 Y7.424645 Z-1.000000 I1.667810 J-2.716398
G03 X60.106492 Y8.019183 Z-1.000000 I-2.122239 J7.146336
G03 X60.904087 Y8.636057 Z-1.000000 I-1.500228 J2.763807
G02 X63.453949 Y10.761795 Z-1.000000 I9.774019 J-9.131938
G02 X63.755168 Y10.465638 Z-1.000000 I0.116976 J-0.182287
G03 X63.854205 Y10.219991 Z-1.000000 I0.139823 J-0.086416
G03 X64.559127 Y10.259709 Z-1.000000 I0.289827 J1.131515
G02 X64.923844 Y10.230647 Z-1.000000 I0.151718 J-0.399055
G02 X65.280706 Y9.844309 Z-1.000000 I-0.440134 J-0.764541
G02 X65.478550 Y9.058839 Z-1.000000 I-1.875890 J-0.890149
G02 X65.426077 Y6.964419 Z-1.000000 I-13.873116 J-0.700294
G02 X65.188689 Y6.258156 Z-1.000000 I-1.670633 J0.168504
G02 X64.781950 Y5.909049 Z-1.000000 I-0.741780 J0.452738
G03 X64.314686 Y5.593594 Z-1.000000 I0.552312 J-1.321900
G03 X64.108174 Y5.226478 Z-1.000000 I0.569113 J-0.561783
G02 X63.946239 Y4.841879 Z-1.000000 I-1.331283 J0.334143
G02 X63.832778 Y4.778438 Z-1.000000 I-0.113461 J0.069739
G03 X63.692886 Y4.724493 Z-1.000000 I0.000000 J-0.208357
G03 X62.613774 Y3.674078 Z-1.000000 I14.115708 J-15.580853
G02 X61.478645 Y2.707283 Z-1.000000 I-5.277424 J5.046522
G02 X60.718177 Y2.368296 Z-1.000000 I-1.291564 J1.874946
G03 X59.945928 Y2.113840 Z-1.000000 I1.145946 J-4.776896
G03 X59.878638 Y2.012206 Z-1.000000 I0.043108 J-0.101634
G02 X59.755110 Y1.914957 Z-1.000000 I-0.100044 J-0.000000
G02 X59.258204 Y2.162036 Z-1.000000 I0.292600 J1.211667
G01 X59.258204 Y2.162076 Z-1.000000
G00 Z5.000000

(Change tool to Cylindrical cutter)

G00 Z5.000000
G00 X62.723570 Y6.153038

G01 Z-1.000000 F1000.0(Penetrate)
G03 X63.830347 Y6.567072 Z-1.000000 I-0.000001 J1.686313 F1100.000000
G03 X64.062080 Y7.317428 Z-1.000000 I-0.488829 J0.561926
G03 X63.849745 Y7.506608 Z-1.000000 I-0.248292 J-0.064930
G03 X63.326280 Y7.421548 Z-1.000000 I-0.125046 J-0.883706
G02 X62.762743 Y7.279579 Z-1.000000 I-0.605364 J1.213507
G02 X62.140108 Y7.384947 Z-1.000000 I-0.049387 J1.600470
G03 X61.508432 Y7.507611 Z-1.000000 I-0.663984 J-1.731504
G03 X60.859803 Y7.407247 Z-1.000000 I-0.033611 J-1.928927
G02 X60.201023 Y7.227042 Z-1.000000 I-1.897959 J5.644156
G02 X59.657077 Y7.151356 Z-1.000000 I-0.801250 J3.766014
G03 X59.140146 Y7.052839 Z-1.000000 I0.144920 J-2.165872
G03 X58.979220 Y6.934375 Z-1.000000 I0.095480 J-0.298240
G03 X58.878732 Y6.494825 Z-1.000000 I0.489462 J-0.343161
G03 X59.078820 Y6.324775 Z-1.000000 I0.200089 J0.032692
G02 X59.283549 Y6.265356 Z-1.000000 I0.000000 J-0.382405
G02 X59.620905 Y5.981146 Z-1.000000 I-0.876339 J-1.382534
G03 X59.963563 Y5.708891 Z-1.000000 I0.994948 J0.900472
G03 X60.238759 Y5.637506 Z-1.000000 I0.275195 J0.494762
G02 X60.514896 Y5.582519 Z-1.000000 I0.000000 J-0.720855
G02 X60.651512 Y5.466186 Z-1.000000 I-0.111869 J-0.269758
G03 X60.783946 Y5.419270 Z-1.000000 I0.095419 J0.058973
G03 X61.388811 Y5.723917 Z-1.000000 I-0.860072 J2.460433
G02 X62.052579 Y6.047775 Z-1.000000 I1.457195 J-2.144467
G02 X62.723568 Y6.152968 Z-1.000000 I0.670991 J-2.087430
G01 X62.723570 Y6.153038 Z-1.000000
G00 Z5.000000

(Change tool to Cylindrical cutter)

G00 Z5.000000
G00 X71.046816 Y7.537723

G01 Z-1.000000 F1000.0(Penetrate)
G02 X71.101496 Y7.621578 Z-1.000000 I0.091639 J0.000000 F1100.000000
G02 X71.218634 Y7.613423 Z-1.000000 I0.050825 J-0.115312
G02 X71.365794 Y7.493495 Z-1.000000 I-0.384187 J-0.621673
G02 X71.390454 Y7.431463 Z-1.000000 I-0.065692 J-0.062032
G02 X71.360531 Y7.385603 Z-1.000000 I-0.050104 J-0.000000
G02 X71.218635 Y7.355763 Z-1.000000 I-0.141896 J0.322452
G02 X71.098567 Y7.407529 Z-1.000000 I-0.000000 J0.165127
G02 X71.046816 Y7.537723 Z-1.000000 I0.137896 J0.130194
G01 X71.046816 Y7.537723 Z-1.000000
G00 Z5.000000

(Change tool to Cylindrical cutter)

G00 Z5.000000
G00 X46.648633 Y8.260008

G01 Z-1.000000 F1000.0(Penetrate)
G02 X46.678984 Y8.492232 Z-1.000000 I0.903570 J0.000001 F1100.000000
G02 X46.936060 Y9.340818 Z-1.000000 I12.517520 J-3.328904
G02 X47.106542 Y9.359124 Z-1.000000 I0.089498 J-0.030495
G02 X47.159191 Y8.970538 Z-1.000000 I-0.423582 J-0.255249
G02 X46.795028 Y8.212865 Z-1.000000 I-2.324215 J0.650744
G02 X46.648633 Y8.260008 Z-1.000000 I-0.065607 J0.047143
G01 X46.648633 Y8.260008 Z-1.000000
G00 Z5.000000

(Change tool to Cylindrical cutter)

G00 Z5.000000
G00 X70.624609 Y8.203022

G01 Z-1.000000 F1000.0(Penetrate)
G02 X70.604864 Y8.344311 Z-1.000000 I0.150650 J0.093078 F1100.000000
G02 X70.700379 Y8.470882 Z-1.000000 I0.210570 J-0.059578
G02 X71.047772 Y8.484614 Z-1.000000 I0.185855 J-0.300727
G02 X71.218635 Y8.204753 Z-1.000000 I-0.143766 J-0.279862
G02 X71.005669 Y7.991165 Z-1.000000 I-0.213589 J-0.000000
G02 X70.624610 Y8.202752 Z-1.000000 I-0.001302 J0.446584
G01 X70.624609 Y8.203022 Z-1.000000
G00 Z5.000000

(Change tool to Cylindrical cutter)

G00 Z5.000000
G00 X55.452769 Y8.788533

G01 Z-1.000000 F1000.0(Penetrate)
G02 X54.742060 Y9.081518 Z-1.000000 I0.375688 J1.919819 F1100.000000
G02 X54.656423 Y9.320333 Z-1.000000 I0.118329 J0.177193
G03 X54.756344 Y9.676967 Z-1.000000 I-8.776759 J2.651363
G03 X54.786831 Y9.824843 Z-1.000000 I-1.472508 J0.380661
G03 X54.574949 Y10.280198 Z-1.000000 I-0.446564 J0.069181
G03 X53.498444 Y10.607752 Z-1.000000 I-1.177802 J-1.938099
G02 X52.967091 Y10.994231 Z-1.000000 I0.026563 J0.595027
G02 X53.183177 Y11.451122 Z-1.000000 I0.330139 J0.123406
G03 X53.274225 Y11.536491 Z-1.000000 I-0.049128 J0.143634
G03 X53.265257 Y11.648592 Z-1.000000 I-0.113807 J0.047305
G02 X53.389637 Y12.367832 Z-1.000000 I0.468241 J0.289400
G02 X54.773015 Y12.854773 Z-1.000000 I1.388211 J-1.735316
G03 X55.117505 Y12.948062 Z-1.000000 I-0.001679 J0.688891
G03 X55.807506 Y13.456133 Z-1.000000 I-1.993445 J3.429831
G02 X56.499376 Y13.959154 Z-1.000000 I2.537592 J-2.762961
G02 X56.870184 Y14.056684 Z-1.000000 I0.370808 J-0.656140
G03 X57.270874 Y14.099200 Z-1.000000 I-0.000001 J1.909424
G03 X57.762667 Y14.248225 Z-1.000000 I-0.651879 J3.037243
G02 X59.803622 Y14.658761 Z-1.000000 I2.157720 J-5.448464
G02 X60.337667 Y14.299426 Z-1.000000 I0.011159 J-0.559934
G03 X60.464480 Y14.217600 Z-1.000000 I0.119365 J0.045811
G03 X60.892988 Y14.331827 Z-1.000000 I-0.064300 J1.102077
G02 X61.380996 Y14.536060 Z-1.000000 I1.780005 J-3.568091
G02 X61.892464 Y14.674147 Z-1.000000 I1.295940 J-3.783836
G02 X62.338173 Y14.588314 Z-1.000000 I0.117725 J-0.588825
G02 X62.971388 Y13.970638 Z-1.000000 I-1.245807 J-1.910556
G02 X63.380991 Y13.127560 Z-1.000000 I-2.577169 J-1.773141
G02 X63.435741 Y12.479428 Z-1.000000 I-1.438284 J-0.447873
G02 X63.065862 Y11.616336 Z-1.000000 I-1.734929 J0.232703
G02 X62.013473 Y10.707677 Z-1.000000 I-2.992881 J2.402535
G02 X61.054741 Y10.471344 Z-1.000000 I-0.877668 J1.497622
G02 X60.943902 Y10.757677 Z-1.000000 I0.007838 J0.167653
G03 X60.916585 Y11.151107 Z-1.000000 I-0.184833 J0.184830
G03 X60.392124 Y11.174336 Z-1.000000 I-0.279117 J-0.369636
G02 X60.044159 Y11.002064 Z-1.000000 I-1.045225 J1.673649
G02 X59.834934 Y10.963866 Z-1.000000 I-0.209225 J0.553901
G03 X59.629861 Y10.914775 Z-1.000000 I0.000000 J-0.452890
G03 X58.963348 Y10.521225 Z-1.000000 I2.763384 J-5.441218
G03 X58.488176 Y10.053627 Z-1.000000 I1.043548 J-1.535681
G03 X58.496036 Y9.856745 Z-1.000000 I0.132666 J-0.093301
G02 X58.562165 Y9.646768 Z-1.000000 I-0.224081 J-0.185973
G02 X58.463246 Y9.460295 Z-1.000000 I-0.266824 J0.022069
G02 X57.153134 Y8.660489 Z-1.000000 I-3.720880 J4.622032
G02 X56.494646 Y8.585014 Z-1.000000 I-0.449420 J1.010750
G02 X56.356382 Y8.611867 Z-1.000000 I14.653574 J75.820204
G02 X55.452765 Y8.788453 Z-1.000000 I350.273027 J1794.779590
G01 X55.452769 Y8.788533 Z-1.000000
G00 Z5.000000

(Change tool to Cylindrical cutter)

G00 Z5.000000
G00 X69.431934 Y13.240552

G01 Z-1.000000 F1000.0(Penetrate)
G03 X69.013207 Y13.926830 Z-1.000000 I-1.399156 J-0.382803 F1100.000000
G03 X68.288690 Y14.288991 Z-1.000000 I-0.995250 J-1.085242
G03 X67.715805 Y14.273957 Z-1.000000 I-0.251371 J-1.343912
G03 X67.298656 Y14.049470 Z-1.000000 I0.219709 J-0.908097
G02 X66.963588 Y13.888628 Z-1.000000 I-0.425253 J0.456460
G02 X66.810633 Y13.978170 Z-1.000000 I-0.020509 J0.140378
G03 X66.657378 Y14.230397 Z-1.000000 I-0.771316 J-0.295984
G03 X65.867712 Y15.041210 Z-1.000000 I-9.086677 J-8.059744
G02 X65.146144 Y15.870848 Z-1.000000 I3.655145 J3.907626
G02 X65.033173 Y16.227869 Z-1.000000 I0.507663 J0.357021
G03 X64.964693 Y16.565418 Z-1.000000 I-0.866161 J-0.000001
G03 X64.861355 Y16.633899 Z-1.000000 I-0.103338 J-0.043729
G02 X64.755165 Y16.699528 Z-1.000000 I-0.000000 J0.118723
G02 X64.689537 Y16.977539 Z-1.000000 I0.556032 J0.278011
G03 X64.590402 Y17.222032 Z-1.000000 I-0.351060 J-0.000000
G03 X64.356042 Y17.321169 Z-1.000000 I-0.234360 J-0.227446
G02 X64.029620 Y17.568725 Z-1.000000 I-0.000000 J0.338983
G02 X64.019013 Y18.524458 Z-1.000000 I1.776744 J0.497645
G02 X64.366348 Y19.295361 Z-1.000000 I2.386885 J-0.611729
G02 X65.278891 Y20.382939 Z-1.000000 I5.750127 J-3.898070
G02 X66.351087 Y21.354470 Z-1.000000 I14.757102 J-15.208756
G02 X66.726845 Y21.607580 Z-1.000000 I1.341662 J-1.586308
G03 X66.770886 Y21.906053 Z-1.000000 I-0.086801 J0.165294
G03 X66.133324 Y22.190680 Z-1.000000 I-0.700730 J-0.713252
G02 X65.648184 Y22.428533 Z-1.000000 I0.044662 J0.704781
G02 X65.366827 Y23.060449 Z-1.000000 I0.868176 J0.765145
G02 X65.390068 Y23.854077 Z-1.000000 I2.735332 J0.317051
G02 X65.581599 Y24.282709 Z-1.000000 I0.948323 J-0.166642
G03 X65.797409 Y24.868407 Z-1.000000 I-0.795444 J0.625703
G03 X65.617479 Y25.189689 Z-1.000000 I-0.351944 J0.013923
G02 X65.510806 Y25.394442 Z-1.000000 I0.102824 J0.183734
G02 X65.703948 Y26.051571 Z-1.000000 I1.843830 J-0.184988
G02 X66.387312 Y26.884686 Z-1.000000 I2.247147 J-1.146403
G02 X67.049842 Y27.114808 Z-1.000000 I0.662530 J-0.838665
G03 X67.348795 Y27.183663 Z-1.000000 I-0.000000 J0.683427
G03 X68.049091 Y27.600889 Z-1.000000 I-2.110638 J4.338942
G02 X70.031189 Y28.645895 Z-1.000000 I4.789680 J-6.682484
G02 X71.352219 Y28.800994 Z-1.000000 I0.989315 J-2.722954
G01 X71.819985 Y28.747104 Z-1.000000
G01 X71.757206 Y27.230256 Z-1.000000
G03 X71.798736 Y25.734991 Z-1.000000 I10.819013 J-0.447719
G03 X71.957560 Y25.168433 Z-1.000000 I1.668397 J0.162164
G02 X72.190529 Y24.612315 Z-1.000000 I-5.116030 J-2.470066
G02 X72.413751 Y23.893463 Z-1.000000 I-8.333507 J-2.981848
G03 X72.686570 Y23.199959 Z-1.000000 I3.106217 J0.821546
G03 X73.516239 Y21.831644 Z-1.000000 I13.062476 J6.984660
G02 X74.357838 Y20.466005 Z-1.000000 I-14.147693 J-9.660904
G02 X74.696510 Y19.698955 Z-1.000000 I-4.096031 J-2.266796
G02 X74.774850 Y18.946273 Z-1.000000 I-1.624935 J-0.549542
G02 X74.554770 Y18.510485 Z-1.000000 I-0.708917 J0.084548
G03 X74.295669 Y18.065121 Z-1.000000 I0.617499 J-0.657296
G03 X74.233565 Y17.181915 Z-1.000000 I2.588430 J-0.625797
G02 X74.147406 Y15.042922 Z-1.000000 I-7.796672 J-0.757180
G02 X73.668326 Y14.027924 Z-1.000000 I-2.119480 J0.379835
G02 X73.378023 Y13.827001 Z-1.000000 I-0.521724 J0.443629
G02 X72.536462 Y13.621554 Z-1.000000 I-1.393039 J3.879866
G03 X71.661752 Y13.459097 Z-1.000000 I1.207099 J-8.935436
G03 X71.333403 Y13.336003 Z-1.000000 I0.322937 J-1.360894
G02 X71.047567 Y13.303833 Z-1.000000 I-0.184110 J0.349915
G02 X70.775015 Y13.484652 Z-1.000000 I0.131553 J0.494113
G03 X70.532672 Y13.566867 Z-1.000000 I-0.183333 J-0.142125
G03 X70.173402 Y13.326412 Z-1.000000 I0.168408 J-0.640247
G02 X69.702664 Y13.057586 Z-1.000000 I-0.550180 J0.416849
G02 X69.431925 Y13.240512 Z-1.000000 I-0.028861 J0.249101
G01 X69.431934 Y13.240552 Z-1.000000
G00 Z5.000000

(Change tool to Cylindrical cutter)

G00 Z5.000000
G00 X71.072021 Y17.872093

G01 Z-1.000000 F1000.0(Penetrate)
G03 X71.346331 Y18.459719 Z-1.000000 I-1.459084 J1.038953 F1100.000000
G03 X71.451181 Y19.328313 Z-1.000000 I-3.155006 J0.821475
G03 X71.278200 Y20.170793 Z-1.000000 I-2.300079 J-0.033263
G03 X70.777302 Y20.965082 Z-1.000000 I-2.535614 J-1.043933
G03 X70.075068 Y21.648878 Z-1.000000 I-5.686870 J-5.137740
G03 X69.183773 Y22.329542 Z-1.000000 I-6.526730 J-7.622542
G03 X68.237436 Y22.801867 Z-1.000000 I-2.233574 J-3.290933
G03 X67.857391 Y22.783241 Z-1.000000 I-0.166607 J-0.487078
G03 X67.622653 Y22.538570 Z-1.000000 I0.190186 J-0.417405
G03 X67.618754 Y22.196191 Z-1.000000 I0.433321 J-0.176147
G02 X67.725030 Y21.822101 Z-1.000000 I-2.103499 J-0.799731
G01 X67.697284 Y21.788501 Z-1.000000
G01 X67.679041 Y21.757645 Z-1.000000
G03 X68.024579 Y21.193511 Z-1.000000 I6.213774 J3.418112
G02 X68.336168 Y20.563789 Z-1.000000 I-2.132279 J-1.447007
G02 X68.550500 Y19.620891 Z-1.000000 I-4.628943 J-1.548025
G03 X68.954746 Y18.200170 Z-1.000000 I4.811474 J0.601163
G03 X69.470553 Y17.615402 Z-1.000000 I1.228127 J0.563422
G03 X70.368076 Y17.435176 Z-1.000000 I0.690292 J1.112704
G03 X71.072026 Y17.872093 Z-1.000000 I-0.169743 J1.059038
G01 X71.072021 Y17.872093 Z-1.000000
G00 Z5.000000

(Change tool to Cylindrical cutter)

G00 Z5.000000
G00 X77.231646 Y13.135166

G01 Z-1.000000 F1000.0(Penetrate)
G02 X76.062813 Y14.163870 Z-1.000000 I3.286481 J4.912544 F1100.000000
G02 X75.857723 Y14.711246 Z-1.000000 I0.627918 J0.547376
G03 X75.761938 Y14.925695 Z-1.000000 I-0.287955 J-0.000000
G03 X75.615287 Y14.928485 Z-1.000000 I-0.074943 J-0.083632
G02 X75.390732 Y15.006938 Z-1.000000 I-0.088660 J0.106826
G02 X75.352239 Y16.188285 Z-1.000000 I3.355744 J0.700643
G03 X75.459503 Y17.337788 Z-1.000000 I-12.001470 J1.699647
G03 X75.412678 Y17.518145 Z-1.000000 I-0.315541 J0.014336
G02 X75.394298 Y17.678963 Z-1.000000 I0.161674 J0.099938
G02 X75.567639 Y17.976385 Z-1.000000 I0.814186 J-0.275294
G03 X75.777071 Y18.294740 Z-1.000000 I-0.967408 J0.864483
G03 X76.117164 Y19.160546 Z-1.000000 I-7.012404 J3.254200
G02 X76.532621 Y19.841419 Z-1.000000 I1.637360 J-0.531900
G02 X76.905879 Y19.955196 Z-1.000000 I0.292449 J-0.290264
G03 X77.260555 Y20.151043 Z-1.000000 I0.061533 J0.307644
G03 X77.146364 Y20.585776 Z-1.000000 I-0.360789 J0.137595
G02 X76.783533 Y21.327898 Z-1.000000 I0.642185 J0.773728
G02 X77.087553 Y22.455346 Z-1.000000 I2.008339 J0.063159
G03 X77.074907 Y23.049072 Z-1.000000 I-0.459895 J0.287203
G03 X76.528270 Y23.271396 Z-1.000000 I-0.441630 J-0.302671
G02 X76.012612 Y23.241817 Z-1.000000 I-0.362845 J1.815991
G02 X75.671827 Y23.342395 Z-1.000000 I0.072232 J0.872363
G02 X74.839350 Y25.137665 Z-1.000000 I0.776353 J1.450646
G02 X76.427606 Y26.870620 Z-1.000000 I2.270127 J-0.486278
G03 X76.767481 Y27.046257 Z-1.000000 I-0.316051 J1.028256
G03 X77.777903 Y27.909462 Z-1.000000 I-7.910169 J10.282199
G02 X78.770636 Y28.794021 Z-1.000000 I15.049399 J-15.890447
G02 X78.894720 Y28.845292 Z-1.000000 I0.143292 J-0.171003
G03 X80.291681 Y29.099958 Z-1.000000 I-0.651484 J7.532523
G03 X80.713641 Y29.357250 Z-1.000000 I-0.248138 J0.881603
G02 X81.220563 Y29.607060 Z-1.000000 I0.582395 J-0.542579
G02 X81.790152 Y29.459786 Z-1.000000 I0.081795 J-0.858752
G03 X82.150988 Y29.282701 Z-1.000000 I0.787850 J1.149182
G03 X82.868201 Y29.112695 Z-1.000000 I1.435851 J4.459627
G02 X84.847754 Y28.239223 Z-1.000000 I-0.641745 J-4.134263
G02 X85.174826 Y27.258428 Z-1.000000 I-0.598509 J-0.744521
G03 X85.172832 Y27.144634 Z-1.000000 I0.238682 J-0.061096
G03 X85.381612 Y26.313426 Z-1.000000 I13.714114 J3.002845
G02 X85.594977 Y25.477637 Z-1.000000 I-15.527527 J-4.409078
G02 X85.726225 Y24.795321 Z-1.000000 I-10.210240 J-2.317793
G03 X86.088628 Y23.285102 Z-1.000000 I9.760166 J1.543523
G03 X86.256619 Y23.163052 Z-1.000000 I0.167991 J0.054588
G02 X86.457216 Y23.098239 Z-1.000000 I0.000000 J-0.342831
G02 X86.730368 Y22.821232 Z-1.000000 I-0.683162 J-0.946835
G03 X87.002492 Y22.511587 Z-1.000000 I1.538113 J1.077335
G03 X87.626806 Y22.002983 Z-1.000000 I4.831821 J5.293603
G01 X88.283818 Y21.526583 Z-1.000000
G01 X88.244359 Y20.175793 Z-1.000000
G02 X87.803450 Y18.574299 Z-1.000000 I-3.500286 J0.102226
G02 X87.133104 Y18.180322 Z-1.000000 I-0.670347 J0.373306
G03 X86.516097 Y18.060816 Z-1.000000 I0.000001 J-1.652557
G03 X86.065828 Y17.750772 Z-1.000000 I0.466859 J-1.159983
G02 X85.623204 Y17.423216 Z-1.000000 I-1.090302 J1.010483
G02 X85.178438 Y17.321231 Z-1.000000 I-0.444767 J0.918846
G03 X84.716522 Y17.255075 Z-1.000000 I0.000001 J-1.645677
G03 X84.487024 Y17.119111 Z-1.000000 I0.151118 J-0.516748
G02 X84.281441 Y17.055830 Z-1.000000 I-0.162573 J0.162575
G02 X83.948176 Y17.221720 Z-1.000000 I0.128829 J0.676513
G03 X83.617318 Y17.291169 Z-1.000000 I-0.224875 J-0.248484
G03 X82.985985 Y16.900980 Z-1.000000 I0.510800 J-1.532334
G02 X82.327825 Y16.409621 Z-1.000000 I-2.022085 J2.022051
G02 X82.027911 Y16.381059 Z-1.000000 I-0.183525 J0.338195
G03 X81.732622 Y16.358652 Z-1.000000 I-0.119840 J-0.377621
G03 X81.310823 Y16.026799 Z-1.000000 I0.575911 J-1.165994
G02 X79.702950 Y14.451419 Z-1.000000 I-8.719096 J7.290725
G02 X79.068729 Y14.228497 Z-1.000000 I-0.634222 J0.790732
G03 X78.844900 Y14.147962 Z-1.000000 I0.000000 J-0.351309
G03 X78.233828 Y13.538347 Z-1.000000 I2.947193 J-3.565311
G02 X77.624863 Y13.094284 Z-1.000000 I-1.182911 J0.982598
G02 X77.231618 Y13.135156 Z-1.000000 I-0.157941 J0.392596
G01 X77.231646 Y13.135166 Z-1.000000
G00 Z5.000000

(Change tool to Cylindrical cutter)

G00 Z5.000000
G00 X83.447537 Y21.471000

G01 Z-1.000000 F1000.0(Penetrate)
G03 X84.028800 Y22.373118 Z-1.000000 I-0.816929 J1.164695 F1100.000000
G03 X83.778093 Y23.231150 Z-1.000000 I-0.970119 J0.182186
G02 X83.505790 Y23.649640 Z-1.000000 I1.031358 J0.968920
G02 X83.417712 Y24.084690 Z-1.000000 I1.030392 J0.435051
G03 X83.306216 Y24.509070 Z-1.000000 I-0.863401 J-0.000001
G03 X82.793627 Y25.190440 Z-1.000000 I-2.839446 J-1.602602
G02 X82.229145 Y25.865856 Z-1.000000 I3.933356 J3.860911
G02 X81.917427 Y26.427603 Z-1.000000 I2.396032 J1.696937
G03 X81.252054 Y27.388058 Z-1.000000 I-2.598303 J-1.089321
G03 X80.641992 Y27.630334 Z-1.000000 I-0.610062 J-0.646940
G03 X79.274791 Y26.360589 Z-1.000000 I0.000001 J-1.370943
G03 X80.229142 Y22.052598 Z-1.000000 I7.645806 J-0.565925
G01 X80.865237 Y20.915159 Z-1.000000
G01 X81.926703 Y21.031969 Z-1.000000
G03 X82.955460 Y21.235502 Z-1.000000 I-0.669785 J6.087131
G03 X83.447537 Y21.471000 Z-1.000000 I-0.459727 J1.592455
G01 X83.447537 Y21.471000 Z-1.000000
G00 Z5.000000

(Change tool to Cylindrical cutter)

G00 Z5.000000
G00 X40.325718 Y16.324664

G01 Z-1.000000 F1000.0(Penetrate)
G02 X40.200530 Y16.784940 Z-1.000000 I0.339506 J0.339503 F1100.000000
G02 X40.799733 Y18.148514 Z-1.000000 I4.530732 J-1.177522
G03 X41.463583 Y19.210411 Z-1.000000 I-34.890381 J22.550357
G03 X41.741514 Y19.706765 Z-1.000000 I-7.335407 J4.433413
G02 X42.049591 Y20.179072 Z-1.000000 I2.490710 J-1.288012
G02 X42.854251 Y21.086466 Z-1.000000 I10.096796 J-8.143180
G02 X44.196117 Y21.411681 Z-1.000000 I0.929851 J-0.905707
G02 X44.930444 Y20.391517 Z-1.000000 I-0.341471 J-1.020165
G02 X44.817512 Y19.521099 Z-1.000000 I-3.410811 J-0.000002
G02 X44.530667 Y18.876817 Z-1.000000 I-2.129219 J0.561969
G02 X44.130225 Y18.266649 Z-1.000000 I-281.140968 J184.071190
G02 X43.656125 Y17.547406 Z-1.000000 I-388.497242 J255.567702
G02 X42.563513 Y16.480379 Z-1.000000 I-3.006816 J1.985993
G02 X42.047423 Y16.538785 Z-1.000000 I-0.221389 J0.353100
G02 X42.028226 Y16.627467 Z-1.000000 I0.059402 J0.059278
G02 X42.504829 Y17.761576 Z-1.000000 I14.460431 J-5.409727
G03 X42.934653 Y19.294453 Z-1.000000 I-4.407907 J2.062690
G03 X42.701220 Y19.554846 Z-1.000000 I-0.233432 J0.025565
G03 X42.135843 Y19.206822 Z-1.000000 I0.000000 J-0.633250
G03 X41.807432 Y17.783165 Z-1.000000 I2.738091 J-1.381334
G02 X41.687710 Y17.154523 Z-1.000000 I-1.594513 J-0.022053
G02 X41.325038 Y16.610285 Z-1.000000 I-1.540530 J0.633627
G02 X40.682570 Y16.232214 Z-1.000000 I-1.050878 J1.050873
G02 X40.325718 Y16.324664 Z-1.000000 I-0.099873 J0.349435
G01 X40.325718 Y16.324664 Z-1.000000
G00 Z5.000000

(Change tool to Cylindrical cutter)

G00 Z5.000000
G00 X53.642948 Y17.159642

G01 Z-1.000000 F1000.0(Penetrate)
G03 X53.318348 Y17.275049 Z-1.000000 I-0.441786 J-0.728390 F1100.000000
G03 X52.697948 Y17.290872 Z-1.000000 I-0.380225 J-2.737810
G02 X52.206316 Y17.369493 Z-1.000000 I-0.088993 J1.019947
G02 X52.112588 Y17.541221 Z-1.000000 I0.062185 J0.145382
G03 X52.005993 Y17.700325 Z-1.000000 I-0.137391 J0.023212
G03 X51.169041 Y17.755051 Z-1.000000 I-0.590699 J-2.606554
G02 X50.241831 Y17.816957 Z-1.000000 I-0.270474 J2.923615
G02 X49.881446 Y18.050500 Z-1.000000 I0.140292 J0.611317
G03 X49.520376 Y18.300754 Z-1.000000 I-0.560138 J-0.422568
G03 X48.558987 Y18.441769 Z-1.000000 I-0.973799 J-3.291308
G02 X47.547839 Y18.491126 Z-1.000000 I0.039500 J11.191339
G02 X47.425960 Y18.548428 Z-1.000000 I0.018668 J0.197971
G02 X47.372224 Y18.816293 Z-1.000000 I0.174303 J0.174289
G02 X48.066220 Y20.108729 Z-1.000000 I6.575230 J-2.698139
G03 X48.254617 Y20.583473 Z-1.000000 I-0.975369 J0.661819
G03 X48.197415 Y20.924869 Z-1.000000 I-0.534537 J0.085927
G02 X48.121051 Y21.207163 Z-1.000000 I0.572307 J0.306292
G02 X48.184535 Y21.273039 Z-1.000000 I0.063484 J0.002349
G03 X48.739417 Y21.633945 Z-1.000000 I-0.000000 J0.607009
G03 X48.795446 Y22.650449 Z-1.000000 I-1.312545 J0.582144
G02 X48.839826 Y22.896727 Z-1.000000 I0.255496 J0.081096
G02 X49.141600 Y23.092889 Z-1.000000 I0.436796 J-0.341758
G03 X49.530600 Y23.306928 Z-1.000000 I-0.212809 J0.847277
G03 X51.236536 Y25.083941 Z-1.000000 I-18.513446 J19.480298
G02 X52.913418 Y26.830068 Z-1.000000 I19.795843 J-17.332557
G02 X53.118074 Y26.870833 Z-1.000000 I0.134623 J-0.141754
G03 X53.350724 Y26.860884 Z-1.000000 I0.131158 J0.341862
G03 X54.040862 Y27.137079 Z-1.000000 I-1.033785 J3.583473
G02 X54.731371 Y27.406736 Z-1.000000 I1.586596 J-3.043876
G02 X54.989176 Y27.393538 Z-1.000000 I0.108669 J-0.401833
G03 X55.246491 Y27.379946 Z-1.000000 I0.149618 J0.390020
G03 X55.887533 Y27.633323 Z-1.000000 I-0.770014 J2.885741
G02 X57.130258 Y28.008775 Z-1.000000 I1.554129 J-2.899675
G02 X57.564848 Y27.792800 Z-1.000000 I0.043516 J-0.457670
G03 X57.702987 Y27.729496 Z-1.000000 I0.116598 J0.072065
G03 X58.077881 Y27.874440 Z-1.000000 I-0.150710 J0.947112
G02 X60.370835 Y28.555395 Z-1.000000 I2.281835 J-3.482569
G02 X61.371453 Y27.865642 Z-1.000000 I-0.002870 J-1.074834
G03 X61.516398 Y27.709814 Z-1.000000 I0.265971 J0.102072
G03 X61.872917 Y27.630320 Z-1.000000 I0.356519 J0.759718
G02 X62.218993 Y27.565293 Z-1.000000 I0.000001 J-0.953418
G02 X62.284080 Y27.470087 Z-1.000000 I-0.037088 J-0.095206
G03 X62.343345 Y27.353205 Z-1.000000 I0.144891 J0.000000
G03 X62.670011 Y27.187355 Z-1.000000 I0.669253 J0.913558
G02 X63.253679 Y26.715280 Z-1.000000 I-0.311787 J-0.982348
G02 X63.229909 Y26.204823 Z-1.000000 I-0.414952 J-0.236460
G02 X61.674907 Y24.581310 Z-1.000000 I-6.047245 J4.235608
G02 X60.981382 Y24.480867 Z-1.000000 I-0.436488 J0.569301
G03 X60.268968 Y24.336139 Z-1.000000 I-0.242516 J-0.632002
G03 X59.878627 Y23.417446 Z-1.000000 I0.885930 J-0.918693
G03 X60.084903 Y22.887802 Z-1.000000 I0.783109 J0.000000
G03 X60.800045 Y22.413936 Z-1.000000 I1.314048 J1.206550
G03 X61.109209 Y22.402595 Z-1.000000 I0.172551 J0.484153
G03 X61.711127 Y22.665147 Z-1.000000 I-0.615442 J2.232191
G02 X62.294043 Y22.960702 Z-1.000000 I2.039979 J-3.300781
G02 X62.391699 Y22.940887 Z-1.000000 I0.033874 J-0.083608
G02 X62.433785 Y22.310308 Z-1.000000 I-0.339346 J-0.339342
G02 X60.565902 Y20.549646 Z-1.000000 I-6.292498 J4.804552
G01 X60.136357 Y20.260156 Z-1.000000
G01 X60.608856 Y20.251156 Z-1.000000
G02 X60.820163 Y20.016777 Z-1.000000 I-0.004139 J-0.216174
G02 X60.547496 Y19.524976 Z-1.000000 I-0.684123 J0.057808
G03 X60.026360 Y19.110111 Z-1.000000 I6.707927 J-8.960961
G03 X59.405846 Y18.559266 Z-1.000000 I11.217443 J-13.261101
G02 X58.192222 Y17.667921 Z-1.000000 I-4.418498 J4.744186
G02 X57.531000 Y17.493055 Z-1.000000 I-0.661223 J1.162711
G03 X57.015175 Y17.426325 Z-1.000000 I0.000001 J-2.027069
G03 X56.870664 Y17.319364 Z-1.000000 I0.061691 J-0.234450
G02 X56.727918 Y17.208609 Z-1.000000 I-0.219745 J0.135851
G02 X56.302114 Y17.141874 Z-1.000000 I-0.437970 J1.402680
G03 X55.841497 Y17.125913 Z-1.000000 I0.067927 J-8.614584
G03 X54.895909 Y17.055473 Z-1.000000 I2.243716 J-36.501920
G02 X53.969606 Y17.053696 Z-1.000000 I-0.473538 J5.412020
G02 X53.642956 Y17.159662 Z-1.000000 I0.062701 J0.749728
G01 X53.642948 Y17.159642 Z-1.000000
G00 Z5.000000

(Change tool to Cylindrical cutter)

G00 Z5.000000
G00 X53.054373 Y19.790772

G01 Z-1.000000 F1000.0(Penetrate)
G03 X53.580098 Y20.074260 Z-1.000000 I-1.286813 J3.015595 F1100.000000
G03 X55.411353 Y21.354453 Z-1.000000 I-25.360217 J38.226435
G02 X58.398011 Y23.316923 Z-1.000000 I19.947521 J-27.103960
G02 X59.099731 Y23.506685 Z-1.000000 I0.701721 J-1.202564
G03 X59.341187 Y23.780055 Z-1.000000 I-0.000000 J0.243319
G03 X58.976578 Y24.496205 Z-1.000000 I-1.172164 J-0.145885
G03 X58.158796 Y24.976580 Z-1.000000 I-1.474795 J-1.574393
G03 X56.338704 Y25.339665 Z-1.000000 I-2.515879 J-7.868260
G03 X55.160197 Y25.312142 Z-1.000000 I-0.461996 J-5.462920
G03 X54.965606 Y25.158693 Z-1.000000 I0.031673 J-0.240271
G02 X54.801700 Y24.982148 Z-1.000000 I-0.301778 J0.115816
G02 X54.556523 Y24.965783 Z-1.000000 I-0.143437 J0.304163
G03 X53.621184 Y24.848346 Z-1.000000 I-0.340387 J-1.072472
G03 X51.063801 Y22.789951 Z-1.000000 I7.215357 J-11.582337
G03 X50.049629 Y21.540057 Z-1.000000 I6.352854 J-6.191150
G03 X50.004739 Y21.210960 Z-1.000000 I0.313686 J-0.210398
G02 X50.099761 Y20.838173 Z-1.000000 I-2.607983 J-0.863265
G02 X50.164944 Y20.328040 Z-1.000000 I-4.829211 J-0.876292
G03 X50.332225 Y19.924497 Z-1.000000 I0.695985 J0.052064
G03 X50.702657 Y19.704050 Z-1.000000 I0.514831 J0.443652
G03 X52.108368 Y19.579135 Z-1.000000 I1.197975 J5.509288
G03 X53.054373 Y19.790752 Z-1.000000 I-0.098020 J2.658494
G01 X53.054373 Y19.790772 Z-1.000000
G00 Z5.000000

(Change tool to Cylindrical cutter)

G00 Z5.000000
G00 X45.873987 Y23.994778

G01 Z-1.000000 F1000.0(Penetrate)
G02 X46.027451 Y24.529215 Z-1.000000 I1.443290 J-0.125191 F1100.000000
G02 X46.908310 Y26.017271 Z-1.000000 I12.474557 J-6.379606
G03 X47.267084 Y26.668940 Z-1.000000 I-3.315493 J2.249928
G03 X47.340122 Y27.009973 Z-1.000000 I-0.807608 J0.351299
G02 X47.677353 Y27.644153 Z-1.000000 I0.782242 J-0.009212
G02 X48.733932 Y27.973951 Z-1.000000 I1.056580 J-1.527592
G03 X48.901933 Y28.015188 Z-1.000000 I-0.000000 J0.362845
G03 X49.414142 Y28.329288 Z-1.000000 I-2.026399 J3.879171
G02 X49.813771 Y28.491830 Z-1.000000 I0.543091 J-0.762714
G02 X49.913167 Y28.406658 Z-1.000000 I0.013206 J-0.085172
G02 X49.870468 Y28.139088 Z-1.000000 I-0.859703 J-0.000001
G02 X49.664922 Y27.648648 Z-1.000000 I-3.147175 J1.030703
G03 X49.472314 Y27.151105 Z-1.000000 I2.200445 J-1.137887
G03 X49.298906 Y26.280778 Z-1.000000 I6.620418 J-1.771521
G02 X48.653828 Y24.971045 Z-1.000000 I-2.261158 J0.299956
G02 X47.306838 Y24.280788 Z-1.000000 I-1.736896 J1.730027
G03 X46.582123 Y24.109649 Z-1.000000 I0.819942 J-5.092196
G03 X46.205988 Y23.935298 Z-1.000000 I0.479238 J-1.526781
G02 X45.956882 Y23.886539 Z-1.000000 I-0.187296 J0.296176
G02 X45.873987 Y23.994798 Z-1.000000 I0.017833 J0.099522
G01 X45.873987 Y23.994778 Z-1.000000
G00 Z5.000000

(Change tool to Cylindrical cutter)

G00 Z5.000000
G00 X48.049224 Y25.181899

G01 Z-1.000000 F1000.0(Penetrate)
G03 X48.515759 Y26.393188 Z-1.000000 I-1.545335 J1.290684 F1100.000000
G03 X48.105033 Y26.596045 Z-1.000000 I-0.250575 J0.009889
G03 X47.516537 Y25.872887 Z-1.000000 I1.536583 J-1.851483
G03 X47.335899 Y25.147478 Z-1.000000 I1.366227 J-0.725408
G03 X47.556820 Y24.936957 Z-1.000000 I0.210766 J0.000000
G03 X48.049227 Y25.181879 Z-1.000000 I-0.032985 J0.683759
G01 X48.049224 Y25.181899 Z-1.000000
G00 Z5.000000

(Change tool to Cylindrical cutter)

G00 Z5.000000
G00 X88.035327 Y26.656698

G01 Z-1.000000 F1000.0(Penetrate)
G02 X88.084747 Y28.524749 Z-1.000000 I12.749993 J0.597373 F1100.000000
G02 X88.235584 Y28.661248 Z-1.000000 I0.150837 J-0.015091
G02 X88.325616 Y28.578634 Z-1.000000 I0.000000 J-0.090365
G02 X88.333184 Y27.527484 Z-1.000000 I-6.662729 J-0.573578
G02 X88.152791 Y26.639981 Z-1.000000 I-3.509641 J0.251282
G02 X88.035329 Y26.656698 Z-1.000000 I-0.057139 J0.019545
G01 X88.035327 Y26.656698 Z-1.000000
G00 Z5.000000

(Change tool to Cylindrical cutter)

G00 Z5.000000
G00 X73.905769 Y29.983180

G01 Z-1.000000 F1000.0(Penetrate)
G02 X73.850298 Y30.238269 Z-1.000000 I0.170703 J0.170696 F1100.000000
G02 X74.053625 Y30.379421 Z-1.000000 I0.203327 J-0.075868
G02 X74.253771 Y30.321832 Z-1.000000 I0.000000 J-0.376586
G02 X74.311346 Y30.217739 Z-1.000000 I-0.065311 J-0.104093
G02 X74.157014 Y29.950199 Z-1.000000 I-0.309061 J-0.000000
G02 X73.905769 Y29.983180 Z-1.000000 I-0.104147 J0.180080
G01 X73.905769 Y29.983180 Z-1.000000
G00 Z5.000000

(Change tool to Cylindrical cutter)

G00 Z5.000000
G00 X54.242317 Y30.673684

G01 Z-1.000000 F1000.0(Penetrate)
G02 X53.914470 Y30.830407 Z-1.000000 I0.134359 J0.702333 F1100.000000
G02 X53.700818 Y31.132450 Z-1.000000 I0.478943 J0.565368
G03 X53.495116 Y31.470717 Z-1.000000 I-1.016589 J-0.386515
G03 X52.936893 Y31.987123 Z-1.000000 I-2.991559 J-2.673897
G02 X52.438129 Y32.943861 Z-1.000000 I0.770330 J1.009962
G02 X52.842501 Y34.237852 Z-1.000000 I2.003673 J0.084031
G03 X53.274084 Y34.952951 Z-1.000000 I-3.187462 J2.411507
G03 X53.458129 Y35.551206 Z-1.000000 I-2.032401 J0.952678
G02 X53.965011 Y36.419764 Z-1.000000 I1.374097 J-0.219726
G02 X55.217484 Y36.953175 Z-1.000000 I1.589150 J-1.994255
G03 X55.946511 Y37.122483 Z-1.000000 I-0.515631 J3.874481
G03 X56.763848 Y37.472564 Z-1.000000 I-1.758405 J5.234528
G02 X59.295453 Y38.729133 Z-1.000000 I26.859568 J-50.935371
G02 X59.608419 Y38.798492 Z-1.000000 I0.312966 J-0.671422
G02 X59.817049 Y38.573754 Z-1.000000 I0.000000 J-0.209208
G02 X59.526329 Y37.695707 Z-1.000000 I-1.898035 J0.141284
G02 X58.516423 Y36.737313 Z-1.000000 I-2.410310 J1.528572
G02 X56.780292 Y36.149422 Z-1.000000 I-2.427227 J4.310491
G03 X55.248030 Y35.577612 Z-1.000000 I0.530557 J-3.760603
G03 X54.895889 Y34.930414 Z-1.000000 I0.418670 J-0.647197
G02 X54.777808 Y34.545036 Z-1.000000 I-0.687915 J-0.000000
G02 X54.097774 Y33.750290 Z-1.000000 I-3.837469 J2.595269
G03 X53.466032 Y32.957736 Z-1.000000 I2.343247 J-2.515850
G03 X53.410759 Y32.564272 Z-1.000000 I0.457204 J-0.264841
G03 X53.809574 Y31.777388 Z-1.000000 I1.932851 J0.485114
G03 X54.225143 Y31.582124 Z-1.000000 I0.415569 J0.344583
G03 X54.348703 Y31.640939 Z-1.000000 I-0.000000 J0.159196
G03 X54.539215 Y31.968718 Z-1.000000 I-0.948394 J0.770481
G02 X55.109992 Y32.781296 Z-1.000000 I1.934107 J-0.751817
G02 X56.354000 Y33.550253 Z-1.000000 I2.957119 J-3.393237
G03 X57.492425 Y34.223592 Z-1.000000 I-1.758108 J4.271506
G03 X57.964452 Y34.846676 Z-1.000000 I-1.011702 J1.256768
G02 X58.140866 Y34.990159 Z-1.000000 I0.224561 J-0.095907
G02 X58.818718 Y35.018490 Z-1.000000 I0.428584 J-2.130956
G01 X59.562909 Y34.932581 Z-1.000000
G01 X59.073078 Y34.245307 Z-1.000000
G03 X58.611089 Y33.542222 Z-1.000000 I9.047875 J-6.448583
G03 X58.385161 Y33.106684 Z-1.000000 I3.235049 J-1.954493
G02 X57.569794 Y31.932678 Z-1.000000 I-3.403703 J1.493784
G02 X56.188017 Y30.974961 Z-1.000000 I-3.580965 J3.690888
G02 X55.153860 Y30.657608 Z-1.000000 I-1.610386 J3.404080
G02 X54.242316 Y30.673680 Z-1.000000 I-0.409306 J2.643407
G01 X54.242317 Y30.673684 Z-1.000000
G00 Z5.000000

(Change tool to Cylindrical cutter)

G00 Z5.000000
G00 X87.025894 Y32.269315

G01 Z-1.000000 F1000.0(Penetrate)
G03 X85.823796 Y32.855022 Z-1.000000 I-7.336327 J-13.530539 F1100.000000
G03 X85.268224 Y33.033111 Z-1.000000 I-1.167673 J-2.687078
G02 X83.840039 Y33.945786 Z-1.000000 I0.505058 J2.364105
G02 X83.245891 Y35.726758 Z-1.000000 I2.372180 J1.780973
G02 X83.403791 Y35.901617 Z-1.000000 I0.175770 J0.000000
G02 X84.558230 Y35.860865 Z-1.000000 I0.429554 J-4.203467
G02 X85.577108 Y35.539083 Z-1.000000 I-0.688641 J-3.954447
G02 X86.422069 Y34.984777 Z-1.000000 I-1.527394 J-3.249461
G02 X87.838499 Y33.316152 Z-1.000000 I-4.998197 J-5.678260
G02 X88.026597 Y32.417842 Z-1.000000 I-1.127889 J-0.705017
G02 X87.750541 Y32.141379 Z-1.000000 I-0.324157 J0.047624
G02 X87.025894 Y32.269315 Z-1.000000 I-0.170639 J1.149696
G01 X87.025894 Y32.269315 Z-1.000000
G00 Z5.000000

(Change tool to Cylindrical cutter)

G00 Z5.000000
G00 X86.338620 Y34.063765

G01 Z-1.000000 F1000.0(Penetrate)
G03 X86.075164 Y34.583236 Z-1.000000 I-0.643864 J-0.000000 F1100.000000
G03 X85.269479 Y34.846692 Z-1.000000 I-0.805684 J-1.100213
G03 X85.060091 Y34.586327 Z-1.000000 I0.000000 J-0.214379
G03 X85.436575 Y34.085874 Z-1.000000 I0.735622 J0.161560
G03 X86.162712 Y33.892081 Z-1.000000 I0.765522 J1.411081
G03 X86.338620 Y34.063725 Z-1.000000 I0.004212 J0.171644
G01 X86.338620 Y34.063765 Z-1.000000
G00 Z5.000000

(Change tool to Cylindrical cutter)

G00 Z5.000000
G00 X65.131915 Y33.629763

G01 Z-1.000000 F1000.0(Penetrate)
G03 X64.784083 Y33.933483 Z-1.000000 I-1.461141 J-1.322321 F1100.000000
G03 X64.609300 Y33.987585 Z-1.000000 I-0.174783 J-0.255279
G02 X63.982559 Y34.311519 Z-1.000000 I-0.000000 J0.768268
G02 X63.658618 Y35.328547 Z-1.000000 I1.434535 J1.017030
G02 X64.040384 Y36.038929 Z-1.000000 I0.851813 J0.000001
G02 X65.892252 Y36.806495 Z-1.000000 I2.904235 J-4.389170
G03 X66.255633 Y36.976332 Z-1.000000 I-0.171501 J0.840601
G03 X66.495995 Y37.287919 Z-1.000000 I-0.514892 J0.645695
G02 X66.736602 Y37.566775 Z-1.000000 I0.578517 J-0.255936
G02 X67.054403 Y37.640750 Z-1.000000 I0.265214 J-0.419741
G03 X67.297740 Y37.860560 Z-1.000000 I0.023315 J0.218785
G03 X67.052103 Y38.142225 Z-1.000000 I-0.285835 J-0.001332
G03 X66.664720 Y38.162024 Z-1.000000 I-0.303470 J-2.138028
G03 X65.462785 Y38.081084 Z-1.000000 I0.825068 J-21.216718
G02 X64.317459 Y38.108073 Z-1.000000 I-0.460544 J4.771478
G02 X63.974790 Y38.295855 Z-1.000000 I0.079658 J0.551906
G03 X63.666430 Y38.576338 Z-1.000000 I-1.306042 J-1.126101
G03 X63.508328 Y38.626716 Z-1.000000 I-0.158102 J-0.222901
G02 X63.141430 Y38.859150 Z-1.000000 I-0.000000 J0.405791
G02 X63.102410 Y39.485811 Z-1.000000 I0.766756 J0.362289
G02 X63.609084 Y40.284187 Z-1.000000 I1.826784 J-0.599368
G02 X64.193952 Y40.516721 Z-1.000000 I0.584868 J-0.619264
G03 X64.466871 Y40.571614 Z-1.000000 I-0.000000 J0.705903
G03 X64.603686 Y40.688536 Z-1.000000 I-0.113977 J0.271876
G02 X64.741380 Y40.803858 Z-1.000000 I0.242862 J-0.150111
G02 X65.037366 Y40.860358 Z-1.000000 I0.295987 J-0.747045
G03 X65.358643 Y40.898003 Z-1.000000 I-0.000001 J1.389757
G03 X66.128544 Y41.119632 Z-1.000000 I-1.970944 J8.294824
G02 X66.898762 Y41.351763 Z-1.000000 I3.740166 J-11.016088
G02 X67.380230 Y41.450127 Z-1.000000 I1.108462 J-4.198127
G03 X67.865150 Y41.535904 Z-1.000000 I-1.175678 J8.060075
G03 X68.297777 Y41.641159 Z-1.000000 I-1.361271 J6.536909
G02 X69.727446 Y41.860772 Z-1.000000 I1.628641 J-5.839025
G02 X70.383515 Y41.709640 Z-1.000000 I0.043103 J-1.312466
G02 X73.183423 Y39.927976 Z-1.000000 I-9.559466 J-18.113704
G02 X73.452324 Y39.387264 Z-1.000000 I-0.409188 J-0.540713
G02 X73.434851 Y39.338534 Z-1.000000 I-0.076684 J-0.000000
G02 X73.043768 Y38.890835 Z-1.000000 I-7.807840 J6.425792
G03 X72.703777 Y38.414961 Z-1.000000 I1.692638 J-1.568707
G03 X72.533600 Y37.941948 Z-1.000000 I1.501729 J-0.807397
G02 X71.893132 Y36.368975 Z-1.000000 I-4.425691 J0.885135
G02 X71.304598 Y36.049424 Z-1.000000 I-0.588534 J0.382191
G03 X71.098391 Y35.963800 Z-1.000000 I0.000000 J-0.291117
G03 X70.613192 Y35.355599 Z-1.000000 I2.503560 J-2.494881
G02 X70.114281 Y34.732118 Z-1.000000 I-3.027325 J1.911113
G02 X69.708990 Y34.453609 Z-1.000000 I-0.958866 J0.961210
G03 X69.274994 Y34.202930 Z-1.000000 I0.985704 J-2.207558
G03 X68.970036 Y33.917505 Z-1.000000 I0.986089 J-1.359202
G02 X68.641438 Y33.700319 Z-1.000000 I-0.524274 J0.436041
G02 X67.681399 Y33.531496 Z-1.000000 I-1.198341 J4.000422
G03 X66.667798 Y33.452914 Z-1.000000 I1.424520 J-24.950724
G03 X66.060663 Y33.372690 Z-1.000000 I0.887652 J-9.055253
G02 X65.501141 Y33.402096 Z-1.000000 I-0.213244 J1.280321
G02 X65.131987 Y33.629779 Z-1.000000 I0.207476 J0.749496
G01 X65.131915 Y33.629763 Z-1.000000
G00 Z5.000000

(Change tool to Cylindrical cutter)

G00 Z5.000000
G00 X74.396626 Y35.534653

G01 Z-1.000000 F1000.0(Penetrate)
G02 X74.226340 Y35.900929 Z-1.000000 I0.506085 J0.458006 F1100.000000
G02 X74.289161 Y36.327066 Z-1.000000 I0.769145 J0.104312
G03 X74.393755 Y36.761858 Z-1.000000 I-1.069311 J0.487210
G03 X74.318561 Y36.985708 Z-1.000000 I-0.327288 J0.014614
G02 X74.287960 Y37.187329 Z-1.000000 I0.152076 J0.126214
G02 X74.571212 Y37.597791 Z-1.000000 I1.092577 J-0.451003
G03 X74.937591 Y38.025707 Z-1.000000 I-1.780160 J1.894965
G03 X74.998611 Y38.223131 Z-1.000000 I-0.288864 J0.197424
G02 X75.068265 Y38.409303 Z-1.000000 I0.283626 J0.000000
G02 X75.451599 Y38.743753 Z-1.000000 I1.401401 J-1.219322
G03 X75.838498 Y39.095465 Z-1.000000 I-0.911993 J1.391894
G03 X76.139448 Y39.602700 Z-1.000000 I-1.652462 J1.323328
G02 X76.451309 Y40.093881 Z-1.000000 I1.587389 J-0.663271
G02 X76.889200 Y40.431082 Z-1.000000 I1.150938 J-1.041689
G03 X76.976770 Y41.052204 Z-1.000000 I-0.176671 J0.341642
G03 X75.649826 Y41.602874 Z-1.000000 I-1.386147 J-1.466086
G02 X74.683766 Y41.760682 Z-1.000000 I0.108820 J3.702075
G02 X74.415868 Y41.977137 Z-1.000000 I0.133035 J0.438664
G03 X74.197279 Y42.294344 Z-1.000000 I-1.733784 J-0.960837
G03 X74.009659 Y42.458731 Z-1.000000 I-0.635431 J-0.535977
G02 X73.819367 Y42.875407 Z-1.000000 I0.227398 J0.355640
G02 X74.199285 Y43.756394 Z-1.000000 I1.832285 J-0.267745
G02 X74.417067 Y43.945961 Z-1.000000 I0.614330 J-0.485883
G02 X75.249457 Y44.372929 Z-1.000000 I4.162542 J-7.090161
G03 X76.077034 Y44.807211 Z-1.000000 I-2.860329 J6.456372
G03 X76.360643 Y45.053418 Z-1.000000 I-0.595509 J0.972424
G02 X77.111732 Y45.633299 Z-1.000000 I1.654804 J-1.367014
G02 X78.061767 Y45.843047 Z-1.000000 I0.950037 J-2.046689
G03 X78.527902 Y45.921448 Z-1.000000 I-0.000001 J1.424904
G03 X78.767454 Y46.087338 Z-1.000000 I-0.177146 J0.511713
G02 X79.432121 Y46.381345 Z-1.000000 I0.627849 J-0.521075
G02 X81.430475 Y45.967047 Z-1.000000 I-0.290308 J-6.426949
G03 X81.880181 Y45.889972 Z-1.000000 I0.421027 J1.106071
G03 X82.003202 Y45.980927 Z-1.000000 I-0.003225 J0.133035
G02 X82.130022 Y46.105933 Z-1.000000 I0.186259 J-0.062129
G02 X82.651051 Y46.186692 Z-1.000000 I0.521030 J-1.640380
G03 X83.093170 Y46.351939 Z-1.000000 I-0.000000 J0.674070
G03 X83.343127 Y46.788057 Z-1.000000 I-0.501423 J0.577074
G02 X83.473809 Y47.367897 Z-1.000000 I8.084320 J-1.517365
G01 X83.501746 Y47.389422 Z-1.000000
G02 X84.045129 Y47.257512 Z-1.000000 I0.000001 J-1.185141
G02 X85.213182 Y46.506448 Z-1.000000 I-3.351222 J-6.495627
G03 X85.745941 Y46.201993 Z-1.000000 I1.291623 J1.641823
G03 X86.106071 Y46.158305 Z-1.000000 I0.265241 J0.680271
G02 X86.417659 Y46.067348 Z-1.000000 I0.052373 J-0.399765
G02 X86.826616 Y45.553476 Z-1.000000 I-1.061128 J-1.264149
G03 X87.203583 Y44.930577 Z-1.000000 I4.488217 J2.290671
G03 X87.523044 Y44.570750 Z-1.000000 I1.795984 J1.272782
G02 X87.769404 Y44.121229 Z-1.000000 I-0.524043 J-0.579471
G02 X87.627234 Y43.953069 Z-1.000000 I-0.142171 J-0.023981
G03 X87.453223 Y43.869363 Z-1.000000 I0.000000 J-0.222724
G03 X87.369512 Y43.630465 Z-1.000000 I0.299031 J-0.238897
G02 X87.303147 Y43.339044 Z-1.000000 I-0.673030 J-0.000000
G02 X87.111783 Y43.093973 Z-1.000000 I-0.656430 J0.315327
G03 X86.991801 Y42.735526 Z-1.000000 I0.229029 J-0.275967
G03 X87.369513 Y42.003409 Z-1.000000 I1.657748 J0.391769
G02 X87.852709 Y41.404190 Z-1.000000 I-6.903343 J-6.061118
G02 X87.884964 Y41.306317 Z-1.000000 I-0.132362 J-0.097874
G02 X87.398729 Y40.143869 Z-1.000000 I-1.632653 J-0.000001
G02 X86.213187 Y39.657616 Z-1.000000 I-1.185543 J1.202119
G03 X85.971216 Y39.611071 Z-1.000000 I0.000000 J-0.652239
G03 X85.161205 Y39.237352 Z-1.000000 I3.171273 J-7.938203
G02 X84.356733 Y38.829333 Z-1.000000 I-13.932857 J26.473680
G02 X83.557670 Y38.454220 Z-1.000000 I-12.575300 J25.749203
G03 X82.777610 Y38.049888 Z-1.000000 I3.301189 J-7.323465
G03 X82.158293 Y37.628793 Z-1.000000 I2.964933 J-5.026589
G02 X81.556034 Y37.177680 Z-1.000000 I-12.529195 J16.099517
G02 X81.245143 Y36.970759 Z-1.000000 I-2.935717 J4.073802
G01 X81.242686 Y36.896413 Z-1.000000
G03 X81.398840 Y36.861922 Z-1.000000 I0.119007 J0.168058
G02 X81.801377 Y36.864631 Z-1.000000 I0.208948 J-1.139522
G02 X81.871341 Y36.781812 Z-1.000000 I-0.014037 J-0.082819
G02 X81.564237 Y36.012908 Z-1.000000 I-1.116112 J-0.000001
G02 X80.848630 Y35.705785 Z-1.000000 I-0.715608 J0.680133
G02 X80.752747 Y35.831462 Z-1.000000 I-0.000000 J0.099414
G02 X80.969015 Y36.145296 Z-1.000000 I0.557398 J-0.152680
G03 X81.164697 Y36.373041 Z-1.000000 I-0.389373 J0.532493
G03 X81.147131 Y36.487264 Z-1.000000 I-0.086652 J0.045136
G03 X81.009576 Y36.518370 Z-1.000000 I-0.093388 J-0.093277
G03 X79.772851 Y35.999335 Z-1.000000 I3.997724 J-11.258446
G02 X76.791947 Y35.012311 Z-1.000000 I-5.157541 J10.581442
G02 X76.373151 Y35.359658 Z-1.000000 I-0.065354 J0.347347
G03 X76.304001 Y35.430601 Z-1.000000 I-0.070966 J-0.000000
G03 X76.040808 Y35.368158 Z-1.000000 I-0.013539 J-0.528821
G02 X75.095655 Y35.181239 Z-1.000000 I-0.778878 J1.455354
G02 X74.396616 Y35.534629 Z-1.000000 I0.109900 J1.085472
G01 X74.396626 Y35.534653 Z-1.000000
G00 Z5.000000

(Change tool to Cylindrical cutter)

G00 Z5.000000
G00 X81.531737 Y41.767837

G01 Z-1.000000 F1000.0(Penetrate)
G03 X82.373338 Y42.678004 Z-1.000000 I-2.589786 J3.238872 F1100.000000
G03 X82.558613 Y43.280950 Z-1.000000 I-0.888450 J0.602945
G03 X82.430553 Y43.459753 Z-1.000000 I-0.188857 J-0.000000
G03 X81.742476 Y43.558457 Z-1.000000 I-0.607350 J-1.786211
G03 X80.961875 Y43.456889 Z-1.000000 I0.194228 J-4.543175
G03 X80.800109 Y43.351686 Z-1.000000 I0.058627 J-0.267121
G03 X80.543687 Y42.503166 Z-1.000000 I1.070539 J-0.786522
G03 X80.874830 Y41.753775 Z-1.000000 I1.133359 J0.052953
G03 X81.168146 Y41.635936 Z-1.000000 I0.284710 J0.284709
G03 X81.531772 Y41.767815 Z-1.000000 I-0.012887 J0.602779
G01 X81.531737 Y41.767837 Z-1.000000
G00 Z5.000000

(Change tool to Cylindrical cutter)

G00 Z5.000000
G00 X84.009589 Y44.425555

G01 Z-1.000000 F1000.0(Penetrate)
G01 X84.512904 Y44.983964 Z-1.000000 F1100.000000
G01 X84.069837 Y44.983963 Z-1.000000
G03 X83.718687 Y44.866131 Z-1.000000 I0.000000 J-0.582146
G03 X83.522972 Y44.570376 Z-1.000000 I0.321921 J-0.425664
G02 X83.410725 Y44.159343 Z-1.000000 I-9.989580 J2.507171
G02 X83.307242 Y43.840153 Z-1.000000 I-6.132248 J1.811739
G03 X83.304031 Y43.705862 Z-1.000000 I0.203936 J-0.072060
G01 X83.350762 Y43.695324 Z-1.000000
G03 X83.506120 Y43.867261 Z-1.000000 I-111.687939 J101.074559
G03 X84.009559 Y44.425555 Z-1.000000 I-1171.237477 J1056.663087
G01 X84.009589 Y44.425555 Z-1.000000
G00 Z5.000000

(Change tool to Cylindrical cutter)

G00 Z5.000000
G00 X55.923760 Y40.778060

G01 Z-1.000000 F1000.0(Penetrate)
G02 X55.593095 Y41.808573 Z-1.000000 I1.116400 J0.926530 F1100.000000
G02 X56.167342 Y44.167809 Z-1.000000 I7.283803 J-0.523401
G02 X56.706413 Y45.265655 Z-1.000000 I11.097039 J-4.767651
G02 X56.811661 Y45.327584 Z-1.000000 I0.105248 J-0.058471
G03 X56.904699 Y45.380586 Z-1.000000 I-0.000000 J0.108160
G03 X56.957703 Y45.573926 Z-1.000000 I-0.326119 J0.193340
G02 X57.024344 Y45.796765 Z-1.000000 I0.405889 J0.000000
G02 X57.832373 Y46.905523 Z-1.000000 I11.804391 J-7.753866
G03 X58.668881 Y48.015682 Z-1.000000 I-16.586455 J13.368175
G03 X59.018996 Y48.592128 Z-1.000000 I-4.101853 J2.885880
G02 X59.655422 Y49.440419 Z-1.000000 I2.863375 J-1.485351
G02 X61.699328 Y51.149916 Z-1.000000 I14.058868 J-14.732430
G02 X62.941357 Y51.508075 Z-1.000000 I1.111121 J-1.520520
G02 X63.457507 Y51.027405 Z-1.000000 I-0.038973 J-0.559310
G03 X63.598990 Y50.776861 Z-1.000000 I0.390547 J0.055322
G03 X63.801144 Y50.747583 Z-1.000000 I0.125522 J0.154149
G02 X65.682093 Y51.348908 Z-1.000000 I4.415245 J-10.568450
G02 X66.455031 Y51.349718 Z-1.000000 I0.388262 J-1.711246
G02 X66.903529 Y50.860777 Z-1.000000 I-0.127404 J-0.567035
G02 X66.579052 Y50.435134 Z-1.000000 I-0.374752 J-0.050818
G03 X65.176731 Y49.820362 Z-1.000000 I0.368491 J-2.747306
G03 X64.359581 Y48.592132 Z-1.000000 I1.643797 J-1.979572
G03 X64.312234 Y47.766872 Z-1.000000 I1.669756 J-0.509785
G03 X64.560657 Y47.497700 Z-1.000000 I0.337157 J0.061944
G03 X66.165922 Y47.593181 Z-1.000000 I0.659171 J2.459669
G03 X67.520430 Y48.682132 Z-1.000000 I-1.105066 J2.761441
G02 X68.473361 Y49.794022 Z-1.000000 I5.446608 J-3.703651
G02 X68.719631 Y49.801180 Z-1.000000 I0.127201 J-0.136312
G02 X69.092387 Y48.505598 Z-1.000000 I-0.764719 J-0.921434
G02 X67.802658 Y47.013453 Z-1.000000 I-2.434475 J0.800768
G03 X67.242857 Y46.690408 Z-1.000000 I2.393627 J-4.794450
G03 X66.567050 Y46.197315 Z-1.000000 I4.947941 J-7.491041
G02 X65.899076 Y45.708749 Z-1.000000 I-5.706400 J7.100949
G02 X65.773460 Y45.670484 Z-1.000000 I-0.126832 J0.191050
G03 X65.644715 Y45.636350 Z-1.000000 I0.001187 J-0.264334
G03 X64.861338 Y45.155766 Z-1.000000 I6.203471 J-10.990749
G02 X63.723462 Y44.705679 Z-1.000000 I-1.624672 J2.443980
G02 X63.084474 Y44.856888 Z-1.000000 I-0.140177 J0.833372
G02 X62.905919 Y45.135124 Z-1.000000 I0.270580 J0.370053
G02 X62.750952 Y46.488336 Z-1.000000 I7.623695 J1.558527
G03 X62.666122 Y47.854852 Z-1.000000 I-19.215358 J-0.506951
G03 X62.612326 Y47.904037 Z-1.000000 I-0.054238 J-0.005312
G03 X62.536342 Y47.865211 Z-1.000000 I-0.000853 J-0.092096
G03 X62.328019 Y47.503165 Z-1.000000 I1.803280 J-1.278574
G03 X62.238669 Y47.088064 Z-1.000000 I0.903404 J-0.411624
G03 X62.334021 Y45.789356 Z-1.000000 I9.337492 J0.032707
G01 X62.523051 Y44.477243 Z-1.000000
G01 X62.006513 Y43.828551 Z-1.000000
G02 X61.406137 Y43.283244 Z-1.000000 I-1.979443 J1.576184
G02 X59.390788 Y42.128212 Z-1.000000 I-11.311667 J17.401322
G03 X57.318694 Y41.036961 Z-1.000000 I25.825768 J-51.551486
G03 X56.982257 Y40.796622 Z-1.000000 I0.869772 J-1.573199
G02 X56.391924 Y40.563194 Z-1.000000 I-0.606171 J0.669807
G02 X55.923754 Y40.778062 Z-1.000000 I-0.010429 J0.594753
G01 X55.923760 Y40.778060 Z-1.000000
G00 Z5.000000

(Change tool to Cylindrical cutter)

G00 Z5.000000
G00 X60.998673 Y43.166180

G01 Z-1.000000 F1000.0(Penetrate)
G03 X61.312582 Y43.482828 Z-1.000000 I-0.586906 J0.895749 F1100.000000
G03 X61.514187 Y43.968070 Z-1.000000 I-1.251156 J0.804322
G03 X61.655727 Y46.000038 Z-1.000000 I-6.807064 J1.495071
G03 X61.264542 Y47.199161 Z-1.000000 I-2.664571 J-0.205883
G03 X60.759325 Y47.300481 Z-1.000000 I-0.299945 J-0.185376
G03 X59.418961 Y45.877750 Z-1.000000 I2.953938 J-4.125670
G02 X58.105438 Y44.151648 Z-1.000000 I-10.359703 J6.520667
G02 X57.655785 Y43.943664 Z-1.000000 I-0.471924 J0.430220
G01 X57.641679 Y43.889144 Z-1.000000
G03 X58.246340 Y43.586419 Z-1.000000 I2.204369 J3.647754
G02 X59.054626 Y43.180792 Z-1.000000 I-2.114472 J-5.221613
G02 X59.253655 Y42.975086 Z-1.000000 I-0.292759 J-0.482395
G03 X59.752294 Y42.718887 Z-1.000000 I0.443272 J0.249390
G03 X60.998673 Y43.166180 Z-1.000000 I-0.308924 J2.820975
G01 X60.998673 Y43.166180 Z-1.000000
G00 Z5.000000

(Change tool to Cylindrical cutter)

G00 Z5.000000
G00 X68.310163 Y44.195753

G01 Z-1.000000 F1000.0(Penetrate)
G02 X68.229765 Y44.826469 Z-1.000000 I0.456243 J0.378641 F1100.000000
G02 X69.406764 Y46.530315 Z-1.000000 I5.692768 J-2.674055
G03 X70.088811 Y47.338064 Z-1.000000 I-5.530637 J5.361781
G03 X70.214977 Y47.632896 Z-1.000000 I-0.571664 J0.419042
G02 X70.369128 Y47.879756 Z-1.000000 I0.384290 J-0.068408
G02 X70.995971 Y48.203004 Z-1.000000 I1.351494 J-1.851412
G03 X71.637360 Y48.523531 Z-1.000000 I-0.802014 J2.406853
G03 X71.823687 Y48.775650 Z-1.000000 I-0.275930 J0.398835
G02 X71.977627 Y49.041198 Z-1.000000 I0.676329 J-0.214678
G02 X72.128846 Y49.107591 Z-1.000000 I0.151219 J-0.139014
G03 X72.315551 Y49.153397 Z-1.000000 I-0.000000 J0.403414
G03 X73.362948 Y49.751910 Z-1.000000 I-7.351705 J14.081201
G02 X74.446957 Y50.209256 Z-1.000000 I1.978337 J-3.175744
G02 X75.771639 Y50.344836 Z-1.000000 I1.145594 J-4.653823
G02 X77.118138 Y50.229526 Z-1.000000 I-0.525443 J-14.055035
G02 X77.299851 Y50.139625 Z-1.000000 I-0.042134 J-0.313759
G02 X77.361206 Y49.967413 Z-1.000000 I-0.150741 J-0.150741
G02 X77.229501 Y49.444668 Z-1.000000 I-1.844323 J0.186710
G03 X77.143955 Y48.913314 Z-1.000000 I1.076438 J-0.445866
G03 X77.306872 Y48.393124 Z-1.000000 I1.191935 J0.087692
G02 X77.474273 Y47.873252 Z-1.000000 I-1.067599 J-0.630660
G02 X77.398183 Y47.375252 Z-1.000000 I-1.050780 J-0.094261
G02 X75.219700 Y45.038964 Z-1.000000 I-4.213875 J1.745435
G02 X73.330087 Y45.346647 Z-1.000000 I-0.731121 J1.466172
G03 X73.118478 Y45.408054 Z-1.000000 I-0.161612 J-0.161610
G03 X72.307769 Y45.117469 Z-1.000000 I0.763846 J-3.407273
G02 X69.960055 Y44.131733 Z-1.000000 I-8.174121 J16.179552
G02 X68.877135 Y43.953006 Z-1.000000 I-1.082604 J3.189479
G02 X68.543688 Y44.021403 Z-1.000000 I0.000096 J0.847472
G02 X68.310148 Y44.195753 Z-1.000000 I0.244500 J0.571091
G01 X68.310163 Y44.195753 Z-1.000000
G00 Z5.000000

(Change tool to Cylindrical cutter)

G00 Z5.000000
G00 X73.178900 Y46.788046

G01 Z-1.000000 F1000.0(Penetrate)
G02 X73.641900 Y47.136808 Z-1.000000 I1.470569 J-1.470548 F1100.000000
G02 X73.954504 Y47.217590 Z-1.000000 I0.312604 J-0.564451
G03 X74.168044 Y47.308672 Z-1.000000 I-0.000000 J0.295863
G03 X74.201657 Y47.475319 Z-1.000000 I-0.114505 J0.109808
G02 X74.199151 Y47.666763 Z-1.000000 I0.258078 J0.099117
G02 X74.292956 Y47.733047 Z-1.000000 I0.093806 J-0.033236
G02 X74.430313 Y47.680192 Z-1.000000 I0.000000 J-0.204905
G02 X74.483162 Y47.561229 Z-1.000000 I-0.107467 J-0.118963
G03 X74.534920 Y47.441167 Z-1.000000 I0.165132 J0.000000
G03 X74.665116 Y47.389410 Z-1.000000 I0.130195 J0.137875
G03 X74.748980 Y47.444091 Z-1.000000 I-0.000000 J0.091653
G03 X74.740845 Y47.561229 Z-1.000000 I-0.115328 J0.050842
G02 X74.751615 Y47.667837 Z-1.000000 I0.074869 J0.046284
G02 X74.902529 Y47.733047 Z-1.000000 I0.150914 J-0.142023
G03 X75.109673 Y47.793772 Z-1.000000 I-0.000000 J0.383665
G03 X75.170397 Y47.904865 Z-1.000000 I-0.071259 J0.111093
G03 X75.124545 Y48.030812 Z-1.000000 I-0.195901 J-0.000000
G03 X75.026153 Y48.076683 Z-1.000000 I-0.098392 J-0.082587
G02 X74.916306 Y48.130142 Z-1.000000 I-0.000000 J0.139587
G02 X74.681822 Y48.515837 Z-1.000000 I1.499641 J1.175833
G01 X74.481736 Y48.954988 Z-1.000000
G01 X73.279701 Y47.966113 Z-1.000000
G03 X72.105753 Y46.963973 Z-1.000000 I26.944923 J-32.753082
G03 X72.077668 Y46.901585 Z-1.000000 I0.055251 J-0.062388
G03 X72.223453 Y46.587677 Z-1.000000 I0.410852 J0.000000
G03 X72.714178 Y46.363962 Z-1.000000 I0.644097 J0.762779
G01 X72.744560 Y46.373043 Z-1.000000
G03 X73.178867 Y46.788046 Z-1.000000 I-8.911856 J9.761154
G01 X73.178900 Y46.788046 Z-1.000000
G00 Z5.000000

(Change tool to Cylindrical cutter)

G00 Z5.000000
G00 X49.034230 Y46.276394

G01 Z-1.000000 F1000.0(Penetrate)
G02 X48.833169 Y47.504430 Z-1.000000 I2.058156 J0.967452 F1100.000000
G02 X49.313218 Y48.695174 Z-1.000000 I2.404858 J-0.277382
G03 X49.696449 Y49.271632 Z-1.000000 I-4.244075 J3.237091
G03 X49.741336 Y49.439750 Z-1.000000 I-0.292386 J0.168118
G02 X49.800372 Y49.563997 Z-1.000000 I0.160265 J0.000000
G02 X49.966292 Y49.623032 Z-1.000000 I0.165921 J-0.203648
G03 X50.721060 Y49.931223 Z-1.000000 I-0.000001 J1.078320
G03 X52.372889 Y51.981630 Z-1.000000 I-7.872571 J8.032790
G03 X52.748556 Y52.645112 Z-1.000000 I-7.077136 J4.445213
G03 X52.963366 Y53.145306 Z-1.000000 I-3.799139 J1.927775
G01 X53.045432 Y53.137314 Z-1.000000
G02 X53.091041 Y52.286216 Z-1.000000 I-4.490966 J-0.667434
G01 X53.035391 Y50.911670 Z-1.000000
G01 X53.346735 Y51.581615 Z-1.000000
G02 X53.636527 Y51.960652 Z-1.000000 I1.001609 J-0.465480
G02 X53.754434 Y51.925252 Z-1.000000 I0.047388 J-0.056222
G01 X53.788118 Y51.929450 Z-1.000000
G03 X53.775304 Y52.458034 Z-1.000000 I-4.170253 J0.163345
G02 X53.787245 Y52.965759 Z-1.000000 I2.280385 J0.200371
G01 X53.845143 Y52.973488 Z-1.000000
G01 X53.990466 Y52.629853 Z-1.000000
G01 X54.094165 Y52.973488 Z-1.000000
G01 X54.129612 Y52.969262 Z-1.000000
G02 X54.120535 Y52.500438 Z-1.000000 I-3.121407 J-0.174069
G02 X53.780441 Y51.303882 Z-1.000000 I-3.411446 J0.323017
G02 X52.492013 Y49.208881 Z-1.000000 I-12.006353 J5.940228
G03 X51.469789 Y47.541802 Z-1.000000 I8.401488 J-6.298590
G03 X51.287697 Y46.758467 Z-1.000000 I1.593846 J-0.783334
G02 X51.186435 Y46.469044 Z-1.000000 I-0.464239 J-0.000000
G02 X51.021045 Y46.424049 Z-1.000000 I-0.113419 J0.090436
G03 X50.862055 Y46.437203 Z-1.000000 I-0.102023 J-0.265713
G01 X50.840427 Y46.387159 Z-1.000000
G02 X50.842580 Y46.260992 Z-1.000000 I-0.105034 J-0.064894
G02 X50.602159 Y45.970281 Z-1.000000 I-0.958520 J0.547933
G02 X50.334504 Y45.875977 Z-1.000000 I-0.255635 J0.298563
G02 X50.199627 Y45.982601 Z-1.000000 I0.004412 J0.144201
G03 X50.115456 Y46.021301 Z-1.000000 I-0.058203 J-0.015703
G03 X49.997233 Y45.885991 Z-1.000000 I0.097690 J-0.204654
G02 X49.628478 Y45.713539 Z-1.000000 I-0.264417 J0.084922
G02 X49.034226 Y46.276390 Z-1.000000 I0.421795 J1.040453
G01 X49.034230 Y46.276394 Z-1.000000
G00 Z5.000000

(Change tool to Cylindrical cutter)

G00 Z5.000000
G00 X51.974972 Y49.516894

G01 Z-1.000000 F1000.0(Penetrate)
G01 X51.926252 Y49.543535 Z-1.000000 F1100.000000
G03 X51.722708 Y49.355190 Z-1.000000 I0.425862 J-0.664386
G03 X51.507981 Y49.009074 Z-1.000000 I1.762718 J-1.333241
G03 X51.470448 Y48.849851 Z-1.000000 I0.318961 J-0.159223
G01 X51.519167 Y48.823211 Z-1.000000
G03 X51.722709 Y49.011555 Z-1.000000 I-0.425860 J0.664374
G03 X51.937439 Y49.357672 Z-1.000000 I-1.762686 J1.333236
G03 X51.974972 Y49.516894 Z-1.000000 I-0.318957 J0.159222
G01 X51.974972 Y49.516894 Z-1.000000
G00 Z5.000000

(Change tool to Cylindrical cutter)

G00 Z5.000000
G00 X56.653937 Y49.794854

G01 Z-1.000000 F1000.0(Penetrate)
G02 X56.903042 Y50.076271 Z-1.000000 I0.962750 J-0.601246 F1100.000000
G02 X57.078960 Y50.138491 Z-1.000000 I0.175918 J-0.217582
G03 X57.658118 Y50.366997 Z-1.000000 I-0.000001 J0.848207
G03 X59.037853 Y51.969236 Z-1.000000 I-6.679575 J7.147158
G03 X58.869086 Y52.215922 Z-1.000000 I-0.131962 J0.090792
G03 X57.930783 Y51.707867 Z-1.000000 I0.469056 J-1.986758
G02 X56.085423 Y50.407448 Z-1.000000 I-5.319681 J5.589358
G02 X55.755614 Y50.610990 Z-1.000000 I-0.102396 J0.203057
G02 X55.810134 Y50.896476 Z-1.000000 I0.783212 J-0.001624
G02 X56.089226 Y51.457752 Z-1.000000 I3.390435 J-1.335856
G03 X56.358788 Y52.027967 Z-1.000000 I-2.546023 J1.552424
G03 X56.577176 Y52.856509 Z-1.000000 I-5.196127 J1.812654
G02 X56.840648 Y53.659014 Z-1.000000 I3.032935 J-0.551243
G02 X57.381077 Y54.501110 Z-1.000000 I3.886533 J-1.899786
G02 X58.051062 Y55.248547 Z-1.000000 I8.758409 J-7.176832
G02 X58.156931 Y55.293037 Z-1.000000 I0.105869 J-0.103720
G03 X58.269549 Y55.330950 Z-1.000000 I-0.000000 J0.186221
G03 X59.081232 Y55.994912 Z-1.000000 I-8.769872 J11.549133
G02 X59.591839 Y56.248665 Z-1.000000 I0.731147 J-0.830627
G02 X59.688775 Y56.118475 Z-1.000000 I0.017872 J-0.087876
G03 X59.726667 Y56.020506 Z-1.000000 I0.061079 J-0.032688
G03 X59.898824 Y56.043865 Z-1.000000 I0.063433 J0.178583
G02 X60.315206 Y56.271620 Z-1.000000 I1.234689 J-1.762764
G02 X60.580132 Y56.323951 Z-1.000000 I0.264927 J-0.644430
G03 X60.843557 Y56.382538 Z-1.000000 I-0.000000 J0.621519
G03 X61.486699 Y56.748183 Z-1.000000 I-1.979764 J4.230696
G02 X62.123278 Y57.073291 Z-1.000000 I1.621956 J-2.390089
G02 X62.376165 Y57.070979 Z-1.000000 I0.123347 J-0.339881
G03 X62.622417 Y57.067673 Z-1.000000 I0.127613 J0.332544
G03 X62.999208 Y57.291069 Z-1.000000 I-0.375333 J1.062512
G01 X63.357920 Y57.612589 Z-1.000000
G01 X62.993451 Y57.011226 Z-1.000000
G03 X62.675020 Y56.396931 Z-1.000000 I4.443034 J-2.692804
G03 X62.628338 Y56.174819 Z-1.000000 I0.512303 J-0.223634
G02 X62.569787 Y55.960740 Z-1.000000 I-0.424768 J0.001130
G02 X62.155196 Y55.369648 Z-1.000000 I-3.876618 J2.278112
G03 X61.690362 Y54.793449 Z-1.000000 I21.579844 J-17.884585
G03 X60.995425 Y53.892515 Z-1.000000 I52.068494 J-40.881595
G02 X60.283092 Y53.006523 Z-1.000000 I-15.767265 J11.947453
G02 X59.234289 Y51.826529 Z-1.000000 I-29.030419 J24.746725
G03 X58.203160 Y50.650742 Z-1.000000 I20.971955 J-19.431796
G03 X58.160120 Y50.531887 Z-1.000000 I0.143764 J-0.119281
G02 X57.783147 Y49.826538 Z-1.000000 I-0.852345 J0.002124
G02 X56.551636 Y49.451222 Z-1.000000 I-1.231511 J1.832800
G01 X56.518784 Y49.495278 Z-1.000000
G02 X56.653937 Y49.794858 Z-1.000000 I1.174736 J-0.349697
G01 X56.653937 Y49.794854 Z-1.000000
G00 Z5.000000

(Change tool to Cylindrical cutter)

G00 Z5.000000
G00 X58.078797 Y52.475500

G01 Z-1.000000 F1000.0(Penetrate)
G03 X58.532595 Y52.925613 Z-1.000000 I-1.457499 J1.923248 F1100.000000
G03 X59.084643 Y53.780521 Z-1.000000 I-4.845041 J3.734323
G02 X59.613422 Y54.661082 Z-1.000000 I8.942723 J-4.771079
G02 X60.012837 Y55.162382 Z-1.000000 I3.276568 J-2.200868
G03 X60.389053 Y55.631389 Z-1.000000 I-2.812455 J2.641416
G03 X60.381534 Y55.703551 Z-1.000000 I-0.046433 J0.031634
G03 X59.870475 Y55.747817 Z-1.000000 I-0.282973 J-0.294711
G03 X58.030329 Y54.121510 Z-1.000000 I5.227568 J-7.769131
G03 X56.753609 Y52.439836 Z-1.000000 I12.055984 J-10.478326
G03 X56.614063 Y51.974940 Z-1.000000 I0.704621 J-0.464895
G03 X56.837506 Y51.815170 Z-1.000000 I0.168843 J0.000000
G03 X58.078797 Y52.475500 Z-1.000000 I-1.430512 J4.185937
G01 X58.078797 Y52.475500 Z-1.000000
G00 Z5.000000

(Change tool to Cylindrical cutter)

G00 Z5.000000
G00 X49.009368 Y49.844264

G01 Z-1.000000 F1000.0(Penetrate)
G02 X49.047868 Y50.291726 Z-1.000000 I0.497222 J0.182605 F1100.000000
G02 X49.377653 Y50.482123 Z-1.000000 I0.329785 J-0.190411
G03 X49.650932 Y50.534449 Z-1.000000 I-0.000000 J0.739773
G03 X49.867240 Y50.676755 Z-1.000000 I-0.236610 J0.595201
G02 X50.353392 Y50.813543 Z-1.000000 I0.365027 J-0.365029
G02 X50.600426 Y50.499787 Z-1.000000 I-0.075732 J-0.313756
G02 X50.298290 Y49.852609 Z-1.000000 I-0.844199 J-0.000001
G02 X49.946621 Y49.952175 Z-1.000000 I-0.141947 J0.169473
G03 X49.833117 Y50.023978 Z-1.000000 I-0.100696 J-0.033564
G03 X49.482354 Y49.895745 Z-1.000000 I0.099035 J-0.814743
G02 X49.130015 Y49.769435 Z-1.000000 I-0.438990 J0.669979
G02 X49.009368 Y49.844274 Z-1.000000 I-0.012467 J0.114568
G01 X49.009368 Y49.844264 Z-1.000000
G00 Z5.000000

(Change tool to Cylindrical cutter)

G00 Z5.000000
G00 X21.924038 Y50.189239

G01 Z-1.000000 F1000.0(Penetrate)
G02 X21.934044 Y50.270651 Z-1.000000 I0.057117 J0.034301 F1100.000000
G02 X22.006228 Y50.271429 Z-1.000000 I0.036490 J-0.036490
G02 X22.243704 Y49.974060 Z-1.000000 I-0.992038 J-1.035741
G02 X22.233698 Y49.892653 Z-1.000000 I-0.057112 J-0.034298
G02 X22.161521 Y49.891875 Z-1.000000 I-0.036486 J0.036486
G02 X21.924043 Y50.189244 Z-1.000000 I0.991950 J1.035678
G01 X21.924038 Y50.189239 Z-1.000000
G00 Z5.000000

(Change tool to Cylindrical cutter)

G00 Z5.000000
G00 X81.357640 Y50.565932

G01 Z-1.000000 F1000.0(Penetrate)
G03 X81.110995 Y50.759790 Z-1.000000 I-0.573804 J-0.476216 F1100.000000
G03 X80.825437 Y50.825778 Z-1.000000 I-0.285558 J-0.584868
G02 X80.557191 Y50.906432 Z-1.000000 I-0.000000 J0.486402
G02 X80.335550 Y51.149649 Z-1.000000 I0.370186 J0.559944
G03 X80.110403 Y51.407129 Z-1.000000 I-0.669744 J-0.358463
G03 X79.740050 Y51.579478 Z-1.000000 I-0.634076 J-0.878447
G02 X79.406540 Y51.766052 Z-1.000000 I0.178178 J0.709870
G02 X79.263017 Y52.045940 Z-1.000000 I0.346624 J0.354487
G01 X79.208107 Y52.406445 Z-1.000000
G01 X78.723447 Y52.023617 Z-1.000000
G02 X78.220381 Y51.797213 Z-1.000000 I-0.703063 J0.890089
G02 X77.778446 Y51.854338 Z-1.000000 I-0.130495 J0.728490
G02 X77.610492 Y52.057417 Z-1.000000 I0.128697 J0.277428
G02 X77.689586 Y52.208886 Z-1.000000 I0.124721 J0.031259
G03 X78.099177 Y52.644797 Z-1.000000 I-0.242117 J0.637884
G03 X78.188338 Y53.818191 Z-1.000000 I-2.522515 J0.781759
G02 X78.221454 Y54.499289 Z-1.000000 I1.718989 J0.257775
G02 X78.478323 Y54.973221 Z-1.000000 I1.053908 J-0.264637
G02 X78.899932 Y55.313953 Z-1.000000 I1.388344 J-1.286678
G02 X79.085515 Y55.333912 Z-1.000000 I0.114616 J-0.192946
G03 X79.229577 Y55.405111 Z-1.000000 I0.036100 J0.108302
G03 X79.366352 Y56.151093 Z-1.000000 I-2.404758 J0.826442
G02 X79.520145 Y56.439570 Z-1.000000 I0.369366 J-0.011682
G02 X79.991186 Y56.599856 Z-1.000000 I0.499410 J-0.695365
G03 X80.588110 Y56.673493 Z-1.000000 I-0.111421 J3.359440
G03 X80.951357 Y56.806857 Z-1.000000 I-0.293153 J1.359848
G02 X81.578209 Y56.879995 Z-1.000000 I0.406263 J-0.759114
G02 X82.829577 Y56.309035 Z-1.000000 I-1.047822 J-3.953289
G02 X84.141583 Y55.045996 Z-1.000000 I-3.036929 J-4.467623
G02 X84.448556 Y54.111930 Z-1.000000 I-1.267621 J-0.934067
G03 X84.513586 Y53.631437 Z-1.000000 I1.807629 J0.000001
G03 X84.620379 Y53.488962 Z-1.000000 I0.234818 J0.064747
G02 X84.729811 Y53.347985 Z-1.000000 I-0.134216 J-0.217144
G02 X84.792193 Y52.939355 Z-1.000000 I-1.307153 J-0.408630
G03 X84.877455 Y52.539215 Z-1.000000 I0.981580 J0.000001
G03 X85.086080 Y52.281044 Z-1.000000 I0.589996 J0.263390
G02 X85.236027 Y52.028485 Z-1.000000 I-0.220696 J-0.301822
G02 X85.174560 Y51.615343 Z-1.000000 I-0.749561 J-0.099625
G02 X84.876794 Y51.336717 Z-1.000000 I-0.486778 J0.221794
G02 X84.274925 Y51.275546 Z-1.000000 I-0.415978 J1.101324
G03 X83.615226 Y51.270226 Z-1.000000 I-0.314037 J-1.963806
G03 X83.260121 Y51.096438 Z-1.000000 I0.124135 J-0.703337
G02 X82.911251 Y50.869511 Z-1.000000 I-0.882662 J0.975343
G02 X82.501487 Y50.759614 Z-1.000000 I-0.554686 J1.249332
G03 X82.084656 Y50.662634 Z-1.000000 I0.185878 J-1.743216
G03 X81.818340 Y50.509497 Z-1.000000 I0.310522 J-0.848160
G02 X81.585804 Y50.441263 Z-1.000000 I-0.195350 J0.235385
G02 X81.357592 Y50.565927 Z-1.000000 I0.042817 J0.349600
G01 X81.357640 Y50.565932 Z-1.000000
G00 Z5.000000

(Change tool to Cylindrical cutter)

G00 Z5.000000
G00 X70.605372 Y50.673162

G01 Z-1.000000 F1000.0(Penetrate)
G02 X70.650402 Y50.967357 Z-1.000000 I0.195235 J0.120661 F1100.000000
G02 X71.175653 Y51.166778 Z-1.000000 I0.535272 J-0.618409
G02 X71.289935 Y51.045708 Z-1.000000 I0.001367 J-0.113181
G02 X71.144974 Y50.727590 Z-1.000000 I-0.497867 J0.034782
G02 X70.813639 Y50.570403 Z-1.000000 I-0.386140 J0.386142
G02 X70.605372 Y50.673159 Z-1.000000 I-0.021979 J0.217891
G01 X70.605372 Y50.673162 Z-1.000000
G00 Z5.000000

(Change tool to Cylindrical cutter)

G00 Z5.000000
G00 X4.975721 Y52.157323

G01 Z-1.000000 F1000.0(Penetrate)
G03 X4.965445 Y53.507120 Z-1.000000 I-13.438911 J0.572627 F1100.000000
G03 X4.893710 Y53.574823 Z-1.000000 I-0.071735 J-0.004152
G01 X4.845141 Y53.633371 Z-1.000000
G02 X4.982520 Y54.047323 Z-1.000000 I1.596450 J-0.300044
G03 X5.169142 Y54.534747 Z-1.000000 I-2.624922 J1.284450
G03 X5.422073 Y55.597870 Z-1.000000 I-12.325122 J3.493965
G02 X5.705209 Y56.336983 Z-1.000000 I2.232644 J-0.431485
G02 X5.837368 Y56.289501 Z-1.000000 I0.061370 J-0.036850
G01 X5.889317 Y56.257743 Z-1.000000
G03 X6.005026 Y56.409823 Z-1.000000 I-0.189798 J0.264464
G02 X6.108365 Y56.535599 Z-1.000000 I0.232149 J-0.085396
G01 X6.157097 Y56.502583 Z-1.000000
G02 X6.014615 Y55.920575 Z-1.000000 I-4.093313 J0.693646
G02 X5.713276 Y55.128035 Z-1.000000 I-7.910345 J2.554110
G03 X5.451079 Y54.325628 Z-1.000000 I3.927314 J-1.727344
G03 X5.142767 Y52.543911 Z-1.000000 I19.222429 J-4.243819
G01 X4.915338 Y50.739820 Z-1.000000
G01 X4.975721 Y52.157323 Z-1.000000
G00 Z5.000000

(Change tool to Cylindrical cutter)

G00 Z5.000000
G00 X19.815096 Y52.844605

G01 Z-1.000000 F1000.0(Penetrate)
G03 X15.011468 Y58.531588 Z-1.000000 I-109.387448 J-87.524155 F1100.000000
G03 X14.570249 Y58.729374 Z-1.000000 I-0.441218 J-0.393239
G03 X14.450397 Y58.658407 Z-1.000000 I0.000000 J-0.136689
G03 X14.452474 Y58.514602 Z-1.000000 I0.127783 J-0.070072
G03 X15.423075 Y57.002276 Z-1.000000 I19.319196 J11.331312
G03 X16.707519 Y55.293012 Z-1.000000 I25.975406 J18.182249
G01 X17.468830 Y54.348012 Z-1.000000
G01 X16.502487 Y55.378921 Z-1.000000
G02 X15.588295 Y56.450988 Z-1.000000 I10.939194 J10.254069
G02 X14.572600 Y57.870283 Z-1.000000 I18.188627 J14.089478
G03 X13.578691 Y59.303282 Z-1.000000 I-31.366773 J-20.694404
G03 X13.361770 Y59.532308 Z-1.000000 I-0.993699 J-0.723935
G03 X12.603264 Y59.792150 Z-1.000000 I-0.730951 J-0.896722
G03 X11.800712 Y59.495117 Z-1.000000 I0.031390 J-1.317534
G01 X11.793000 Y59.444892 Z-1.000000
G03 X12.346556 Y58.663648 Z-1.000000 I11.267813 J7.397153
G02 X12.924834 Y57.861568 Z-1.000000 I-14.392840 J-10.986346
G02 X13.587067 Y56.840070 Z-1.000000 I-22.694020 J-15.437854
G03 X14.236844 Y55.887365 Z-1.000000 I10.770911 J6.648187
G01 X14.306230 Y55.882456 Z-1.000000
G03 X14.332881 Y55.973897 Z-1.000000 I-0.070008 J0.070008
G03 X14.108381 Y56.774760 Z-1.000000 I-7.373451 J-1.635044
G02 X14.040441 Y57.302256 Z-1.000000 I1.265106 J0.431065
G02 X14.148911 Y57.335045 Z-1.000000 I0.060514 J-0.004377
G02 X14.383344 Y56.891400 Z-1.000000 I-1.150624 J-0.891781
G02 X14.568638 Y56.037789 Z-1.000000 I-4.197246 J-1.358019
G03 X14.757831 Y55.176366 Z-1.000000 I4.319077 J0.497102
G03 X15.215630 Y54.070959 Z-1.000000 I7.600207 J2.500087
G02 X16.229456 Y51.792409 Z-1.000000 I-22.801974 J-11.510413
G02 X16.183455 Y51.574225 Z-1.000000 I-0.190388 J-0.073801
G01 X16.139511 Y51.581517 Z-1.000000
G02 X15.727315 Y52.503072 Z-1.000000 I12.625840 J6.200283
G03 X15.228438 Y53.375438 Z-1.000000 I-3.466077 J-1.403306
G03 X15.103003 Y53.317101 Z-1.000000 I-0.056228 J-0.043123
G02 X15.100980 Y53.070192 Z-1.000000 I-0.541473 J-0.119026
G01 X15.041903 Y53.059375 Z-1.000000
G02 X14.908931 Y53.330018 Z-1.000000 I0.906253 J0.613248
G02 X14.864866 Y53.596404 Z-1.000000 I0.833076 J0.274643
G03 X14.612478 Y54.638860 Z-1.000000 I-2.370562 J-0.022152
G03 X13.218058 Y56.873100 Z-1.000000 I-12.775006 J-6.420802
G02 X12.508533 Y57.891562 Z-1.000000 I11.847955 J9.010416
G02 X12.456777 Y58.069278 Z-1.000000 I0.279240 J0.177717
G03 X12.006637 Y59.310141 Z-1.000000 I-1.935364 J-0.000001
G03 X11.043990 Y59.760281 Z-1.000000 I-0.962646 J-0.804265
G02 X10.872373 Y59.805970 Z-1.000000 I-0.000000 J0.345152
G02 X10.291724 Y60.191389 Z-1.000000 I2.642945 J4.611803
G03 X9.766202 Y60.431114 Z-1.000000 I-0.789767 J-1.035435
G03 X9.569055 Y60.341144 Z-1.000000 I-0.037194 J-0.179484
G02 X9.390087 Y60.327794 Z-1.000000 I-0.093902 J0.052550
G02 X8.953394 Y61.135866 Z-1.000000 I2.228314 J1.726246
G02 X9.076091 Y61.916450 Z-1.000000 I0.797135 J0.274636
G02 X9.760615 Y62.211909 Z-1.000000 I0.600450 J-0.450444
G03 X10.448042 Y62.244235 Z-1.000000 I0.243070 J2.156423
G03 X10.731602 Y62.415039 Z-1.000000 I-0.102812 J0.491458
G03 X10.788359 Y62.692507 Z-1.000000 I-0.231126 J0.191817
G03 X10.510071 Y63.159628 Z-1.000000 I-1.061109 J-0.315702
G03 X10.121362 Y63.449279 Z-1.000000 I-1.186130 J-1.186131
G01 X10.051318 Y63.407511 Z-1.000000
G02 X9.644846 Y62.992254 Z-1.000000 I-0.415352 J-0.000000
G02 X8.925248 Y63.383430 Z-1.000000 I-0.017642 J0.825010
G02 X9.007843 Y63.697753 Z-1.000000 I0.190749 J0.117890
G02 X10.182685 Y64.075765 Z-1.000000 I1.559686 J-2.832744
G03 X11.748516 Y64.387721 Z-1.000000 I-1.229237 J10.255789
G03 X13.229954 Y64.932306 Z-1.000000 I-2.731627 J9.718134
G02 X13.583328 Y65.052365 Z-1.000000 I0.757370 J-1.649110
G02 X14.089045 Y65.128483 Z-1.000000 I0.758613 J-3.322101
G03 X14.554405 Y65.265084 Z-1.000000 I-0.085845 J1.153430
G03 X14.980914 Y65.611953 Z-1.000000 I-0.708210 J1.306462
G02 X15.902893 Y66.131787 Z-1.000000 I1.161208 J-0.981991
G02 X20.608373 Y66.508359 Z-1.000000 I4.758475 J-29.872744
G03 X23.562834 Y66.565740 Z-1.000000 I-0.147468 J83.682971
G03 X23.900336 Y66.623192 Z-1.000000 I-0.048379 J1.304253
G01 X23.894962 Y66.685233 Z-1.000000
G03 X21.814352 Y66.881634 Z-1.000000 I-3.995105 J-31.204026
G02 X19.112620 Y67.173353 Z-1.000000 I1.772618 J29.073787
G02 X18.985863 Y67.321337 Z-1.000000 I0.023005 J0.147985
G02 X19.038371 Y67.426680 Z-1.000000 I0.131923 J0.000000
G02 X19.286544 Y67.548008 Z-1.000000 I0.437392 J-0.580196
G01 X19.282599 Y67.588351 Z-1.000000
G03 X18.156397 Y67.625477 Z-1.000000 I-1.085845 J-15.838592
G02 X16.759812 Y67.704805 Z-1.000000 I-0.029753 J11.809430
G02 X16.532715 Y67.814701 Z-1.000000 I0.044447 J0.381439
G02 X16.540062 Y67.924629 Z-1.000000 I0.051751 J0.051751
G02 X16.785388 Y68.007555 Z-1.000000 I0.245326 J-0.321422
G03 X17.165638 Y68.102870 Z-1.000000 I-0.000000 J0.806147
G03 X17.347477 Y68.308237 Z-1.000000 I-0.186175 J0.348031
G02 X17.491915 Y68.422059 Z-1.000000 I0.168562 J-0.065347
G02 X17.666542 Y68.351198 Z-1.000000 I0.025336 J-0.188166
G03 X17.927911 Y68.214168 Z-1.000000 I0.283310 J0.222602
G03 X22.078589 Y68.082023 Z-1.000000 I4.344711 J71.215086
G02 X26.283595 Y67.996924 Z-1.000000 I-0.326663 J-120.075132
G02 X28.061152 Y67.856076 Z-1.000000 I-0.814499 J-21.566401
G03 X29.808300 Y67.729918 Z-1.000000 I2.178253 J18.005259
G03 X30.037061 Y67.809097 Z-1.000000 I0.008233 J0.346267
G02 X32.459353 Y68.642951 Z-1.000000 I2.323324 J-2.813879
G02 X33.718500 Y67.709199 Z-1.000000 I-0.037057 J-1.365814
G03 X34.109523 Y67.290543 Z-1.000000 I0.652503 J0.217500
G03 X37.112682 Y66.314081 Z-1.000000 I7.945847 J19.331442
G02 X40.029413 Y65.587112 Z-1.000000 I-64.397625 J-264.589579
G02 X41.569607 Y65.177069 Z-1.000000 I-18.924703 J-74.182117
G03 X43.098095 Y64.776857 Z-1.000000 I14.549417 J52.448241
G01 X43.140810 Y64.789953 Z-1.000000
G03 X43.155403 Y64.834974 Z-1.000000 I-0.043008 J0.038816
G03 X43.062570 Y65.516209 Z-1.000000 I-12.158147 J-1.309869
G01 X42.949138 Y66.203486 Z-1.000000
G01 X41.491367 Y66.588734 Z-1.000000
G03 X32.300834 Y68.410270 Z-1.000000 I-19.101171 J-72.278539
G03 X24.560441 Y68.853190 Z-1.000000 I-6.786303 J-50.739979
G02 X22.988419 Y68.874453 Z-1.000000 I-0.455470 J24.448014
G02 X22.796144 Y68.933849 Z-1.000000 I0.018290 J0.400121
G03 X22.637539 Y68.960448 Z-1.000000 I-0.111898 J-0.181064
G03 X22.509870 Y68.869449 Z-1.000000 I0.044380 J-0.197322
G02 X22.156868 Y68.703707 Z-1.000000 I-0.303472 J0.187557
G02 X20.997884 Y69.081418 Z-1.000000 I0.483932 J3.451916
G01 X20.274501 Y69.468008 Z-1.000000
G01 X20.961774 Y69.522449 Z-1.000000
G03 X21.624140 Y69.631515 Z-1.000000 I-0.315293 J3.980616
G03 X21.812273 Y69.737222 Z-1.000000 I-0.101029 J0.400075
G02 X22.325673 Y69.943486 Z-1.000000 I0.504464 J-0.513565
G02 X22.622684 Y69.727173 Z-1.000000 I-0.003941 J-0.317475
G03 X22.752158 Y69.633266 Z-1.000000 I0.130639 J0.043909
G03 X24.608867 Y69.666397 Z-1.000000 I0.298657 J35.305545
G03 X26.452308 Y69.797298 Z-1.000000 I-1.524732 J34.518071
G03 X26.545865 Y69.900467 Z-1.000000 I-0.010105 J0.103169
G03 X26.385552 Y70.074295 Z-1.000000 I-0.174398 J-0.000000
G03 X22.183475 Y70.253940 Z-1.000000 I-4.455868 J-54.991994
G02 X19.419490 Y70.315065 Z-1.000000 I0.362868 J78.930906
G02 X18.642228 Y70.394324 Z-1.000000 I0.249779 J6.300265
G01 X18.640159 Y70.485156 Z-1.000000
G02 X19.895774 Y70.660408 Z-1.000000 I1.869010 J-8.805104
G02 X21.920613 Y70.739519 Z-1.000000 I2.369025 J-34.682575
G02 X22.752867 Y70.688690 Z-1.000000 I0.058267 J-5.884818
G03 X23.479821 Y70.732458 Z-1.000000 I0.250917 J1.891430
G03 X23.674100 Y70.926035 Z-1.000000 I-0.067512 J0.262038
G02 X23.829172 Y71.148484 Z-1.000000 I0.379439 J-0.099235
G02 X24.027751 Y71.172693 Z-1.000000 I0.122108 J-0.175072
G02 X24.186302 Y71.025438 Z-1.000000 I-0.103961 J-0.270919
G02 X24.193890 Y70.820017 Z-1.000000 I-0.236905 J-0.111601
G03 X24.258262 Y70.685167 Z-1.000000 I0.096141 J-0.036895
G03 X24.849056 Y70.607532 Z-1.000000 I0.505191 J1.557701
G02 X25.599863 Y70.604432 Z-1.000000 I0.347959 J-6.648706
G02 X27.765251 Y70.430755 Z-1.000000 I-3.372281 J-55.630923
G03 X29.910199 Y70.344892 Z-1.000000 I1.792921 J17.954626
G03 X30.578279 Y70.485646 Z-1.000000 I-0.035609 J1.824889
G02 X31.203691 Y70.581046 Z-1.000000 I0.503977 J-1.206217
G02 X31.356774 Y70.413017 Z-1.000000 I-0.015676 J-0.168029
G03 X31.381815 Y70.094418 Z-1.000000 I2.039280 J0.000001
G01 X31.411124 Y70.069381 Z-1.000000
G02 X31.465040 Y70.064693 Z-1.000000 I0.000000 J-0.312386
G02 X32.454364 Y69.886574 Z-1.000000 I-18.575138 J-106.008539
G03 X33.401830 Y69.877230 Z-1.000000 I0.500482 J2.707397
G03 X34.020820 Y70.144303 Z-1.000000 I-0.226273 J1.375274
G02 X34.617270 Y70.528949 Z-1.000000 I2.732917 J-3.583029
G02 X34.838942 Y70.584837 Z-1.000000 I0.221672 J-0.411672
G03 X35.093241 Y70.775366 Z-1.000000 I-0.000000 J0.264971
G03 X35.044008 Y71.285360 Z-1.000000 I-0.661171 J0.193547
G02 X34.967467 Y71.946948 Z-1.000000 I0.835077 J0.431835
G02 X35.324170 Y72.396987 Z-1.000000 I0.677762 J-0.170815
G02 X36.570375 Y72.582679 Z-1.000000 I0.894758 J-1.730273
G02 X37.557062 Y71.987407 Z-1.000000 I-0.293975 J-1.602645
G02 X37.813739 Y71.200426 Z-1.000000 I-0.945498 J-0.743727
G02 X37.481853 Y69.897131 Z-1.000000 I-3.173273 J0.114174
G03 X37.621641 Y69.571680 Z-1.000000 I0.207614 J-0.103572
G03 X40.284184 Y69.040487 Z-1.000000 I3.985100 J13.036404
G02 X42.248216 Y68.813139 Z-1.000000 I-5.307506 J-54.448175
G02 X44.210124 Y68.513983 Z-1.000000 I-7.326765 J-54.632626
G03 X46.410032 Y68.387325 Z-1.000000 I1.663983 J9.733271
G03 X46.729686 Y68.650930 Z-1.000000 I-0.018947 J0.348588
G02 X47.550542 Y69.246394 Z-1.000000 I0.765844 J-0.192214
G02 X48.561020 Y68.523027 Z-1.000000 I-0.082612 J-1.182859
G02 X48.579953 Y68.279774 Z-1.000000 I-0.357279 J-0.150171
G02 X48.429304 Y67.990891 Z-1.000000 I-0.670356 J0.165860
G03 X48.455951 Y67.797194 Z-1.000000 I0.097475 J-0.085272
G03 X49.316442 Y67.411369 Z-1.000000 I1.647669 J2.522261
G03 X50.431325 Y67.147243 Z-1.000000 I4.717433 J17.427410
G03 X50.500169 Y67.170321 Z-1.000000 I0.014470 J0.071058
G03 X50.549483 Y67.239416 Z-1.000000 I-0.308919 J0.272627
G03 X50.878250 Y67.835757 Z-1.000000 I-23.075670 J13.110603
G01 X51.199793 Y68.437120 Z-1.000000
G01 X51.286693 Y67.604132 Z-1.000000
G03 X51.577025 Y66.923822 Z-1.000000 I1.247077 J0.130101
G03 X52.318593 Y66.385905 Z-1.000000 I1.467647 J1.243169
G02 X54.597484 Y65.320218 Z-1.000000 I-9.438646 J-23.153280
G02 X54.724048 Y65.109805 Z-1.000000 I-0.111625 J-0.210413
G02 X54.415338 Y64.508063 Z-1.000000 I-0.740815 J-0.000000
G02 X53.859268 Y64.488819 Z-1.000000 I-0.292463 J0.407277
G02 X53.745249 Y64.651549 Z-1.000000 I0.132242 J0.213967
G02 X53.731894 Y65.101009 Z-1.000000 I1.261181 J0.262404
G03 X53.599095 Y65.472398 Z-1.000000 I-0.415262 J0.060950
G03 X52.715692 Y66.025662 Z-1.000000 I-1.972998 J-2.168408
G03 X51.484559 Y66.306451 Z-1.000000 I-1.505041 J-3.759540
G03 X51.287683 Y66.122471 Z-1.000000 I-0.012473 J-0.183980
G02 X51.235269 Y65.794808 Z-1.000000 I-1.050384 J-0.000001
G02 X50.855914 Y64.807424 Z-1.000000 I-10.140117 J3.329287
G03 X50.457556 Y63.838664 Z-1.000000 I18.243642 J-8.068155
G01 X50.469324 Y63.792286 Z-1.000000
G03 X50.518308 Y63.759176 Z-1.000000 I0.167334 J0.194766
G03 X51.416549 Y63.300347 Z-1.000000 I34.392966 J66.221864
G02 X51.420409 Y63.197450 Z-1.000000 I-0.026376 J-0.052510
G02 X51.225802 Y63.185884 Z-1.000000 I-0.108382 J0.180612
G03 X50.139881 Y63.572061 Z-1.000000 I-2.949231 J-6.573282
G03 X49.909793 Y63.538230 Z-1.000000 I-0.075867 J-0.283362
G02 X49.439149 Y63.498091 Z-1.000000 I-0.274980 J0.444927
G02 X49.225867 Y63.814104 Z-1.000000 I0.127472 J0.316013
G03 X48.837763 Y64.351134 Z-1.000000 I-0.565605 J-0.000000
G03 X47.252232 Y64.466433 Z-1.000000 I-1.021758 J-3.091337
G02 X45.812298 Y64.244999 Z-1.000000 I-5.880798 J33.448995
G02 X45.145183 Y64.188532 Z-1.000000 I-0.937792 J7.110300
G03 X44.604596 Y64.150270 Z-1.000000 I0.310840 J-8.229724
G01 X44.586776 Y64.130502 Z-1.000000
G01 X44.603665 Y64.104929 Z-1.000000
G03 X46.347913 Y63.378722 Z-1.000000 I41.487306 J97.188950
G02 X48.093918 Y62.632841 Z-1.000000 I-19.672384 J-48.466895
G02 X48.710413 Y62.318373 Z-1.000000 I-2.845767 J-6.340480
G01 X48.684276 Y62.260879 Z-1.000000
G02 X46.906321 Y62.940019 Z-1.000000 I9.384829 J27.235901
G03 X42.724373 Y64.553791 Z-1.000000 I-29.314563 J-69.740648
G03 X41.095658 Y64.986666 Z-1.000000 I-3.552476 J-10.085893
G03 X37.429197 Y65.529959 Z-1.000000 I-9.871805 J-53.977372
G03 X35.308593 Y65.645329 Z-1.000000 I-2.037252 J-17.899466
G02 X34.792538 Y65.698653 Z-1.000000 I-0.011329 J2.414144
G01 X34.793138 Y65.755510 Z-1.000000
G01 X35.394501 Y65.870861 Z-1.000000
G01 X34.554384 Y65.994214 Z-1.000000
G03 X33.597831 Y66.039952 Z-1.000000 I-0.710861 J-4.841357
G01 X33.590410 Y65.945753 Z-1.000000
G01 X33.600153 Y65.873191 Z-1.000000
G02 X33.299870 Y65.796554 Z-1.000000 I-0.317929 J0.619115
G03 X32.791222 Y65.577333 Z-1.000000 I0.018854 J-0.743451
G03 X32.861687 Y65.355637 Z-1.000000 I0.093049 J-0.092472
G02 X35.843232 Y64.659607 Z-1.000000 I-4.681738 J-26.788864
G02 X39.346321 Y63.451146 Z-1.000000 I-11.225934 J-38.223360
G03 X40.901607 Y62.860678 Z-1.000000 I19.377482 J48.696576
G03 X42.267232 Y62.394942 Z-1.000000 I13.407263 J37.077607
G02 X46.405434 Y60.968268 Z-1.000000 I-30.914487 J-96.385337
G02 X46.429508 Y60.858494 Z-1.000000 I-0.023106 J-0.062594
G02 X46.353389 Y60.838613 Z-1.000000 I-0.055022 J0.055007
G02 X44.874049 Y61.296684 Z-1.000000 I8.176957 J29.025298
G03 X43.415674 Y61.756262 Z-1.000000 I-11.838161 J-35.022191
G01 X43.384049 Y61.732563 Z-1.000000
G03 X43.411687 Y61.680619 Z-1.000000 I0.062631 J0.000000
G03 X44.157232 Y61.211676 Z-1.000000 I7.843794 J11.643275
G01 X44.120436 Y61.126486 Z-1.000000
G02 X43.169276 Y61.501507 Z-1.000000 I1.597483 J5.445398
G03 X41.366454 Y62.274238 Z-1.000000 I-7.244644 J-14.412733
G03 X39.088594 Y62.963851 Z-1.000000 I-8.011956 J-22.357451
G03 X31.754660 Y64.611239 Z-1.000000 I-39.644661 J-159.343847
G03 X31.405875 Y64.505762 Z-1.000000 I-0.075930 J-0.378327
G01 X31.418352 Y64.456238 Z-1.000000
G03 X32.331103 Y64.227815 Z-1.000000 I2.905654 J9.672831
G02 X38.361617 Y62.704294 Z-1.000000 I-12.570655 J-62.455056
G02 X41.150414 Y61.535455 Z-1.000000 I-4.396157 J-14.400418
G01 X41.124878 Y61.472826 Z-1.000000
G02 X39.719460 Y61.942057 Z-1.000000 I4.463178 J15.707246
G03 X36.321500 Y63.019780 Z-1.000000 I-10.596350 J-27.513714
G03 X31.039539 Y64.127380 Z-1.000000 I-16.498884 J-65.532269
G03 X27.760728 Y64.475639 Z-1.000000 I-4.493301 J-26.694866
G03 X26.459956 Y64.333046 Z-1.000000 I-0.191284 J-4.259336
G03 X26.449451 Y64.110128 Z-1.000000 I0.030493 J-0.113143
G03 X28.349958 Y63.627163 Z-1.000000 I3.165450 J8.475497
G02 X33.549634 Y62.736042 Z-1.000000 I-12.521676 J-88.679306
G02 X35.995867 Y62.083720 Z-1.000000 I-4.081257 J-20.217767
G02 X36.348725 Y61.936359 Z-1.000000 I-0.822970 J-2.466758
G01 X36.339503 Y61.909512 Z-1.000000
G02 X35.910260 Y61.994775 Z-1.000000 I11.838185 J60.720369
G02 X32.989049 Y62.587361 Z-1.000000 I569.101122 J2812.937589
G03 X29.068469 Y63.303683 Z-1.000000 I-19.914399 J-97.908415
G03 X25.447754 Y63.810324 Z-1.000000 I-13.459182 J-82.995080
G03 X24.600835 Y63.824280 Z-1.000000 I-0.492445 J-4.179463
G03 X24.555849 Y63.734934 Z-1.000000 I0.004944 J-0.058488
G03 X24.712029 Y63.604856 Z-1.000000 I0.272540 J0.168430
G03 X25.052598 Y63.541296 Z-1.000000 I0.338078 J0.867301
G02 X29.945834 Y63.153948 Z-1.000000 I0.082737 J-30.055752
G02 X30.084087 Y62.725784 Z-1.000000 I-0.040449 J-0.249464
G02 X29.996890 Y62.695465 Z-1.000000 I-0.074919 J0.074919
G02 X26.801168 Y63.108807 Z-1.000000 I14.959773 J128.220853
G03 X23.592322 Y63.479940 Z-1.000000 I-8.750592 J-61.600868
G03 X22.937360 Y63.454324 Z-1.000000 I-0.228183 J-2.551716
G03 X21.276045 Y62.767793 Z-1.000000 I0.672571 J-3.980884
G03 X20.875866 Y61.993859 Z-1.000000 I0.548294 J-0.773934
G03 X20.935906 Y61.892430 Z-1.000000 I0.115694 J0.000000
G03 X21.520186 Y61.640314 Z-1.000000 I1.622329 J2.956657
G02 X27.889558 Y59.184075 Z-1.000000 I-19.048953 J-58.883061
G02 X30.325870 Y57.673658 Z-1.000000 I-4.481813 J-9.949297
G01 X30.299434 Y57.627278 Z-1.000000
G02 X29.637744 Y57.924406 Z-1.000000 I1.711282 J4.696278
G03 X21.648511 Y61.645802 Z-1.000000 I-35.623111 J-66.040532
G03 X20.499570 Y61.544191 Z-1.000000 I-0.473294 J-1.194834
G03 X20.498485 Y61.312139 Z-1.000000 I0.071918 J-0.116365
G03 X22.596805 Y60.220753 Z-1.000000 I7.583951 J12.018214
G02 X26.687122 Y58.289805 Z-1.000000 I-19.511300 J-46.628420
G02 X26.889505 Y57.954076 Z-1.000000 I-0.177275 J-0.335729
G01 X26.861893 Y57.936780 Z-1.000000
G02 X25.472006 Y58.641568 Z-1.000000 I19.199692 J39.585876
G03 X20.113570 Y61.175201 Z-1.000000 I-30.604165 J-57.792278
G03 X19.844958 Y60.996427 Z-1.000000 I-0.074815 J-0.178774
G03 X19.893268 Y60.905693 Z-1.000000 I0.109363 J0.000000
G03 X20.661095 Y60.447262 Z-1.000000 I4.620564 J6.866774
G02 X23.699192 Y58.619809 Z-1.000000 I-14.399530 J-27.377985
G02 X25.686779 Y57.017352 Z-1.000000 I-9.042800 J-13.249987
G01 X26.459961 Y56.285138 Z-1.000000
G01 X25.686779 Y56.876573 Z-1.000000
G03 X23.589894 Y58.364354 Z-1.000000 I-21.757693 J-28.443836
G03 X20.944894 Y59.991318 Z-1.000000 I-28.680818 J-43.663681
G03 X18.881694 Y60.793927 Z-1.000000 I-3.673816 J-6.390821
G03 X18.350087 Y60.572296 Z-1.000000 I-0.109015 J-0.486891
G02 X18.186866 Y60.378344 Z-1.000000 I-0.774587 J0.486199
G02 X17.783140 Y60.062684 Z-1.000000 I-2.498874 J2.780023
G03 X17.452659 Y59.250947 Z-1.000000 I0.442016 J-0.653100
G03 X18.256207 Y57.759027 Z-1.000000 I2.887836 J0.593033
G02 X19.743175 Y56.207905 Z-1.000000 I-35.709489 J-35.720844
G02 X20.363719 Y55.464831 Z-1.000000 I-7.550407 J-6.936018
G01 X20.321068 Y55.426104 Z-1.000000
G02 X18.919656 Y56.796421 Z-1.000000 I22.691875 J24.608543
G03 X16.830107 Y58.761203 Z-1.000000 I-21.148873 J-20.398358
G03 X16.450035 Y58.901192 Z-1.000000 I-0.380072 J-0.445955
G03 X16.361390 Y58.751428 Z-1.000000 I0.000000 J-0.101117
G03 X17.039359 Y57.827329 Z-1.000000 I3.844679 J2.109922
G02 X18.954327 Y55.585873 Z-1.000000 I-18.684662 J-17.901816
G02 X20.771137 Y52.918549 Z-1.000000 I-24.686166 J-18.767048
G02 X21.380919 Y51.833461 Z-1.000000 I-15.688110 J-9.530044
G01 X21.360110 Y51.800337 Z-1.000000
G02 X21.294896 Y51.833300 Z-1.000000 I0.002499 J0.085935
G02 X20.489281 Y52.926749 Z-1.000000 I18.525671 J14.492566
G03 X15.871642 Y58.841466 Z-1.000000 I-54.356078 J-37.676111
G03 X15.285904 Y58.863958 Z-1.000000 I-0.303515 J-0.266001
G03 X15.275438 Y58.735916 Z-1.000000 I0.068533 J-0.070051
G03 X16.610248 Y57.059869 Z-1.000000 I21.975437 J16.131775
G02 X21.446209 Y51.178152 Z-1.000000 I-121.551928 J-104.869193
G02 X21.358263 Y50.997564 Z-1.000000 I-0.087946 J-0.068879
G02 X21.304952 Y51.022492 Z-1.000000 I-0.000000 J0.069469
G02 X19.815091 Y52.844609 Z-1.000000 I85.248135 J71.223631
G01 X19.815096 Y52.844605 Z-1.000000
G00 Z5.000000

(Change tool to Cylindrical cutter)

G00 Z5.000000
G00 X12.499735 Y63.508213

G01 Z-1.000000 F1000.0(Penetrate)
G03 X11.941326 Y63.535069 Z-1.000000 I-0.558405 J-5.792004 F1100.000000
G03 X11.382916 Y63.508213 Z-1.000000 I0.000003 J-5.818898
G01 X10.824508 Y63.454372 Z-1.000000
G01 X11.416997 Y63.080350 Z-1.000000
G01 X12.009488 Y62.706326 Z-1.000000
G01 X12.533816 Y63.080351 Z-1.000000
G01 X13.058144 Y63.454374 Z-1.000000
G01 X12.499735 Y63.508213 Z-1.000000
G00 Z5.000000

(Change tool to Cylindrical cutter)

G00 Z5.000000
G00 X35.652234 Y64.335908

G01 Z-1.000000 F1000.0(Penetrate)
G03 X29.790727 Y65.725290 Z-1.000000 I-12.112933 J-38.042991 F1100.000000
G03 X24.484051 Y66.106463 Z-1.000000 I-4.876434 J-30.759283
G03 X24.461602 Y65.961549 Z-1.000000 I0.001028 J-0.074355
G03 X25.686780 Y65.706274 Z-1.000000 I1.709968 J5.139171
G02 X29.513765 Y65.248423 Z-1.000000 I-5.859056 J-65.196320
G02 X33.762235 Y64.498038 Z-1.000000 I-12.135507 J-81.109932
G03 X35.630773 Y64.228333 Z-1.000000 I3.265702 J16.017495
G03 X35.652234 Y64.335908 Z-1.000000 I0.004717 J0.054987
G01 X35.652234 Y64.335908 Z-1.000000
G00 Z5.000000

(Change tool to Cylindrical cutter)

G00 Z5.000000
G00 X49.939146 Y65.559168

G01 Z-1.000000 F1000.0(Penetrate)
G01 X50.392030 Y66.718941 Z-1.000000 F1100.000000
G01 X49.937813 Y66.916037 Z-1.000000
G03 X47.085633 Y67.777416 Z-1.000000 I-5.118746 J-11.796352
G03 X39.604051 Y68.766457 Z-1.000000 I-14.541679 J-81.208625
G01 X38.487233 Y68.862386 Z-1.000000
G01 X39.775869 Y68.505804 Z-1.000000
G02 X41.061875 Y68.140146 Z-1.000000 I-25.232268 J-91.185268
G02 X42.782688 Y67.627850 Z-1.000000 I-47.834709 J-163.823994
G03 X44.511624 Y67.178886 Z-1.000000 I6.397347 J21.082330
G03 X45.188143 Y67.106298 Z-1.000000 I0.677345 J3.124002
G02 X46.657233 Y66.771323 Z-1.000000 I-0.001118 J-3.393864
G02 X47.543145 Y65.974301 Z-1.000000 I-0.919319 J-1.912717
G02 X47.894611 Y65.337759 Z-1.000000 I-6.302849 J-3.895405
G02 X47.963098 Y65.116802 Z-1.000000 I-0.673565 J-0.329869
G03 X48.073800 Y64.914409 Z-1.000000 I0.328519 J0.048217
G03 X48.538599 Y64.616608 Z-1.000000 I1.247204 J1.434979
G03 X49.230906 Y64.674985 Z-1.000000 I0.293757 J0.650579
G03 X49.939146 Y65.559171 Z-1.000000 I-1.059659 J1.574539
G01 X49.939146 Y65.559168 Z-1.000000
G00 Z5.000000

(Change tool to Cylindrical cutter)

G00 Z5.000000
G00 X28.951324 Y66.117563

G01 Z-1.000000 F1000.0(Penetrate)
G03 X28.680375 Y66.235555 Z-1.000000 I-0.494098 J-0.764529 F1100.000000
G03 X28.349961 Y66.269625 Z-1.000000 I-0.281938 J-1.115025
G01 X28.318538 Y66.213076 Z-1.000000
G03 X28.435871 Y66.117563 Z-1.000000 I0.180600 J0.102033
G03 X28.928616 Y66.040587 Z-1.000000 I0.492744 J1.538613
G01 X28.951324 Y66.117563 Z-1.000000
G01 X28.951324 Y66.117563 Z-1.000000
G00 Z5.000000

(Change tool to Cylindrical cutter)

G00 Z5.000000
G00 X37.323883 Y66.049558

G01 Z-1.000000 F1000.0(Penetrate)
G03 X37.209097 Y66.099895 Z-1.000000 I-0.121876 J-0.121876 F1100.000000
G03 X36.994563 Y66.063118 Z-1.000000 I-0.021382 J-0.519387
G01 X36.983593 Y66.009647 Z-1.000000
G03 X37.098371 Y65.959312 Z-1.000000 I0.121873 J0.121877
G03 X37.312915 Y65.996074 Z-1.000000 I0.021491 J0.519001
G01 X37.323883 Y66.049552 Z-1.000000
G01 X37.323883 Y66.049558 Z-1.000000
G00 Z5.000000

(Change tool to Cylindrical cutter)

G00 Z5.000000
G00 X36.597234 Y66.213762

G01 Z-1.000000 F1000.0(Penetrate)
G03 X34.428703 Y66.812254 Z-1.000000 I-3.723286 J-9.262781 F1100.000000
G03 X34.012684 Y66.621246 Z-1.000000 I-0.064379 J-0.408334
G03 X34.040462 Y66.531422 Z-1.000000 I0.053064 J-0.032797
G03 X34.573595 Y66.372535 Z-1.000000 I0.885186 J1.996286
G02 X35.221882 Y66.262194 Z-1.000000 I-7.962704 J-48.743209
G02 X35.480415 Y66.211966 Z-1.000000 I-1.379328 J-7.790123
G03 X36.574996 Y66.098318 Z-1.000000 I1.086134 J5.132944
G03 X36.597234 Y66.213767 Z-1.000000 I-0.000096 J0.059885
G01 X36.597234 Y66.213762 Z-1.000000
G00 Z5.000000

(Change tool to Cylindrical cutter)

G00 Z5.000000
G00 X26.875189 Y66.351421

G01 Z-1.000000 F1000.0(Penetrate)
G03 X26.793102 Y66.388881 Z-1.000000 I-0.104775 J-0.120927 F1100.000000
G03 X25.772688 Y66.509332 Z-1.000000 I-2.940691 J-20.529783
G03 X25.177448 Y66.514747 Z-1.000000 I-0.329912 J-3.547449
G01 X25.171324 Y66.464422 Z-1.000000
G03 X26.792430 Y66.150180 Z-1.000000 I2.058434 J6.280422
G03 X26.875189 Y66.351428 Z-1.000000 I0.007594 J0.114518
G01 X26.875189 Y66.351421 Z-1.000000
G00 Z5.000000

(Change tool to Cylindrical cutter)

G00 Z5.000000
G00 X43.555871 Y66.849176

G01 Z-1.000000 F1000.0(Penetrate)
G03 X43.397855 Y67.115588 Z-1.000000 I-0.303591 J-0.000000 F1100.000000
G03 X42.175799 Y67.603286 Z-1.000000 I-2.626844 J-4.807302
G03 X40.998290 Y67.776360 Z-1.000000 I-1.348656 J-5.083466
G03 X40.898741 Y67.644866 Z-1.000000 I-0.003287 J-0.100941
G02 X40.939403 Y67.365943 Z-1.000000 I-0.829859 J-0.263402
G01 X40.892942 Y67.320303 Z-1.000000
G02 X40.313147 Y67.513973 Z-1.000000 I-0.000001 J0.964702
G02 X40.119475 Y67.901928 Z-1.000000 I0.291731 J0.387955
G03 X40.015756 Y68.044461 Z-1.000000 I-0.149795 J-0.000000
G03 X37.928793 Y68.610102 Z-1.000000 I-6.932632 J-21.445516
G03 X35.722063 Y68.958418 Z-1.000000 I-3.995770 J-18.150462
G03 X32.129928 Y69.170916 Z-1.000000 I-4.641448 J-47.992832
G03 X28.633280 Y69.199975 Z-1.000000 I-2.828152 J-129.921831
G01 X28.613115 Y69.152824 Z-1.000000
G03 X28.723870 Y69.094933 Z-1.000000 I0.139392 J0.131786
G03 X31.018570 Y68.789663 Z-1.000000 I9.826518 J65.088237
G02 X36.417681 Y68.007197 Z-1.000000 I-10.671723 J-92.654787
G02 X40.806749 Y67.077459 Z-1.000000 I-10.868712 J-62.133289
