%
(Header)
(Generated by gcodetools from Inkscape.)
(Using default header. To add your own header create file "header" in the output dir.)
M3
(Header end.)
G21 (All units in mm)

(Start cutting path id: path0)
(Change tool to Cylindrical cutter)

G00 Z5.000000
G00 X30.200306 Y131.778702

G01 Z-1.000000 F1000.0(Penetrate)
G03 X30.232958 Y131.695167 Z-1.000000 I0.119171 J-0.001568 F1400.000000
G03 X30.630753 Y131.324542 Z-1.000000 I3.167078 J3.000454
G01 X31.062636 Y130.969909 Z-1.000000
G01 X31.062636 Y127.681917 Z-1.000000
G02 X30.422636 Y123.353652 Z-1.000000 I-14.955843 J0.000000
G02 X29.553559 Y122.690465 Z-1.000000 I-0.893783 J0.270227
G02 X28.614718 Y123.342322 Z-1.000000 I-0.025128 J0.965824
G02 X27.850817 Y127.645628 Z-1.000000 I13.362015 J4.591411
G01 X27.789735 Y130.632882 Z-1.000000
G01 X28.144009 Y131.053986 Z-1.000000
G03 X28.063637 Y131.437255 Z-1.000000 I-0.190290 J0.160157
G03 X26.739849 Y131.745646 Z-1.000000 I-1.323788 J-2.687023
G03 X25.530288 Y131.462250 Z-1.000000 I0.000000 J-2.722954
G03 X25.537617 Y131.149561 Z-1.000000 I0.076669 J-0.154633
G02 X25.699268 Y130.926286 Z-1.000000 I-0.109361 J-0.249332
G02 X25.817875 Y128.235246 Z-1.000000 I-25.889248 J-2.489195
G03 X27.114049 Y123.409298 Z-1.000000 I9.362108 J-0.072523
G03 X29.447924 Y122.075696 Z-1.000000 I2.333875 J1.375401
G03 X31.208560 Y123.182201 Z-1.000000 I0.000000 J1.953988
G03 X32.318763 Y128.039425 Z-1.000000 I-10.109437 J4.866177
G01 X32.320919 Y131.023086 Z-1.000000
G01 X32.784421 Y131.272802 Z-1.000000
G03 X32.788427 Y131.595624 Z-1.000000 I-0.087517 J0.162522
G03 X31.724833 Y131.877870 Z-1.000000 I-1.063594 J-1.862853
G03 X30.248991 Y131.829973 Z-1.000000 I0.000000 J-22.761266
G03 X30.200306 Y131.778702 Z-1.000000 I0.003376 J-0.051956
G00 Z5.000000

(End cutting path id: path0)


(Start cutting path id: path0)
(Change tool to Cylindrical cutter)

G00 Z5.000000
G00 X34.705261 Y130.688215

G01 Z-1.000000 F1000.0(Penetrate)
G03 X34.843307 Y129.764319 Z-1.000000 I3.160669 J0.000000 F1400.000000
G03 X35.030072 Y129.626112 Z-1.000000 I0.186764 J0.057086
G03 X35.398821 Y129.855814 Z-1.000000 I-0.000000 J0.410834
G03 X35.631547 Y130.851339 Z-1.000000 I-2.039236 J1.001681
G02 X35.729686 Y130.985750 Z-1.000000 I0.141840 J-0.000530
G02 X36.346202 Y131.083090 Z-1.000000 I0.616516 J-1.903725
G01 X37.059780 Y131.083090 Z-1.000000
G01 X37.157511 Y127.819531 Z-1.000000
G02 X36.950961 Y122.824532 Z-1.000000 I-35.052565 J-1.052295
G02 X36.534118 Y122.309962 Z-1.000000 I-0.611426 J0.069181
G03 X36.453900 Y122.223497 Z-1.000000 I0.038351 J-0.116024
G03 X36.465491 Y122.034735 Z-1.000000 I0.304906 J-0.076014
G03 X36.691158 Y121.862191 Z-1.000000 I0.253056 J0.097122
G03 X38.296011 Y121.779989 Z-1.000000 I1.623080 J15.980693
G03 X39.856354 Y121.862847 Z-1.000000 I0.016369 J14.424960
G03 X39.980204 Y122.030783 Z-1.000000 I-0.015159 J0.140816
G03 X39.881400 Y122.207259 Z-1.000000 I-0.316299 J-0.061189
G03 X39.509875 Y122.461229 Z-1.000000 I-1.077258 J-1.177159
G01 X39.082662 Y122.671781 Z-1.000000
G01 X39.079428 Y126.877436 Z-1.000000
G01 X39.076554 Y131.083090 Z-1.000000
G01 X39.799833 Y131.083090 Z-1.000000
G01 X40.523472 Y131.083090 Z-1.000000
G01 X40.667552 Y130.520420 Z-1.000000
G03 X40.985706 Y129.741362 Z-1.000000 I2.976690 J0.761134
G03 X41.185669 Y129.626112 Z-1.000000 I0.199963 J0.115846
G03 X41.452404 Y129.831850 Z-1.000000 I0.000000 J0.275777
G03 X41.569406 Y131.086324 Z-1.000000 I-3.736882 J0.981222
G01 X41.527008 Y131.679175 Z-1.000000
G01 X38.116134 Y131.714746 Z-1.000000
G01 X34.705261 Y131.749958 Z-1.000000
G01 X34.705261 Y130.688215 Z-1.000000
G00 Z5.000000

(End cutting path id: path0)


(Start cutting path id: path0)
(Change tool to Cylindrical cutter)

G00 Z5.000000
G00 X19.935708 Y130.649410

G01 Z-1.000000 F1000.0(Penetrate)
G02 X20.806650 Y128.923198 Z-1.000000 I-0.721340 J-1.446763 F1400.000000
G02 X19.372678 Y127.442980 Z-1.000000 I-1.808615 J0.317416
G01 X18.942232 Y127.353154 Z-1.000000
G01 X18.942232 Y129.154346 Z-1.000000
G01 X18.942232 Y130.955896 Z-1.000000
G01 X19.306566 Y130.868585 Z-1.000000
G02 X19.663969 Y130.764042 Z-1.000000 I-0.862130 J-3.610573
G02 X19.935708 Y130.649410 Z-1.000000 I-0.752214 J-2.162536
G00 Z5.000000

(End cutting path id: path0)


(Start cutting path id: path0)
(Change tool to Cylindrical cutter)

G00 Z5.000000
G00 X17.178049 Y131.655820

G01 Z-1.000000 F1000.0(Penetrate)
G03 X16.601594 Y131.381244 Z-1.000000 I0.043629 J-0.833998 F1400.000000
G03 X16.661370 Y131.083090 Z-1.000000 I0.140632 J-0.126875
G01 X17.082115 Y130.884395 Z-1.000000
G01 X17.084630 Y129.228721 Z-1.000000
G02 X17.068830 Y127.573159 Z-1.000000 I-77.174925 J-0.091331
G02 X16.999834 Y125.084149 Z-1.000000 I-167.235112 J3.390323
G01 X16.912882 Y122.595609 Z-1.000000
G01 X16.536691 Y122.373559 Z-1.000000
G03 X16.577664 Y122.072168 Z-1.000000 I0.083979 J-0.142064
G03 X18.511786 Y121.840352 Z-1.000000 I1.764422 J6.536757
G03 X22.022250 Y122.546276 Z-1.000000 I-0.259435 J10.371622
G03 X23.120938 Y123.637950 Z-1.000000 I-0.705437 J1.808680
G03 X23.116466 Y125.290010 Z-1.000000 I-2.065700 J0.820444
G03 X21.912599 Y126.632031 Z-1.000000 I-2.453366 J-0.989827
G02 X21.393543 Y126.911525 Z-1.000000 I88.270367 J164.550848
G02 X21.338790 Y126.942470 Z-1.000000 I0.791638 J1.464629
G01 X21.332298 Y126.979974 Z-1.000000
G02 X21.681566 Y127.353514 Z-1.000000 I3.440184 J-2.866593
G03 X22.565286 Y128.500129 Z-1.000000 I-3.313585 J3.467705
G03 X22.783552 Y129.345855 Z-1.000000 I-1.529355 J0.845726
G03 X21.761468 Y130.872566 Z-1.000000 I-1.651285 J0.000000
G03 X17.178049 Y131.655820 Z-1.000000 I-4.029435 J-9.777128
G00 Z5.000000

(End cutting path id: path0)


(Start cutting path id: path0)
(Change tool to Cylindrical cutter)

G00 Z5.000000
G00 X20.080866 Y126.194758

G01 Z-1.000000 F1000.0(Penetrate)
G02 X21.029751 Y124.586488 Z-1.000000 I-0.672450 J-1.480805 F1400.000000
G02 X19.818574 Y122.858979 Z-1.000000 I-2.069640 J0.162710
G02 X19.310676 Y123.033191 Z-1.000000 I-0.161650 J0.356196
G02 X18.942232 Y124.526150 Z-1.000000 I2.840557 J1.492958
G02 X19.398342 Y126.003752 Z-1.000000 I2.621457 J-0.000000
G02 X20.080866 Y126.194758 Z-1.000000 I0.454851 J-0.310384
G00 Z5.000000

(End cutting path id: path0)


(Start cutting path id: path0)
(Change tool to Cylindrical cutter)

G00 Z5.000000
G00 X16.887731 Y118.649732

G01 Z-1.000000 F1000.0(Penetrate)
G03 X15.949105 Y117.915293 Z-1.000000 I1.050012 J-2.308945 F1400.000000
G03 X15.239244 Y116.566846 Z-1.000000 I3.245371 J-2.569526
G03 X15.035667 Y115.243245 Z-1.000000 I4.370069 J-1.349598
G03 X14.924988 Y77.994162 Z-1.000000 I6865.603963 J-39.024614
G03 X15.016996 Y40.658416 Z-1.000000 I6855.780499 J-1.772961
G03 X15.219482 Y39.750510 Z-1.000000 I2.187553 J0.011348
G03 X15.754030 Y38.999752 Z-1.000000 I2.271861 J1.051910
G03 X16.846411 Y38.182507 Z-1.000000 I3.807783 J3.951025
G01 X17.466211 Y37.829670 Z-1.000000
G01 X23.469463 Y37.831467 Z-1.000000
G01 X29.473075 Y37.833264 Z-1.000000
G01 X29.776327 Y39.055257 Z-1.000000
G02 X33.907974 Y46.144020 Z-1.000000 I14.196691 J-3.526027
G02 X39.351062 Y48.133793 Z-1.000000 I5.020936 J-5.295177
G02 X43.160041 Y46.022454 Z-1.000000 I-0.290190 J-5.015000
G02 X45.266645 Y39.782488 Z-1.000000 I-9.374321 J-6.640333
G01 X45.334912 Y37.827155 Z-1.000000
G01 X51.955090 Y37.861649 Z-1.000000
G01 X58.575267 Y37.896142 Z-1.000000
G01 X58.882832 Y39.112386 Z-1.000000
G02 X60.319279 Y43.126033 Z-1.000000 I21.541033 J-5.445468
G02 X63.108248 Y48.093191 Z-1.000000 I35.901616 J-16.891544
G02 X68.094481 Y52.487130 Z-1.000000 I10.587737 J-6.988791
G02 X70.869081 Y52.341378 Z-1.000000 I1.256953 J-2.554234
G02 X72.769472 Y49.749592 Z-1.000000 I-2.333960 J-3.703956
G02 X73.299908 Y41.670990 Z-1.000000 I-20.592997 J-5.408836
G03 X73.437600 Y41.619898 Z-1.000000 I0.074821 J-0.009446
G03 X74.045823 Y42.797049 Z-1.000000 I-5.117453 J3.389843
G02 X78.842095 Y50.722438 Z-1.000000 I24.743015 J-9.559938
G02 X82.162008 Y52.686040 Z-1.000000 I4.653255 J-4.079047
G02 X84.944230 Y51.718834 Z-1.000000 I0.605413 J-2.743705
G02 X87.252763 Y45.711365 Z-1.000000 I-7.983072 J-6.515004
G02 X87.048007 Y41.573414 Z-1.000000 I-20.990587 J-1.035378
G02 X86.159760 Y38.388388 Z-1.000000 I-13.241708 J1.976508
G03 X85.979726 Y37.927691 Z-1.000000 I9.984423 J-4.167288
G03 X85.968250 Y37.862726 Z-1.000000 I0.178149 J-0.064964
G03 X86.416664 Y37.477203 Z-1.000000 I0.389933 J0.000000
G03 X88.657282 Y38.270896 Z-1.000000 I-0.944333 J6.225391
G03 X89.565577 Y39.546508 Z-1.000000 I-0.966598 J1.649443
G03 X90.206961 Y46.043362 Z-1.000000 I-32.584045 J6.496853
G01 X90.206961 Y51.432923 Z-1.000000
G01 X91.612558 Y51.519156 Z-1.000000
G03 X110.034480 Y61.017881 Z-1.000000 I-1.569677 J25.657437
G03 X115.848336 Y81.503799 Z-1.000000 I-21.102795 J17.056864
G03 X107.608348 Y97.994814 Z-1.000000 I-27.677744 J-3.525483
G03 X91.573035 Y105.077380 Z-1.000000 I-17.575988 J-18.099299
G01 X90.220255 Y105.160020 Z-1.000000
G01 X90.180013 Y110.736778 Z-1.000000
G03 X89.307780 Y117.408779 Z-1.000000 I-27.462209 J-0.197128
G03 X88.120841 Y118.707580 Z-1.000000 I-1.817982 J-0.469649
G03 X87.209698 Y118.867068 Z-1.000000 I-0.921503 J-2.582074
G03 X52.433413 Y118.918626 Z-1.000000 I-28.614730 J-7572.479851
G03 X17.619960 Y118.810224 Z-1.000000 I6.157737 J-7567.839861
G03 X16.887731 Y118.649732 Z-1.000000 I0.009718 J-1.794938
G00 Z5.000000

(End cutting path id: path0)


(Start cutting path id: path0)
(Change tool to Cylindrical cutter)

G00 Z5.000000
G00 X41.965718 Y104.724902

G01 Z-1.000000 F1000.0(Penetrate)
G02 X45.875973 Y103.132781 Z-1.000000 I-4.155787 J-15.804491 F1400.000000
G02 X49.077783 Y100.688480 Z-1.000000 I-7.341840 J-12.936324
G02 X50.144278 Y99.438686 Z-1.000000 I-7.623996 J-7.585773
G02 X52.147677 Y96.477437 Z-1.000000 I-41.085693 J-29.954356
G03 X52.546385 Y96.355979 Z-1.000000 I0.269268 J0.168775
G03 X53.183550 Y96.939502 Z-1.000000 I-0.556067 J1.246816
G02 X61.495038 Y104.161564 Z-1.000000 I14.116067 J-7.851777
G02 X71.527820 Y104.003420 Z-1.000000 I4.820322 J-12.517833
G02 X79.191182 Y93.651332 Z-1.000000 I-4.913531 J-11.649880
G02 X74.821920 Y72.083205 Z-1.000000 I-36.716129 J-3.788687
G02 X67.955803 Y62.984860 Z-1.000000 I-34.830906 J19.145386
G02 X54.707000 Y52.167340 Z-1.000000 I-62.957696 J63.585682
G01 X52.521353 Y50.707128 Z-1.000000
G01 X52.123963 Y50.909057 Z-1.000000
G02 X51.652031 Y51.196669 Z-1.000000 I1.630398 J3.206259
G02 X46.841474 Y54.713728 Z-1.000000 I246.106226 J341.667117
G02 X30.032123 Y73.008104 Z-1.000000 I39.352555 J53.027782
G02 X25.374853 Y89.423939 Z-1.000000 I26.493467 J16.384919
G02 X28.679860 Y99.603858 Z-1.000000 I17.382556 J-0.016950
G02 X36.626100 Y104.956654 Z-1.000000 I11.279762 J-8.170333
G02 X38.924987 Y105.185331 Z-1.000000 I1.946432 J-7.897755
G02 X41.965718 Y104.724902 Z-1.000000 I-0.624274 J-14.393685
G00 Z5.000000

(End cutting path id: path0)


(Start cutting path id: path0)
(Change tool to Cylindrical cutter)

G00 Z5.000000
G00 X51.484761 Y131.646479

G01 Z-1.000000 F1000.0(Penetrate)
G03 X49.546602 Y131.357654 Z-1.000000 I0.117513 J-7.436000 F1400.000000
G03 X49.526194 Y131.083090 Z-1.000000 I0.040571 J-0.141056
G01 X49.961312 Y130.884395 Z-1.000000
G01 X49.880468 Y127.705272 Z-1.000000
G02 X49.565517 Y123.080748 Z-1.000000 I-54.556177 J1.392541
G02 X49.328577 Y122.730707 Z-1.000000 I-0.450935 J0.050023
G03 X49.306294 Y122.447798 Z-1.000000 I0.079486 J-0.148593
G03 X50.103955 Y122.143245 Z-1.000000 I0.921146 J1.215735
G03 X52.173692 Y122.345261 Z-1.000000 I0.474830 J5.838836
G03 X52.196542 Y122.735378 Z-1.000000 I-0.056313 J0.199026
G01 X51.792684 Y122.902814 Z-1.000000
G01 X51.792684 Y124.873597 Z-1.000000
G01 X51.792684 Y126.844380 Z-1.000000
G01 X52.320143 Y126.844380 Z-1.000000
G02 X52.764867 Y126.710101 Z-1.000000 I0.000000 J-0.803590
G02 X53.117439 Y126.314406 Z-1.000000 I-0.578064 J-0.869987
G03 X53.614118 Y125.995904 Z-1.000000 I0.521117 J0.266124
G03 X53.911141 Y126.281350 Z-1.000000 I0.011908 J0.284867
G03 X53.526334 Y128.058214 Z-1.000000 I-4.332653 J-0.008203
G03 X53.117439 Y128.036551 Z-1.000000 I-0.200225 J-0.090534
G02 X52.835234 Y127.655169 Z-1.000000 I-0.719503 J0.237299
G02 X52.367571 Y127.506577 Z-1.000000 I-0.467663 J0.661640
G01 X51.792684 Y127.506577 Z-1.000000
G01 X51.792684 Y129.294833 Z-1.000000
G01 X51.792684 Y131.083090 Z-1.000000
G01 X53.298887 Y131.083090 Z-1.000000
G01 X54.805090 Y131.083090 Z-1.000000
G01 X54.967855 Y130.453948 Z-1.000000
G03 X55.132667 Y129.825684 Z-1.000000 I69.923299 J18.007246
G03 X55.179485 Y129.659168 Z-1.000000 I6.410431 J1.712504
G03 X55.269069 Y129.547949 Z-1.000000 I0.180122 J0.053396
G03 X55.480941 Y129.493529 Z-1.000000 I0.211871 J0.385224
G03 X55.717931 Y129.674737 Z-1.000000 I0.000000 J0.245576
G03 X55.899171 Y131.033506 Z-1.000000 I-5.002775 J1.358769
G01 X55.899171 Y131.745646 Z-1.000000
G01 X54.938751 Y131.715465 Z-1.000000
G02 X53.978275 Y131.690883 Z-1.000000 I-2.638784 J84.326348
G02 X51.484761 Y131.646479 Z-1.000000 I-11.879284 J597.047093
G00 Z5.000000

(End cutting path id: path0)


(Start cutting path id: path0)
(Change tool to Cylindrical cutter)

G00 Z5.000000
G00 X57.650059 Y131.447424

G01 Z-1.000000 F1000.0(Penetrate)
G03 X57.740779 Y131.316481 Z-1.000000 I0.252001 J0.077692 F1400.000000
G03 X58.121826 Y131.083090 Z-1.000000 I1.261627 J1.632048
G01 X58.542571 Y130.884395 Z-1.000000
G01 X58.547601 Y129.294833 Z-1.000000
G02 X58.268869 Y123.244887 Z-1.000000 I-61.649009 J-0.191109
G02 X57.920256 Y122.721006 Z-1.000000 I-0.663066 J0.063301
G03 X57.688811 Y122.518853 Z-1.000000 I0.322309 J-0.602577
G03 X57.651137 Y122.348767 Z-1.000000 I0.177859 J-0.128611
G03 X57.819512 Y122.191872 Z-1.000000 I0.191338 J0.036543
G03 X59.379884 Y122.080457 Z-1.000000 I1.967756 J16.576281
G03 X60.927617 Y122.117464 Z-1.000000 I0.391172 J16.023599
G03 X61.065245 Y122.265409 Z-1.000000 I-0.010703 J0.147944
G03 X60.856782 Y122.794777 Z-1.000000 I-0.776369 J0.000000
G03 X60.377896 Y123.003060 Z-1.000000 I-0.478886 J-0.446389
G02 X60.323607 Y123.055915 Z-1.000000 I0.000000 J0.054308
G02 X60.270464 Y127.026547 Z-1.000000 I148.308361 J3.970632
G01 X60.270464 Y131.050034 Z-1.000000
G01 X60.667854 Y131.129440 Z-1.000000
G03 X60.991877 Y131.269190 Z-1.000000 I-0.166628 J0.831857
G03 X61.065245 Y131.411134 Z-1.000000 I-0.100628 J0.141945
G03 X60.970134 Y131.517970 Z-1.000000 I-0.107558 J0.000000
G03 X59.332321 Y131.613063 Z-1.000000 I-1.637813 J-14.056647
G03 X57.707325 Y131.533337 Z-1.000000 I0.000000 J-16.600388
G03 X57.650059 Y131.447424 Z-1.000000 I0.006531 J-0.066395
G00 Z5.000000

(End cutting path id: path0)


(Start cutting path id: path0)
(Change tool to Cylindrical cutter)

G00 Z5.000000
G00 X63.606243 Y131.654743

G01 Z-1.000000 F1000.0(Penetrate)
G03 X63.194912 Y131.395696 Z-1.000000 I0.033340 J-0.509032 F1400.000000
G03 X63.289337 Y131.090994 Z-1.000000 I0.191477 J-0.107644
G01 X63.708285 Y130.884395 Z-1.000000
G01 X63.702896 Y129.692224 Z-1.000000
G02 X63.683891 Y128.500405 Z-1.000000 I-54.117095 J0.266879
G02 X63.594027 Y125.662629 Z-1.000000 I-301.979713 J8.142564
G01 X63.490547 Y122.825564 Z-1.000000
G01 X63.138788 Y122.544947 Z-1.000000
G03 X63.054372 Y122.179362 Z-1.000000 I0.188300 J-0.236019
G03 X63.401799 Y121.991619 Z-1.000000 I0.301964 J0.143462
G02 X64.018305 Y122.048688 Z-1.000000 I0.957343 J-6.983412
G02 X65.134722 Y122.075696 Z-1.000000 I1.116417 J-23.061199
G03 X65.876097 Y122.292237 Z-1.000000 I-0.000000 J1.377400
G03 X65.858361 Y122.537761 Z-1.000000 I-0.075335 J0.117961
G02 X65.694736 Y122.749666 Z-1.000000 I0.116972 J0.259446
G02 X65.569121 Y124.243018 Z-1.000000 I8.813938 J1.493353
G01 X65.569121 Y125.817848 Z-1.000000
G01 X65.999567 Y125.735208 Z-1.000000
G02 X66.851963 Y125.048773 Z-1.000000 I-0.218918 J-1.144304
G02 X67.257491 Y122.791789 Z-1.000000 I-4.702709 J-2.009893
G03 X68.502423 Y120.815692 Z-1.000000 I2.034479 J-0.098487
G03 X70.148452 Y121.575904 Z-1.000000 I0.475890 J1.131707
G03 X70.065745 Y121.822019 Z-1.000000 I-0.209500 J0.066552
G03 X69.788788 Y121.829932 Z-1.000000 I-0.144435 J-0.204546
G02 X69.568448 Y121.905930 Z-1.000000 I-0.079465 J0.127022
G02 X69.223244 Y123.391468 Z-1.000000 I6.030788 J2.184294
G03 X68.562082 Y125.464836 Z-1.000000 I-5.461283 J-0.599409
G03 X67.703747 Y126.120382 Z-1.000000 I-1.182280 J-0.658311
G01 X67.147903 Y126.257636 Z-1.000000
G01 X67.623262 Y126.429383 Z-1.000000
G03 X68.832861 Y127.491055 Z-1.000000 I-0.749943 J2.074338
G03 X69.249113 Y129.575450 Z-1.000000 I-3.417854 J1.766304
G03 X68.169843 Y130.994318 Z-1.000000 I-1.652709 J-0.137232
G03 X63.606243 Y131.654743 Z-1.000000 I-3.836004 J-10.409496
G00 Z5.000000

(End cutting path id: path0)


(Start cutting path id: path0)
(Change tool to Cylindrical cutter)

G00 Z5.000000
G00 X66.668951 Y130.661626

G01 Z-1.000000 F1000.0(Penetrate)
G02 X67.774203 Y128.646500 Z-1.000000 I-0.964256 J-1.839540 F1400.000000
G02 X66.363542 Y127.062477 Z-1.000000 I-1.762600 J0.149547
G03 X66.036261 Y126.983906 Z-1.000000 I0.906413 J-4.496520
G03 X65.800872 Y126.905821 Z-1.000000 I0.695103 J-2.489215
G02 X65.680307 Y126.978599 Z-1.000000 I-0.032095 J0.083085
G02 X65.569121 Y128.893850 Z-1.000000 I16.440128 J1.915251
G01 X65.569121 Y130.971706 Z-1.000000
G01 X65.999567 Y130.879364 Z-1.000000
G02 X66.422176 Y130.765666 Z-1.000000 I-0.880264 J-4.114141
G02 X66.668951 Y130.661626 Z-1.000000 I-0.493421 J-1.515037
G00 Z5.000000

(End cutting path id: path0)


(Start cutting path id: path0)
(Change tool to Cylindrical cutter)

G00 Z5.000000
G00 X72.788259 Y131.361910

G01 Z-1.000000 F1000.0(Penetrate)
G03 X71.580031 Y130.067669 Z-1.000000 I0.987662 J-2.133108 F1400.000000
G03 X71.652139 Y128.388309 Z-1.000000 I1.979569 J-0.756230
G03 X72.172661 Y127.740873 Z-1.000000 I1.668153 J0.808191
G03 X74.256734 Y126.334886 Z-1.000000 I10.507240 J13.327136
G02 X75.910610 Y124.597346 Z-1.000000 I-2.076216 J-3.632134
G02 X75.882226 Y123.134565 Z-1.000000 I-1.387502 J-0.704742
G02 X73.590184 Y122.375074 Z-1.000000 I-1.559923 J0.869354
G02 X72.841795 Y124.501358 Z-1.000000 I0.637978 J1.419397
G03 X72.738260 Y125.094419 Z-1.000000 I-0.446501 J0.227619
G03 X72.156961 Y125.144153 Z-1.000000 I-0.322145 J-0.343256
G03 X71.887553 Y122.931954 Z-1.000000 I0.804972 J-1.220536
G03 X75.255959 Y121.786456 Z-1.000000 I2.738591 J2.527744
G03 X77.442540 Y124.358491 Z-1.000000 I-0.444871 J2.593666
G03 X75.304824 Y127.762042 Z-1.000000 I-3.729519 J0.030657
G02 X73.442766 Y129.434263 Z-1.000000 I1.862499 J3.946771
G02 X73.565433 Y130.610246 Z-1.000000 I0.831313 J0.507675
G02 X74.740685 Y130.892303 Z-1.000000 I0.803355 J-0.757851
G02 X76.189072 Y129.671743 Z-1.000000 I-0.913068 J-2.553148
G03 X76.852757 Y129.524431 Z-1.000000 I0.398073 J0.224732
G03 X77.358247 Y130.506407 Z-1.000000 I-0.701057 J0.981976
G03 X77.090158 Y131.212821 Z-1.000000 I-1.064744 J0.000000
G03 X76.788031 Y131.149561 Z-1.000000 I-0.132994 J-0.117929
G02 X76.651305 Y130.756468 Z-1.000000 I-9.051143 J2.927874
G02 X76.624548 Y130.709773 Z-1.000000 I-0.154708 J0.057635
G01 X76.585297 Y130.704074 Z-1.000000
G02 X75.970255 Y131.140219 Z-1.000000 I5.879021 J8.942199
G03 X74.531953 Y131.682990 Z-1.000000 I-1.624254 J-2.127072
G03 X72.788259 Y131.361910 Z-1.000000 I-0.247382 J-3.551836
G00 Z5.000000

(End cutting path id: path0)


(Start cutting path id: path0)
(Change tool to Cylindrical cutter)

G00 Z5.000000
G00 X79.212615 Y130.685699

G01 Z-1.000000 F1000.0(Penetrate)
G03 X79.585889 Y130.129009 Z-1.000000 I0.601754 J0.000000 F1400.000000
G03 X80.018894 Y130.354780 Z-1.000000 I0.121283 J0.295506
G01 X80.182018 Y131.083090 Z-1.000000
G01 X80.868648 Y131.083090 Z-1.000000
G01 X81.555278 Y131.083090 Z-1.000000
G01 X81.641870 Y128.798275 Z-1.000000
G02 X81.709188 Y126.512872 Z-1.000000 I-133.510832 J-5.076312
G02 X81.728822 Y124.633222 Z-1.000000 I-89.963559 J-1.879650
G01 X81.729181 Y122.752984 Z-1.000000
G01 X81.331791 Y122.518359 Z-1.000000
G03 X81.344430 Y122.142204 Z-1.000000 I0.109093 J-0.184624
G03 X82.678822 Y121.839993 Z-1.000000 I1.274664 J2.531127
G03 X84.051445 Y122.136122 Z-1.000000 I-0.078420 J3.692765
G03 X84.057471 Y122.428892 Z-1.000000 I-0.063117 J0.147746
G01 X83.583909 Y122.654535 Z-1.000000
G01 X83.583909 Y126.868812 Z-1.000000
G01 X83.583909 Y131.083090 Z-1.000000
G01 X84.291378 Y131.083090 Z-1.000000
G02 X84.979444 Y130.756881 Z-1.000000 I0.000000 J-0.888766
G02 X85.305694 Y129.842413 Z-1.000000 I-1.118488 J-0.914469
G03 X85.381609 Y129.702135 Z-1.000000 I0.167561 J-0.000000
G03 X85.636972 Y129.626112 Z-1.000000 I0.255363 J0.390871
G03 X85.827806 Y129.766366 Z-1.000000 I0.000000 J0.199954
G03 X85.968250 Y130.685699 Z-1.000000 I-2.938709 J0.919333
G01 X85.968250 Y131.745646 Z-1.000000
G01 X82.590433 Y131.745646 Z-1.000000
G01 X79.212615 Y131.745646 Z-1.000000
G01 X79.212615 Y130.685699 Z-1.000000
G00 Z5.000000

(End cutting path id: path0)


(Start cutting path id: path0)
(Change tool to Cylindrical cutter)

G00 Z5.000000
G00 X92.934078 Y97.692603

G01 Z-1.000000 F1000.0(Penetrate)
G02 X106.807122 Y83.667821 Z-1.000000 I-5.380761 J-19.196410 F1400.000000
G02 X101.872127 Y64.416375 Z-1.000000 I-19.541498 J-5.248903
G02 X95.657437 Y59.752957 Z-1.000000 I-17.307679 J16.592319
G02 X90.523867 Y58.493966 Z-1.000000 I-5.133571 J9.836647
G01 X90.206961 Y58.493966 Z-1.000000
G01 X90.206961 Y78.375698 Z-1.000000
G01 X90.206961 Y98.257429 Z-1.000000
G01 X90.902214 Y98.162214 Z-1.000000
G02 X91.591463 Y98.035940 Z-1.000000 I-1.030638 J-7.569862
G02 X92.934078 Y97.692603 Z-1.000000 I-6.699525 J-28.995212
G00 Z5.000000

(End cutting path id: path0)


(Start cutting path id: path0)
(Change tool to Cylindrical cutter)

G00 Z5.000000
G00 X81.324964 Y51.382620

G01 Z-1.000000 F1000.0(Penetrate)
G03 X75.337717 Y44.955730 Z-1.000000 I5.469751 J-11.097867 F1400.000000
G03 X71.438353 Y27.133548 Z-1.000000 I49.430854 J-20.152779
G02 X71.253036 Y25.353419 Z-1.000000 I-14.874927 J0.648820
G02 X71.126118 Y25.245764 Z-1.000000 I-0.126918 J0.020986
G03 X70.919338 Y25.179790 Z-1.000000 I0.000000 J-0.357036
G03 X69.122638 Y23.821842 Z-1.000000 I22.102137 J-31.110904
G02 X65.621018 Y21.165767 Z-1.000000 I-50.004142 J62.286444
G02 X62.816133 Y19.306468 Z-1.000000 I-27.182357 J37.961182
G03 X61.662728 Y18.596360 Z-1.000000 I156.887830 J-256.119746
G03 X60.849662 Y18.089505 Z-1.000000 I75.734202 J-122.393658
G01 X60.037994 Y17.579652 Z-1.000000
G01 X59.956792 Y18.200530 Z-1.000000
G02 X59.901143 Y18.823234 Z-1.000000 I7.624767 J0.995233
G02 X59.787919 Y21.688654 Z-1.000000 I159.623520 J7.742322
G01 X59.700248 Y24.555900 Z-1.000000
G01 X60.150816 Y24.787651 Z-1.000000
G03 X69.249807 Y33.186272 Z-1.000000 I-10.589351 J20.600603
G03 X72.586689 Y44.853706 Z-1.000000 I-18.908633 J11.718753
G03 X71.513692 Y50.094791 Z-1.000000 I-13.187163 J0.030598
G03 X69.904798 Y51.587154 Z-1.000000 I-2.489998 J-1.070986
G03 X67.775297 Y51.353929 Z-1.000000 I-0.817157 J-2.377311
G03 X64.069745 Y47.781315 Z-1.000000 I6.215545 J-10.154853
G03 X59.661829 Y38.386894 Z-1.000000 I29.494580 J-19.570344
G03 X57.664072 Y26.440450 Z-1.000000 I46.192892 J-13.864917
G01 X57.577121 Y24.257318 Z-1.000000
G01 X56.903785 Y23.584701 Z-1.000000
G02 X55.549160 Y22.595489 Z-1.000000 I-3.863876 J3.869067
G02 X53.930184 Y22.049036 Z-1.000000 I-2.602402 J5.038633
G02 X53.314173 Y22.354810 Z-1.000000 I-0.100505 J0.570916
G02 X53.069651 Y23.722315 Z-1.000000 I2.103014 J1.081651
G03 X52.762359 Y29.752032 Z-1.000000 I-17.504646 J2.130602
G03 X51.268819 Y31.667246 Z-1.000000 I-2.784226 J-0.631261
G03 X47.561968 Y30.660548 Z-1.000000 I-1.295662 J-2.557137
G03 X47.146523 Y25.256902 Z-1.000000 I4.800600 J-3.086874
G02 X47.210129 Y23.750236 Z-1.000000 I-1.877048 J-0.833918
G02 X45.237182 Y19.748412 Z-1.000000 I-16.995135 J5.891551
G02 X41.071786 Y15.951547 Z-1.000000 I-9.541471 J6.284304
G02 X38.043196 Y15.912122 Z-1.000000 I-1.552448 J2.911137
G02 X33.915710 Y20.537285 Z-1.000000 I3.753922 J7.504253
G02 X31.996108 Y32.464901 Z-1.000000 I29.938161 J10.936453
G02 X34.816818 Y43.628689 Z-1.000000 I26.804226 J-0.834274
G02 X38.820730 Y46.106599 Z-1.000000 I4.010292 J-2.006200
G02 X41.852286 Y44.046395 Z-1.000000 I0.005105 J-3.253033
G02 X42.187049 Y37.564863 Z-1.000000 I-9.487727 J-3.739441
G03 X42.224164 Y35.818449 Z-1.000000 I2.909396 J-0.811771
G03 X42.920030 Y35.313105 Z-1.000000 I0.695865 J0.226435
G03 X45.128045 Y37.525446 Z-1.000000 I0.000000 J2.208019
G03 X42.901705 Y44.843286 Z-1.000000 I-13.224892 J-0.025884
G03 X38.233987 Y46.903315 Z-1.000000 I-3.953603 J-2.640082
G03 X32.576743 Y43.274564 Z-1.000000 I1.239212 J-8.156152
G03 X29.332590 Y33.854466 Z-1.000000 I16.881332 J-11.082370
G03 X30.868253 Y22.584758 Z-1.000000 I26.224448 J-2.166018
G03 X37.550248 Y15.228545 Z-1.000000 I12.439829 J4.586793
G03 X43.922129 Y16.291547 Z-1.000000 I2.432780 J5.046118
G03 X46.751587 Y19.602475 Z-1.000000 I-18.261595 J18.470491
G03 X47.161974 Y20.798657 Z-1.000000 I-1.779375 J1.278957
G01 X47.182874 Y20.801217 Z-1.000000
G02 X47.555771 Y19.454860 Z-1.000000 I-45.302957 J-13.272272
G03 X49.110036 Y16.674608 Z-1.000000 I6.131881 J1.603379
G03 X50.349360 Y16.537671 Z-1.000000 I0.701449 J0.671724
G03 X51.490212 Y17.789317 Z-1.000000 I-1.939878 J2.913918
G03 X52.277026 Y20.111668 Z-1.000000 I-6.447489 J3.478876
G01 X52.356433 Y20.609664 Z-1.000000
G01 X53.167382 Y20.611101 Z-1.000000
G03 X55.477552 Y21.030388 Z-1.000000 I-0.013910 J6.650527
G03 X57.298301 Y22.152156 Z-1.000000 I-1.926658 J5.165687
G02 X57.557535 Y22.124746 Z-1.000000 I0.117642 J-0.126958
G02 X57.754258 Y21.503612 Z-1.000000 I-0.884489 J-0.621851
G03 X59.829467 Y7.762826 Z-1.000000 I46.741369 J0.032043
G03 X62.610971 Y5.752800 Z-1.000000 I2.723993 J0.839944
G03 X65.739306 Y9.174053 Z-1.000000 I-0.064236 J3.199611
G03 X61.881583 Y16.259928 Z-1.000000 I-9.669595 J-0.671306
G01 X61.056981 Y16.877572 Z-1.000000
G01 X62.617438 Y17.832962 Z-1.000000
G03 X69.183042 Y22.050639 Z-1.000000 I-93.863492 J153.335225
G03 X71.014734 Y23.488408 Z-1.000000 I-8.944286 J13.280514
G01 X71.360743 Y23.803158 Z-1.000000
G01 X71.450210 Y21.974660 Z-1.000000
G03 X74.426900 Y7.045560 Z-1.000000 I51.610500 J2.529227
G03 X77.199075 Y5.960118 Z-1.000000 I1.860028 J0.667704
G03 X79.377866 Y10.403992 Z-1.000000 I-1.924562 J3.699653
G03 X75.287578 Y16.498506 Z-1.000000 I-9.024255 J-1.636722
G01 X74.740358 Y16.847750 Z-1.000000
G01 X76.545860 Y17.956922 Z-1.000000
G03 X81.113249 Y20.865241 Z-1.000000 I-87.402404 J142.302238
G03 X83.635289 Y22.634701 Z-1.000000 I-29.691193 J45.001425
G02 X84.611790 Y22.996864 Z-1.000000 I1.105876 J-1.484228
G02 X84.906507 Y22.723809 Z-1.000000 I0.019255 J-0.274794
G03 X85.619511 Y21.047850 Z-1.000000 I2.360017 J0.014377
G03 X87.348337 Y20.344856 Z-1.000000 I1.728827 J1.774301
G03 X88.898561 Y20.702074 Z-1.000000 I0.000000 J3.542376
G03 X91.366076 Y22.300549 Z-1.000000 I-5.291347 J10.871833
G02 X92.021839 Y22.744946 Z-1.000000 I2.526272 J-3.021801
G02 X92.117740 Y22.706203 Z-1.000000 I0.031897 J-0.059108
G02 X92.173150 Y22.530254 Z-1.000000 I-20.235885 J-6.469465
G02 X92.323980 Y22.041850 Z-1.000000 I-200.160343 J-62.081411
G03 X93.432058 Y20.621094 Z-1.000000 I2.415721 J0.741588
G03 X95.216737 Y20.292039 Z-1.000000 I1.327381 J2.194983
G03 X100.479440 Y22.781294 Z-1.000000 I-2.004801 J11.046231
G03 X100.666302 Y24.920953 Z-1.000000 I-0.988892 J1.164352
G03 X100.165305 Y25.051542 Z-1.000000 I-0.341381 J-0.283372
G03 X98.437539 Y24.061498 Z-1.000000 I2.360642 J-6.122272
G02 X95.296196 Y22.815387 Z-1.000000 I-3.620626 J4.544714
G02 X94.313447 Y23.720159 Z-1.000000 I-0.074884 J0.904772
G01 X94.313447 Y24.278158 Z-1.000000
G01 X95.670898 Y25.214864 Z-1.000000
G03 X98.792580 Y28.485729 Z-1.000000 I-6.313643 J9.150765
G03 X98.624377 Y29.954085 Z-1.000000 I-1.008242 J0.628316
G03 X96.124351 Y30.134655 Z-1.000000 I-1.354356 J-1.354356
G03 X92.494650 Y25.379066 Z-1.000000 I6.527145 J-8.744819
G02 X90.174770 Y22.628793 Z-1.000000 I-5.221810 J2.051086
G02 X87.745728 Y22.508586 Z-1.000000 I-1.326073 J2.194041
G02 X87.224894 Y23.539607 Z-1.000000 I0.406603 J0.852464
G02 X88.234741 Y25.048506 Z-1.000000 I2.291376 J-0.441152
G03 X91.539201 Y28.329785 Z-1.000000 I-6.423282 J9.773205
G03 X91.453386 Y29.871804 Z-1.000000 I-1.069687 J0.713868
G03 X89.041361 Y30.208316 Z-1.000000 I-1.392942 J-1.171601
G03 X85.482471 Y25.837178 Z-1.000000 I5.459518 J-8.079383
G02 X85.166579 Y25.354226 Z-1.000000 I-1.422328 J0.585538
G02 X84.908303 Y25.242530 Z-1.000000 I-0.263220 J0.254193
G03 X84.609677 Y25.151875 Z-1.000000 I0.006598 J-0.558913
G03 X83.493005 Y24.320556 Z-1.000000 I6.106332 J-9.367996
G02 X75.325726 Y18.064059 Z-1.000000 I-68.321662 J80.728560
G02 X73.720653 Y17.563124 Z-1.000000 I-1.605073 J2.320985
G01 X73.701586 Y17.581264 Z-1.000000
G02 X73.596693 Y20.046634 Z-1.000000 I169.010896 J8.425790
G03 X73.494021 Y22.529588 Z-1.000000 I-203.663611 J-7.178044
G03 X73.430335 Y23.546974 Z-1.000000 I-33.736648 J-1.601141
G01 X73.351647 Y24.563446 Z-1.000000
G01 X74.129541 Y24.957961 Z-1.000000
G03 X79.358515 Y28.939293 Z-1.000000 I-8.239897 J16.246523
G03 X83.989204 Y35.784871 Z-1.000000 I-21.303880 J19.400004
G03 X85.871273 Y49.062731 Z-1.000000 I-19.785443 J9.576804
G03 X81.324964 Y51.382620 Z-1.000000 I-3.138617 J-0.536111
G00 Z5.000000

(End cutting path id: path0)


(Start cutting path id: path0)
(Change tool to Cylindrical cutter)

G00 Z5.000000
G00 X81.678878 Y48.749280

G01 Z-1.000000 F1000.0(Penetrate)
G03 X79.673719 Y46.439283 Z-1.000000 I4.585469 J-6.005622 F1400.000000
G03 X76.904087 Y40.234852 Z-1.000000 I32.537002 J-18.244776
G03 X76.184519 Y38.066822 Z-1.000000 I132.563410 J-45.201163
G03 X76.166076 Y37.949678 Z-1.000000 I0.362821 J-0.117144
G03 X76.224955 Y37.888381 Z-1.000000 I0.061347 J0.000000
G03 X79.142192 Y37.829670 Z-1.000000 I2.917237 J72.447725
G01 X82.118307 Y37.829670 Z-1.000000
G01 X82.447071 Y38.922673 Z-1.000000
G03 X83.441053 Y43.185700 Z-1.000000 I-33.273797 J10.005630
G03 X83.706791 Y46.439674 Z-1.000000 I-19.063537 J3.194673
G03 X82.877680 Y48.630116 Z-1.000000 I-3.335966 J-0.010571
G03 X81.678878 Y48.749280 Z-1.000000 I-0.663205 J-0.582292
G00 Z5.000000

(End cutting path id: path0)


(Start cutting path id: path0)
(Change tool to Cylindrical cutter)

G00 Z5.000000
G00 X83.704994 Y49.912707

G01 Z-1.000000 F1000.0(Penetrate)
G02 X84.449099 Y48.768696 Z-1.000000 I-1.177909 J-1.580155 F1400.000000
G02 X84.718591 Y45.446198 Z-1.000000 I-11.468245 J-2.602381
G02 X81.616240 Y34.727057 Z-1.000000 I-25.474733 J1.564423
G02 X74.377820 Y26.612557 Z-1.000000 I-21.242084 J11.662974
G01 X73.450456 Y25.955749 Z-1.000000
G01 X73.543156 Y27.819459 Z-1.000000
G02 X75.614739 Y39.894750 Z-1.000000 I51.032102 J-2.539495
G02 X79.516587 Y47.830540 Z-1.000000 I25.505878 J-7.613541
G02 X82.134083 Y50.053773 Z-1.000000 I5.796637 J-4.172145
G02 X83.704994 Y49.912707 Z-1.000000 I0.670641 J-1.349107
G00 Z5.000000

(End cutting path id: path0)


(Start cutting path id: path0)
(Change tool to Cylindrical cutter)

G00 Z5.000000
G00 X69.908436 Y49.994988

G01 Z-1.000000 F1000.0(Penetrate)
G02 X70.997534 Y48.078966 Z-1.000000 I-1.207495 J-1.953901 F1400.000000
G02 X70.074076 Y39.949205 Z-1.000000 I-31.651449 J-0.522045
G02 X67.245219 Y33.323089 Z-1.000000 I-21.845228 J5.409367
G02 X62.563902 Y28.082470 Z-1.000000 I-18.093802 J11.451588
G02 X59.998493 Y26.107985 Z-1.000000 I-48.635696 J60.537576
G02 X59.793308 Y26.040545 Z-1.000000 I-0.205184 J0.278412
G02 X59.414415 Y26.460908 Z-1.000000 I0.000000 J0.380939
G02 X60.743667 Y35.180522 Z-1.000000 I92.187681 J-9.592334
G02 X66.260337 Y49.134548 Z-1.000000 I41.647882 J-8.397817
G02 X69.908436 Y49.994988 Z-1.000000 I2.254471 J-1.394683
G00 Z5.000000

(End cutting path id: path0)


(Start cutting path id: path0)
(Change tool to Cylindrical cutter)

G00 Z5.000000
G00 X68.073470 Y48.832280

G01 Z-1.000000 F1000.0(Penetrate)
G03 X66.026968 Y46.635449 Z-1.000000 I3.547344 J-5.356246 F1400.000000
G03 X63.046447 Y39.932318 Z-1.000000 I33.408270 J-18.869061
G03 X63.413483 Y38.604497 Z-1.000000 I1.170344 J-0.391132
G03 X65.462767 Y37.860211 Z-1.000000 I2.011787 J2.345822
G01 X68.403312 Y37.896142 Z-1.000000
G01 X68.905619 Y39.485344 Z-1.000000
G03 X69.703955 Y42.866271 Z-1.000000 I-22.368470 J7.066573
G03 X69.980297 Y46.240979 Z-1.000000 I-22.001919 J3.500322
G03 X69.202968 Y48.631756 Z-1.000000 I-3.995472 J0.022684
G03 X68.073470 Y48.832280 Z-1.000000 I-0.670089 J-0.493090
G00 Z5.000000

(End cutting path id: path0)


(Start cutting path id: path0)
(Change tool to Cylindrical cutter)

G00 Z5.000000
G00 X51.027726 Y29.889050

G01 Z-1.000000 F1000.0(Penetrate)
G02 X51.949457 Y27.700634 Z-1.000000 I-2.965148 J-2.537197 F1400.000000
G02 X51.634591 Y23.122996 Z-1.000000 I-14.507331 J-1.301783
G02 X51.274823 Y22.861781 Z-1.000000 I-0.330065 J0.076236
G02 X50.466852 Y23.225756 Z-1.000000 I0.118012 J1.340741
G01 X49.663448 Y23.987481 Z-1.000000
G01 X49.867174 Y24.755673 Z-1.000000
G03 X49.730460 Y26.021778 Z-1.000000 I-1.716083 J0.455131
G03 X49.023887 Y26.398052 Z-1.000000 I-0.624145 J-0.320486
G02 X48.494040 Y26.480193 Z-1.000000 I-0.117649 J0.991056
G02 X48.297734 Y26.727534 Z-1.000000 I0.142819 J0.314922
G02 X49.131060 Y29.893085 Z-1.000000 I3.652811 J0.730865
G02 X51.027726 Y29.889050 Z-1.000000 I0.946599 J-0.817408
G00 Z5.000000

(End cutting path id: path0)


(Start cutting path id: path0)
(Change tool to Cylindrical cutter)

G00 Z5.000000
G00 X50.271391 Y21.391869

G01 Z-1.000000 F1000.0(Penetrate)
G02 X50.718323 Y20.812772 Z-1.000000 I-0.461606 J-0.818270 F1400.000000
G02 X50.670219 Y19.877043 Z-1.000000 I-1.490818 J-0.392460
G02 X49.836338 Y18.217776 Z-1.000000 I-8.247701 J3.105792
G02 X49.624284 Y18.250114 Z-1.000000 I-0.098808 J0.063506
G02 X49.115251 Y21.443966 Z-1.000000 I14.140751 J3.891230
G02 X49.456489 Y21.801834 Z-1.000000 I0.341238 J0.016244
G02 X49.539539 Y21.782111 Z-1.000000 I-0.000000 J-0.184712
G02 X50.271391 Y21.391869 Z-1.000000 I-7.921620 J-15.737390
G00 Z5.000000

(End cutting path id: path0)


(Start cutting path id: path0)
(Change tool to Cylindrical cutter)

G00 Z5.000000
G00 X61.694027 Y14.714921

G01 Z-1.000000 F1000.0(Penetrate)
G02 X64.179460 Y9.211654 Z-1.000000 I-7.889910 J-6.876189 F1400.000000
G02 X62.741757 Y6.793703 Z-1.000000 I-2.251140 J-0.297883
G02 X61.652099 Y7.319593 Z-1.000000 I-0.297677 J0.775050
G02 X60.216209 Y14.822353 Z-1.000000 I31.558799 J9.928555
G01 X60.140037 Y15.856789 Z-1.000000
G01 X60.686179 Y15.551022 Z-1.000000
G02 X61.196375 Y15.200552 Z-1.000000 I-1.672759 J-2.981720
G02 X61.694027 Y14.714921 Z-1.000000 I-2.756207 J-3.322225
G00 Z5.000000

(End cutting path id: path0)


(Start cutting path id: path0)
(Change tool to Cylindrical cutter)

G00 Z5.000000
G00 X75.368421 Y14.704142

G01 Z-1.000000 F1000.0(Penetrate)
G02 X77.614584 Y10.242802 Z-1.000000 I-6.292089 J-5.964005 F1400.000000
G02 X76.711500 Y7.072883 Z-1.000000 I-3.718073 J-0.654352
G01 X76.353274 Y6.671899 Z-1.000000
G01 X75.946182 Y7.014675 Z-1.000000
G02 X74.673316 Y9.077753 Z-1.000000 I2.492174 J2.961809
G02 X73.913958 Y15.529463 Z-1.000000 I27.028046 J6.451710
G01 X73.913958 Y15.856071 Z-1.000000
G01 X74.322128 Y15.616774 Z-1.000000
G02 X74.702924 Y15.342513 Z-1.000000 I-1.276379 J-2.173670
G02 X75.368421 Y14.704142 Z-1.000000 I-6.424276 J-7.363331
G00 Z5.000000

(End cutting path id: path0)


(Start cutting path id: path0)
(Change tool to Cylindrical cutter)

G00 Z5.000000
G00 X90.062880 Y28.382848

G01 Z-1.000000 F1000.0(Penetrate)
G02 X88.141391 Y26.195824 Z-1.000000 I-12.607781 J9.139408 F1400.000000
G02 X87.750039 Y26.201513 Z-1.000000 I-0.192748 J0.204294
G02 X87.728692 Y26.782555 Z-1.000000 I0.302009 J0.302009
G02 X89.933889 Y28.732810 Z-1.000000 I8.296805 J-7.159525
G02 X90.103599 Y28.677575 Z-1.000000 I0.063083 J-0.094512
G02 X90.062880 Y28.382848 Z-1.000000 I-0.296489 J-0.109214
G00 Z5.000000

(End cutting path id: path0)


(Start cutting path id: path0)
(Change tool to Cylindrical cutter)

G00 Z5.000000
G00 X97.624793 Y28.829822

G01 Z-1.000000 F1000.0(Penetrate)
G02 X97.461727 Y28.418963 Z-1.000000 I-0.599131 J0.000000 F1400.000000
G02 X95.466454 Y26.538899 Z-1.000000 I-16.784920 J15.814691
G01 X94.790603 Y25.974433 Z-1.000000
G01 X95.048583 Y26.437935 Z-1.000000
G02 X97.103219 Y29.057271 Z-1.000000 I9.285802 J-5.168377
G02 X97.624793 Y28.829822 Z-1.000000 I0.211194 J-0.227449
G00 Z5.000000

(End cutting path id: path0)


(Start cutting path id: path0)
(Change tool to Cylindrical cutter)

G00 Z5.000000
G00 X37.488430 Y44.954670

G01 Z-1.000000 F1000.0(Penetrate)
G03 X34.711647 Y42.604959 Z-1.000000 I1.978118 J-5.153246 F1400.000000
G03 X33.513090 Y38.212329 Z-1.000000 I7.450067 J-4.392629
G01 X33.513090 Y37.829670 Z-1.000000
G01 X37.349739 Y37.829670 Z-1.000000
G01 X41.186388 Y37.829670 Z-1.000000
G01 X41.347715 Y38.127893 Z-1.000000
G03 X41.799970 Y39.916755 Z-1.000000 I-3.311731 J1.788863
G03 X41.347715 Y42.962329 Z-1.000000 I-10.480870 J0.000000
G03 X39.793721 Y44.827721 Z-1.000000 I-2.985429 J-0.907073
G03 X37.488430 Y44.954670 Z-1.000000 I-1.294177 J-2.506617
G00 Z5.000000

(End cutting path id: path0)


(Footer)
M5
G00 X0.0000 Y0.0000
M2
(Using default footer. To add your own footer create file "footer" in the output dir.)
(end)
%