%
(Header)
(Generated by gcodetools from Inkscape.)
(Using default header. To add your own header create file "header" in the output dir.)
M3
(Header end.)
G21 (All units in mm)

(Start cutting path id: rect8799)
(Change tool to Cylindrical cutter)

G00 Z5.000000
G00 X0.000000 Y110.892683

G01 Z-0.125000 F1000.0(Penetrate)
G01 X0.000000 Y110.855752 Z-0.125000 F1100.000000
G01 X0.000000 Y7.184285 Z-0.125000
G01 X138.324718 Y7.184285 Z-0.125000
G01 X138.324718 Y110.892683 Z-0.125000
G01 X0.000000 Y110.892683 Z-0.125000
G00 Z5.000000

(End cutting path id: rect8799)


(Start cutting path id: rect8799)
(Change tool to Cylindrical cutter)

G00 Z5.000000
G00 X0.073312 Y110.819370

G01 Z-0.125000 F1000.0(Penetrate)
G01 X138.251408 Y110.819370 Z-0.125000 F1100.000000
G01 X138.251408 Y7.257045 Z-0.125000
G01 X0.073312 Y7.257045 Z-0.125000
G01 X0.073312 Y110.819370 Z-0.125000
G00 Z5.000000

(End cutting path id: rect8799)


(Start cutting path id: rect8799)
(Change tool to Cylindrical cutter)

G00 Z5.000000
G00 X20.124310 Y80.869810

G01 Z-0.125000 F1000.0(Penetrate)
G02 X21.784121 Y87.165097 Z-0.125000 I24.675709 J-3.139523 F1100.000000
G02 X25.076182 Y92.949722 Z-0.125000 I24.055093 J-9.860804
G02 X30.045017 Y97.822390 Z-0.125000 I18.668408 J-14.067065
G02 X36.873519 Y101.483027 Z-0.125000 I16.979792 J-23.474654
G02 X40.266781 Y102.495392 Z-0.125000 I9.124548 J-24.390851
G02 X42.507817 Y102.754193 Z-0.125000 I2.326114 J-10.310214
G03 X43.263524 Y102.791357 Z-0.125000 I-0.074095 J9.208780
G03 X43.837838 Y102.874524 Z-0.125000 I-0.488161 J5.395543
G01 X44.408951 Y102.988745 Z-0.125000
G01 X44.462878 Y106.600058 Z-0.125000
G01 X44.516808 Y110.211373 Z-0.125000
G01 X44.558681 Y106.577824 Z-0.125000
G01 X44.600555 Y102.944278 Z-0.125000
G01 X45.516555 Y102.944278 Z-0.125000
G01 X46.432549 Y102.944278 Z-0.125000
G01 X46.486550 Y106.577824 Z-0.125000
G01 X46.540556 Y110.211373 Z-0.125000
G01 X46.582432 Y106.499076 Z-0.125000
G01 X46.624305 Y102.786778 Z-0.125000
G01 X47.682173 Y102.673382 Z-0.125000
G02 X51.995542 Y101.991153 Z-0.125000 I-4.649013 J-43.369966
G02 X53.474956 Y101.457173 Z-0.125000 I-1.162577 J-5.537343
G03 X53.801704 Y101.317892 Z-0.125000 I1.001744 J1.897140
G03 X53.983899 Y101.288483 Z-0.125000 I0.182194 J0.549670
G02 X54.165223 Y101.251773 Z-0.125000 I-0.000000 J-0.466170
G02 X55.947762 Y100.459309 Z-0.125000 I-20.158999 J-47.745879
G02 X66.393169 Y91.996855 Z-0.125000 I-11.790559 J-25.231100
G02 X71.180757 Y80.259679 Z-0.125000 I-19.770529 J-14.909404
G02 X71.156986 Y72.678515 Z-0.125000 I-28.649961 J-3.700787
G02 X69.166255 Y65.398387 Z-0.125000 I-28.371403 J3.845840
G02 X67.388823 Y61.781959 Z-0.125000 I-32.190568 J13.576276
G02 X66.564324 Y60.795684 Z-0.125000 I-3.095185 J1.749724
G03 X66.445266 Y60.565914 Z-0.125000 I0.212191 J-0.255680
G03 X66.518884 Y60.214778 Z-0.125000 I0.636683 J-0.049801
G02 X66.730668 Y59.290424 Z-0.125000 I-1.589256 J-0.850563
G02 X66.336131 Y55.754154 Z-0.125000 I-25.357098 J1.038918
G02 X64.961885 Y48.717763 Z-0.125000 I-303.765548 J55.674667
G02 X64.237670 Y45.635415 Z-0.125000 I-58.982356 J12.231985
G03 X63.821740 Y43.405939 Z-0.125000 I15.116583 J-3.973680
G03 X63.638549 Y40.300080 Z-0.125000 I29.230761 J-3.282431
G02 X63.523827 Y37.192038 Z-0.125000 I-50.350945 J0.302383
G02 X63.388751 Y36.620540 Z-0.125000 I-1.790936 J0.121583
G02 X62.647573 Y35.486582 Z-0.125000 I-3.442593 J1.440946
G02 X62.073545 Y35.240710 Z-0.125000 I-0.574028 J0.547146
G03 X61.894831 Y35.102066 Z-0.125000 I0.000000 J-0.184504
G03 X61.660456 Y33.630909 Z-0.125000 I7.752039 J-1.989249
G02 X60.552589 Y30.054789 Z-0.125000 I-8.001169 J0.519062
G02 X58.518665 Y28.342423 Z-0.125000 I-3.476673 J2.065427
G02 X56.975371 Y28.133923 Z-0.125000 I-1.215847 J3.183661
G02 X52.879527 Y28.886773 Z-0.125000 I2.341560 J24.257167
G03 X50.388547 Y29.533483 Z-0.125000 I-25.527399 J-93.205134
G03 X49.547047 Y29.704749 Z-0.125000 I-2.565077 J-10.450287
G01 X48.698260 Y29.842485 Z-0.125000
G01 X48.571876 Y27.160270 Z-0.125000
G02 X48.122964 Y23.368156 Z-0.125000 I-26.979519 J1.271219
G02 X47.796642 Y23.098223 Z-0.125000 I-0.326321 J0.062278
G01 X47.360214 Y23.098223 Z-0.125000
G01 X47.316325 Y26.547795 Z-0.125000
G01 X47.279825 Y26.547883 Z-0.125000
G03 X47.176236 Y18.590785 Z-0.125000 I867.953856 J-15.278591
G01 X47.080032 Y7.184203 Z-0.125000
G01 X47.036146 Y16.124205 Z-0.125000
G03 X46.948820 Y25.062925 Z-0.125000 I-920.410795 J-4.522166
G03 X46.872878 Y27.284465 Z-0.125000 I-56.860190 J-0.831652
G01 X46.753492 Y29.504727 Z-0.125000
G01 X45.924013 Y29.570699 Z-0.125000
G01 X45.094534 Y29.636672 Z-0.125000
G01 X45.186383 Y23.285831 Z-0.125000
G02 X45.224413 Y16.935264 Z-0.125000 I-374.743653 J-5.419518
G02 X45.158499 Y12.059598 Z-0.125000 I-220.966587 J0.548935
G02 X45.071062 Y8.883925 Z-0.125000 I-534.216298 J13.119791
G01 X45.049970 Y8.883717 Z-0.125000
G02 X45.033804 Y9.456730 Z-0.125000 I13.009285 J0.653751
G02 X45.003641 Y15.141216 Z-0.125000 I3185.640748 J19.746018
G01 X44.968522 Y23.098223 Z-0.125000
G01 X44.416588 Y23.098223 Z-0.125000
G02 X44.017838 Y23.252552 Z-0.125000 I0.000000 J0.592304
G02 X43.860881 Y23.604160 Z-0.125000 I0.323382 J0.355193
G03 X43.837948 Y24.109082 Z-0.125000 I-6.601818 J-0.046870
G03 X43.587174 Y26.869751 Z-0.125000 I-199.814825 J-16.759098
G02 X43.319293 Y29.629546 Z-0.125000 I1856.622932 J181.606641
G02 X43.314981 Y29.695876 Z-0.125000 I1.063604 J0.102441
G03 X43.158191 Y29.812692 Z-0.125000 I-0.125070 J-0.004240
G03 X37.823016 Y28.256811 Z-0.125000 I25.625840 J-97.797203
G02 X32.577748 Y29.014264 Z-0.125000 I-1.847852 J5.743996
G02 X30.250353 Y33.416195 Z-0.125000 I2.999110 J4.401930
G03 X30.067178 Y34.689606 Z-0.125000 I-4.517879 J-0.000000
G03 X29.822482 Y34.872758 Z-0.125000 I-0.244696 J-0.071885
G02 X29.146993 Y35.134049 Z-0.125000 I-0.000000 J1.003780
G02 X28.508023 Y36.068607 Z-0.125000 I1.650440 J1.814143
G02 X28.422258 Y36.448142 Z-0.125000 I1.260469 J0.484293
G02 X28.220311 Y39.765901 Z-0.125000 I98.251277 J7.645408
G03 X27.990482 Y43.083583 Z-0.125000 I-65.832560 J-2.893682
G03 X27.793539 Y44.273340 Z-0.125000 I-8.626257 J-0.816747
G02 X27.473323 Y45.646305 Z-0.125000 I150.722404 J35.876699
G02 X25.906372 Y52.534557 Z-0.125000 I3791.700439 J866.164985
G02 X24.789804 Y58.765866 Z-0.125000 I67.927258 J15.387353
G02 X24.865702 Y60.382040 Z-0.125000 I4.509952 J0.598074
G03 X24.949221 Y61.242857 Z-0.125000 I-3.276744 J0.752376
G03 X24.828031 Y61.549432 Z-0.125000 I-0.488225 J-0.015756
G02 X22.813898 Y64.283289 Z-0.125000 I14.908746 J13.092690
G02 X22.523315 Y65.314596 Z-0.125000 I1.684811 J1.031307
G03 X22.509171 Y65.384244 Z-0.125000 I-0.178552 J-0.000000
G03 X21.999971 Y66.549973 Z-0.125000 I-52.678144 J-22.316202
G02 X20.625053 Y70.798722 Z-0.125000 I18.550382 J8.349839
G02 X20.037726 Y76.083623 Z-0.125000 I28.250946 J5.814701
G02 X20.037221 Y79.667635 Z-0.125000 I98.298811 J1.805864
G02 X20.124319 Y80.869810 Z-0.125000 I11.115303 J-0.201066
G01 X20.124310 Y80.869810 Z-0.125000
G00 Z5.000000

(End cutting path id: rect8799)


(Start cutting path id: rect8799)
(Change tool to Cylindrical cutter)

G00 Z5.000000
G00 X20.323167 Y73.350394

G01 Z-0.125000 F1000.0(Penetrate)
G03 X21.074172 Y69.702747 Z-0.125000 I23.616870 J2.961285 F1100.000000
G03 X22.449404 Y65.993941 Z-0.125000 I25.795970 J7.455821
G03 X24.650830 Y61.815982 Z-0.125000 I38.272270 J17.497243
G03 X25.119961 Y61.549737 Z-0.125000 I0.470608 J0.282791
G03 X25.211036 Y61.591422 Z-0.125000 I0.000326 J0.119620
G03 X25.712208 Y62.239347 Z-0.125000 I-6.070018 J5.212969
G02 X31.326817 Y68.662904 Z-0.125000 I31.587081 J-21.943631
G02 X33.355241 Y69.237174 Z-0.125000 I1.585882 J-1.732103
G02 X33.516924 Y69.064495 Z-0.125000 I-0.037901 J-0.197521
G02 X33.705075 Y66.426560 Z-0.125000 I-24.945167 J-3.104892
G03 X33.836844 Y63.707522 Z-0.125000 I45.605329 J0.847392
G03 X33.935046 Y63.494432 Z-0.125000 I0.337778 J0.026491
G02 X34.039251 Y63.284710 Z-0.125000 I-0.259872 J-0.259872
G02 X34.113865 Y62.196226 Z-0.125000 I-7.902173 J-1.088483
G02 X33.937887 Y61.176627 Z-0.125000 I-3.041720 J0.000000
G02 X33.607926 Y60.774196 Z-0.125000 I-0.724980 J0.257940
G03 X33.124590 Y60.440779 Z-0.125000 I2.327648 J-3.891306
G03 X32.136111 Y59.611359 Z-0.125000 I13.574911 J-17.181894
G01 X31.170231 Y58.751154 Z-0.125000
G01 X31.176271 Y57.160665 Z-0.125000
G01 X31.182310 Y55.570176 Z-0.125000
G01 X32.326115 Y54.845153 Z-0.125000
G03 X37.945091 Y52.212425 Z-0.125000 I13.136396 J20.724136
G03 X44.232576 Y51.013055 Z-0.125000 I7.999000 J24.853149
G01 X44.876497 Y50.970753 Z-0.125000
G01 X44.990730 Y48.211096 Z-0.125000
G02 X45.072160 Y45.450687 Z-0.125000 I-116.155592 J-4.807932
G02 X45.128711 Y40.377937 Z-0.125000 I-392.243657 J-6.909398
G01 X45.152474 Y35.304439 Z-0.125000
G01 X45.706090 Y35.385691 Z-0.125000
G02 X46.234736 Y35.377960 Z-0.125000 I0.240424 J-1.638187
G02 X46.533983 Y35.239311 Z-0.125000 I-0.112117 J-0.634239
G03 X46.672271 Y35.301274 Z-0.125000 I0.053916 J0.064966
G03 X46.808266 Y42.945222 Z-0.125000 I-214.755690 J7.643948
G01 X46.808266 Y50.878762 Z-0.125000
G01 X47.255066 Y50.878762 Z-0.125000
G03 X47.669051 Y50.957991 Z-0.125000 I-0.000000 J1.121185
G03 X47.996410 Y51.173309 Z-0.125000 I-0.357747 J0.900413
G02 X48.321212 Y51.358434 Z-0.125000 I0.500334 J-0.500342
G02 X48.723090 Y51.359398 Z-0.125000 I0.202840 J-0.792106
G03 X49.659033 Y51.341658 Z-0.125000 I0.506380 J2.017554
G03 X53.383942 Y52.343103 Z-0.125000 I-7.293106 J34.555149
G03 X56.985034 Y53.641858 Z-0.125000 I-20.694739 J63.022648
G03 X58.122854 Y54.208440 Z-0.125000 I-2.678568 J6.804938
G02 X58.865227 Y54.647043 Z-0.125000 I14.622142 J-23.901643
G02 X59.334208 Y54.899207 Z-0.125000 I5.294816 J-9.285249
G03 X60.397657 Y55.819933 Z-0.125000 I-1.308251 J2.585555
G03 X60.858488 Y57.070684 Z-0.125000 I-2.129662 J1.494929
G03 X60.762021 Y58.129452 Z-0.125000 I-2.879512 J0.271420
G03 X60.371948 Y58.790465 Z-0.125000 I-1.450495 J-0.410358
G03 X59.751978 Y59.346136 Z-0.125000 I-5.918697 J-5.979880
G03 X58.628791 Y60.203746 Z-0.125000 I-15.269264 J-18.833401
G01 X57.478936 Y61.029802 Z-0.125000
G01 X57.478936 Y65.337114 Z-0.125000
G02 X57.562817 Y69.560548 Z-0.125000 I106.366936 J-0.000000
G02 X57.650095 Y69.644426 Z-0.125000 I0.087278 J-0.003468
G02 X59.732657 Y68.789666 Z-0.125000 I-0.000000 J-2.964387
G02 X65.805739 Y61.593428 Z-0.125000 I-36.438592 J-36.912149
G03 X66.235638 Y61.041452 Z-0.125000 I5.553572 J3.881932
G03 X66.309833 Y61.010916 Z-0.125000 I0.067380 J0.058309
G03 X66.381695 Y61.051429 Z-0.125000 I-0.007488 J0.097272
G03 X67.064233 Y62.065603 Z-0.125000 I-17.414616 J12.456780
G03 X70.834729 Y71.997617 Z-0.125000 I-22.487558 J14.218670
G03 X70.460817 Y82.871516 Z-0.125000 I-27.542259 J4.496303
G03 X69.769215 Y85.265514 Z-0.125000 I-23.951850 J-5.622545
G03 X68.758043 Y87.812163 Z-0.125000 I-28.123482 J-9.692635
G03 X66.280793 Y92.119719 Z-0.125000 I-23.174591 J-10.461471
G03 X63.615410 Y95.019097 Z-0.125000 I-13.002044 J-9.277884
G02 X63.091670 Y95.466531 Z-0.125000 I70.399119 J82.935371
G02 X61.986389 Y96.419721 Z-0.125000 I318.709700 J370.680294
G03 X54.212488 Y100.972019 Z-0.125000 I-16.159264 J-18.681123
G03 X44.784532 Y102.628184 Z-0.125000 I-9.467391 J-26.231406
G03 X41.407278 Y102.364401 Z-0.125000 I-0.030250 J-21.364349
G03 X38.043731 Y101.558954 Z-0.125000 I3.489059 J-21.996124
G03 X32.187870 Y98.890179 Z-0.125000 I8.638862 J-26.714394
G03 X27.387485 Y95.135359 Z-0.125000 I12.999847 J-21.565735
G03 X23.493722 Y90.252493 Z-0.125000 I19.658661 J-19.670428
G03 X21.432310 Y85.650431 Z-0.125000 I15.354818 J-9.640635
G02 X21.187602 Y84.824138 Z-0.125000 I-65.659025 J18.995668
G02 X21.042064 Y84.362592 Z-0.125000 I-20.619311 J6.248100
G03 X20.865806 Y83.663365 Z-0.125000 I4.915840 J-1.610988
G03 X20.251460 Y79.947141 Z-0.125000 I138.935232 J-24.876911
G03 X20.060576 Y77.217258 Z-0.125000 I16.785739 J-2.545341
G03 X20.323167 Y73.350394 Z-0.125000 I34.053756 J0.370175
G01 X20.323167 Y73.350394 Z-0.125000
G00 Z5.000000

(End cutting path id: rect8799)


(Start cutting path id: rect8799)
(Change tool to Cylindrical cutter)

G00 Z5.000000
G00 X34.844121 Y67.095091

G01 Z-0.125000 F1000.0(Penetrate)
G01 X34.941759 Y70.892966 Z-0.125000 F1100.000000
G01 X36.697387 Y72.338441 Z-0.125000
G03 X38.450337 Y73.787069 Z-0.125000 I-397.046809 J482.241833
G03 X38.721135 Y74.017068 Z-0.125000 I-9.726317 J11.726053
G02 X39.465791 Y74.592461 Z-0.125000 I5.335916 J-6.136022
G02 X41.196980 Y75.710796 Z-0.125000 I22.024995 J-32.195712
G02 X45.686042 Y76.994022 Z-0.125000 I4.574638 J-7.509713
G02 X50.318159 Y75.799569 Z-0.125000 I0.089836 J-9.230573
G02 X53.631030 Y73.589485 Z-0.125000 I-13.279535 J-23.493757
G02 X56.123558 Y71.273763 Z-0.125000 I-12.109746 J-15.533605
G02 X56.332834 Y70.771718 Z-0.125000 I-0.603352 J-0.546147
G02 X56.419742 Y65.816232 Z-0.125000 I-67.473348 J-3.661827
G01 X56.323538 Y60.792191 Z-0.125000
G01 X55.107468 Y60.187239 Z-0.125000
G02 X53.875926 Y59.619477 Z-0.125000 I-10.190323 J20.484456
G02 X52.879527 Y59.239130 Z-0.125000 I-5.542034 J13.023212
G03 X51.889294 Y58.852219 Z-0.125000 I3.751409 J-11.061709
G03 X51.401117 Y58.582436 Z-0.125000 I1.305141 J-2.938248
G02 X47.995097 Y57.136979 Z-0.125000 I-5.453508 J8.114806
G02 X44.425983 Y57.088597 Z-0.125000 I-1.905495 J8.897255
G02 X43.327019 Y57.376923 Z-0.125000 I1.429620 J7.687577
G02 X41.973218 Y57.926788 Z-0.125000 I4.182598 J12.239300
G03 X40.625384 Y58.500232 Z-0.125000 I-7.826498 J-16.524833
G03 X39.725166 Y58.778591 Z-0.125000 I-2.681064 J-7.075777
G02 X38.826657 Y59.062784 Z-0.125000 I1.613994 J6.665302
G02 X36.741374 Y59.953429 Z-0.125000 I14.547017 J36.945670
G01 X34.677469 Y60.905511 Z-0.125000
G01 X34.711973 Y62.101366 Z-0.125000
G03 X34.745041 Y63.297258 Z-0.125000 I-505.621050 J14.579581
G03 X34.844121 Y67.095091 Z-0.125000 I-5005.108580 J132.475924
G01 X34.844121 Y67.095091 Z-0.125000
G00 Z5.000000

(End cutting path id: rect8799)


(Start cutting path id: rect8799)
(Change tool to Cylindrical cutter)

G00 Z5.000000
G00 X36.688150 Y64.656160

G01 Z-0.125000 F1000.0(Penetrate)
G03 X38.777512 Y60.481730 Z-0.125000 I8.252737 J1.520521 F1100.000000
G03 X43.113131 Y57.702709 Z-0.125000 I7.500973 J6.930891
G03 X45.601843 Y57.260134 Z-0.125000 I2.824534 J8.664446
G03 X48.259001 Y57.512957 Z-0.125000 I0.374441 J10.154344
G03 X51.039831 Y58.838434 Z-0.125000 I-1.598360 J6.933143
G03 X53.843914 Y61.874374 Z-0.125000 I-7.881651 J10.092658
G03 X54.782831 Y63.983357 Z-0.125000 I-5.871500 J3.877481
G03 X55.168882 Y66.976758 Z-0.125000 I-11.641160 J3.022924
G03 X54.734239 Y69.948592 Z-0.125000 I-10.206607 J0.024943
G03 X53.453129 Y72.666126 Z-0.125000 I-9.777241 J-2.948484
G03 X51.776628 Y74.547546 Z-0.125000 I-7.527806 J-5.020239
G03 X49.567939 Y75.960035 Z-0.125000 I-6.333240 J-7.470103
G03 X45.914513 Y76.728526 Z-0.125000 I-3.487304 J-7.510245
G03 X41.876927 Y75.805704 Z-0.125000 I0.204448 J-10.188669
G03 X38.885642 Y73.501379 Z-0.125000 I3.491089 J-7.625526
G03 X36.770432 Y69.584883 Z-0.125000 I9.008120 J-7.394516
G03 X36.446152 Y67.573806 Z-0.125000 I6.812846 J-2.130232
G03 X36.688150 Y64.656160 Z-0.125000 I14.741995 J-0.246117
G01 X36.688150 Y64.656160 Z-0.125000
G00 Z5.000000

(End cutting path id: rect8799)


(Start cutting path id: rect8799)
(Change tool to Cylindrical cutter)

G00 Z5.000000
G00 X37.011503 Y60.217976

G01 Z-0.125000 F1000.0(Penetrate)
G03 X38.819519 Y59.416728 Z-0.125000 I18.939718 J40.296974 F1100.000000
G03 X39.290383 Y59.268032 Z-0.125000 I1.068000 J2.562086
G03 X39.375545 Y59.384068 Z-0.125000 I0.016927 J0.076847
G03 X38.738449 Y60.229064 Z-0.125000 I-3.688661 J-2.118445
G02 X36.857189 Y63.199171 Z-0.125000 I6.161595 J5.983588
G02 X36.137613 Y67.170588 Z-0.125000 I10.599545 J3.971417
G02 X36.479187 Y69.725366 Z-0.125000 I9.724924 J0.000000
G02 X37.427239 Y71.907194 Z-0.125000 I7.992926 J-2.176212
G03 X37.298445 Y72.065448 Z-0.125000 I-0.091826 J0.056804
G03 X36.266433 Y71.484196 Z-0.125000 I1.245733 J-3.418589
G01 X35.235134 Y70.656300 Z-0.125000
G01 X35.226414 Y65.858681 Z-0.125000
G01 X35.217693 Y61.061058 Z-0.125000
G01 X37.011469 Y60.217976 Z-0.125000
G01 X37.011503 Y60.217976 Z-0.125000
G00 Z5.000000

(End cutting path id: rect8799)


(Start cutting path id: rect8799)
(Change tool to Cylindrical cutter)

G00 Z5.000000
G00 X37.083348 Y49.632029

G01 Z-0.125000 F1000.0(Penetrate)
G03 X38.195617 Y48.246873 Z-0.125000 I3.523791 J1.690426 F1100.000000
G03 X39.364850 Y47.843138 Z-0.125000 I1.169232 J1.491204
G03 X41.036622 Y48.476230 Z-0.125000 I-0.000000 J2.523824
G03 X42.277883 Y50.418819 Z-0.125000 I-2.780191 J3.144326
G03 X42.167516 Y50.652878 Z-0.125000 I-0.185690 J0.055491
G03 X40.596561 Y51.128035 Z-0.125000 I-3.029911 J-7.182918
G02 X38.819625 Y51.523088 Z-0.125000 I5.583612 J29.308735
G02 X37.548259 Y51.904036 Z-0.125000 I3.913161 J15.371668
G01 X36.291244 Y52.338771 Z-0.125000
G01 X36.410319 Y51.562773 Z-0.125000
G03 X36.598095 Y50.808009 Z-0.125000 I4.203386 J0.645011
G03 X37.083348 Y49.632029 Z-0.125000 I10.742641 J3.744707
G01 X37.083348 Y49.632029 Z-0.125000
G00 Z5.000000

(End cutting path id: rect8799)


(Start cutting path id: rect8799)
(Change tool to Cylindrical cutter)

G00 Z5.000000
G00 X32.168028 Y41.323147

G01 Z-0.125000 F1000.0(Penetrate)
G02 X33.114426 Y38.653987 Z-0.125000 I-14.471228 J-6.633393 F1100.000000
G02 X33.373455 Y36.635027 Z-0.125000 I-7.965040 J-2.047998
G02 X33.005924 Y35.061865 Z-0.125000 I-3.497747 J-0.012349
G02 X32.403000 Y34.688780 Z-0.125000 I-0.602924 J0.300635
G03 X32.209722 Y34.528633 Z-0.125000 I0.000000 J-0.196706
G03 X32.141544 Y33.306551 Z-0.125000 I4.595882 J-0.869338
G03 X32.719878 Y31.137171 Z-0.125000 I6.083894 J0.460123
G03 X33.653919 Y30.139992 Z-0.125000 I2.038968 J0.973829
G03 X35.106641 Y29.785322 Z-0.125000 I1.363458 J2.432197
G03 X37.645806 Y30.267856 Z-0.125000 I-0.266658 J8.325185
G02 X39.181767 Y30.785737 Z-0.125000 I14.860510 J-41.537535
G02 X40.001131 Y31.014100 Z-0.125000 I3.669040 J-11.580354
G02 X41.920216 Y31.473505 Z-0.125000 I127.078537 J-526.610462
G02 X42.739528 Y31.664359 Z-0.125000 I22.701440 J-95.600009
G03 X42.990164 Y31.899301 Z-0.125000 I-0.075861 J0.332090
G03 X43.072914 Y32.784810 Z-0.125000 I-2.188279 J0.651114
G02 X43.328220 Y34.271716 Z-0.125000 I2.784092 J0.287336
G02 X44.164676 Y35.086329 Z-0.125000 I1.514619 J-0.718485
G01 X45.018125 Y35.463852 Z-0.125000
G01 X44.883355 Y43.033323 Z-0.125000
G03 X44.714889 Y50.588853 Z-0.125000 I-841.389284 J-14.980869
G03 X44.678614 Y50.675407 Z-0.125000 I-0.129690 J-0.003474
G03 X44.594807 Y50.719349 Z-0.125000 I-0.107964 J-0.104019
G03 X43.697774 Y50.835546 Z-0.125000 I-2.207580 J-13.521848
G01 X42.786899 Y50.923068 Z-0.125000
G01 X42.576931 Y50.143314 Z-0.125000
G02 X42.254800 Y49.428413 Z-0.125000 I-2.371543 J0.638581
G02 X41.468774 Y48.465364 Z-0.125000 I-5.150827 J3.401733
G02 X40.482898 Y47.778865 Z-0.125000 I-2.410416 J2.410424
G02 X39.516126 Y47.567175 Z-0.125000 I-0.966771 J2.101743
G02 X38.553140 Y47.782387 Z-0.125000 I-0.000000 J2.262092
G02 X37.586762 Y48.474875 Z-0.125000 I1.397929 J2.971374
G02 X36.840498 Y49.458522 Z-0.125000 I3.776386 J3.639941
G02 X36.332744 Y50.609991 Z-0.125000 I4.698284 J2.759449
G02 X35.998094 Y51.844151 Z-0.125000 I17.567160 J5.425894
G02 X35.952955 Y52.231978 Z-0.125000 I1.668973 J0.390792
G03 X35.809632 Y52.539566 Z-0.125000 I-0.403350 J-0.000760
G03 X34.744274 Y53.251199 Z-0.125000 I-3.705507 J-4.394103
G02 X33.552415 Y53.903685 Z-0.125000 I13.191861 J25.511583
G02 X32.439032 Y54.585032 Z-0.125000 I13.275244 J22.943341
G03 X31.333268 Y55.265333 Z-0.125000 I-15.838150 J-24.504572
G03 X31.226698 Y55.294214 Z-0.125000 I-0.106570 J-0.182180
G03 X31.169667 Y55.237211 Z-0.125000 I0.000000 J-0.057031
G03 X31.223763 Y49.216330 Z-0.125000 I317.999535 J-0.153567
G01 X31.335927 Y43.138448 Z-0.125000
G01 X32.168028 Y41.323147 Z-0.125000
G00 Z5.000000

(End cutting path id: rect8799)


(Start cutting path id: rect8799)
(Change tool to Cylindrical cutter)

G00 Z5.000000
G00 X30.807163 Y31.359551

G01 Z-0.125000 F1000.0(Penetrate)
G03 X31.599849 Y29.840328 Z-0.125000 I3.824244 J1.028966 F1100.000000
G03 X33.054270 Y28.686184 Z-0.125000 I3.559139 J2.991649
G03 X35.105383 Y28.239400 Z-0.125000 I1.881507 J3.706136
G03 X38.897267 Y28.924814 Z-0.125000 I-0.571481 J13.993107
G02 X41.828667 Y29.758018 Z-0.125000 I11.899596 J-36.292194
G02 X44.094620 Y30.180314 Z-0.125000 I5.130346 J-21.237956
G03 X44.758795 Y30.479685 Z-0.125000 I-0.165889 J1.254479
G03 X44.968513 Y30.939796 Z-0.125000 I-0.399873 J0.460111
G01 X44.968513 Y31.583714 Z-0.125000
G01 X44.094620 Y31.467786 Z-0.125000
G03 X41.161028 Y30.934807 Z-0.125000 I4.100316 J-30.908683
G03 X38.120684 Y30.084437 Z-0.125000 I7.885737 J-34.054301
G02 X35.772251 Y29.573150 Z-0.125000 I-3.634691 J11.045748
G02 X34.163232 Y29.643987 Z-0.125000 I-0.577593 J5.189674
G02 X33.060756 Y30.208519 Z-0.125000 I0.451420 J2.240356
G02 X32.154701 Y31.506391 Z-0.125000 I2.537602 J2.736718
G02 X31.991228 Y32.118345 Z-0.125000 I2.175279 J0.908902
G02 X31.906140 Y33.464023 Z-0.125000 I10.598498 J1.345678
G03 X31.866438 Y34.822829 Z-0.125000 I-23.272864 J0.000000
G03 X31.793505 Y35.389930 Z-0.125000 I-4.110550 J-0.240408
G03 X31.175107 Y35.815833 Z-0.125000 I-0.528686 J-0.105737
G03 X30.555461 Y35.181015 Z-0.125000 I0.125218 J-0.742052
G03 X30.483301 Y33.312877 Z-0.125000 I8.880107 J-1.278471
G03 X30.807163 Y31.359551 Z-0.125000 I10.041880 J0.661437
G01 X30.807163 Y31.359551 Z-0.125000
G00 Z5.000000

(End cutting path id: rect8799)


(Start cutting path id: rect8799)
(Change tool to Cylindrical cutter)

G00 Z5.000000
G00 X43.818655 Y31.778922

G01 Z-0.125000 F1000.0(Penetrate)
G03 X44.174364 Y31.982633 Z-0.125000 I-0.059380 J0.516103 F1100.000000
G03 X44.381691 Y32.527048 Z-0.125000 I-0.838394 J0.630967
G02 X44.501580 Y33.148767 Z-0.125000 I2.929439 J-0.242479
G02 X44.593905 Y33.216963 Z-0.125000 I0.092325 J-0.028399
G03 X44.683172 Y33.287521 Z-0.125000 I0.000000 J0.091747
G03 X44.812772 Y34.139002 Z-0.125000 I-5.114712 J1.214084
G03 X44.756982 Y34.899290 Z-0.125000 I-2.681625 J0.185414
G03 X44.631506 Y34.966901 Z-0.125000 I-0.091781 J-0.020094
G02 X44.383130 Y34.890849 Z-0.125000 I-0.668838 J1.740721
G02 X44.224722 Y34.872758 Z-0.125000 I-0.158408 J0.684465
G03 X44.083450 Y34.825668 Z-0.125000 I0.000000 J-0.235460
G03 X43.687839 Y34.470111 Z-0.125000 I1.802450 J-2.403360
G03 X43.444355 Y34.015648 Z-0.125000 I0.738751 J-0.688252
G03 X43.312718 Y32.894086 Z-0.125000 I4.712105 J-1.121562
G03 X43.516932 Y31.949736 Z-0.125000 I2.285590 J-0.000000
G03 X43.818655 Y31.778922 Z-0.125000 I0.268070 J0.121627
G01 X43.818655 Y31.778922 Z-0.125000
G00 Z5.000000

(End cutting path id: rect8799)


(Start cutting path id: rect8799)
(Change tool to Cylindrical cutter)

G00 Z5.000000
G00 X45.439446 Y29.896251

G01 Z-0.125000 F1000.0(Penetrate)
G03 X45.746641 Y29.770894 Z-0.125000 I0.352497 J0.424735 F1100.000000
G03 X46.221351 Y29.831859 Z-0.125000 I0.094266 J1.144649
G01 X46.716293 Y30.005618 Z-0.125000
G01 X46.768112 Y32.275337 Z-0.125000
G03 X46.465541 Y34.698926 Z-0.125000 I-8.333680 J0.190271
G03 X45.994653 Y35.056735 Z-0.125000 I-0.470887 J-0.130946
G03 X45.509013 Y34.700212 Z-0.125000 I0.000000 J-0.509020
G03 X45.152491 Y32.374797 Z-0.125000 I7.405494 J-2.325415
G03 X45.278339 Y30.193506 Z-0.125000 I18.966858 J0.000000
G03 X45.439446 Y29.896251 Z-0.125000 I0.451153 J0.052232
G01 X45.439446 Y29.896251 Z-0.125000
G00 Z5.000000

(End cutting path id: rect8799)


(Start cutting path id: rect8799)
(Change tool to Cylindrical cutter)

G00 Z5.000000
G00 X47.133059 Y30.525567

G01 Z-0.125000 F1000.0(Penetrate)
G03 X47.314021 Y30.390688 Z-0.125000 I0.273323 J0.177871 F1100.000000
G03 X48.280100 Y30.186824 Z-0.125000 I1.767587 J5.985356
G02 X50.450454 Y29.801119 Z-0.125000 I-3.006949 J-23.219096
G02 X53.707423 Y28.956220 Z-0.125000 I-12.062915 J-53.200924
G03 X55.195473 Y28.638826 Z-0.125000 I2.869568 J9.806583
G03 X56.863398 Y28.525549 Z-0.125000 I1.667925 J12.222813
G03 X58.487629 Y28.711324 Z-0.125000 I0.000000 J7.193194
G03 X59.347086 Y29.101237 Z-0.125000 I-0.541299 J2.335325
G03 X60.052064 Y29.758559 Z-0.125000 I-2.234132 J3.102813
G03 X60.673962 Y30.695942 Z-0.125000 I-4.003221 J3.330887
G03 X61.049433 Y31.755758 Z-0.125000 I-3.653975 J1.890946
G03 X61.295929 Y33.711323 Z-0.125000 I-12.383117 J2.554192
G03 X61.253472 Y35.647231 Z-0.125000 I-13.968371 J0.662075
G03 X61.090545 Y35.956666 Z-0.125000 I-0.454215 J-0.041548
G03 X60.594239 Y35.906749 Z-0.125000 I-0.223570 J-0.269386
G03 X60.237218 Y34.896224 Z-0.125000 I1.259072 J-1.013163
G02 X59.988207 Y32.352569 Z-0.125000 I-13.312703 J0.019230
G02 X59.488736 Y31.078635 Z-0.125000 I-3.751574 J0.735998
G02 X57.889695 Y29.994065 Z-0.125000 I-2.009831 J1.242141
G02 X54.443331 Y30.187852 Z-0.125000 I-1.311074 J7.425927
G03 X50.778588 Y31.120156 Z-0.125000 I-14.100224 J-47.756848
G03 X48.465670 Y31.469039 Z-0.125000 I-3.992923 J-18.629909
G03 X47.180417 Y31.395254 Z-0.125000 I-0.391101 J-4.418173
G03 X46.995077 Y31.166367 Z-0.125000 I0.046798 J-0.227376
G03 X47.041128 Y30.746270 Z-0.125000 I2.049982 J0.012144
G03 X47.133059 Y30.525567 Z-0.125000 I0.644780 J0.139077
G01 X47.133059 Y30.525567 Z-0.125000
G00 Z5.000000

(End cutting path id: rect8799)


(Start cutting path id: rect8799)
(Change tool to Cylindrical cutter)

G00 Z5.000000
G00 X47.302643 Y31.972972

G01 Z-0.125000 F1000.0(Penetrate)
G03 X47.344812 Y32.294162 Z-0.125000 I-1.251880 J0.327723 F1100.000000
G03 X47.306369 Y32.708878 Z-0.125000 I-2.139584 J0.010802
G01 X47.264814 Y32.710252 Z-0.125000
G03 X47.222645 Y32.389064 Z-0.125000 I1.251782 J-0.327711
G03 X47.261112 Y31.974348 Z-0.125000 I2.142041 J-0.010455
G01 X47.302657 Y31.972972 Z-0.125000
G01 X47.302643 Y31.972972 Z-0.125000
G00 Z5.000000

(End cutting path id: rect8799)


(Start cutting path id: rect8799)
(Change tool to Cylindrical cutter)

G00 Z5.000000
G00 X47.176236 Y33.935760

G01 Z-0.125000 F1000.0(Penetrate)
G03 X47.286283 Y33.331972 Z-0.125000 I1.711412 J-0.000000 F1100.000000
G03 X47.475747 Y33.141398 Z-0.125000 I0.307013 J0.115758
G02 X47.645138 Y32.951663 Z-0.125000 I-0.099512 J-0.259324
G02 X47.671288 Y32.385804 Z-0.125000 I-1.333787 J-0.345172
G03 X47.774440 Y31.921362 Z-0.125000 I0.633952 J-0.102876
G03 X48.107688 Y31.745145 Z-0.125000 I0.333248 J0.227000
G01 X48.648053 Y31.745145 Z-0.125000
G01 X48.648053 Y33.102448 Z-0.125000
G03 X48.245647 Y34.465877 Z-0.125000 I-2.510986 J0.000000
G03 X47.422624 Y34.997610 Z-0.125000 I-1.001781 J-0.647762
G03 X46.975979 Y34.968320 Z-0.125000 I-0.156544 J-1.032954
G03 X46.946264 Y34.859922 Z-0.125000 I0.018292 J-0.063286
G02 X47.096826 Y34.583732 Z-0.125000 I-0.454009 J-0.426631
G02 X47.176236 Y33.935760 Z-0.125000 I-2.603978 J-0.647972
G01 X47.176236 Y33.935760 Z-0.125000
G00 Z5.000000

(End cutting path id: rect8799)


(Start cutting path id: rect8799)
(Change tool to Cylindrical cutter)

G00 Z5.000000
G00 X47.722361 Y35.170990

G01 Z-0.125000 F1000.0(Penetrate)
G02 X48.437936 Y34.657463 Z-0.125000 I-0.155411 J-0.971881 F1100.000000
G02 X48.832031 Y33.062342 Z-0.125000 I-3.031128 J-1.595121
G01 X48.832031 Y31.779673 Z-0.125000
G01 X49.740535 Y31.654724 Z-0.125000
G02 X50.640710 Y31.489777 Z-0.125000 I-1.400174 J-10.180009
G02 X52.270220 Y31.073680 Z-0.125000 I-7.767834 J-33.818939
G03 X55.762649 Y30.209429 Z-0.125000 I15.393348 J54.715824
G03 X56.853822 Y30.092226 Z-0.125000 I1.107370 J5.171675
G03 X58.747087 Y30.984780 Z-0.125000 I0.007440 J2.438471
G03 X59.830070 Y33.722900 Z-0.125000 I-3.731964 J3.059300
G03 X59.717544 Y34.868228 Z-0.125000 I-3.505169 J0.233816
G03 X59.471704 Y35.056735 Z-0.125000 I-0.245839 J-0.066051
G02 X58.945136 Y35.419056 Z-0.125000 I0.000000 J0.563797
G02 X58.582817 Y37.379876 Z-0.125000 I5.124690 J1.960820
G02 X58.774454 Y39.213985 Z-0.125000 I8.872713 J0.000000
G02 X59.245557 Y40.516686 Z-0.125000 I4.898515 J-1.034942
G03 X59.872700 Y41.786606 Z-0.125000 I-23.131907 J12.213385
G03 X60.077932 Y42.323828 Z-0.125000 I-3.917285 J1.804309
G03 X60.173095 Y42.868445 Z-0.125000 I-2.115930 J0.650350
G03 X60.426451 Y48.933938 Z-0.125000 I-502.192540 J24.014592
G03 X60.607581 Y55.068387 Z-0.125000 I-495.404335 J17.697550
G03 X60.539300 Y55.238825 Z-0.125000 I-0.233272 J0.005443
G03 X60.455832 Y55.251682 Z-0.125000 I-0.050503 J-0.050503
G03 X59.476798 Y54.686025 Z-0.125000 I5.908789 J-11.356956
G02 X58.477165 Y54.080673 Z-0.125000 I-13.331842 J20.887175
G02 X57.561040 Y53.586783 Z-0.125000 I-9.780449 J17.045331
G01 X56.631253 Y53.116866 Z-0.125000
G01 X56.412040 Y49.192169 Z-0.125000
G02 X55.413126 Y41.635677 Z-0.125000 I-50.358888 J2.812817
G02 X54.506154 Y40.119794 Z-0.125000 I-2.651134 J0.556937
G02 X53.230509 Y39.453870 Z-0.125000 I-2.138124 J2.541022
G02 X51.828534 Y39.399673 Z-0.125000 I-0.819888 J3.048578
G02 X50.448856 Y40.095416 Z-0.125000 I0.512574 J2.732291
G02 X49.491152 Y41.571440 Z-0.125000 I2.453606 J2.640708
G01 X49.245526 Y42.290867 Z-0.125000
G01 X48.118836 Y42.307349 Z-0.125000
G01 X46.992145 Y42.323831 Z-0.125000
G01 X46.992202 Y38.805787 Z-0.125000
G01 X46.992258 Y35.287743 Z-0.125000
G01 X47.722361 Y35.170993 Z-0.125000
G01 X47.722361 Y35.170990 Z-0.125000
G00 Z5.000000

(End cutting path id: rect8799)


(Start cutting path id: rect8799)
(Change tool to Cylindrical cutter)

G00 Z5.000000
G00 X47.256209 Y42.609770

G01 Z-0.125000 F1000.0(Penetrate)
G03 X48.160884 Y42.341443 Z-0.125000 I0.765813 J0.922732 F1100.000000
G03 X48.885580 Y42.799734 Z-0.125000 I-0.114655 J0.983430
G03 X48.985084 Y43.107375 Z-0.125000 I-0.562233 J0.351763
G03 X48.947835 Y43.733409 Z-0.125000 I-2.489613 J0.165994
G03 X48.691102 Y44.184112 Z-0.125000 I-0.781285 J-0.146570
G03 X48.304501 Y44.298413 Z-0.125000 I-0.316870 J-0.360798
G02 X47.839052 Y44.365904 Z-0.125000 I-0.119526 J0.814413
G02 X47.386909 Y44.723380 Z-0.125000 I0.519543 J1.121805
G01 X46.992258 Y45.225095 Z-0.125000
G01 X46.992258 Y44.026960 Z-0.125000
G03 X47.098285 Y42.878614 Z-0.125000 I6.271708 J-0.000000
G03 X47.256209 Y42.609770 Z-0.125000 I0.450696 J0.083941
G01 X47.256209 Y42.609770 Z-0.125000
G00 Z5.000000

(End cutting path id: rect8799)


(Start cutting path id: rect8799)
(Change tool to Cylindrical cutter)

G00 Z5.000000
G00 X47.563219 Y45.037490

G01 Z-0.125000 F1000.0(Penetrate)
G03 X48.040955 Y44.659616 Z-0.125000 I0.552976 J0.208181 F1100.000000
G03 X48.647085 Y44.898338 Z-0.125000 I0.086061 J0.670348
G03 X48.770175 Y45.205327 Z-0.125000 I-0.415361 J0.344715
G03 X48.753429 Y46.416152 Z-0.125000 I-7.217714 J0.505705
G03 X48.276899 Y50.429690 Z-0.125000 I-97.786321 J-9.575177
G03 X48.157048 Y50.686871 Z-0.125000 I-0.479565 J-0.066968
G03 X48.082212 Y50.691930 Z-0.125000 I-0.040028 J-0.036070
G03 X47.613613 Y50.226931 Z-0.125000 I2.696269 J-3.185757
G03 X47.342586 Y49.616829 Z-0.125000 I0.879203 J-0.755819
G03 X47.276659 Y47.567175 Z-0.125000 I10.853577 J-1.374994
G03 X47.460730 Y45.462856 Z-0.125000 I41.264144 J2.549292
G03 X47.563219 Y45.037490 Z-0.125000 I1.762711 J0.199683
G01 X47.563219 Y45.037490 Z-0.125000
G00 Z5.000000

(End cutting path id: rect8799)


(Start cutting path id: rect8799)
(Change tool to Cylindrical cutter)

G00 Z5.000000
G00 X48.744234 Y48.037468

G01 Z-0.125000 F1000.0(Penetrate)
G03 X49.731387 Y41.854212 Z-0.125000 I95.086912 J12.010139 F1100.000000
G03 X50.149709 Y40.768098 Z-0.125000 I3.251162 J0.628585
G03 X50.992657 Y39.957609 Z-0.125000 I1.940356 J1.174468
G03 X52.160935 Y39.656162 Z-0.125000 I1.168278 J2.113143
G03 X54.079945 Y40.343097 Z-0.125000 I-0.000000 J3.023924
G03 X55.359055 Y42.282285 Z-0.125000 I-2.492753 J3.035699
G03 X55.893664 Y45.127997 Z-0.125000 I-14.323146 J4.163890
G03 X56.188534 Y51.631695 Z-0.125000 I-75.114356 J6.664129
G01 X56.191074 Y52.844570 Z-0.125000
G01 X54.489288 Y52.252039 Z-0.125000
G02 X52.068983 Y51.512495 Z-0.125000 I-10.808443 J31.042572
G02 X48.877988 Y50.771066 Z-0.125000 I-14.055872 J53.256800
G03 X48.649456 Y50.505492 Z-0.125000 I0.056241 J-0.279512
G03 X48.744198 Y48.037468 Z-0.125000 I14.151139 J-0.692602
G01 X48.744234 Y48.037468 Z-0.125000
G00 Z5.000000

(End cutting path id: rect8799)


(Start cutting path id: rect8799)
(Change tool to Cylindrical cutter)

G00 Z5.000000
G00 X47.073391 Y50.326832

G01 Z-0.125000 F1000.0(Penetrate)
G03 X47.139799 Y50.353230 Z-0.125000 I0.000000 J0.096729 F1100.000000
G03 X47.268226 Y50.510810 Z-0.125000 I-0.537247 J0.568977
G03 X47.276908 Y50.636234 Z-0.125000 I-0.114812 J0.070960
G03 X47.187093 Y50.694785 Z-0.125000 I-0.089815 J-0.039611
G03 X47.047678 Y50.639363 Z-0.125000 I0.000000 J-0.203064
G03 X46.992258 Y50.510810 Z-0.125000 I0.121390 J-0.128554
G03 X47.024277 Y50.358851 Z-0.125000 I0.376603 J-0.000000
G03 X47.073391 Y50.326832 Z-0.125000 I0.049115 J0.021659
G01 X47.073391 Y50.326832 Z-0.125000
G00 Z5.000000

(End cutting path id: rect8799)


(Start cutting path id: rect8799)
(Change tool to Cylindrical cutter)

G00 Z5.000000
G00 X54.334997 Y60.273960

G01 Z-0.125000 F1000.0(Penetrate)
G01 X56.007139 Y61.050867 Z-0.125000 F1100.000000
G01 X56.007139 Y65.953262 Z-0.125000
G01 X56.007139 Y70.855654 Z-0.125000
G01 X55.225236 Y71.594077 Z-0.125000
G03 X54.430971 Y72.317703 Z-0.125000 I-20.591744 J-21.804159
G03 X54.082564 Y72.598263 Z-0.125000 I-3.431698 J-3.904970
G01 X54.011930 Y72.561009 Z-0.125000
G03 X54.092526 Y72.312092 Z-0.125000 I0.475839 J0.016564
G02 X55.706583 Y66.238909 Z-0.125000 I-8.009568 J-5.379759
G02 X53.233233 Y60.386499 Z-0.125000 I-9.837936 J0.708866
G03 X52.602147 Y59.618537 Z-0.125000 I9.302910 J-8.288115
G01 X52.605571 Y59.557361 Z-0.125000
G03 X52.671677 Y59.543335 Z-0.125000 I0.043263 J0.041106
G03 X54.335011 Y60.273960 Z-0.125000 I-16.508073 J39.840809
G01 X54.334997 Y60.273960 Z-0.125000
G00 Z5.000000

(End cutting path id: rect8799)


(Start cutting path id: rect8799)
(Change tool to Cylindrical cutter)

G00 Z5.000000
G00 X58.725545 Y60.498123

G01 Z-0.125000 F1000.0(Penetrate)
G02 X59.568886 Y59.874251 Z-0.125000 I-7.478491 J-10.991235 F1100.000000
G02 X60.490800 Y59.081162 Z-0.125000 I-11.183965 J-13.933017
G02 X61.157117 Y58.174607 Z-0.125000 I-1.992390 J-2.162553
G02 X61.264967 Y57.442396 Z-0.125000 I-1.150507 J-0.543510
G03 X60.950590 Y54.407173 Z-0.125000 I33.070044 J-4.959160
G03 X60.796585 Y49.314958 Z-0.125000 I93.054221 J-5.362695
G02 X60.745074 Y46.925020 Z-0.125000 I-64.079268 J0.185598
G02 X60.600810 Y44.447753 Z-0.125000 I-69.009173 J2.775914
G02 X60.224355 Y42.029501 Z-0.125000 I-15.599330 J1.189959
G02 X59.728665 Y40.768210 Z-0.125000 I-4.667676 J1.106359
G03 X59.254788 Y39.508820 Z-0.125000 I3.758971 J-2.133256
G03 X59.044059 Y37.452111 Z-0.125000 I9.992861 J-2.063012
G03 X59.183149 Y35.455499 Z-0.125000 I14.241953 J-0.011007
G03 X59.349606 Y35.279801 Z-0.125000 I0.206668 J0.029098
G03 X59.596696 Y35.340054 Z-0.125000 I0.058385 J0.297338
G03 X59.901540 Y35.719097 Z-0.125000 I-0.690284 J0.867265
G02 X60.587895 Y36.280820 Z-0.125000 I0.957490 J-0.469752
G02 X61.318513 Y36.091562 Z-0.125000 I0.196339 J-0.746928
G03 X62.177348 Y35.837533 Z-0.125000 I0.675548 J0.705117
G03 X62.951476 Y36.403607 Z-0.125000 I-0.210157 J1.099760
G03 X63.135879 Y37.022270 Z-0.125000 I-1.379598 J0.748026
G03 X63.273763 Y40.300080 Z-0.125000 I-40.391528 J3.340905
G02 X63.368830 Y43.596853 Z-0.125000 I60.485040 J-0.094416
G02 X63.495897 Y44.255588 Z-0.125000 I2.498328 J-0.140293
G03 X64.160191 Y46.644853 Z-0.125000 I-21.837135 J7.358419
G03 X65.588287 Y53.730409 Z-0.125000 I-191.149836 J42.213004
G02 X65.968112 Y55.751989 Z-0.125000 I191.029734 J-34.845228
G02 X66.121938 Y56.490063 Z-0.125000 I25.601357 J-4.950646
G03 X66.379246 Y59.027798 Z-0.125000 I-10.494201 J2.345947
G03 X66.050062 Y60.519287 Z-0.125000 I-3.855036 J-0.068767
G03 X65.427001 Y61.507631 Z-0.125000 I-3.675252 J-1.626346
G03 X62.214227 Y64.996955 Z-0.125000 I-50.304484 J-43.093831
G03 X58.828903 Y68.354094 Z-0.125000 I-176.373204 J-174.468479
G03 X58.352846 Y68.753290 Z-0.125000 I-2.937606 J-3.019758
G01 X57.846906 Y69.117551 Z-0.125000
G01 X57.851647 Y65.103519 Z-0.125000
G01 X57.856388 Y61.089489 Z-0.125000
G01 X58.725537 Y60.498123 Z-0.125000
G01 X58.725545 Y60.498123 Z-0.125000
G00 Z5.000000

(End cutting path id: rect8799)


(Start cutting path id: rect8799)
(Change tool to Cylindrical cutter)

G00 Z5.000000
G00 X74.149899 Y59.157732

G01 Z-0.125000 F1000.0(Penetrate)
G02 X74.424083 Y61.087290 Z-0.125000 I123.859873 J-16.615874 F1100.000000
G02 X74.978139 Y64.677044 Z-0.125000 I429.125601 J-64.395159
G03 X75.500092 Y68.270321 Z-0.125000 I-137.181950 J21.761368
G03 X75.718473 Y70.288347 Z-0.125000 I-43.034732 J5.677827
G02 X76.736948 Y74.982565 Z-0.125000 I18.568771 J-1.571157
G02 X77.895239 Y76.385801 Z-0.125000 I2.518254 J-0.899005
G03 X78.220714 Y76.805886 Z-0.125000 I-0.366125 J0.619797
G03 X78.493335 Y78.457013 Z-0.125000 I-6.858355 J1.980470
G02 X79.040652 Y81.135924 Z-0.125000 I8.824581 J-0.407545
G02 X80.210438 Y83.061945 Z-0.125000 I5.622131 J-2.096401
G02 X82.736278 Y84.670664 Z-0.125000 I4.180978 J-3.777268
G02 X88.034956 Y85.466453 Z-0.125000 I5.298678 J-17.242438
G01 X91.094343 Y85.466453 Z-0.125000
G01 X91.212538 Y86.597304 Z-0.125000
G03 X91.302328 Y87.729636 Z-0.125000 I-22.584563 J2.360597
G03 X91.330738 Y88.779353 Z-0.125000 I-19.378278 J1.049717
G02 X91.363123 Y89.828341 Z-0.125000 I17.005322 J-0.000000
G02 X91.449057 Y90.693802 Z-0.125000 I11.656553 J-0.720416
G02 X91.720310 Y91.359807 Z-0.125000 I1.436767 J-0.196930
G02 X92.046984 Y91.501383 Z-0.125000 I0.285685 J-0.211518
G01 X92.526587 Y91.445709 Z-0.125000
G01 X92.577139 Y88.456081 Z-0.125000
G03 X92.707439 Y85.547555 Z-0.125000 I52.241544 J0.883210
G03 X92.794656 Y85.466453 Z-0.125000 I0.087217 J0.006346
G03 X92.878816 Y85.549370 Z-0.125000 I0.000000 J0.084169
G03 X92.977231 Y97.734749 Z-0.125000 I-895.390416 J13.324695
G02 X93.036794 Y109.984806 Z-0.125000 I1705.807620 J-2.168942
G02 X93.081676 Y110.091878 Z-0.125000 I0.153249 J-0.001295
G01 X93.126157 Y110.073643 Z-0.125000
G02 X93.170505 Y97.950951 Z-0.125000 I-1656.867257 J-12.122692
G01 X93.170505 Y85.721193 Z-0.125000
G01 X94.090392 Y85.721193 Z-0.125000
G01 X95.010278 Y85.721193 Z-0.125000
G01 X95.041771 Y97.966282 Z-0.125000
G01 X95.073262 Y110.211373 Z-0.125000
G01 X95.201995 Y97.923991 Z-0.125000
G03 X95.387096 Y85.660304 Z-0.125000 I1328.425811 J13.917308
G03 X95.446467 Y85.520869 Z-0.125000 I0.202810 J0.003998
G01 X95.504808 Y85.543705 Z-0.125000
G03 X95.562209 Y88.471415 Z-0.125000 I-74.634317 J2.927710
G01 X95.562209 Y91.537700 Z-0.125000
G01 X96.011292 Y91.537700 Z-0.125000
G02 X96.430449 Y91.484014 Z-0.125000 I-0.000000 J-1.663145
G02 X96.546529 Y91.398307 Z-0.125000 I-0.048871 J-0.187652
G02 X96.597980 Y91.247552 Z-0.125000 I-0.304102 J-0.187942
G02 X96.864018 Y88.362686 Z-0.125000 I-117.596254 J-12.299266
G01 X97.095356 Y85.466453 Z-0.125000
G01 X100.019076 Y85.466453 Z-0.125000
G02 X105.776563 Y84.739464 Z-0.125000 I-0.000000 J-23.162083
G02 X108.156232 Y83.378226 Z-0.125000 I-1.284908 J-5.006876
G02 X109.540187 Y81.377502 Z-0.125000 I-4.879592 J-4.854369
G02 X109.991396 Y79.350167 Z-0.125000 I-4.565353 J-2.079955
G03 X110.147615 Y78.253579 Z-0.125000 I4.238911 J0.044452
G03 X110.338467 Y78.108325 Z-0.125000 I0.191418 J0.053498
G02 X111.053981 Y77.887157 Z-0.125000 I-0.004121 J-1.281321
G02 X111.634920 Y77.228028 Z-0.125000 I-0.989471 J-1.457670
G02 X112.077692 Y75.858316 Z-0.125000 I-4.083973 J-2.076604
G02 X112.304373 Y72.940943 Z-0.125000 I-18.704089 J-2.920811
G03 X112.490582 Y70.312653 Z-0.125000 I18.679397 J0.002654
G03 X113.020580 Y67.905867 Z-0.125000 I16.187830 J2.302970
G02 X113.173280 Y67.340491 Z-0.125000 I-9.875584 J-2.970559
G02 X113.684672 Y65.136988 Z-0.125000 I-149.650258 J-35.892107
G03 X114.202627 Y62.935570 Z-0.125000 I106.237305 J23.834169
G03 X114.364297 Y62.377328 Z-0.125000 I6.981413 J1.719318
G02 X114.483149 Y61.813094 Z-0.125000 I-2.389041 J-0.797872
G02 X114.698521 Y58.789776 Z-0.125000 I-69.299231 J-6.455995
G03 X114.946618 Y55.766240 Z-0.125000 I46.574133 J2.299709
G03 X115.322159 Y53.362453 Z-0.125000 I29.797068 J3.423930
G02 X116.354142 Y45.662428 Z-0.125000 I-61.185583 J-12.119463
G02 X116.060144 Y42.972916 Z-0.125000 I-7.545693 J-0.535986
G02 X113.751794 Y39.406611 Z-0.125000 I-7.223024 J2.145011
G02 X107.208047 Y35.355558 Z-0.125000 I-16.130274 J18.744907
G02 X102.879659 Y33.902129 Z-0.125000 I-11.950211 J28.416556
G02 X98.368838 Y33.100080 Z-0.125000 I-7.674391 J30.075997
G01 X97.218004 Y32.982171 Z-0.125000
G01 X97.217439 Y30.385907 Z-0.125000
G02 X97.189977 Y27.790151 Z-0.125000 I-124.881457 J0.023201
G02 X97.096493 Y24.616034 Z-0.125000 I-187.410019 J3.931142
G01 X96.976108 Y21.442428 Z-0.125000
G01 X96.269159 Y21.442428 Z-0.125000
G01 X95.562209 Y21.442428 Z-0.125000
G01 X95.518081 Y27.283700 Z-0.125000
G03 X95.486086 Y27.601423 Z-0.125000 I-1.722836 J-0.013016
G01 X95.458790 Y27.599049 Z-0.125000
G03 X95.428469 Y25.619230 Z-0.125000 I230.037278 J-4.513146
G03 X95.378220 Y20.154589 Z-0.125000 I1504.777812 J-16.569455
G01 X95.282501 Y7.184203 Z-0.125000
G01 X95.238370 Y20.108595 Z-0.125000
G01 X95.194242 Y33.032985 Z-0.125000
G01 X94.109227 Y33.032985 Z-0.125000
G01 X93.024213 Y33.032985 Z-0.125000
G01 X92.895011 Y30.595290 Z-0.125000
G03 X92.851637 Y28.161730 Z-0.125000 I34.600969 J-1.833869
G03 X92.959502 Y26.869751 Z-0.125000 I9.829448 J0.170147
G01 X93.039024 Y26.869249 Z-0.125000
G03 X93.094729 Y27.697650 Z-0.125000 I-4.329864 J0.707228
G02 X93.090392 Y29.810335 Z-0.125000 I41.301386 J1.141123
G02 X93.166128 Y30.733272 Z-0.125000 I7.936252 J-0.186671
G01 X93.231023 Y30.729083 Z-0.125000
G02 X93.294347 Y19.418683 Z-0.125000 I-986.476109 J-11.178407
G01 X93.292654 Y7.184203 Z-0.125000
G01 X93.175470 Y15.963869 Z-0.125000
G03 X92.996634 Y24.717512 Z-0.125000 I-618.224561 J-8.251565
G03 X92.930388 Y24.871423 Z-0.125000 I-0.226386 J-0.006229
G01 X92.865468 Y24.847278 Z-0.125000
G03 X92.802493 Y23.128887 Z-0.125000 I23.413255 J-1.718391
G01 X92.802505 Y21.258451 Z-0.125000
G01 X92.158586 Y21.258451 Z-0.125000
G01 X91.514665 Y21.258451 Z-0.125000
G01 X91.513254 Y27.191716 Z-0.125000
G01 X91.511843 Y33.124975 Z-0.125000
G01 X89.436830 Y33.529230 Z-0.125000
G02 X83.653433 Y35.284178 Z-0.125000 I5.663888 J29.072243
G02 X79.198784 Y37.819471 Z-0.125000 I8.233232 J19.647422
G02 X76.086774 Y41.508269 Z-0.125000 I6.250884 J8.430585
G02 X74.401867 Y47.291210 Z-0.125000 I14.584499 J7.386241
G03 X74.185890 Y49.312958 Z-0.125000 I-123.439898 J-12.164272
G03 X74.031210 Y50.510810 Z-0.125000 I-43.471678 J-5.004630
G02 X73.789480 Y54.267550 Z-0.125000 I23.925229 J3.425631
G02 X74.149687 Y59.157732 Z-0.125000 I41.001175 J-0.561755
G01 X74.149899 Y59.157732 Z-0.125000
G00 Z5.000000

(End cutting path id: rect8799)


(Start cutting path id: rect8799)
(Change tool to Cylindrical cutter)

G00 Z5.000000
G00 X74.565031 Y54.282337

G01 Z-0.125000 F1000.0(Penetrate)
G02 X76.854908 Y55.990571 Z-0.125000 I3.320607 J-2.062353 F1100.000000
G02 X79.533395 Y55.640489 Z-0.125000 I0.921518 J-3.371071
G03 X80.146636 Y55.339824 Z-0.125000 I2.422984 J4.166230
G03 X80.232499 Y55.357251 Z-0.125000 I0.029780 J0.073506
G03 X80.257383 Y55.447684 Z-0.125000 I-0.067106 J0.067106
G03 X79.915682 Y56.606572 Z-0.125000 I-15.264306 J-3.870901
G02 X79.680366 Y57.800942 Z-0.125000 I4.429986 J1.493166
G02 X79.640351 Y60.905511 Z-0.125000 I30.348092 J1.943696
G03 X79.624614 Y64.024251 Z-0.125000 I-36.056297 J1.377469
G03 X79.382581 Y66.240849 Z-0.125000 I-18.422576 J-0.890072
G02 X79.343188 Y70.284483 Z-0.125000 I12.548413 J2.144254
G02 X80.375735 Y72.822799 Z-0.125000 I5.780407 J-0.872208
G03 X81.251510 Y74.647244 Z-0.125000 I-4.709882 J3.383267
G03 X81.128080 Y75.518631 Z-0.125000 I-1.056360 J0.294805
G03 X80.766893 Y75.650604 Z-0.125000 I-0.264415 J-0.163417
G03 X80.325587 Y75.255727 Z-0.125000 I0.229494 J-0.700513
G02 X80.028138 Y74.932401 Z-0.125000 I-0.642823 J0.292892
G02 X79.504955 Y74.795784 Z-0.125000 I-0.523182 J0.933465
G02 X78.744765 Y75.088210 Z-0.125000 I-0.000000 J1.134306
G02 X78.452340 Y75.746260 Z-0.125000 I0.594198 J0.658050
G01 X78.452340 Y76.255191 Z-0.125000
G01 X77.825558 Y75.885381 Z-0.125000
G03 X76.947882 Y74.804755 Z-0.125000 I1.015928 J-1.721862
G03 X76.148275 Y70.932266 Z-0.125000 I15.276720 J-5.173198
G02 X75.988679 Y69.372323 Z-0.125000 I-36.826292 J2.979508
G02 X75.669962 Y67.068748 Z-0.125000 I-80.649838 J9.984699
G03 X74.842971 Y61.550527 Z-0.125000 I908.658849 J-138.997585
G03 X74.427905 Y58.605801 Z-0.125000 I258.413156 J-37.925630
G03 X74.310765 Y57.406688 Z-0.125000 I16.156652 J-2.183592
G03 X74.244263 Y55.570176 Z-0.125000 I37.863964 J-2.290571
G01 X74.222249 Y53.730409 Z-0.125000
G01 X74.565031 Y54.282337 Z-0.125000
G00 Z5.000000

(End cutting path id: rect8799)


(Start cutting path id: rect8799)
(Change tool to Cylindrical cutter)

G00 Z5.000000
G00 X74.785390 Y47.199220

G01 Z-0.125000 F1000.0(Penetrate)
G03 X75.434843 Y43.592062 Z-0.125000 I31.913753 J3.883892 F1100.000000
G03 X76.094664 Y41.734881 Z-0.125000 I9.040725 J2.166194
G03 X78.864865 Y38.367723 Z-0.125000 I8.239207 J3.955376
G03 X85.019984 Y35.068803 Z-0.125000 I14.028839 J18.783421
G03 X89.355940 Y33.971014 Z-0.125000 I7.956911 J22.315754
G03 X95.010278 Y33.523783 Z-0.125000 I5.822931 J37.651787
G03 X99.317733 Y33.651870 Z-0.125000 I0.279358 J63.097498
G03 X101.173509 Y33.918028 Z-0.125000 I-0.762435 J11.918807
G03 X111.803814 Y38.177104 Z-0.125000 I-7.876354 J35.054456
G03 X115.514894 Y42.536564 Z-0.125000 I-4.625427 J7.696786
G03 X115.927683 Y44.673236 Z-0.125000 I-5.350079 J2.141804
G03 X115.521752 Y50.234841 Z-0.125000 I-37.840704 J0.033699
G03 X114.859567 Y53.257490 Z-0.125000 I-22.179866 J-3.275184
G03 X114.435292 Y53.946933 Z-0.125000 I-1.472761 J-0.431050
G03 X111.221525 Y54.735060 Z-0.125000 I-2.308530 J-2.467060
G03 X108.969393 Y52.426918 Z-0.125000 I0.859781 J-3.091729
G01 X108.764869 Y51.614674 Z-0.125000
G01 X106.027051 Y51.614674 Z-0.125000
G03 X103.320468 Y51.583445 Z-0.125000 I0.000000 J-117.304222
G01 X103.289236 Y51.551484 Z-0.125000
G03 X103.298984 Y51.489928 Z-0.125000 I0.199235 J-0.000000
G03 X103.657192 Y50.418819 Z-0.125000 I62.235512 J20.217798
G02 X104.134356 Y47.602200 Z-0.125000 I-8.295648 J-2.854097
G02 X103.682394 Y44.517722 Z-0.125000 I-10.446637 J-0.044628
G02 X98.144208 Y38.278042 Z-0.125000 I-9.560091 J2.907683
G02 X89.910331 Y38.462432 Z-0.125000 I-3.919378 J8.914178
G02 X85.826870 Y42.139579 Z-0.125000 I4.497843 J9.100750
G02 X84.339605 Y47.276520 Z-0.125000 I8.127742 J5.136941
G02 X84.472065 Y48.855415 Z-0.125000 I9.476316 J-0.000000
G02 X85.006875 Y51.225407 Z-0.125000 I21.970570 J-3.712516
G03 X84.888930 Y51.457102 Z-0.125000 I-0.183988 J0.052208
G03 X84.137548 Y51.545278 Z-0.125000 I-0.559216 J-1.519794
G02 X82.519044 Y51.829369 Z-0.125000 I-0.337892 J2.827443
G02 X81.395971 Y52.925573 Z-0.125000 I1.168346 J2.320385
G03 X80.148948 Y54.743972 Z-0.125000 I-8.818562 J-4.710813
G03 X79.259414 Y55.403214 Z-0.125000 I-1.909183 J-1.646358
G03 X77.725194 Y55.722858 Z-0.125000 I-1.513344 J-3.421929
G03 X76.314947 Y55.386788 Z-0.125000 I0.017864 J-3.201903
G03 X75.491516 Y54.824057 Z-0.125000 I1.626230 J-3.263440
G03 X74.961189 Y54.158870 Z-0.125000 I1.782304 J-1.964959
G03 X74.527202 Y52.582448 Z-0.125000 I2.957284 J-1.662086
G03 X74.785390 Y47.199220 Z-0.125000 I36.844471 J-0.930688
G01 X74.785390 Y47.199220 Z-0.125000
G00 Z5.000000

(End cutting path id: rect8799)


(Start cutting path id: rect8799)
(Change tool to Cylindrical cutter)

G00 Z5.000000
G00 X83.262733 Y52.100824

G01 Z-0.125000 F1000.0(Penetrate)
G03 X85.093088 Y52.283039 Z-0.125000 I0.473375 J4.529015 F1100.000000
G03 X85.903413 Y52.925192 Z-0.125000 I-0.428735 J1.373362
G02 X87.611753 Y55.030621 Z-0.125000 I7.890047 J-4.656180
G02 X89.796711 Y56.484588 Z-0.125000 I5.792221 J-6.335585
G03 X90.867702 Y56.988235 Z-0.125000 I-42.219687 J91.169507
G03 X91.190259 Y57.149972 Z-0.125000 I-4.024361 J8.428423
G02 X91.520757 Y57.273263 Z-0.125000 I0.647813 J-1.231929
G02 X91.907727 Y57.317962 Z-0.125000 I0.386971 J-1.652709
G03 X92.113189 Y57.501294 Z-0.125000 I0.000000 J0.206797
G03 X92.186131 Y59.755659 Z-0.125000 I-13.785636 J1.574411
G03 X91.793519 Y66.065960 Z-0.125000 I-240.811586 J-11.815380
G03 X91.704132 Y66.148861 Z-0.125000 I-0.089386 J-0.006739
G02 X91.643179 Y66.204791 Z-0.125000 I0.000000 J0.061179
G02 X91.657650 Y66.688564 Z-0.125000 I2.086446 J0.179688
G03 X90.989904 Y69.495973 Z-0.125000 I-3.856049 J0.565950
G03 X88.932902 Y70.564313 Z-0.125000 I-2.057002 J-1.446126
G02 X88.464004 Y70.641215 Z-0.125000 I-0.000000 J1.467968
G02 X88.387104 Y70.748288 Z-0.125000 I0.036092 J0.107073
G03 X87.983759 Y71.123264 Z-0.125000 I-0.375974 J0.000000
G03 X85.909927 Y70.567462 Z-0.125000 I0.416005 J-5.699105
G03 X84.393464 Y69.422569 Z-0.125000 I2.127338 J-4.394512
G03 X83.438385 Y67.796122 Z-0.125000 I3.590383 J-3.201980
G03 X83.194898 Y66.771007 Z-0.125000 I4.963464 J-1.720407
G03 X82.788506 Y62.929262 Z-0.125000 I69.999181 J-9.347090
G03 X82.282844 Y55.840711 Z-0.125000 I519.427136 J-40.615727
G03 X82.158471 Y53.158692 Z-0.125000 I74.203825 J-4.784935
G01 X82.131885 Y52.219019 Z-0.125000
G01 X83.262733 Y52.100824 Z-0.125000
G00 Z5.000000

(End cutting path id: rect8799)


(Start cutting path id: rect8799)
(Change tool to Cylindrical cutter)

G00 Z5.000000
G00 X84.984974 Y44.923619

G01 Z-0.125000 F1000.0(Penetrate)
G03 X86.751029 Y41.383711 Z-0.125000 I9.271019 J2.414802 F1100.000000
G03 X89.767944 Y38.895454 Z-0.125000 I7.333872 J5.818960
G03 X92.806197 Y37.947490 Z-0.125000 I4.171753 J8.027766
G03 X96.166915 Y38.087359 Z-0.125000 I1.266033 J10.025217
G03 X100.030741 Y39.919361 Z-0.125000 I-1.911950 J9.022989
G03 X102.863174 Y43.465770 Z-0.125000 I-6.506797 J8.101128
G01 X103.562405 Y44.899509 Z-0.125000
G01 X103.563816 Y47.475188 Z-0.125000
G03 X103.409499 Y50.012473 Z-0.125000 I-20.728626 J0.012626
G03 X103.151275 Y50.838433 Z-0.125000 I-2.386956 J-0.292902
G02 X102.778256 Y51.636372 Z-0.125000 I8.364023 J4.396149
G02 X102.734548 Y51.850307 Z-0.125000 I0.536950 J0.221134
G03 X102.339291 Y52.935833 Z-0.125000 I-1.747576 J-0.021596
G03 X99.846568 Y55.377918 Z-0.125000 I-12.339714 J-10.102339
G03 X97.521088 Y56.666524 Z-0.125000 I-5.167801 J-6.583421
G03 X94.626642 Y57.262657 Z-0.125000 I-3.511793 J-9.726180
G03 X92.881835 Y57.226168 Z-0.125000 I-0.646658 J-10.812723
G03 X91.627952 Y56.957073 Z-0.125000 I0.592971 J-5.818878
G03 X88.545805 Y55.362618 Z-0.125000 I3.522689 J-10.585695
G03 X86.388999 Y53.108611 Z-0.125000 I5.338065 J-7.266769
G03 X85.764521 Y51.929465 Z-0.125000 I5.422363 J-3.626626
G03 X84.965199 Y49.590923 Z-0.125000 I20.744702 J-8.396492
G03 X84.665040 Y47.379980 Z-0.125000 I7.741651 J-2.176857
G03 X84.984983 Y44.923619 Z-0.125000 I9.911876 J0.042012
G01 X84.984974 Y44.923619 Z-0.125000
G00 Z5.000000

(End cutting path id: rect8799)


(Start cutting path id: rect8799)
(Change tool to Cylindrical cutter)

G00 Z5.000000
G00 X92.546269 Y57.792950

G01 Z-0.125000 F1000.0(Penetrate)
G03 X92.707374 Y57.573848 Z-0.125000 I0.480095 J0.184231 F1100.000000
G03 X92.914225 Y57.501937 Z-0.125000 I0.206851 J0.261543
G03 X93.050822 Y57.621621 Z-0.125000 I0.000000 J0.137792
G03 X93.170505 Y59.435258 Z-0.125000 I-13.681740 J1.813636
G03 X92.997427 Y61.056408 Z-0.125000 I-7.678826 J0.000000
G03 X92.802552 Y61.138782 Z-0.125000 I-0.126386 J-0.027298
G03 X92.581862 Y60.827337 Z-0.125000 I0.262047 J-0.419601
G03 X92.434600 Y59.496477 Z-0.125000 I5.940095 J-1.330860
G03 X92.480567 Y58.092479 Z-0.125000 I21.464593 J0.000000
G03 X92.546269 Y57.792950 Z-0.125000 I1.020595 J0.066900
G01 X92.546269 Y57.792950 Z-0.125000
G00 Z5.000000

(End cutting path id: rect8799)


(Start cutting path id: rect8799)
(Change tool to Cylindrical cutter)

G00 Z5.000000
G00 X95.561983 Y60.504617

G01 Z-0.125000 F1000.0(Penetrate)
G01 X95.562167 Y57.528048 Z-0.125000 F1100.000000
G01 X96.528047 Y57.228048 Z-0.125000
G02 X97.490623 Y56.919097 Z-0.125000 I-15.910256 J-51.224412
G02 X97.697020 Y56.840665 Z-0.125000 I-0.804948 J-2.429010
G03 X97.811150 Y56.900170 Z-0.125000 I0.032813 J0.076268
G03 X98.027866 Y58.445631 Z-0.125000 I-11.954102 J2.464215
G02 X99.069853 Y61.954886 Z-0.125000 I8.622541 J-0.650928
G02 X100.960437 Y63.789266 Z-0.125000 I3.925443 J-2.154270
G02 X101.731706 Y64.028642 Z-0.125000 I1.079548 J-2.116099
G02 X103.236288 Y64.087124 Z-0.125000 I1.071709 J-8.188625
G02 X104.680879 Y63.801003 Z-0.125000 I-0.270618 J-5.156164
G02 X105.516751 Y63.283956 Z-0.125000 I-0.764022 J-2.169309
G02 X106.794719 Y61.058581 Z-0.125000 I-3.227414 J-3.333047
G02 X107.514997 Y55.156230 Z-0.125000 I-24.188746 J-5.946936
G01 X107.520727 Y51.982624 Z-0.125000
G01 X108.053655 Y51.982624 Z-0.125000
G03 X108.397805 Y52.200100 Z-0.125000 I-0.000000 J0.381041
G03 X108.813533 Y53.581424 Z-0.125000 I-4.321184 J2.053741
G03 X108.941068 Y55.183292 Z-0.125000 I-12.929957 J1.835445
G03 X108.878532 Y57.214973 Z-0.125000 I-20.892277 J0.373728
G02 X108.782351 Y59.251960 Z-0.125000 I31.527188 J2.509390
G02 X108.773243 Y64.263095 Z-0.125000 I190.960399 J2.852648
G01 X108.829907 Y69.276474 Z-0.125000
G01 X108.359296 Y69.276474 Z-0.125000
G02 X108.090773 Y69.478570 Z-0.125000 I0.000000 J0.279440
G02 X107.888679 Y70.910362 Z-0.125000 I4.970938 J1.431792
G03 X107.761689 Y72.521142 Z-0.125000 I-10.279279 J-0.000000
G03 X107.440536 Y73.734854 Z-0.125000 I-6.129226 J-0.972473
G02 X106.629238 Y77.291661 Z-0.125000 I12.615879 J4.748576
G02 X107.037813 Y78.272284 Z-0.125000 I1.138545 J0.101055
G02 X107.354883 Y78.428247 Z-0.125000 I0.483398 J-0.582459
G02 X107.703722 Y78.422274 Z-0.125000 I0.162145 J-0.719847
G03 X108.409800 Y79.117295 Z-0.125000 I0.145903 J0.557941
G03 X106.819969 Y82.033734 Z-0.125000 I-6.296395 J-1.540789
G03 X105.473501 Y82.807850 Z-0.125000 I-1.966413 J-1.862246
G03 X101.071602 Y83.385468 Z-0.125000 I-5.065533 J-21.541551
G01 X97.204497 Y83.501495 Z-0.125000
G01 X97.327658 Y82.024700 Z-0.125000
G02 X97.285274 Y80.608539 Z-0.125000 I-6.253779 J-0.521546
G02 X97.058447 Y80.155534 Z-0.125000 I-0.794224 J0.114390
G02 X96.619766 Y79.874971 Z-0.125000 I-0.857448 J0.857448
G02 X95.992180 Y79.763166 Z-0.125000 I-0.627586 J1.705481
G01 X95.318279 Y79.763166 Z-0.125000
G01 X95.440024 Y71.622181 Z-0.125000
G02 X95.545550 Y63.481072 Z-0.125000 I-2043.966814 J-30.565498
G02 X95.561992 Y60.504617 Z-0.125000 I-273.248032 J-2.997654
G01 X95.561983 Y60.504617 Z-0.125000
G00 Z5.000000

(End cutting path id: rect8799)


(Start cutting path id: rect8799)
(Change tool to Cylindrical cutter)

G00 Z5.000000
G00 X93.418082 Y63.067243

G01 Z-0.125000 F1000.0(Penetrate)
G01 X93.397198 Y57.501937 Z-0.125000 F1100.000000
G01 X94.417640 Y57.501937 Z-0.125000
G01 X95.438088 Y57.501937 Z-0.125000
G01 X95.316407 Y65.090994 Z-0.125000
G02 X95.213289 Y72.680195 Z-0.125000 I1551.668089 J24.878618
G02 X95.194485 Y76.033686 Z-0.125000 I302.982088 J3.375745
G01 X95.194304 Y79.387322 Z-0.125000
G01 X94.721393 Y79.171848 Z-0.125000
G02 X94.244794 Y79.067136 Z-0.125000 I-0.482442 J1.058868
G02 X93.691366 Y79.166683 Z-0.125000 I-0.007759 J1.545018
G01 X93.134254 Y79.376970 Z-0.125000
G01 X93.286629 Y74.004771 Z-0.125000
G02 X93.395116 Y68.632030 Z-0.125000 I-328.851776 J-9.327694
G02 X93.418127 Y63.067263 Z-0.125000 I-352.769363 J-4.241200
G01 X93.418082 Y63.067243 Z-0.125000
G00 Z5.000000

(End cutting path id: rect8799)


(Start cutting path id: rect8799)
(Change tool to Cylindrical cutter)

G00 Z5.000000
G00 X98.851407 Y56.268298

G01 Z-0.125000 F1000.0(Penetrate)
G02 X100.752535 Y54.848258 Z-0.125000 I-4.802894 J-8.412662 F1100.000000
G02 X102.314116 Y52.948504 Z-0.125000 I-7.200281 J-7.510246
G03 X103.232969 Y52.298495 Z-0.125000 I1.260171 J0.806929
G03 X105.929154 Y52.101609 Z-0.125000 I1.969050 J8.405014
G01 X107.336743 Y52.220594 Z-0.125000
G01 X107.336743 Y55.123921 Z-0.125000
G03 X106.352338 Y61.648899 Z-0.125000 I-22.117105 J-0.000000
G03 X104.722400 Y63.591087 Z-0.125000 I-3.119974 J-0.963330
G03 X103.105110 Y64.016073 Z-0.125000 I-1.772963 J-3.457233
G03 X101.504124 Y63.720133 Z-0.125000 I-0.147571 J-3.680171
G03 X99.279397 Y61.681476 Z-0.125000 I1.805074 J-4.203044
G03 X98.164360 Y57.501937 Z-0.125000 I8.281241 J-4.447815
G03 X98.339494 Y56.785680 Z-0.125000 I1.390068 J-0.039649
G03 X98.851407 Y56.268298 Z-0.125000 I1.183625 J0.659171
G01 X98.851407 Y56.268298 Z-0.125000
G00 Z5.000000

(End cutting path id: rect8799)


(Start cutting path id: rect8799)
(Change tool to Cylindrical cutter)

G00 Z5.000000
G00 X108.448938 Y69.460449

G01 Z-0.125000 F1000.0(Penetrate)
G03 X108.652931 Y69.603781 Z-0.125000 I0.000000 J0.216828 F1100.000000
G03 X108.697509 Y70.150361 Z-0.125000 I-0.986995 J0.355605
G03 X108.541718 Y70.832606 Z-0.125000 I-8.305434 J-1.537629
G03 X108.334181 Y71.484196 Z-0.125000 I-7.780832 J-2.119414
G03 X108.209509 Y71.483888 Z-0.125000 I-0.062280 J-0.022788
G03 X108.085614 Y70.794282 Z-0.125000 I1.970552 J-0.709964
G03 X108.236527 Y69.622740 Z-0.125000 I4.298459 J-0.041782
G03 X108.448938 Y69.460449 Z-0.125000 I0.212412 J0.057859
G01 X108.448938 Y69.460449 Z-0.125000
G00 Z5.000000

(End cutting path id: rect8799)


(Start cutting path id: rect8799)
(Change tool to Cylindrical cutter)

G00 Z5.000000
G00 X107.708379 Y73.783910

G01 Z-0.125000 F1000.0(Penetrate)
G03 X108.060240 Y72.870200 Z-0.125000 I27.072725 J9.900847 F1100.000000
G03 X108.564661 Y71.668174 Z-0.125000 I47.378759 J19.175287
G01 X109.084526 Y70.472323 Z-0.125000
G01 X109.135543 Y63.941136 Z-0.125000
G03 X109.197585 Y57.410126 Z-0.125000 I1932.198916 J15.089491
G03 X109.227533 Y55.719300 Z-0.125000 I129.666203 J1.450958
G03 X109.435472 Y54.419439 Z-0.125000 I4.910677 J0.118999
G03 X109.636456 Y54.363947 Z-0.125000 I0.117981 J0.035596
G02 X110.751558 Y55.069925 Z-0.125000 I2.558881 J-2.808139
G02 X111.881037 Y55.286137 Z-0.125000 I1.096164 J-2.668033
G02 X113.350995 Y55.036175 Z-0.125000 I-0.055141 J-4.771465
G02 X114.337556 Y54.457549 Z-0.125000 I-0.897309 J-2.660277
G03 X114.510681 Y54.521941 Z-0.125000 I0.069835 J0.077168
G03 X114.591404 Y56.509801 Z-0.125000 I-11.982698 J1.482162
G03 X114.223771 Y60.775618 Z-0.125000 I-48.548459 J-2.035206
G03 X113.571427 Y64.309089 Z-0.125000 I-33.933073 J-4.437721
G02 X112.316407 Y70.340935 Z-0.125000 I100.048806 J23.963199
G02 X111.941520 Y73.517294 Z-0.125000 I27.301810 J4.832575
G03 X111.331256 Y77.091440 Z-0.125000 I-16.583821 J-0.992416
G03 X110.733779 Y77.741904 Z-0.125000 I-0.947803 J-0.270960
G03 X110.174266 Y77.686491 Z-0.125000 I-0.224119 J-0.589485
G03 X109.538099 Y76.991027 Z-0.125000 I0.942530 J-1.500861
G02 X108.816784 Y76.660015 Z-0.125000 I-0.570069 J0.290827
G02 X108.171731 Y77.323360 Z-0.125000 I0.205575 J0.845211
G03 X107.811599 Y77.951138 Z-0.125000 I-1.159312 J-0.247868
G03 X107.398369 Y78.029189 Z-0.125000 I-0.269828 J-0.295645
G03 X107.248437 Y77.831110 Z-0.125000 I0.084251 J-0.219556
G03 X107.240810 Y76.311097 Z-0.125000 I8.767262 J-0.804017
G03 X107.452169 Y74.721396 Z-0.125000 I15.748182 J1.284906
G03 X107.708379 Y73.783910 Z-0.125000 I5.706638 J1.055836
G01 X107.708379 Y73.783910 Z-0.125000
G00 Z5.000000

(End cutting path id: rect8799)


(Start cutting path id: rect8799)
(Change tool to Cylindrical cutter)

G00 Z5.000000
G00 X108.555593 Y77.210483

G01 Z-0.125000 F1000.0(Penetrate)
G03 X108.859087 Y77.009308 Z-0.125000 I0.251804 J0.050361 F1100.000000
G03 X109.338960 Y77.371462 Z-0.125000 I-0.140915 J0.685725
G01 X109.722537 Y78.107373 Z-0.125000
G01 X109.081573 Y78.107373 Z-0.125000
G03 X108.666350 Y77.869523 Z-0.125000 I-0.000000 J-0.481360
G03 X108.555593 Y77.210483 Z-0.125000 I0.809824 J-0.474925
G01 X108.555593 Y77.210483 Z-0.125000
G00 Z5.000000

(End cutting path id: rect8799)


(Start cutting path id: rect8799)
(Change tool to Cylindrical cutter)

G00 Z5.000000
G00 X100.097280 Y83.737529

G01 Z-0.125000 F1000.0(Penetrate)
G02 X105.086687 Y83.202484 Z-0.125000 I-0.872112 J-31.663767 F1100.000000
G02 X106.610224 Y82.511144 Z-0.125000 I-0.651576 J-3.460322
G02 X107.766347 Y81.152869 Z-0.125000 I-2.776178 J-3.534166
G02 X108.374463 Y79.322778 Z-0.125000 I-4.596591 J-2.543468
G03 X108.679012 Y78.691303 Z-0.125000 I1.127338 J0.154518
G03 X109.184014 Y78.475326 Z-0.125000 I0.505003 J0.482418
G01 X109.877409 Y78.475326 Z-0.125000
G01 X109.788427 Y79.257229 Z-0.125000
G03 X109.168581 Y81.483471 Z-0.125000 I-7.285735 J-0.829133
G03 X107.990796 Y83.179104 Z-0.125000 I-5.320286 J-2.438605
G03 X105.938297 Y84.328416 Z-0.125000 I-3.055655 J-3.049560
G03 X100.115642 Y85.060567 Z-0.125000 I-6.243274 J-26.132230
G01 X95.378231 Y85.134738 Z-0.125000
G01 X95.378231 Y84.501121 Z-0.125000
G01 X95.378231 Y83.867506 Z-0.125000
G01 X100.097280 Y83.737529 Z-0.125000
G00 Z5.000000

(End cutting path id: rect8799)


(Start cutting path id: rect8799)
(Change tool to Cylindrical cutter)

G00 Z5.000000
G00 X96.301831 Y85.466453

G01 Z-0.125000 F1000.0(Penetrate)
G01 X96.857473 Y85.466453 Z-0.125000 F1100.000000
G01 X96.738463 Y87.260232 Z-0.125000
G03 X96.296910 Y91.084002 Z-0.125000 I-39.435547 J-2.616476
G03 X96.068146 Y91.318831 Z-0.125000 I-0.282866 J-0.046718
G03 X95.899793 Y91.194763 Z-0.125000 I-0.026865 J-0.139801
G03 X95.746187 Y88.423578 Z-0.125000 I24.920360 J-2.771185
G01 X95.746187 Y85.466453 Z-0.125000
G01 X96.301831 Y85.466453 Z-0.125000
G00 Z5.000000

(End cutting path id: rect8799)


(Start cutting path id: rect8799)
(Change tool to Cylindrical cutter)

G00 Z5.000000
G00 X95.498909 Y82.657304

G01 Z-0.125000 F1000.0(Penetrate)
G03 X95.545036 Y82.886723 Z-0.125000 I-0.586329 J0.237234 F1100.000000
G03 X95.505739 Y83.209234 Z-0.125000 I-1.219414 J0.015068
G01 X95.460236 Y83.212186 Z-0.125000
G03 X95.414110 Y82.982765 Z-0.125000 I0.586348 J-0.237235
G03 X95.453420 Y82.660255 Z-0.125000 I1.218986 J-0.015073
G01 X95.498926 Y82.657304 Z-0.125000
G01 X95.498909 Y82.657304 Z-0.125000
G00 Z5.000000

(End cutting path id: rect8799)


(Start cutting path id: rect8799)
(Change tool to Cylindrical cutter)

G00 Z5.000000
G00 X93.354483 Y82.246854

G01 Z-0.125000 F1000.0(Penetrate)
G02 X93.457424 Y82.087967 Z-0.125000 I-0.116261 J-0.188114 F1100.000000
G02 X93.538464 Y80.867027 Z-0.125000 I-9.156753 J-1.220940
G03 X93.861008 Y79.676477 Z-0.125000 I2.358505 J0.000000
G03 X94.356409 Y79.468263 Z-0.125000 I0.386429 J0.225969
G03 X94.610225 Y79.720537 Z-0.125000 I-0.085225 J0.339567
G03 X94.893771 Y81.555325 Z-0.125000 I-9.125298 J2.349516
G02 X95.027895 Y83.532087 Z-0.125000 I75.548763 J-4.133066
G02 X95.117480 Y84.316598 Z-0.125000 I11.977606 J-0.970383
G01 X95.232901 Y85.098501 Z-0.125000
G01 X94.201706 Y85.098501 Z-0.125000
G01 X93.170505 Y85.098501 Z-0.125000
G01 X93.170505 Y83.729531 Z-0.125000
G03 X93.252297 Y82.406160 Z-0.125000 I10.746842 J-0.000000
G03 X93.354483 Y82.246854 Z-0.125000 I0.217308 J0.026965
G01 X93.354483 Y82.246854 Z-0.125000
G00 Z5.000000

(End cutting path id: rect8799)


(Start cutting path id: rect8799)
(Change tool to Cylindrical cutter)

G00 Z5.000000
G00 X92.739256 Y82.657304

G01 Z-0.125000 F1000.0(Penetrate)
G03 X92.785379 Y82.886723 Z-0.125000 I-0.586349 J0.237228 F1100.000000
G03 X92.746085 Y83.209234 Z-0.125000 I-1.219587 J0.015059
G01 X92.700584 Y83.212186 Z-0.125000
G03 X92.654459 Y82.982765 Z-0.125000 I0.586339 J-0.237230
G03 X92.693766 Y82.660255 Z-0.125000 I1.219062 J-0.015074
G01 X92.739270 Y82.657304 Z-0.125000
G01 X92.739256 Y82.657304 Z-0.125000
G00 Z5.000000

(End cutting path id: rect8799)


(Start cutting path id: rect8799)
(Change tool to Cylindrical cutter)

G00 Z5.000000
G00 X91.337210 Y80.303003

G01 Z-0.125000 F1000.0(Penetrate)
G03 X91.597624 Y80.063937 Z-0.125000 I0.471685 J0.252440 F1100.000000
G03 X92.165103 Y79.947141 Z-0.125000 I0.567478 J1.320199
G01 X92.802552 Y79.947141 Z-0.125000
G01 X92.802552 Y81.142992 Z-0.125000
G03 X92.717598 Y82.253893 Z-0.125000 I-7.305780 J-0.000000
G03 X92.618577 Y82.338844 Z-0.125000 I-0.099021 J-0.015234
G02 X92.511659 Y82.415907 Z-0.125000 I0.000000 J0.112702
G02 X92.434600 Y82.890775 Z-0.125000 I1.424631 J0.474867
G03 X92.275226 Y83.283332 Z-0.125000 I-0.563146 J-0.000000
G03 X91.897999 Y83.442706 Z-0.125000 I-0.377227 J-0.366749
G03 X91.418648 Y83.357876 Z-0.125000 I0.000000 J-1.396760
G03 X91.268604 Y83.212734 Z-0.125000 I0.088148 J-0.241252
G03 X90.983545 Y81.646030 Z-0.125000 I3.652621 J-1.473873
G03 X91.337210 Y80.303003 Z-0.125000 I2.995008 J0.070607
G01 X91.337210 Y80.303003 Z-0.125000
G00 Z5.000000

(End cutting path id: rect8799)


(Start cutting path id: rect8799)
(Change tool to Cylindrical cutter)

G00 Z5.000000
G00 X95.611095 Y80.020908

G01 Z-0.125000 F1000.0(Penetrate)
G03 X96.150356 Y79.911222 Z-0.125000 I0.352480 J0.352480 F1100.000000
G03 X96.936290 Y80.556470 Z-0.125000 I-0.637783 J1.578113
G03 X97.094059 Y81.005071 Z-0.125000 I-0.830355 J0.544073
G03 X97.095991 Y82.209344 Z-0.125000 I-6.337252 J0.612303
G01 X96.980819 Y83.442706 Z-0.125000
G01 X96.363503 Y83.442706 Z-0.125000
G03 X95.916773 Y83.272119 Z-0.125000 I0.000000 J-0.670238
G03 X95.746187 Y82.890775 Z-0.125000 I0.340953 J-0.381344
G02 X95.661752 Y82.423278 Z-0.125000 I-1.336438 J-0.000000
G02 X95.540097 Y82.338844 Z-0.125000 I-0.121656 J0.045426
G03 X94.896145 Y81.674862 Z-0.125000 I0.000000 J-0.644253
G03 X95.611095 Y80.020908 Z-0.125000 I2.443797 J0.074872
G01 X95.611095 Y80.020908 Z-0.125000
G00 Z5.000000

(End cutting path id: rect8799)


(Start cutting path id: rect8799)
(Change tool to Cylindrical cutter)

G00 Z5.000000
G00 X91.882666 Y85.466453

G01 Z-0.125000 F1000.0(Penetrate)
G01 X92.434600 Y85.466453 Z-0.125000 F1100.000000
G01 X92.434600 Y88.410088 Z-0.125000
G03 X92.308003 Y91.227124 Z-0.125000 I-31.405693 J-0.000000
G03 X92.169491 Y91.353722 Z-0.125000 I-0.138511 J-0.012475
G03 X91.894606 Y91.136241 Z-0.125000 I0.000000 J-0.282462
G03 X91.526028 Y88.631725 Z-0.125000 I14.338188 J-3.389465
G02 X91.384360 Y86.294415 Z-0.125000 I-2667.853746 J160.529514
G02 X91.358060 Y85.880403 Z-0.125000 I-84.070006 J5.132575
G03 X91.479999 Y85.606188 Z-0.125000 I0.321567 J-0.021224
G03 X91.882666 Y85.466453 Z-0.125000 I0.402667 J0.510305
G01 X91.882666 Y85.466453 Z-0.125000
G00 Z5.000000

(End cutting path id: rect8799)


(Start cutting path id: rect8799)
(Change tool to Cylindrical cutter)

G00 Z5.000000
G00 X79.464214 Y78.475326

G01 Z-0.125000 F1000.0(Penetrate)
G03 X79.981716 Y78.601743 Z-0.125000 I-0.000000 J1.122434 F1100.000000
G03 X80.108132 Y78.809887 Z-0.125000 I-0.108145 J0.208143
G02 X80.143922 Y79.139304 Z-0.125000 I1.533916 J0.000000
G02 X80.401423 Y80.143723 Z-0.125000 I14.670579 J-3.225858
G02 X80.823801 Y81.065093 Z-0.125000 I3.380473 J-0.992190
G02 X81.643268 Y82.063432 Z-0.125000 I4.803291 J-3.107197
G02 X83.510085 Y83.085285 Z-0.125000 I2.782931 J-2.867955
G02 X88.893038 Y83.770871 Z-0.125000 I5.956031 J-25.289225
G01 X92.986530 Y83.861182 Z-0.125000
G01 X92.986530 Y84.479838 Z-0.125000
G01 X92.986530 Y85.098501 Z-0.125000
G01 X88.863436 Y85.098501 Z-0.125000
G03 X83.807376 Y84.687829 Z-0.125000 I-0.000000 J-31.329672
G03 X81.695911 Y83.926426 Z-0.125000 I0.989906 J-6.053508
G03 X79.712803 Y81.929026 Z-0.125000 I2.779394 J-4.742666
G03 X78.845348 Y78.981260 Z-0.125000 I5.675956 J-3.271811
G03 X78.995853 Y78.642408 Z-0.125000 I0.410881 J-0.020354
G03 X79.464214 Y78.475326 Z-0.125000 I0.468361 J0.572911
G01 X79.464214 Y78.475326 Z-0.125000
G00 Z5.000000

(End cutting path id: rect8799)


(Start cutting path id: rect8799)
(Change tool to Cylindrical cutter)

G00 Z5.000000
G00 X78.754639 Y76.007620

G01 Z-0.125000 F1000.0(Penetrate)
G03 X79.044468 Y75.361395 Z-0.125000 I1.246215 J0.170814 F1100.000000
G03 X79.444554 Y75.200041 Z-0.125000 I0.354832 J0.303132
G03 X79.843928 Y75.432656 Z-0.125000 I-0.053716 J0.551372
G03 X80.130888 Y76.175613 Z-0.125000 I-1.345487 J0.946577
G03 X80.195390 Y77.094106 Z-0.125000 I-8.466771 J1.056103
G03 X80.153889 Y77.601434 Z-0.125000 I-2.607479 J0.042059
G03 X79.923842 Y77.941737 Z-0.125000 I-0.501157 J-0.090877
G03 X79.349231 Y78.107373 Z-0.125000 I-0.574611 J-0.913875
G03 X78.830072 Y77.913616 Z-0.125000 I0.000000 J-0.792402
G03 X78.636320 Y77.489129 Z-0.125000 I0.368125 J-0.424487
G03 X78.660903 Y76.872564 Z-0.125000 I7.744362 J-0.000000
G03 X78.754642 Y76.007620 Z-0.125000 I15.348665 J1.225870
G01 X78.754639 Y76.007620 Z-0.125000
G00 Z5.000000

(End cutting path id: rect8799)


(Start cutting path id: rect8799)
(Change tool to Cylindrical cutter)

G00 Z5.000000
G00 X79.747000 Y65.872896

G01 Z-0.125000 F1000.0(Penetrate)
G02 X79.989369 Y63.473853 Z-0.125000 I-22.422641 J-3.477060 F1100.000000
G02 X80.000769 Y60.537561 Z-0.125000 I-33.611472 J-1.598664
G03 X80.061350 Y57.619700 Z-0.125000 I24.106062 J-0.959069
G03 X80.352965 Y56.214097 Z-0.125000 I5.817653 J0.473918
G03 X81.682333 Y52.801393 Z-0.125000 I39.771230 J13.527012
G03 X81.872495 Y52.765774 Z-0.125000 I0.107271 J0.047270
G03 X81.911369 Y52.850889 Z-0.125000 I-0.094662 J0.094669
G03 X82.218872 Y57.606951 Z-0.125000 I-346.452739 J24.787858
G02 X83.443780 Y68.072387 Z-0.125000 I89.488127 J-5.169574
G02 X84.383655 Y69.827642 Z-0.125000 I3.151523 J-0.558263
G02 X85.549105 Y70.641712 Z-0.125000 I3.219354 J-3.367653
G02 X87.057849 Y71.141105 Z-0.125000 I2.566838 J-5.226049
G03 X88.077962 Y71.637217 Z-0.125000 I-0.386554 J2.091679
G03 X88.386085 Y72.312092 Z-0.125000 I-0.601685 J0.682483
G02 X88.809626 Y73.949041 Z-0.125000 I3.487831 J-0.029167
G02 X89.976777 Y75.237653 Z-0.125000 I3.239783 J-1.761535
G02 X91.378988 Y75.663956 Z-0.125000 I1.386032 J-2.039734
G02 X92.470527 Y75.221284 Z-0.125000 I-0.010450 J-1.592862
G01 X92.986530 Y74.726933 Z-0.125000
G01 X92.986530 Y77.128830 Z-0.125000
G01 X92.986530 Y79.530725 Z-0.125000
G01 X92.236307 Y79.631354 Z-0.125000
G02 X91.419899 Y80.189410 Z-0.125000 I0.146215 J1.090117
G02 X90.968633 Y81.924881 Z-0.125000 I3.165107 J1.749413
G01 X90.962763 Y83.442694 Z-0.125000
G01 X88.433078 Y83.439505 Z-0.125000
G03 X82.455629 Y81.359745 Z-0.125000 I0.012242 J-9.664973
G03 X80.457430 Y77.141485 Z-0.125000 I3.257834 J-4.125649
G03 X80.571097 Y76.180333 Z-0.125000 I4.842948 J0.085436
G03 X80.691556 Y76.083617 Z-0.125000 I0.120459 J0.026657
G02 X81.284840 Y75.787537 Z-0.125000 I0.000000 J-0.742451
G02 X81.578137 Y74.905243 Z-0.125000 I-1.166566 J-0.877693
G02 X81.342389 Y73.865454 Z-0.125000 I-2.443348 J0.007354
G02 X80.011155 Y71.601381 Z-0.125000 I-13.404811 J6.358378
G03 X79.544907 Y70.651513 Z-0.125000 I2.639286 J-1.884872
G03 X79.374157 Y69.485643 Z-0.125000 I3.851001 J-1.159447
G03 X79.437926 Y68.269389 Z-0.125000 I12.115975 J0.025458
G03 X79.746983 Y65.872888 Z-0.125000 I46.972205 J4.839440
G01 X79.747000 Y65.872896 Z-0.125000
G00 Z5.000000

(End cutting path id: rect8799)


(Start cutting path id: rect8799)
(Change tool to Cylindrical cutter)

G00 Z5.000000
G00 X89.209000 Y70.959483

G01 Z-0.125000 F1000.0(Penetrate)
G02 X90.349915 Y70.183598 Z-0.125000 I-0.947319 J-2.619787 F1100.000000
G02 X91.658119 Y68.185837 Z-0.125000 I-6.255282 J-5.523386
G02 X92.105640 Y66.636180 Z-0.125000 I-4.733345 J-2.206378
G02 X92.422820 Y62.153134 Z-0.125000 I-40.221800 J-5.098471
G03 X92.544749 Y61.539885 Z-0.125000 I1.735687 J0.026353
G03 X92.691380 Y61.475541 Z-0.125000 I0.105841 J0.041949
G03 X92.823396 Y61.659784 Z-0.125000 I-0.073786 J0.192289
G03 X92.944691 Y67.954960 Z-0.125000 I-158.816167 J6.208814
G01 X92.941220 Y74.335840 Z-0.125000
G01 X92.469511 Y74.841780 Z-0.125000
G03 X91.487132 Y75.292887 Z-0.125000 I-1.040032 J-0.969665
G03 X90.218035 Y74.933141 Z-0.125000 I-0.085847 J-2.115558
G03 X89.343818 Y73.988062 Z-0.125000 I1.568974 J-2.328204
G03 X88.780096 Y72.393127 Z-0.125000 I4.218252 J-2.388013
G02 X88.612004 Y71.392601 Z-0.125000 I-239.001445 J39.638553
G02 X88.592587 Y71.291185 Z-0.125000 I-2.467546 J0.419869
G03 X88.625401 Y71.220332 Z-0.125000 I0.063651 J-0.013546
G03 X89.209000 Y70.959483 Z-0.125000 I2.066783 J3.840762
G01 X89.209000 Y70.959483 Z-0.125000
G00 Z5.000000

(End cutting path id: rect8799)


(Start cutting path id: rect8799)
(Change tool to Cylindrical cutter)

G00 Z5.000000
G00 X92.158631 Y21.442428

G01 Z-0.125000 F1000.0(Penetrate)
G01 X92.618577 Y21.442428 Z-0.125000 F1100.000000
G01 X92.618577 Y27.145719 Z-0.125000
G01 X92.618577 Y32.849007 Z-0.125000
G01 X92.158631 Y32.849007 Z-0.125000
G01 X91.698691 Y32.849007 Z-0.125000
G01 X91.698691 Y27.145719 Z-0.125000
G01 X91.698691 Y21.442428 Z-0.125000
G01 X92.158631 Y21.442428 Z-0.125000
G00 Z5.000000

(End cutting path id: rect8799)


(Start cutting path id: rect8799)
(Change tool to Cylindrical cutter)

G00 Z5.000000
G00 X96.360850 Y21.626409

G01 Z-0.125000 F1000.0(Penetrate)
G01 X96.791535 Y21.626409 Z-0.125000 F1100.000000
G01 X96.912783 Y25.519591 Z-0.125000
G03 X97.014791 Y29.413071 Z-0.125000 I-394.138339 J12.274388
G03 X97.034026 Y31.222879 Z-0.125000 I-85.133896 J1.809808
G01 X97.034026 Y33.032985 Z-0.125000
G01 X96.482095 Y33.032985 Z-0.125000
G01 X95.930165 Y33.032985 Z-0.125000
G01 X95.930165 Y27.329697 Z-0.125000
G01 X95.930165 Y21.626409 Z-0.125000
G01 X96.360850 Y21.626409 Z-0.125000
G00 Z5.000000

(End cutting path id: rect8799)


(Start cutting path id: rect8799)
(Change tool to Cylindrical cutter)

G00 Z5.000000
G00 X47.793738 Y23.282198

G01 Z-0.125000 F1000.0(Penetrate)
G03 X47.973566 Y23.439834 Z-0.125000 I0.000000 J0.181390 F1100.000000
G03 X48.395219 Y27.835634 Z-0.125000 I-61.320790 J8.100114
G01 X48.519394 Y29.905375 Z-0.125000
G01 X48.031790 Y29.905375 Z-0.125000
G01 X47.544192 Y29.905375 Z-0.125000
G01 X47.544192 Y26.593788 Z-0.125000
G03 X47.664269 Y23.402279 Z-0.125000 I42.473353 J0.000000
G03 X47.793738 Y23.282198 Z-0.125000 I0.129469 J0.009756
G01 X47.793738 Y23.282198 Z-0.125000
G00 Z5.000000

(End cutting path id: rect8799)


(Start cutting path id: rect8799)
(Change tool to Cylindrical cutter)

G00 Z5.000000
G00 X43.878204 Y26.087851

G01 Z-0.125000 F1000.0(Penetrate)
G03 X44.211987 Y23.400342 Z-0.125000 I30.939352 J2.478117 F1100.000000
G03 X44.351742 Y23.282198 Z-0.125000 I0.139755 J0.023588
G03 X44.480950 Y23.401806 Z-0.125000 I0.000000 J0.129593
G03 X44.600555 Y26.501798 Z-0.125000 I-40.113929 J3.099992
G01 X44.600555 Y29.721398 Z-0.125000
G01 X44.028682 Y29.721398 Z-0.125000
G03 X43.640998 Y29.575836 Z-0.125000 I0.000000 J-0.589053
G03 X43.555144 Y29.307448 Z-0.125000 I0.179508 J-0.205349
G02 X43.625505 Y28.889088 Z-0.125000 I-3.100324 J-0.736514
G02 X43.878204 Y26.087851 Z-0.125000 I-139.356435 J-13.983347
G01 X43.878204 Y26.087851 Z-0.125000
G00 Z5.000000

(End cutting path id: rect8799)


(Start cutting path id: rect8799)
(Change tool to Cylindrical cutter)

G00 Z5.000000
G00 X25.378318 Y56.652146

G01 Z-0.125000 F1000.0(Penetrate)
G03 X25.684870 Y55.023868 Z-0.125000 I48.700993 J8.325835 F1100.000000
G03 X26.031913 Y53.474532 Z-0.125000 I44.436103 J9.139933
G02 X26.394045 Y51.928161 Z-0.125000 I-98.744385 J-23.939676
G02 X26.572317 Y51.082829 Z-0.125000 I-29.309348 J-6.622502
G03 X26.749956 Y50.237306 Z-0.125000 I31.167001 J6.106587
G03 X27.402292 Y47.383197 Z-0.125000 I355.685689 J79.794030
G02 X28.164601 Y43.325502 Z-0.125000 I-46.759124 J-10.884972
G02 X28.591708 Y39.104228 Z-0.125000 I-50.184938 J-7.209936
G03 X28.969757 Y35.976161 Z-0.125000 I25.674712 J1.516097
G03 X29.260360 Y35.462097 Z-0.125000 I0.888544 J0.163126
G03 X29.886823 Y35.280271 Z-0.125000 I0.505918 J0.572971
G03 X30.253175 Y35.620655 Z-0.125000 I-0.070844 J0.443592
G02 X30.854325 Y36.264376 Z-0.125000 I0.863509 J-0.203846
G02 X31.716591 Y36.073647 Z-0.125000 I0.263754 J-0.852069
G02 X32.011699 Y35.700817 Z-0.125000 I-0.967287 J-1.068852
G02 X32.090117 Y35.396173 Z-0.125000 I-0.552542 J-0.304644
G03 X32.430225 Y35.062121 Z-0.125000 I0.334105 J0.000000
G03 X33.003530 Y35.412570 Z-0.125000 I-0.011925 J0.663672
G03 X33.279406 Y37.286326 Z-0.125000 I-2.467289 J1.320450
G03 X31.787194 Y41.442894 Z-0.125000 I-14.915292 J-3.008466
G01 X31.120571 Y42.691758 Z-0.125000
G01 X30.977248 Y46.739254 Z-0.125000
G02 X30.865891 Y50.787377 Z-0.125000 I256.338733 J9.077018
G02 X30.818100 Y54.855062 Z-0.125000 I258.773237 J5.074451
G01 X30.802267 Y58.923380 Z-0.125000
G01 X31.676160 Y59.736902 Z-0.125000
G02 X32.566105 Y60.530482 Z-0.125000 I18.967019 J-20.374402
G02 X32.967733 Y60.839883 Z-0.125000 I3.268137 J-3.826939
G03 X33.193411 Y61.228325 Z-0.125000 I-0.301372 J0.434870
G03 X33.335688 Y65.016865 Z-0.125000 I-37.535873 J3.306590
G01 X33.285958 Y68.904400 Z-0.125000
G01 X30.802267 Y66.727050 Z-0.125000
G03 X26.050750 Y60.759629 Z-0.125000 I14.154084 J-16.145480
G03 X25.378310 Y56.652129 Z-0.125000 I5.628673 J-3.030264
G01 X25.378318 Y56.652146 Z-0.125000
G00 Z5.000000

(End cutting path id: rect8799)


(Footer)
M5
G00 X0.0000 Y0.0000
M2
(Using default footer. To add your own footer create file "footer" in the output dir.)
(end)
%