%
(Header)
(Generated by gcodetools from Inkscape.)
(Using default header. To add your own header create file "header" in the output dir.)
M3
(Header end.)
G21 (All units in mm)

(Start cutting path id: path23748)
(Change tool to Cylindrical cutter)

G00 Z5.000000
G00 X19.702108 Y119.705937

G01 Z0.000000 F1000.0(Penetrate)
G03 X18.623034 Y119.644877 Z0.000000 I-0.010051 J-9.387739 F1100.000000
G03 X17.803295 Y119.483341 Z0.000000 I0.592012 J-5.165004
G03 X15.555804 Y118.653525 Z0.000000 I4.138229 J-14.666531
G03 X13.936799 Y117.698819 Z0.000000 I3.928014 J-8.511305
G02 X13.012206 Y117.111212 Z0.000000 I-4.835345 J6.587142
G02 X12.478720 Y116.904084 Z0.000000 I-1.066911 J1.957378
G03 X11.922264 Y116.738174 Z0.000000 I1.443539 J-5.857711
G03 X11.113703 Y116.424640 Z0.000000 I4.491157 J-12.781414
G03 X10.463240 Y115.954829 Z0.000000 I0.707846 J-1.665219
G03 X10.092263 Y115.263615 Z0.000000 I1.296453 J-1.140971
G03 X9.923312 Y113.544401 Z0.000000 I5.061851 J-1.365348
G03 X10.296617 Y112.243605 Z0.000000 I3.209592 J0.217130
G03 X10.581675 Y111.999856 Z0.000000 I0.454924 J0.243463
G03 X11.081677 Y111.970004 Z0.000000 I0.302734 J0.868310
G03 X11.639811 Y112.131725 Z0.000000 I-0.947724 J4.314791
G03 X12.164162 Y112.362345 Z0.000000 I-1.468977 J4.051354
G03 X12.312761 Y112.540718 Z0.000000 I-0.139417 J0.267230
G03 X12.246803 Y112.630360 Z0.000000 I-0.066155 J0.020410
G02 X12.094057 Y112.834410 Z0.000000 I0.000437 J0.159523
G02 X12.385278 Y113.106830 Z0.000000 I0.374994 J-0.109005
G02 X13.077850 Y113.014160 Z0.000000 I0.219042 J-0.997302
G02 X13.213519 Y112.673165 Z0.000000 I-0.130566 J-0.249433
G01 X13.253369 Y112.626814 Z0.000000
G03 X13.380284 Y112.703684 Z0.000000 I-0.037477 J0.205081
G02 X13.972414 Y112.998868 Z0.000000 I0.604775 J-0.471673
G02 X15.296593 Y112.735319 Z0.000000 I0.052665 J-3.193774
G03 X15.558764 Y112.699295 Z0.000000 I0.195457 J0.450466
G03 X15.630123 Y112.781108 Z0.000000 I-0.011219 J0.081813
G03 X15.468383 Y112.981379 Z0.000000 I-0.204860 J0.000001
G03 X13.199004 Y113.304488 Z0.000000 I-3.417687 J-15.873261
G03 X11.458835 Y113.264815 Z0.000000 I-0.658719 J-9.290840
G03 X11.310986 Y113.083754 Z0.000000 I0.019501 J-0.166819
G02 X11.219586 Y112.824017 Z0.000000 I-0.333982 J-0.028424
G02 X10.912683 Y112.666097 Z0.000000 I-0.381040 J0.363338
G02 X10.622038 Y112.823983 Z0.000000 I-0.039054 J0.274567
G02 X10.722096 Y113.077055 Z0.000000 I0.170304 J0.078983
G01 X10.736628 Y113.135063 Z0.000000
G03 X10.629036 Y113.188357 Z0.000000 I-0.114348 J-0.095598
G02 X10.120650 Y113.804296 Z0.000000 I0.024437 J0.537946
G02 X10.821491 Y114.503120 Z0.000000 I0.818255 J-0.119773
G02 X11.166115 Y114.471650 Z0.000000 I0.106161 J-0.740142
G02 X11.246219 Y114.360177 Z0.000000 I-0.037509 J-0.111472
G02 X11.173827 Y114.224667 Z0.000000 I-0.163027 J0.000000
G02 X10.912688 Y114.137202 Z0.000000 I-0.290883 J0.434907
G01 X10.890474 Y114.082907 Z0.000000
G03 X11.055630 Y113.979744 Z0.000000 I0.265233 J0.240834
G03 X11.530367 Y113.923160 Z0.000000 I0.407848 J1.402010
G03 X12.084139 Y114.027011 Z0.000000 I-0.092777 J2.023096
G02 X12.623895 Y114.106557 Z0.000000 I0.490147 J-1.454853
G02 X12.980871 Y113.997968 Z0.000000 I-0.023191 J-0.717299
G03 X13.300012 Y113.890676 Z0.000000 I0.384697 J0.615993
G03 X13.432775 Y113.957017 Z0.000000 I0.012737 J0.140527
G02 X14.170165 Y114.303039 Z0.000000 I0.633648 J-0.391618
G02 X15.082185 Y113.725104 Z0.000000 I-0.182308 J-1.296276
G03 X15.199546 Y113.665549 Z0.000000 I0.110656 J0.072646
G03 X15.320421 Y113.737014 Z0.000000 I-0.007654 J0.150902
G02 X15.473566 Y113.851969 Z0.000000 I0.223302 J-0.137998
G02 X15.773068 Y113.862831 Z0.000000 I0.172506 J-0.621975
G03 X16.107275 Y113.800418 Z0.000000 I2.486866 J12.390486
G03 X16.821305 Y113.681546 Z0.000000 I9.934871 J57.472149
G02 X17.414327 Y113.462424 Z0.000000 I-0.257717 J-1.609498
G02 X17.538987 Y113.242296 Z0.000000 I-0.136106 J-0.222440
G03 X17.607120 Y113.146117 Z0.000000 I0.103244 J0.000915
G03 X17.708729 Y113.180876 Z0.000000 I0.029163 J0.080644
G02 X18.357437 Y113.491678 Z0.000000 I0.572544 J-0.362621
G02 X19.589676 Y112.968318 Z0.000000 I-0.263949 J-2.333781
G03 X19.828970 Y112.846429 Z0.000000 I0.392771 J0.475253
G03 X19.942561 Y112.877487 Z0.000000 I0.029577 J0.115078
G03 X19.942708 Y113.180038 Z0.000000 I-0.151350 J0.151349
G03 X19.427378 Y113.393790 Z0.000000 I-0.515332 J-0.514331
G02 X19.058914 Y113.431948 Z0.000000 I0.000005 J1.798108
G02 X17.675603 Y113.760455 Z0.000000 I5.440958 J25.988111
G03 X16.285862 Y114.062417 Z0.000000 I-3.975977 J-14.949859
G03 X14.719620 Y114.261875 Z0.000000 I-3.196211 J-18.849035
G02 X13.348601 Y114.534765 Z0.000000 I0.537401 J6.280447
G02 X13.247773 Y114.729418 Z0.000000 I0.046937 J0.147753
G03 X13.213519 Y114.984813 Z0.000000 I-0.287911 J0.091380
G03 X12.967102 Y115.163081 Z0.000000 I-0.352660 J-0.228031
G02 X12.743723 Y115.550915 Z0.000000 I0.079509 J0.304040
G02 X13.191940 Y115.975688 Z0.000000 I0.576543 J-0.159500
G02 X13.746990 Y116.010955 Z0.000000 I0.392061 J-1.784974
G02 X13.868304 Y115.915006 Z0.000000 I-0.012588 J-0.140583
G03 X13.984365 Y115.842704 Z0.000000 I0.101662 J0.033888
G03 X14.495906 Y116.000244 Z0.000000 I-0.220272 J1.624509
G03 X14.577981 Y116.198812 Z0.000000 I-0.073055 J0.146442
G03 X14.391309 Y116.311441 Z0.000000 I-0.159688 J-0.053657
G02 X13.813920 Y116.308910 Z0.000000 I-0.296716 J1.828413
G02 X13.723876 Y116.413810 Z0.000000 I0.016081 J0.104900
G02 X14.023093 Y116.906810 Z0.000000 I0.555753 J-0.000002
G02 X15.245981 Y117.205939 Z0.000000 I1.222881 J-2.350090
G02 X15.445410 Y117.087381 Z0.000000 I-0.000001 J-0.227013
G02 X15.446247 Y116.837416 Z0.000000 I-0.231245 J-0.125758
G03 X15.401976 Y116.413901 Z0.000000 I0.497081 J-0.266032
G03 X15.616360 Y116.252995 Z0.000000 I0.214385 J0.062366
G02 X15.955252 Y116.183288 Z0.000000 I-0.000002 J-0.858663
G02 X16.261084 Y115.976044 Z0.000000 I-0.386335 J-0.899398
G03 X16.537749 Y115.793058 Z0.000000 I0.587066 J0.586970
G03 X16.655661 Y115.817096 Z0.000000 I0.040783 J0.101163
G03 X16.661818 Y116.058165 Z0.000000 I-0.123772 J0.123775
G03 X16.201900 Y116.319623 Z0.000000 I-0.625067 J-0.564286
G02 X15.946907 Y116.888600 Z0.000000 I0.075054 J0.375264
G02 X16.833970 Y117.396523 Z0.000000 I0.887060 J-0.520639
G02 X17.370895 Y117.233058 Z0.000000 I-0.000003 J-0.963541
G02 X17.472738 Y116.967697 Z0.000000 I-0.137596 J-0.205032
G03 X17.515586 Y116.855726 Z0.000000 I0.101140 J-0.025481
G03 X17.614191 Y116.872397 Z0.000000 I0.040542 J0.060153
G02 X18.265184 Y117.208238 Z0.000000 I0.671579 J-0.502924
G02 X19.511515 Y116.918922 Z0.000000 I0.062797 J-2.558638
G03 X20.066066 Y116.668495 Z0.000000 I2.488780 J4.771994
G03 X20.250790 Y116.634153 Z0.000000 I0.184726 J0.479659
G02 X20.435692 Y116.597882 Z0.000000 I-0.000001 J-0.489437
G02 X21.610964 Y116.079134 Z0.000000 I-8.587936 J-21.047486
G03 X22.781668 Y115.532205 Z0.000000 I40.322989 J84.785113
G03 X23.900258 Y115.029029 Z0.000000 I34.314295 J74.787687
G01 X25.022569 Y114.534315 Z0.000000
G01 X24.186136 Y113.936866 Z0.000000
G03 X23.352005 Y113.336706 Z0.000000 I84.193477 J-117.895934
G03 X23.274884 Y113.276138 Z0.000000 I0.747430 J-1.031081
G03 X23.254965 Y112.902961 Z0.000000 I0.166530 J-0.196008
G03 X23.887595 Y112.631410 Z0.000000 I0.632632 J0.601145
G03 X23.943425 Y112.693276 Z0.000000 I0.000000 J0.056124
G03 X23.864145 Y112.859967 Z0.000000 I-0.274168 J-0.028198
G02 X23.816190 Y113.221618 Z0.000000 I0.212136 J0.212135
G02 X24.431074 Y113.846410 Z0.000000 I1.502537 J-0.863749
G01 X25.226560 Y114.321019 Z0.000000
G01 X25.955782 Y113.948773 Z0.000000
G02 X26.627336 Y113.543070 Z0.000000 I-2.488537 J-4.877894
G02 X26.679050 Y113.437681 Z0.000000 I-0.070721 J-0.100084
G02 X26.632213 Y113.316582 Z0.000000 I-0.202564 J0.008739
G02 X26.026878 Y112.655601 Z0.000000 I-7.405153 J6.174054
G03 X25.513554 Y111.984519 Z0.000000 I2.213687 J-2.225161
G03 X25.493451 Y111.719782 Z0.000000 I0.269525 J-0.153598
G03 X25.604513 Y111.671271 Z0.000000 I0.079442 J0.030486
G03 X25.752904 Y111.823636 Z0.000000 I-0.097380 J0.243283
G02 X26.438763 Y112.950982 Z0.000000 I3.238794 J-1.198123
G02 X27.009602 Y113.203166 Z0.000000 I0.570838 J-0.519976
G02 X28.395902 Y112.817153 Z0.000000 I-0.000008 J-2.682365
G02 X28.781847 Y112.133334 Z0.000000 I-0.412820 J-0.683817
G02 X28.758673 Y112.077434 Z0.000000 I-0.079006 J0.000000
G02 X27.922337 Y111.274945 Z0.000000 I-20.439061 J20.464086
G03 X27.222240 Y110.469651 Z0.000000 I3.280520 J-3.558947
G03 X27.227728 Y110.270633 Z0.000000 I0.138438 J-0.095767
G02 X27.581137 Y109.438025 Z0.000000 I-1.395198 J-1.083514
G02 X27.426129 Y108.888865 Z0.000000 I-0.696312 J-0.099913
G03 X27.293933 Y108.627008 Z0.000000 I0.505396 J-0.419442
G03 X27.174861 Y107.873387 Z0.000000 I4.331929 J-1.070660
G03 X27.258884 Y107.487913 Z0.000000 I0.698113 J-0.049724
G03 X27.389646 Y107.480670 Z0.000000 I0.067630 J0.036976
G03 X27.570074 Y107.869428 Z0.000000 I-0.999759 J0.700253
G03 X27.541895 Y108.058764 Z0.000000 I-0.234430 J0.061875
G02 X27.517245 Y108.695854 Z0.000000 I0.550660 J0.340328
G02 X28.032513 Y109.009844 Z0.000000 I0.515266 J-0.265789
G03 X28.137763 Y109.118778 Z0.000000 I0.000000 J0.105312
G03 X28.019474 Y109.391021 Z0.000000 I-0.404462 J-0.013918
G02 X27.731195 Y110.408668 Z0.000000 I0.766913 J0.766907
G02 X28.521266 Y111.503127 Z0.000000 I1.718920 J-0.408459
G01 X29.175671 Y111.907754 Z0.000000
G01 X30.117445 Y111.268981 Z0.000000
G02 X30.823234 Y110.523370 Z0.000000 I-1.339376 J-1.974696
G02 X30.723826 Y110.260201 Z0.000000 I-0.153631 J-0.092328
G03 X30.412099 Y110.096767 Z0.000000 I0.304836 J-0.960436
G03 X29.782793 Y109.532469 Z0.000000 I3.567420 J-4.611442
G03 X29.400729 Y108.864202 Z0.000000 I1.129171 J-1.088923
G03 X29.412035 Y108.199839 Z0.000000 I1.124954 J-0.313135
G03 X29.687568 Y107.553096 Z0.000000 I3.453011 J1.089031
G03 X29.802143 Y107.485130 Z0.000000 I0.114575 J0.062589
G03 X29.869500 Y107.548712 Z0.000000 I0.000000 J0.067469
G03 X29.821504 Y107.818660 Z0.000000 I-0.591260 J0.034116
G02 X29.782741 Y108.760127 Z0.000000 I1.200045 J0.520940
G02 X30.463629 Y109.710398 Z0.000000 I1.907053 J-0.647370
G02 X31.377610 Y109.969074 Z0.000000 I0.781956 J-1.018863
G02 X32.486027 Y109.501564 Z0.000000 I-0.211852 J-2.050003
G01 X33.044762 Y109.035514 Z0.000000
G01 X32.059804 Y108.149578 Z0.000000
G03 X31.367199 Y107.235086 Z0.000000 I2.027504 J-2.255084
G03 X31.405397 Y106.821416 Z0.000000 I0.356467 J-0.175683
G03 X31.742110 Y106.449768 Z0.000000 I2.138218 J1.598871
G03 X31.811142 Y106.450661 Z0.000000 I0.034040 J0.037234
G03 X31.824687 Y106.526117 Z0.000000 I-0.045331 J0.047082
G03 X31.624276 Y106.838166 Z0.000000 I-1.374757 J-0.662548
G02 X31.594806 Y107.135969 Z0.000000 I0.205698 J0.170715
G02 X32.193438 Y107.891241 Z0.000000 I2.438155 J-1.317617
G02 X33.055431 Y108.544284 Z0.000000 I4.637191 J-5.225504
G02 X33.333249 Y108.623066 Z0.000000 I0.268753 J-0.418489
G02 X35.269643 Y107.844070 Z0.000000 I-0.054152 J-2.930807
G02 X35.112567 Y106.977002 Z0.000000 I-0.354755 J-0.383495
G03 X34.882846 Y106.850929 Z0.000000 I0.436254 J-1.067236
G03 X34.322666 Y106.418267 Z0.000000 I4.886685 J-6.905915
G02 X33.757927 Y106.015259 Z0.000000 I-2.805568 J3.334275
G02 X33.558448 Y105.960040 Z0.000000 I-0.199477 J0.332691
G03 X33.496467 Y105.879797 Z0.000000 I-0.000000 J-0.064059
G03 X33.681289 Y105.489523 Z0.000000 I1.124452 J0.293606
G03 X33.996251 Y105.273322 Z0.000000 I0.463009 J0.336992
G03 X34.077726 Y105.383433 Z0.000000 I0.019032 J0.071116
G02 X34.105192 Y105.801196 Z0.000000 I0.303924 J0.189802
G02 X35.104376 Y106.628211 Z0.000000 I2.651457 J-2.186335
G02 X35.583167 Y106.658054 Z0.000000 I0.271148 J-0.494508
G02 X36.533789 Y106.062398 Z0.000000 I-1.136722 J-2.870508
G01 X37.454344 Y105.217773 Z0.000000
G01 X36.900817 Y104.731254 Z0.000000
G02 X36.333058 Y104.281280 Z0.000000 I-4.716004 J5.367279
G02 X36.218866 Y104.244735 Z0.000000 I-0.114191 J0.160135
G03 X36.157134 Y104.187555 Z0.000000 I-0.000000 J-0.061914
G03 X36.174935 Y103.672969 Z0.000000 I2.314838 J-0.177524
G02 X36.187864 Y103.162335 Z0.000000 I-2.103605 J-0.308743
G02 X36.120213 Y103.100830 Z0.000000 I-0.067651 J0.006453
G02 X34.559668 Y103.539319 Z0.000000 I0.000009 J2.996202
G02 X34.117920 Y104.322539 Z0.000000 I0.480190 J0.787022
G03 X34.030520 Y104.447852 Z0.000000 I-0.134176 J-0.000447
G03 X33.470216 Y104.563382 Z0.000000 I-0.655362 J-1.761948
G02 X32.030828 Y105.017752 Z0.000000 I0.151203 J2.986078
G02 X31.618683 Y105.726648 Z0.000000 I0.469428 J0.747178
G01 X31.595974 Y106.245927 Z0.000000
G01 X31.464571 Y105.674163 Z0.000000
G03 X31.549237 Y105.207720 Z0.000000 I0.585618 J-0.134608
G03 X32.073187 Y104.755463 Z0.000000 I1.067558 J0.707157
G02 X32.572010 Y104.281218 Z0.000000 I-0.462036 J-0.985442
G02 X32.681799 Y103.611558 Z0.000000 I-0.934136 J-0.496979
G02 X32.526138 Y102.823691 Z0.000000 I-12.730006 J2.105792
G02 X32.465525 Y102.672017 Z0.000000 I-0.518850 J0.119400
G02 X32.176229 Y102.533910 Z0.000000 I-0.247511 J0.146418
G02 X30.949749 Y102.894622 Z0.000000 I0.664530 J4.524981
G01 X30.163201 Y103.251979 Z0.000000
G01 X30.353792 Y104.215344 Z0.000000
G02 X30.644288 Y105.079727 Z0.000000 I3.476978 J-0.687512
G02 X30.854462 Y105.243478 Z0.000000 I0.272141 J-0.132539
G01 X30.863786 Y105.315278 Z0.000000
G03 X30.259247 Y105.541646 Z0.000000 I-1.364635 J-2.723971
G02 X29.580277 Y105.950448 Z0.000000 I0.345965 J1.342851
G02 X29.353955 Y106.534794 Z0.000000 I0.641202 J0.584344
G03 X29.285119 Y107.225938 Z0.000000 I-3.504042 J0.000010
G03 X29.201337 Y107.294543 Z0.000000 I-0.083783 J-0.016856
G03 X29.125332 Y107.226542 Z0.000000 I-0.000000 J-0.076476
G03 X29.126885 Y106.627112 Z0.000000 I2.627043 J-0.292910
G02 X28.855308 Y106.194400 Z0.000000 I-0.405157 J-0.047296
G02 X27.781224 Y106.160694 Z0.000000 I-0.591089 J1.705463
G02 X27.184051 Y106.449364 Z0.000000 I0.497394 J1.790987
G02 X27.063541 Y106.683698 Z0.000000 I0.172621 J0.236927
G03 X26.996087 Y106.782173 Z0.000000 I-0.107019 J-0.000966
G03 X26.896777 Y106.749958 Z0.000000 I-0.030231 J-0.075985
G02 X26.441878 Y106.534594 Z0.000000 I-0.397748 J0.252029
G02 X25.064967 Y106.974054 Z0.000000 I0.471111 J3.852868
G03 X24.672667 Y107.147582 Z0.000000 I-1.281742 J-2.367467
G03 X24.302614 Y107.240955 Z0.000000 I-0.704998 J-2.014067
G02 X22.912265 Y107.600640 Z0.000000 I1.181484 J7.433994
G02 X22.588436 Y107.864094 Z0.000000 I0.217379 J0.597941
G02 X22.576984 Y108.621435 Z0.000000 I0.628221 J0.388256
G02 X23.249543 Y109.009858 Z0.000000 I0.672557 J-0.388058
G03 X23.561277 Y109.070101 Z0.000000 I0.000002 J0.836658
G03 X23.605409 Y109.152798 Z0.000000 I-0.027146 J0.067611
G02 X23.741494 Y109.711660 Z0.000000 I0.650312 J0.137646
G02 X24.275448 Y109.970614 Z0.000000 I0.547113 J-0.448155
G03 X24.333975 Y110.066809 Z0.000000 I-0.001252 J0.066664
G03 X24.112035 Y110.301538 Z0.000000 I-0.492322 J-0.243208
G03 X23.525337 Y110.590185 Z0.000000 I-2.795313 J-4.941129
G03 X22.873955 Y110.824172 Z0.000000 I-2.461105 J-5.827646
G02 X22.334886 Y111.140338 Z0.000000 I0.375596 J1.258044
G02 X22.086664 Y111.588762 Z0.000000 I0.615096 J0.633395
G01 X21.965313 Y112.154943 Z0.000000
G01 X21.942602 Y111.630825 Z0.000000
G02 X21.808299 Y111.221416 Z0.000000 I-0.795478 J0.034215
G02 X21.586735 Y111.100751 Z0.000000 I-0.226349 J0.151872
G03 X21.557771 Y110.957229 Z0.000000 I0.001299 J-0.074946
G03 X22.647999 Y110.632467 Z0.000000 I1.826084 J4.137847
G02 X23.404139 Y110.414061 Z0.000000 I-0.544928 J-3.304697
G02 X23.568184 Y110.244587 Z0.000000 I-0.116889 J-0.277276
G02 X23.471177 Y109.542553 Z0.000000 I-0.685402 J-0.263011
G02 X22.789076 Y109.200447 Z0.000000 I-0.682099 J0.508940
G03 X22.484610 Y109.084036 Z0.000000 I-0.000001 J-0.456358
G03 X22.416831 Y108.866918 Z0.000000 I0.148115 J-0.165377
G02 X22.224834 Y108.314119 Z0.000000 I-0.527702 J-0.126461
G02 X21.483616 Y108.132113 Z0.000000 I-0.571025 J0.725189
G02 X20.634521 Y108.643598 Z0.000000 I0.261700 J1.394950
G02 X20.553755 Y109.301332 Z0.000000 I0.496358 J0.394776
G03 X20.602989 Y109.665845 Z0.000000 I-0.578921 J0.263775
G03 X20.478196 Y109.772220 Z0.000000 I-0.124793 J-0.020013
G03 X20.277044 Y109.693914 Z0.000000 I-0.000001 J-0.297511
G03 X20.218742 Y109.533984 Z0.000000 I0.124919 J-0.136131
G02 X20.057836 Y108.856423 Z0.000000 I-0.974300 J-0.126512
G02 X19.632828 Y108.669265 Z0.000000 I-0.361585 J0.244963
G03 X19.153930 Y108.645585 Z0.000000 I-0.179546 J-1.223322
G03 X19.061063 Y108.526697 Z0.000000 I0.029667 J-0.118889
G03 X19.149508 Y108.407235 Z0.000000 I0.124900 J-0.000000
G03 X19.517432 Y108.387476 Z0.000000 I0.223895 J0.733711
G02 X19.964644 Y108.390836 Z0.000000 I0.232768 J-1.217747
G02 X20.613687 Y108.194653 Z0.000000 I-0.491096 J-2.796441
G03 X21.262676 Y107.941232 Z0.000000 I3.415986 J7.790338
G03 X22.110848 Y107.679835 Z0.000000 I4.461494 J12.969723
G02 X23.150600 Y107.108719 Z0.000000 I-0.669133 J-2.450223
G02 X23.237625 Y106.655047 Z0.000000 I-0.259073 J-0.284880
G01 X23.270028 Y106.609545 Z0.000000
G03 X23.384663 Y106.672906 Z0.000000 I-0.021015 J0.173402
G02 X23.789868 Y106.917454 Z0.000000 I0.541493 J-0.439253
G02 X24.493203 Y106.893643 Z0.000000 I0.300952 J-1.509971
G02 X25.271525 Y106.406624 Z0.000000 I-0.413043 J-1.525539
G02 X25.362760 Y105.896029 Z0.000000 I-0.380144 J-0.331374
G03 X25.230609 Y105.430181 Z0.000000 I2.607432 J-0.991338
G01 X25.265229 Y105.388290 Z0.000000
G03 X25.333460 Y105.427568 Z0.000000 I0.000000 J0.078901
G03 X25.541806 Y105.864761 Z0.000000 I-2.575390 J1.495556
G02 X25.797020 Y106.233866 Z0.000000 I0.876484 J-0.333250
G02 X26.080445 Y106.341230 Z0.000000 I0.283424 J-0.320416
G02 X27.132646 Y106.194936 Z0.000000 I-0.000011 J-3.857117
G02 X27.794624 Y105.855076 Z0.000000 I-0.515952 J-1.819601
G02 X27.816441 Y105.794404 Z0.000000 I-0.038206 J-0.047997
G02 X27.616317 Y105.009340 Z0.000000 I-9.555237 J2.017734
G02 X27.248673 Y104.414142 Z0.000000 I-1.292483 J0.387202
G02 X26.850983 Y104.289051 Z0.000000 I-0.328164 J0.348589
G03 X26.449487 Y104.283995 Z0.000000 I-0.184913 J-1.259948
G01 X26.418063 Y104.214232 Z0.000000
G02 X26.444408 Y104.059363 Z0.000000 I-0.177925 J-0.109943
G02 X26.289266 Y103.629068 Z0.000000 I-1.728972 J0.380265
G01 X26.066290 Y103.196521 Z0.000000
G01 X26.486182 Y103.633160 Z0.000000
G02 X26.936546 Y103.949044 Z0.000000 I1.029584 J-0.988918
G02 X27.235508 Y103.965572 Z0.000000 I0.171268 J-0.385813
G03 X27.463003 Y104.045500 Z0.000000 I0.060653 J0.191085
G03 X27.815466 Y104.836247 Z0.000000 I-2.149290 J1.431938
G02 X28.224329 Y105.567898 Z0.000000 I1.586845 J-0.406699
G02 X28.661950 Y105.712134 Z0.000000 I0.355950 J-0.343975
G02 X29.250534 Y105.583773 Z0.000000 I-1.015690 J-6.070932
G02 X29.785379 Y105.408752 Z0.000000 I-1.395488 J-5.169183
G02 X30.110423 Y105.087420 Z0.000000 I-0.206310 J-0.533760
G02 X30.191865 Y104.391410 Z0.000000 I-1.247530 J-0.498746
G02 X29.990670 Y103.623621 Z0.000000 I-3.611085 J0.536010
G02 X29.796913 Y103.358064 Z0.000000 I-0.585904 J0.224025
G03 X29.797912 Y103.187955 Z0.000000 I0.067811 J-0.084659
G03 X30.486678 Y102.818681 Z0.000000 I1.410709 J1.804258
G02 X31.366828 Y102.438395 Z0.000000 I-1.735965 J-5.226463
G02 X31.450415 Y102.298283 Z0.000000 I-0.075637 J-0.140112
G02 X31.410142 Y102.108493 Z0.000000 I-0.467350 J0.000001
G02 X31.054717 Y101.407878 Z0.000000 I-7.001590 J3.111478
G01 X30.659393 Y100.718484 Z0.000000
G01 X31.358468 Y101.519922 Z0.000000
G01 X32.057542 Y102.321360 Z0.000000
G01 X32.850048 Y102.015374 Z0.000000
G02 X33.584961 Y101.403681 Z0.000000 I-0.538251 J-1.394001
G02 X33.636965 Y100.734854 Z0.000000 I-0.626853 J-0.385176
G03 X33.460601 Y100.161419 Z0.000000 I2.846257 J-1.189224
G01 X33.512635 Y100.125120 Z0.000000
G03 X33.651198 Y100.265145 Z0.000000 I-0.220505 J0.356771
G03 X33.928804 Y100.814514 Z0.000000 I-3.507321 J2.117143
G02 X34.378139 Y101.109434 Z0.000000 I0.441478 J-0.182868
G02 X35.691376 Y100.785478 Z0.000000 I-0.049749 J-3.025416
G02 X36.152555 Y100.247986 Z0.000000 I-0.415132 J-0.822788
G02 X36.023786 Y99.764413 Z0.000000 I-0.437495 J-0.142432
G03 X35.729300 Y99.416216 Z0.000000 I1.151941 J-1.272882
G03 X35.739765 Y99.319955 Z0.000000 I0.065105 J-0.041621
G03 X35.839178 Y99.309859 Z0.000000 I0.055896 J0.055895
G03 X36.385979 Y99.746172 Z0.000000 I-2.130688 J3.231034
G01 X36.933551 Y100.270661 Z0.000000
G01 X37.948656 Y99.756591 Z0.000000
G01 X38.963391 Y99.242148 Z0.000000
G01 X38.436665 Y98.789130 Z0.000000
G03 X38.474574 Y98.659989 Z0.000000 I0.048165 J-0.055996
G03 X38.776522 Y98.741479 Z0.000000 I0.055380 J0.394954
G02 X39.311917 Y98.983911 Z0.000000 I0.760194 J-0.966429
G02 X39.774879 Y98.927226 Z0.000000 I0.141672 J-0.761839
G02 X40.089563 Y98.623399 Z0.000000 I-0.271668 J-0.596255
G02 X40.143771 Y98.187949 Z0.000000 I-0.590796 J-0.294645
G01 X40.030607 Y97.668669 Z0.000000
G01 X40.334359 Y98.091537 Z0.000000
G01 X40.638111 Y98.514404 Z0.000000
G01 X41.381108 Y98.135459 Z0.000000
G02 X41.895212 Y97.607626 Z0.000000 I-0.521514 J-1.022233
G02 X41.833753 Y97.186982 Z0.000000 I-0.344524 J-0.164474
G03 X41.714706 Y96.878024 Z0.000000 I0.341393 J-0.308959
G03 X41.833751 Y96.624521 Z0.000000 I0.329434 J-0.000001
G03 X42.026810 Y96.593469 Z0.000000 I0.122826 J0.147971
G03 X42.127451 Y96.739916 Z0.000000 I-0.057904 J0.147597
G02 X42.464038 Y97.285538 Z0.000000 I0.618682 J-0.005027
G02 X43.229665 Y97.304606 Z0.000000 I0.402624 J-0.785924
G02 X44.785994 Y96.177112 Z0.000000 I-1.956273 J-4.338209
G02 X45.174257 Y95.176858 Z0.000000 I-1.094298 J-1.000250
G02 X44.958921 Y94.981197 Z0.000000 I-0.196561 J0.000001
G02 X42.839177 Y95.400955 Z0.000000 I1.035554 J10.791606
G02 X42.584762 Y95.561079 Z0.000000 I0.166144 J0.546156
G02 X42.505648 Y95.764265 Z0.000000 I0.221358 J0.203185
G03 X42.453811 Y95.997080 Z0.000000 I-0.548739 J0.000002
G03 X42.332928 Y96.132787 Z0.000000 I-0.288209 J-0.135035
G01 X42.260817 Y96.103474 Z0.000000
G03 X42.262197 Y95.849510 Z0.000000 I0.497540 J-0.124281
G02 X42.139020 Y95.640359 Z0.000000 I-0.165617 J-0.043310
G02 X40.957484 Y95.515612 Z0.000000 I-1.016885 J3.973592
G02 X39.711008 Y95.714030 Z0.000000 I0.215718 J5.369605
G02 X39.577580 Y95.905726 Z0.000000 I0.050090 J0.177148
G03 X39.533489 Y96.174076 Z0.000000 I-0.565502 J0.044882
G03 X39.434639 Y96.239257 Z0.000000 I-0.098850 J-0.042365
G03 X39.326735 Y96.177759 Z0.000000 I-0.000000 J-0.125413
G03 X39.265266 Y95.953374 Z0.000000 I0.378817 J-0.224386
G02 X39.146148 Y95.786610 Z0.000000 I-0.176294 J0.000001
G02 X38.431440 Y95.667495 Z0.000000 I-0.714701 J2.084572
G02 X36.681205 Y95.942379 Z0.000000 I0.000017 J5.709572
G02 X36.406067 Y96.320042 Z0.000000 I0.121627 J0.377662
G02 X36.474191 Y96.706638 Z0.000000 I1.131032 J-0.000003
G02 X36.644305 Y96.974817 Z0.000000 I0.694878 J-0.252739
G03 X36.651476 Y97.064589 Z0.000000 I-0.049489 J0.049126
G03 X36.560176 Y97.092075 Z0.000000 I-0.063502 J-0.045555
G03 X36.328489 Y96.898672 Z0.000000 I0.164728 J-0.432811
G03 X36.178997 Y96.461123 Z0.000000 I0.931511 J-0.562570
G02 X35.934857 Y96.161295 Z0.000000 I-0.356861 J0.041269
G02 X34.643120 Y95.953388 Z0.000000 I-1.291725 J3.908773
G03 X33.233646 Y95.885380 Z0.000000 I-0.000042 J-14.638972
G03 X33.165688 Y95.810451 Z0.000000 I0.007240 J-0.074849
G03 X33.224318 Y95.725984 Z0.000000 I0.090293 J0.000093
G03 X33.547235 Y95.667509 Z0.000000 I0.322920 J0.862394
G02 X33.805339 Y95.539741 Z0.000000 I-0.000001 J-0.324582
G02 X33.947396 Y95.143018 Z0.000000 I-0.553316 J-0.421924
G01 X33.966374 Y94.618898 Z0.000000
G01 X34.097778 Y95.095369 Z0.000000
G02 X34.347628 Y95.429030 Z0.000000 I0.550615 J-0.151932
G02 X34.965850 Y95.632886 Z0.000000 I0.732906 J-1.183296
G02 X36.393720 Y95.530131 Z0.000000 I0.383691 J-4.640429
G02 X36.498002 Y95.280367 Z0.000000 I-0.037334 J-0.162240
G03 X36.490990 Y95.155208 Z0.000000 I0.111700 J-0.069034
G03 X36.585482 Y95.095362 Z0.000000 I0.094492 J0.044674
G03 X36.726145 Y95.156529 Z0.000000 I0.000001 J0.192321
G03 X36.787237 Y95.311634 Z0.000000 I-0.166351 J0.155106
G02 X36.887011 Y95.420743 Z0.000000 I0.109545 J-0.000000
G02 X38.130293 Y95.431864 Z0.000000 I0.690678 J-7.712011
G02 X39.404348 Y95.209264 Z0.000000 I-0.455265 J-6.363034
G02 X39.744338 Y94.977352 Z0.000000 I-0.175165 J-0.621972
G03 X39.932083 Y94.875202 Z0.000000 I0.206881 J0.156627
G03 X40.021657 Y94.956881 Z0.000000 I0.006153 J0.083208
G02 X40.176535 Y95.131049 Z0.000000 I0.178988 J-0.003217
G02 X41.600343 Y95.171288 Z0.000000 I0.899503 J-6.617861
G02 X43.151774 Y94.998332 Z0.000000 I-1.888846 J-23.987811
G02 X43.310800 Y94.924114 Z0.000000 I-0.043409 J-0.300493
G02 X43.664800 Y93.904162 Z0.000000 I-0.741476 J-0.828756
G02 X43.041291 Y93.380051 Z0.000000 I-0.623508 J0.108822
G03 X42.965040 Y93.323905 Z0.000000 I-0.000000 J-0.079850
G03 X42.982100 Y93.189462 Z0.000000 I0.156031 J-0.048504
G03 X43.138684 Y93.068470 Z0.000000 I0.239328 J0.147911
G03 X43.601513 Y92.998872 Z0.000000 I0.462833 J1.504128
G03 X43.791009 Y93.100751 Z0.000000 I0.000001 J0.227170
G03 X43.764927 Y93.246040 Z0.000000 I-0.089195 J0.058974
G02 X43.567910 Y93.549371 Z0.000000 I0.300289 J0.410690
G02 X43.559080 Y94.199355 Z0.000000 I1.606807 J0.346880
G02 X43.867124 Y94.693286 Z0.000000 I0.786657 J-0.147582
G02 X44.504208 Y94.904755 Z0.000000 I0.637082 J-0.853916
G02 X45.313600 Y94.870325 Z0.000000 I-0.000028 J-9.531641
G02 X45.922454 Y94.783771 Z0.000000 I-0.464933 J-5.455232
G02 X46.320127 Y94.504755 Z0.000000 I-0.118305 J-0.591522
G02 X46.470393 Y93.879219 Z0.000000 I-0.905261 J-0.548277
G02 X46.243476 Y93.248891 Z0.000000 I-1.241410 J0.090897
G02 X45.841300 Y92.994398 Z0.000000 I-0.511888 J0.363912
G03 X45.594943 Y92.860395 Z0.000000 I0.077263 J-0.435501
G03 X45.618697 Y92.755418 Z0.000000 I0.047651 J-0.044394
G03 X45.975712 Y92.659346 Z0.000000 I0.602468 J1.527458
G03 X46.529949 Y92.617686 Z0.000000 I0.554247 J3.666034
G02 X47.034393 Y92.288837 Z0.000000 I-0.000002 J-0.551329
G02 X47.078632 Y91.373646 Z0.000000 I-1.167981 J-0.515122
G03 X47.179595 Y91.290025 Z0.000000 I0.066840 J-0.022060
G03 X47.407696 Y91.556045 Z0.000000 I-0.243811 J0.439860
G01 X47.791481 Y92.598324 Z0.000000
G01 X47.235349 Y92.720795 Z0.000000
G02 X46.883394 Y92.996456 Z0.000000 I0.110645 J0.503780
G02 X46.736919 Y93.731064 Z0.000000 I1.300187 J0.641155
G02 X47.118090 Y94.257236 Z0.000000 I0.607981 J-0.039285
G02 X48.473063 Y94.427526 Z0.000000 I1.002206 J-2.498586
G02 X49.272730 Y93.959949 Z0.000000 I-0.156717 J-1.185620
G02 X49.475139 Y93.092659 Z0.000000 I-0.883761 J-0.663518
G02 X49.191527 Y92.613702 Z0.000000 I-0.799552 J0.150003
G02 X48.643918 Y92.410713 Z0.000000 I-0.568174 J0.692636
G03 X48.607626 Y92.321151 Z0.000000 I0.001208 J-0.052623
G03 X48.890714 Y92.160193 Z0.000000 I0.425757 J0.419386
G02 X50.533872 Y91.583502 Z0.000000 I-2.157905 J-8.777743
G02 X50.701674 Y91.320778 Z0.000000 I-0.121768 J-0.262723
G02 X50.319536 Y90.283543 Z0.000000 I-1.598762 J0.000005
G02 X49.322136 Y89.702642 Z0.000000 I-1.326550 J1.130957
G01 X49.296545 Y89.647689 Z0.000000
G03 X49.382816 Y89.593946 Z0.000000 I0.091811 J0.051265
G03 X49.801033 Y89.721283 Z0.000000 I0.033757 J0.639581
G03 X50.490614 Y90.425534 Z0.000000 I-1.952802 J2.601861
G02 X51.146666 Y91.205713 Z0.000000 I5.425255 J-3.896162
G02 X51.333003 Y91.284669 Z0.000000 I0.188011 J-0.184350
G02 X51.552249 Y91.248734 Z0.000000 I0.004055 J-0.662052
G02 X52.857709 Y90.760547 Z0.000000 I-8.449127 J-24.583360
G02 X53.905406 Y90.097480 Z0.000000 I-1.302341 J-3.217058
G02 X54.050370 Y89.663169 Z0.000000 I-0.320512 J-0.348328
G01 X53.945028 Y89.091404 Z0.000000
G01 X54.294570 Y89.542562 Z0.000000
G02 X54.693496 Y89.838346 Z0.000000 I0.726860 J-0.563410
G02 X55.103451 Y89.851520 Z0.000000 I0.224053 J-0.587025
G02 X56.800057 Y89.125287 Z0.000000 I-2.627492 J-8.483179
G02 X56.991838 Y88.798813 Z0.000000 I-0.181992 J-0.326474
G02 X56.956241 Y88.617500 Z0.000000 I-0.479566 J0.000001
G02 X56.454684 Y87.482562 Z0.000000 I-20.228757 J8.261296
G03 X56.106189 Y86.359195 Z0.000000 I3.707699 J-1.765953
G03 X56.192999 Y85.830547 Z0.000000 I0.841367 J-0.133290
G02 X56.340333 Y85.310230 Z0.000000 I-1.167108 J-0.611499
G02 X56.253296 Y84.961358 Z0.000000 I-0.581129 J-0.040312
G03 X56.273932 Y84.773770 Z0.000000 I0.129240 J-0.080712
G03 X56.435696 Y84.775982 Z0.000000 I0.079823 J0.078552
G03 X56.678235 Y85.206482 Z0.000000 I-0.769996 J0.717378
G03 X56.626658 Y85.450486 Z0.000000 I-0.257635 J0.072995
G02 X56.426214 Y86.108847 Z0.000000 I0.684514 J0.568101
G02 X56.857084 Y87.709628 Z0.000000 I5.134807 J-0.523721
G02 X57.382577 Y88.758022 Z0.000000 I13.223348 J-5.972130
G02 X57.463098 Y88.805510 Z0.000000 I0.080520 J-0.044519
G02 X59.386763 Y88.341514 Z0.000000 I-0.000012 J-4.219677
G02 X59.850664 Y87.582685 Z0.000000 I-0.388674 J-0.758826
G02 X59.651739 Y86.728948 Z0.000000 I-1.931499 J0.000006
G02 X58.727597 Y85.303816 Z0.000000 I-6.500960 J3.203411
G03 X58.622035 Y85.047512 Z0.000000 I0.358550 J-0.297565
G03 X58.692196 Y84.907377 Z0.000000 I0.148635 J-0.013214
G03 X58.841515 Y84.929776 Z0.000000 I0.061428 J0.099400
G03 X59.177968 Y85.462018 Z0.000000 I-1.526709 J1.337561
G01 X59.762402 Y86.814748 Z0.000000
G02 X60.283034 Y87.149273 Z0.000000 I0.509191 J-0.220069
G02 X61.658982 Y86.775652 Z0.000000 I-0.060736 J-2.944114
G02 X62.393902 Y85.985083 Z0.000000 I-0.857269 J-1.533804
G02 X62.293648 Y85.415846 Z0.000000 I-0.456428 J-0.213061
G03 X62.159823 Y85.190210 Z0.000000 I0.374834 J-0.374818
G03 X62.191277 Y85.067055 Z0.000000 I0.119548 J-0.035061
G03 X62.291772 Y85.068904 Z0.000000 I0.049357 J0.049349
G03 X62.542678 Y85.445252 Z0.000000 I-1.036812 J0.963040
G02 X62.822074 Y85.867033 Z0.000000 I1.467480 J-0.668661
G02 X63.002399 Y85.946290 Z0.000000 I0.180324 J-0.165504
G02 X64.591708 Y85.540814 Z0.000000 I-0.000010 J-3.317513
G02 X64.997246 Y84.857474 Z0.000000 I-0.372949 J-0.683338
G02 X64.611947 Y83.268938 Z0.000000 I-3.467344 J0.000010
G02 X63.633338 Y82.211199 Z0.000000 I-2.395415 J1.234643
G03 X63.529572 Y82.079771 Z0.000000 I0.128867 J-0.208421
G03 X63.472157 Y81.723562 Z0.000000 I1.076289 J-0.356213
G02 X63.073355 Y79.258065 Z0.000000 I-7.820704 J0.000023
G02 X62.429128 Y78.583687 Z0.000000 I-1.034995 J0.343820
G03 X62.297170 Y78.436546 Z0.000000 I0.077564 J-0.202302
G03 X62.283206 Y78.029047 Z0.000000 I0.890772 J-0.234513
G02 X62.018244 Y77.608934 Z0.000000 I-0.357259 J-0.068291
G02 X60.827355 Y77.647132 Z0.000000 I-0.531120 J2.024566
G02 X59.886364 Y78.314376 Z0.000000 I0.623074 J1.875845
G02 X59.894899 Y78.853944 Z0.000000 I0.342213 J0.264439
G01 X59.872259 Y78.930820 Z0.000000
G03 X59.702069 Y78.915365 Z0.000000 I-0.066769 J-0.209533
G02 X59.282870 Y78.855520 Z0.000000 I-0.292139 J0.548254
G02 X58.711909 Y79.122334 Z0.000000 I0.281296 J1.346266
G02 X58.387634 Y79.791938 Z0.000000 I0.528284 J0.669159
G02 X58.712674 Y80.615402 Z0.000000 I1.207207 J-0.000630
G03 X59.215208 Y81.232317 Z0.000000 I-4.291603 J4.009042
G03 X59.208126 Y81.315590 Z0.000000 I-0.052911 J0.037437
G03 X59.127504 Y81.318407 Z0.000000 I-0.041821 J-0.041811
G03 X58.370954 Y80.587858 Z0.000000 I6.607528 J-7.599716
G01 X57.615671 Y79.778230 Z0.000000
G01 X57.087083 Y80.193655 Z0.000000
G03 X56.543174 Y80.563504 Z0.000000 I-2.934151 J-3.730169
G03 X56.373124 Y80.609454 Z0.000000 I-0.170051 J-0.291691
G01 X56.344265 Y80.553723 Z0.000000
G03 X56.623273 Y80.255821 Z0.000000 I1.216047 J0.859312
G01 X57.059912 Y79.902561 Z0.000000
G01 X56.406250 Y79.308463 Z0.000000
G02 X55.730038 Y78.770558 Z0.000000 I-4.424996 J4.868761
G02 X55.540778 Y78.708787 Z0.000000 I-0.197836 J0.285328
G02 X53.822721 Y79.082243 Z0.000000 I-0.097568 J3.689776
G02 X52.486157 Y80.201113 Z0.000000 I1.593732 J3.261560
G03 X52.248966 Y80.400387 Z0.000000 I-0.525747 J-0.384984
G03 X52.123965 Y80.379791 Z0.000000 I-0.048137 J-0.097467
G02 X51.974232 Y80.347092 Z0.000000 I-0.100348 J0.100335
G02 X50.631272 Y80.933693 Z0.000000 I4.526261 J12.192974
G01 X49.271842 Y81.620858 Z0.000000
G01 X50.653981 Y82.083925 Z0.000000
G03 X51.959211 Y82.602286 Z0.000000 I-4.085677 J12.190172
G03 X52.035750 Y82.721945 Z0.000000 I-0.055267 J0.119659
G03 X51.982365 Y82.843205 Z0.000000 I-0.164409 J0.000000
G03 X51.845162 Y82.896529 Z0.000000 I-0.137203 J-0.149853
G02 X51.610602 Y83.227339 Z0.000000 I0.000001 J0.248563
G02 X52.222621 Y83.973056 Z0.000000 I1.327483 J-0.465477
G03 X52.585785 Y84.311790 Z0.000000 I-0.586506 J0.992851
G03 X52.556152 Y84.457342 Z0.000000 I-0.084933 J0.058500
G03 X52.167571 Y84.547966 Z0.000000 I-0.323702 J-0.509582
G03 X52.035755 Y84.401133 Z0.000000 I0.015872 J-0.146833
G02 X51.971646 Y84.221509 Z0.000000 I-0.283697 J0.000001
G02 X51.552209 Y83.810012 Z0.000000 I-2.084142 J1.704844
G03 X51.255005 Y83.409617 Z0.000000 I0.586961 J-0.746189
G03 X51.296104 Y83.154865 Z0.000000 I0.236576 J-0.092524
G02 X51.266948 Y82.856522 Z0.000000 I-0.162341 J-0.134731
G02 X50.050948 Y82.141251 Z0.000000 I-2.950131 J3.624112
G02 X48.913593 Y81.857703 Z0.000000 I-1.605734 J4.018021
G02 X48.049396 Y81.923494 Z0.000000 I-0.255774 J2.349016
G02 X47.200443 Y82.200265 Z0.000000 I2.101655 J7.886890
G02 X47.000415 Y82.329986 Z0.000000 I0.211230 J0.544797
G02 X47.102581 Y82.919598 Z0.000000 I0.256772 J0.259165
G02 X49.462807 Y83.482072 Z0.000000 I2.541867 J-5.432895
G01 X50.034573 Y83.499570 Z0.000000
G01 X49.492961 Y83.738923 Z0.000000
G02 X48.911974 Y84.348322 Z0.000000 I0.444540 J1.005463
G02 X49.028031 Y84.942761 Z0.000000 I0.530659 J0.204944
G01 X49.433779 Y85.374561 Z0.000000
G01 X49.019472 Y85.374562 Z0.000000
G03 X48.699755 Y85.279565 Z0.000000 I-0.000002 J-0.585505
G03 X48.604792 Y85.104314 Z0.000000 I0.114230 J-0.175252
G02 X48.536969 Y84.882464 Z0.000000 I-0.396753 J0.000001
G02 X48.366555 Y84.751057 Z0.000000 I-0.283113 J0.190949
G03 X48.295461 Y84.624272 Z0.000000 I0.036260 J-0.103658
G03 X48.466687 Y84.286123 Z0.000000 I0.730153 J0.157298
G02 X48.473740 Y83.867411 Z0.000000 I-0.240828 J-0.213472
G02 X47.563250 Y83.195081 Z0.000000 I-1.810298 J1.498891
G03 X46.845393 Y82.837343 Z0.000000 I2.212632 J-5.339108
G03 X46.680287 Y82.675805 Z0.000000 I0.243666 J-0.414194
G02 X45.417237 Y82.182705 Z0.000000 I-0.959232 J0.592855
G02 X44.602055 Y83.257256 Z0.000000 I0.300627 J1.074547
G02 X44.977155 Y83.862215 Z0.000000 I0.675391 J-0.000002
G02 X46.984787 Y84.439864 Z0.000000 I2.585744 J-5.209202
G01 X48.128319 Y84.554139 Z0.000000
G01 X46.864181 Y84.583183 Z0.000000
G02 X45.717264 Y84.760883 Z0.000000 I0.102311 J4.450419
G02 X45.503260 Y84.981115 Z0.000000 I0.087436 J0.299055
G03 X45.319641 Y85.201179 Z0.000000 I-0.325779 J-0.085190
G03 X44.961648 Y85.233498 Z0.000000 I-0.223849 J-0.480664
G03 X44.772931 Y85.111149 Z0.000000 I0.090595 J-0.346456
G03 X44.797860 Y85.029508 Z0.000000 I0.040287 J-0.032325
G02 X45.206589 Y84.596065 Z0.000000 I-0.180469 J-0.579613
G02 X45.050610 Y84.010677 Z0.000000 I-0.609236 J-0.151140
G02 X44.490599 Y83.562781 Z0.000000 I-1.964189 J1.881808
G02 X44.150897 Y83.468323 Z0.000000 I-0.339700 J0.563604
G02 X39.200381 Y84.632808 Z0.000000 I0.000032 J11.105317
G02 X37.041805 Y87.008377 Z0.000000 I1.972481 J3.960794
G03 X36.905860 Y87.183414 Z0.000000 I-0.357141 J-0.137069
G03 X36.789797 Y87.187054 Z0.000000 I-0.060779 J-0.085759
G02 X36.643530 Y87.177595 Z0.000000 I-0.082022 J0.132717
G02 X35.943690 Y87.569351 Z0.000000 I1.924404 J4.258773
G03 X35.237568 Y88.017141 Z0.000000 I-7.553142 J-11.129927
G03 X35.142251 Y88.043217 Z0.000000 I-0.095317 J-0.161173
G02 X35.047106 Y88.069733 Z0.000000 I0.000001 J0.183961
G02 X34.245147 Y88.585580 Z0.000000 I8.801836 J14.565046
G03 X33.449586 Y89.124945 Z0.000000 I-70.779605 J-103.543131
G03 X32.331821 Y89.872057 Z0.000000 I-136.189776 J-202.545767
G02 X31.263344 Y90.657424 Z0.000000 I7.741970 J11.652304
G02 X31.120172 Y90.854410 Z0.000000 I0.297122 J0.366474
G03 X30.990491 Y91.037465 Z0.000000 I-0.424995 J-0.163617
G03 X30.840617 Y91.092647 Z0.000000 I-0.149874 J-0.175939
G02 X30.533719 Y91.194036 Z0.000000 I0.000001 J0.515179
G02 X28.846141 Y92.571575 Z0.000000 I13.978319 J18.846838
G02 X28.423210 Y93.206507 Z0.000000 I1.020735 J1.138242
G02 X28.497353 Y93.572166 Z0.000000 I0.345205 J0.120350
G03 X28.670406 Y93.876253 Z0.000000 I-0.599221 J0.542296
G03 X28.614610 Y93.951854 Z0.000000 I-0.055796 J0.017210
G03 X28.434175 Y93.885440 Z0.000000 I-0.000001 J-0.278309
G03 X28.278847 Y93.665972 Z0.000000 I0.352978 J-0.414522
G02 X27.968916 Y93.471949 Z0.000000 I-0.283897 J0.108943
G02 X26.919415 Y93.782861 Z0.000000 I0.233219 J2.714026
G02 X24.709908 Y95.248536 Z0.000000 I6.553392 J12.277502
G02 X21.280687 Y98.352906 Z0.000000 I26.678557 J32.916496
G03 X20.478649 Y98.994662 Z0.000000 I-3.166879 J-3.135776
G03 X20.395866 Y98.906807 Z0.000000 I-0.032654 J-0.052160
G03 X21.990766 Y97.173943 Z0.000000 I7.682181 J5.470164
G03 X26.371844 Y93.856567 Z0.000000 I33.137897 J39.211801
G02 X28.321264 Y92.489627 Z0.000000 I-39.267804 J-58.074126
G02 X30.075284 Y91.164864 Z0.000000 I-35.212553 J-48.445883
G03 X38.289735 Y85.774166 Z0.000000 I35.941993 J45.815096
G03 X47.450827 Y81.755993 Z0.000000 I28.747245 J53.088928
G02 X49.230247 Y81.085814 Z0.000000 I-10.352915 J-30.185828
G02 X51.739438 Y79.993410 Z0.000000 I-25.230583 J-61.381176
G03 X58.069401 Y77.195353 Z0.000000 I96.268453 J209.226259
G03 X62.423919 Y75.460947 Z0.000000 I41.333517 J97.441160
G02 X64.886748 Y74.500161 Z0.000000 I-30.667492 J-82.248381
G02 X67.570183 Y73.363342 Z0.000000 I-40.126304 J-98.452736
G03 X76.748621 Y69.774246 Z0.000000 I47.624424 J108.259911
G03 X79.206861 Y69.363548 Z0.000000 I2.458262 J7.151700
G03 X80.069245 Y69.496781 Z0.000000 I0.000008 J2.857573
G03 X80.757253 Y69.854164 Z0.000000 I-0.681484 J2.152886
G02 X81.513561 Y70.028809 Z0.000000 I0.571276 J-0.748996
G02 X81.865422 Y69.632301 Z0.000000 I-0.086341 J-0.430993
G03 X81.938644 Y69.065863 Z0.000000 I5.707297 J0.449820
G03 X82.044099 Y68.640270 Z0.000000 I3.350738 J0.604396
G02 X81.956781 Y68.382444 Z0.000000 I-0.219043 J-0.069515
G02 X81.449628 Y68.224482 Z0.000000 I-0.501460 J0.716873
G02 X80.726983 Y68.269442 Z0.000000 I0.031701 J6.339513
G02 X80.054828 Y68.390876 Z0.000000 I0.683804 J5.705919
G03 X55.583121 Y73.936484 Z0.000000 I-191.880475 J-789.964461
G03 X47.365937 Y75.269651 Z0.000000 I-18.410057 J-87.482787
G02 X46.049802 Y75.508241 Z0.000000 I1.172108 J10.215095
G02 X43.172621 Y76.315673 Z0.000000 I12.396673 J49.703911
G03 X40.311780 Y77.203093 Z0.000000 I-225.184321 J-720.887805
G03 X39.169892 Y77.548554 Z0.000000 I-34.976922 J-113.552900
G03 X14.076120 Y83.455716 Z0.000000 I-63.801275 J-214.776356
G03 X8.109560 Y82.996423 Z0.000000 I-2.085629 J-11.890820
G03 X2.581570 Y80.029445 Z0.000000 I6.128283 J-18.051330
G03 X0.728705 Y77.292926 Z0.000000 I3.234208 J-4.185380
G02 X0.456846 Y76.537675 Z0.000000 I-5.676294 J1.616679
G02 X0.253347 Y76.210447 Z0.000000 I-1.239827 J0.544142
G03 X0.032012 Y75.897984 Z0.000000 I1.770382 J-1.488681
G03 X0.000220 Y75.781628 Z0.000000 I0.197029 J-0.116356
G03 X0.335988 Y75.002701 Z0.000000 I1.071368 J-0.000003
G03 X0.817664 Y75.009586 Z0.000000 I0.237295 J0.251271
G02 X0.894522 Y75.005521 Z0.000000 I0.036602 J-0.036579
G02 X1.508173 Y74.154914 Z0.000000 I-7.496565 J-6.054879
G03 X4.474010 Y70.779717 Z0.000000 I12.617732 J8.096733
G03 X13.151913 Y64.358560 Z0.000000 I55.710180 J66.215308
G03 X16.998085 Y62.123705 Z0.000000 I25.067791 J38.714483
G03 X21.347952 Y60.110866 Z0.000000 I24.655186 J47.574766
G02 X26.678370 Y57.791457 Z0.000000 I-50.615560 J-123.608462
G02 X28.460767 Y56.829895 Z0.000000 I-6.785292 J-14.710292
G03 X32.420811 Y54.770809 Z0.000000 I15.188855 J24.373741
G03 X39.360407 Y52.199904 Z0.000000 I30.850159 J72.621847
G02 X43.956458 Y50.707493 Z0.000000 I-120.128295 J-377.772224
G02 X46.127039 Y49.956744 Z0.000000 I-27.955273 J-84.338025
G03 X53.201665 Y48.030226 Z0.000000 I15.544208 J43.128874
G03 X59.496518 Y47.443695 Z0.000000 I6.294951 J33.487073
G03 X60.249861 Y47.616243 Z0.000000 I0.000005 J1.730806
G03 X60.422289 Y47.891123 Z0.000000 I-0.132891 J0.274881
G02 X60.506478 Y48.308079 Z0.000000 I1.074622 J-0.000003
G02 X60.803102 Y48.796422 Z0.000000 I1.793013 J-0.754834
G02 X62.811754 Y50.479307 Z0.000000 I5.623802 J-4.672255
G02 X63.281496 Y50.206094 Z0.000000 I0.155418 J-0.273212
G03 X63.432099 Y49.618194 Z0.000000 I1.222766 J-0.000004
G03 X63.632524 Y49.565833 Z0.000000 I0.124951 J0.068514
G02 X64.825528 Y49.798236 Z0.000000 I0.899815 J-1.440809
G02 X65.506393 Y49.237518 Z0.000000 I-0.154415 J-0.881239
G02 X65.542554 Y48.952149 Z0.000000 I-0.564319 J-0.216484
G02 X65.376480 Y48.104408 Z0.000000 I-5.421353 J0.621917
G02 X64.802712 Y47.512877 Z0.000000 I-0.831956 J0.232938
G02 X63.303828 Y47.455224 Z0.000000 I-0.855647 J2.732322
G03 X62.448326 Y47.487661 Z0.000000 I-0.512683 J-2.223837
G03 X62.392197 Y47.316747 Z0.000000 I0.015140 J-0.099645
G03 X62.973859 Y47.032739 Z0.000000 I0.703821 J0.703817
G03 X70.429304 Y46.322834 Z0.000000 I16.353121 J132.237436
G03 X73.335017 Y46.529871 Z0.000000 I0.707225 J10.568273
G03 X75.480267 Y47.394509 Z0.000000 I-1.386150 J6.532777
G03 X77.970280 Y49.431699 Z0.000000 I-6.636361 J10.651820
G03 X79.995971 Y52.178566 Z0.000000 I-10.269488 J9.693647
G03 X82.311545 Y56.997321 Z0.000000 I-35.114620 J19.839487
G03 X83.383036 Y60.619176 Z0.000000 I-18.674674 J7.494145
G02 X83.962947 Y61.799375 Z0.000000 I2.481146 J-0.486579
G02 X84.433139 Y61.817053 Z0.000000 I0.243453 J-0.213431
G03 X84.468124 Y61.798386 Z0.000000 I0.049438 J0.050537
G03 X84.631169 Y61.770553 Z0.000000 I0.459322 J2.199206
G02 X84.701640 Y61.537305 Z0.000000 I-0.198959 J-0.187381
G02 X84.434995 Y60.498973 Z0.000000 I-6.393023 J1.088333
G03 X83.275183 Y56.638127 Z0.000000 I45.040831 J-15.635063
G03 X83.104580 Y55.277897 Z0.000000 I5.337447 J-1.360246
G02 X83.058903 Y54.772852 Z0.000000 I-2.815044 J0.000008
G02 X82.804176 Y53.630718 Z0.000000 I-14.744799 J2.689030
G03 X81.952125 Y49.036051 Z0.000000 I30.097612 J-7.957737
G03 X82.091687 Y47.073280 Z0.000000 I5.486817 J-0.596212
G02 X82.133588 Y46.772303 Z0.000000 I-1.316800 J-0.336726
G02 X82.227162 Y41.916230 Z0.000000 I-344.920426 J-9.075373
G03 X82.295812 Y37.056475 Z0.000000 I1281.241064 J15.668752
G03 X82.308347 Y36.865259 Z0.000000 I1.938489 J0.031061
G02 X82.474106 Y33.105499 Z0.000000 I-26.390040 J-3.047009
G02 X81.955049 Y23.713160 Z0.000000 I-165.722284 J4.447945
G03 X81.834142 Y21.233669 Z0.000000 I35.510010 J-2.974255
G03 X81.879433 Y18.261663 Z0.000000 I51.033569 J-0.708642
G02 X81.921594 Y15.309007 Z0.000000 I-49.024241 J-2.176641
G02 X81.827323 Y14.958743 Z0.000000 I-0.741411 J0.011726
G03 X81.747697 Y14.616282 Z0.000000 I0.551513 J-0.308721
G03 X81.897320 Y13.649942 Z0.000000 I4.880364 J0.260896
G02 X82.091152 Y12.662548 Z0.000000 I-8.126905 J-2.108090
G02 X82.151554 Y11.761552 Z0.000000 I-6.689411 J-0.900977
G03 X82.201128 Y10.858496 Z0.000000 I8.249462 J-0.000024
G03 X82.341389 Y10.039921 Z0.000000 I6.881806 J0.757875
G03 X83.698384 Y4.651276 Z0.000000 I159.132878 J37.208440
G03 X83.950212 Y4.080677 Z0.000000 I1.989276 J0.537074
G02 X84.142791 Y3.677803 Z0.000000 I-1.551418 J-0.989063
G02 X84.526807 Y2.365375 Z0.000000 I-16.369910 J-5.502228
G03 X84.903321 Y1.047149 Z0.000000 I20.056681 J5.015748
G03 X85.109362 Y0.554413 Z0.000000 I3.005357 J0.967261
G03 X86.038835 Y-0.607252 Z0.000000 I3.420466 J1.784111
G03 X87.139207 Y-1.162013 Z0.000000 I1.708850 J2.020836
G01 X87.139587 Y-1.162013 Z0.000000
G03 X87.772646 Y-1.262688 Z0.000000 I0.997104 J4.229218
G03 X88.027756 Y-1.236415 Z0.000000 I0.057939 J0.689120
G02 X88.285114 Y-1.184425 Z0.000000 I0.418077 J-1.406567
G02 X88.714917 Y-1.160817 Z0.000000 I0.429791 J-3.900430
G03 X89.112310 Y-1.069892 Z0.000000 I0.000003 J0.913867
G03 X89.620218 Y-0.723430 Z0.000000 I-0.901870 J1.867649
G03 X89.894094 Y-0.211439 Z0.000000 I-0.605098 J0.652927
G03 X89.931414 Y1.216699 Z0.000000 I-5.324172 J0.853687
G03 X89.666335 Y2.689057 Z0.000000 I-10.432342 J-1.118164
G03 X89.302331 Y3.685791 Z0.000000 I-5.115946 J-1.303495
G02 X88.352936 Y6.874980 Z0.000000 I9.315256 J4.508980
G02 X88.556748 Y9.485343 Z0.000000 I6.354284 J0.817010
G03 X88.668317 Y9.995441 Z0.000000 I-3.663526 J1.068546
G03 X88.729841 Y10.656793 Z0.000000 I-6.075107 J0.898686
G02 X89.078059 Y17.634475 Z0.000000 I311.005442 J-12.023034
G02 X89.188093 Y18.145211 Z0.000000 I1.732060 J-0.105938
G03 X89.287619 Y18.581791 Z0.000000 I-1.507052 J0.573196
G03 X89.572266 Y22.665728 Z0.000000 I-133.791161 J11.376999
G02 X89.862014 Y26.746767 Z0.000000 I123.451837 J-6.714105
G02 X89.964989 Y27.144177 Z0.000000 I1.236672 J-0.108394
G03 X90.254277 Y28.139413 Z0.000000 I-3.470571 J1.548462
G03 X90.918698 Y33.624934 Z0.000000 I-106.965568 J15.738952
G02 X91.200369 Y35.892726 Z0.000000 I39.785643 J-3.790189
G02 X91.321845 Y36.255573 Z0.000000 I1.112008 J-0.170528
G03 X92.027750 Y38.411050 Z0.000000 I-5.657880 J3.046249
G03 X92.441578 Y44.263640 Z0.000000 I-42.458048 J5.943071
G02 X92.508403 Y45.356027 Z0.000000 I9.209383 J-0.015132
G02 X92.613933 Y45.693059 Z0.000000 I0.963867 J-0.116762
G03 X92.891079 Y46.720577 Z0.000000 I-2.126932 J1.124820
G03 X93.043533 Y56.306828 Z0.000000 I-195.124714 J7.897496
G03 X92.792100 Y59.824084 Z0.000000 I-28.134084 J-0.243570
G03 X92.355638 Y61.405820 Z0.000000 I-6.033599 J-0.813815
G02 X92.362566 Y61.640157 Z0.000000 I0.256287 J0.109694
G02 X92.522399 Y61.739350 Z0.000000 I0.160478 J-0.080216
G01 X92.525399 Y61.739350 Z0.000000
G01 X92.526399 Y61.739350 Z0.000000
G02 X92.537239 Y61.738365 Z0.000000 I-0.000271 J-0.063170
G03 X92.548699 Y61.737350 Z0.000000 I0.011460 J0.064137
G02 X92.577931 Y61.734497 Z0.000000 I-0.009696 J-0.250576
G02 X92.605699 Y61.729349 Z0.000000 I-0.079924 J-0.508598
G02 X92.679595 Y61.705459 Z0.000000 I-0.081488 J-0.378277
G02 X92.751619 Y61.668349 Z0.000000 I-0.260227 J-0.593507
G02 X92.806327 Y61.607041 Z0.000000 I-0.149217 J-0.188215
G02 X92.825718 Y61.539179 Z0.000000 I-0.109045 J-0.067861
G03 X92.902311 Y61.389866 Z0.000000 I0.183833 J-0.000001
G03 X93.492777 Y61.060107 Z0.000000 I1.741277 J2.424403
G02 X94.014198 Y60.684422 Z0.000000 I-0.546774 J-1.308566
G02 X94.159835 Y60.296255 Z0.000000 I-0.444468 J-0.388165
G02 X94.073135 Y59.966608 Z0.000000 I-0.670042 J0.000002
G02 X93.956594 Y59.936676 Z0.000000 I-0.072661 J0.041061
G03 X93.774957 Y59.946123 Z0.000000 I-0.099433 J-0.160890
G03 X93.486073 Y59.709607 Z0.000000 I0.346388 J-0.717763
G03 X93.362454 Y59.256009 Z0.000000 I0.502274 J-0.380529
G03 X93.566471 Y59.021327 Z0.000000 I0.273749 J0.031958
G02 X93.829933 Y58.730612 Z0.000000 I-0.090735 J-0.346968
G02 X94.330297 Y54.210454 Z0.000000 I-47.539969 J-7.550267
G03 X94.624288 Y51.776022 Z0.000000 I21.405968 J1.350093
G03 X94.894238 Y51.065373 Z0.000000 I2.026859 J0.363334
G01 X95.301836 Y50.398312 Z0.000000
G01 X95.302608 Y51.197142 Z0.000000
G02 X95.519236 Y51.931575 Z0.000000 I1.357512 J-0.001245
G02 X95.760091 Y51.906640 Z0.000000 I0.114101 J-0.073576
G02 X95.830009 Y51.597751 Z0.000000 I-1.031831 J-0.395918
G02 X95.877346 Y50.430320 Z0.000000 I-15.208746 J-1.201361
G03 X96.116313 Y48.042397 Z0.000000 I12.269931 J0.021970
G03 X96.427138 Y47.685018 Z0.000000 I0.468843 J0.093913
G02 X96.712071 Y47.542436 Z0.000000 I-0.414762 J-1.184842
G02 X97.161947 Y47.191796 Z0.000000 I-2.245713 J-3.345200
G01 X97.590776 Y46.805785 Z0.000000
G01 X97.590778 Y47.505975 Z0.000000
G02 X97.880301 Y48.001380 Z0.000000 I0.568610 J-0.000002
G02 X98.411569 Y47.968293 Z0.000000 I0.240119 J-0.426234
G02 X99.327931 Y46.381391 Z0.000000 I-1.368947 J-1.848532
G02 X98.733551 Y45.155992 Z0.000000 I-1.262401 J-0.144524
G03 X98.623778 Y44.290942 Z0.000000 I0.294727 J-0.476890
G03 X101.493353 Y42.280034 Z0.000000 I6.531677 J6.267827
G03 X102.368219 Y41.978282 Z0.000000 I2.222553 J5.024712
G03 X102.514792 Y42.021701 Z0.000000 I0.036723 J0.145140
G03 X102.540541 Y42.134588 Z0.000000 I-0.085105 J0.078793
G03 X102.451192 Y42.228661 Z0.000000 I-0.139309 J-0.042846
G02 X102.264197 Y42.306467 Z0.000000 I0.773346 J2.122229
G02 X101.593544 Y42.631433 Z0.000000 I13.129014 J27.949700
G01 X100.926485 Y42.964595 Z0.000000
G01 X100.964492 Y45.613845 Z0.000000
G02 X101.086154 Y48.227886 Z0.000000 I40.684937 J-0.583693
G02 X101.188211 Y48.449225 Z0.000000 I0.351070 J-0.027676
G02 X101.397424 Y48.532921 Z0.000000 I0.202288 J-0.202323
G02 X101.960250 Y48.430622 Z0.000000 I-0.044675 J-1.845218
G03 X102.473093 Y48.329691 Z0.000000 I0.611707 J1.754783
G03 X102.546530 Y48.399321 Z0.000000 I0.003710 J0.069629
G03 X102.474443 Y48.518706 Z0.000000 I-0.134901 J0.000000
G03 X101.784182 Y48.800603 Z0.000000 I-1.799238 J-3.419625
G02 X101.221010 Y49.177312 Z0.000000 I0.330672 J1.103664
G02 X101.021824 Y49.737915 Z0.000000 I0.689298 J0.560600
G02 X101.073708 Y50.441076 Z0.000000 I4.790988 J-0.000014
G02 X101.328190 Y51.803124 Z0.000000 I18.325029 J-2.719016
G02 X101.782163 Y52.918847 Z0.000000 I3.591154 J-0.810974
G02 X102.090544 Y53.044552 Z0.000000 I0.239859 J-0.147309
G03 X102.278575 Y53.198874 Z0.000000 I0.036848 J0.146817
G03 X102.067445 Y53.509852 Z0.000000 I-0.360983 J-0.017920
G02 X101.655084 Y53.795140 Z0.000000 I0.588173 J1.290818
G02 X101.372467 Y54.201484 Z0.000000 I0.974064 J0.978927
G02 X101.354545 Y54.649175 Z0.000000 I0.539483 J0.245801
G02 X101.851551 Y55.523313 Z0.000000 I2.802510 J-1.015055
G03 X102.389342 Y56.614211 Z0.000000 I-2.076893 J1.701875
G03 X102.254696 Y57.249031 Z0.000000 I-0.744080 J0.173870
G02 X101.993841 Y58.048270 Z0.000000 I1.028399 J0.777836
G02 X102.271099 Y58.235481 Z0.000000 I0.204122 J-0.003389
G03 X102.427604 Y58.311584 Z0.000000 I0.042670 J0.111226
G03 X102.509341 Y59.007511 Z0.000000 I-1.845955 J0.569572
G01 X102.451244 Y59.893081 Z0.000000
G01 X101.046765 Y60.222145 Z0.000000
G02 X99.688743 Y60.615779 Z0.000000 I3.106136 J13.255430
G02 X99.517596 Y60.752969 Z0.000000 I0.107338 J0.309253
G03 X99.361242 Y60.920669 Z0.000000 I-0.498815 J-0.308330
G03 X98.825598 Y61.250661 Z0.000000 I-2.571994 J-3.575142
G01 X98.257928 Y61.546593 Z0.000000
G01 X99.020649 Y61.561491 Z0.000000
G02 X99.783010 Y61.566781 Z0.000000 I0.599202 J-31.413433
G02 X101.164778 Y61.550285 Z0.000000 I-0.531930 J-102.430646
G01 X102.546538 Y61.523881 Z0.000000
G01 X102.527542 Y62.918301 Z0.000000
G03 X102.442424 Y63.831950 Z0.000000 I-5.795718 J-0.079160
G01 X102.367855 Y63.836251 Z0.000000
G02 X102.159855 Y63.474845 Z0.000000 I-0.858530 J0.253552
G02 X101.972524 Y63.418232 Z0.000000 I-0.143102 J0.135277
G02 X101.719051 Y63.481520 Z0.000000 I1.631785 J7.074681
G02 X100.655165 Y63.772236 Z0.000000 I35.144657 J130.705154
G03 X99.588501 Y64.050404 Z0.000000 I-9.382963 J-33.795748
G03 X98.940986 Y64.190641 Z0.000000 I-3.009366 J-12.330110
G02 X98.347970 Y64.381323 Z0.000000 I0.469535 J2.477710
G02 X98.218457 Y64.526403 Z0.000000 I0.103477 J0.222722
G02 X98.363219 Y64.766615 Z0.000000 I0.174945 J0.058297
G02 X100.950348 Y64.979785 Z0.000000 I2.587084 J-15.592174
G03 X102.422539 Y65.103642 Z0.000000 I-0.000045 J8.811873
G03 X102.546529 Y65.250411 Z0.000000 I-0.024871 J0.146769
G03 X102.376322 Y65.461974 Z0.000000 I-0.216587 J0.000001
G03 X99.365341 Y65.947630 Z0.000000 I-5.845752 J-26.666024
G02 X97.305791 Y66.318792 Z0.000000 I1.464181 J14.024336
G02 X96.825533 Y66.603157 Z0.000000 I0.250591 J0.970949
G02 X96.570359 Y67.056222 Z0.000000 I0.793045 J0.745049
G02 X96.606655 Y67.389708 Z0.000000 I0.435523 J0.121316
G03 X96.756663 Y67.757458 Z0.000000 I-1.735490 J0.922384
G03 X97.032880 Y68.839597 Z0.000000 I-14.812954 J4.357345
G02 X97.138267 Y69.280097 Z0.000000 I10.515726 J-2.282967
G02 X97.225332 Y69.582966 Z0.000000 I6.340859 J-1.658844
G02 X97.384189 Y69.841065 Z0.000000 I1.425225 J-0.699272
G02 X97.454633 Y69.880385 Z0.000000 I0.079921 J-0.060420
G02 X97.658016 Y69.655843 Z0.000000 I-1.485810 J-1.550178
G02 X98.162640 Y68.973593 Z0.000000 I-11.694693 J-9.177696
G03 X99.698916 Y67.079533 Z0.000000 I13.684697 J9.529617
G03 X100.400923 Y66.593097 Z0.000000 I1.491134 J1.402177
G03 X102.218181 Y66.189446 Z0.000000 I2.035549 J4.871625
G03 X102.546533 Y66.504491 Z0.000000 I0.013037 J0.315046
G03 X102.480094 Y66.628636 Z0.000000 I-0.149207 J0.000000
G03 X102.260653 Y66.695081 Z0.000000 I-0.219442 J-0.329144
G02 X102.051040 Y66.905583 Z0.000000 I0.000001 J0.209616
G02 X102.266658 Y68.124871 Z0.000000 I3.642256 J-0.015383
G03 X102.477736 Y68.898137 Z0.000000 I-4.758904 J1.714483
G03 X102.538022 Y69.554281 Z0.000000 I-3.393171 J0.642600
G03 X102.413908 Y69.598425 Z0.000000 I-0.070030 J-0.000344
G03 X101.989340 Y68.887222 Z0.000000 I2.137731 J-1.758495
G03 X101.453476 Y67.549681 Z0.000000 I95.313204 J-38.961801
G03 X101.334555 Y67.219574 Z0.000000 I5.775409 J-2.267059
G02 X101.028773 Y66.951275 Z0.000000 I-0.380286 J0.125014
G02 X100.475794 Y67.056907 Z0.000000 I-0.142688 J0.753263
G02 X100.341460 Y67.286149 Z0.000000 I0.155128 J0.244885
G02 X100.352951 Y69.329457 Z0.000000 I17.124384 J0.925380
G01 X100.490317 Y71.437097 Z0.000000
G01 X101.070648 Y71.639225 Z0.000000
G02 X101.658042 Y71.798676 Z0.000000 I1.425075 J-4.088097
G02 X102.098788 Y71.841722 Z0.000000 I0.440740 J-2.234818
G03 X102.377779 Y72.010837 Z0.000000 I0.000001 J0.314683
G03 X102.546971 Y72.700851 Z0.000000 I-1.322462 J0.690018
G01 X102.546973 Y73.559431 Z0.000000
G01 X101.165203 Y73.417605 Z0.000000
G02 X98.417272 Y73.297498 Z0.000000 I-2.397197 J23.350649
G02 X98.221873 Y73.461513 Z0.000000 I0.003019 J0.201998
G02 X98.268834 Y73.576079 Z0.000000 I0.111212 J0.021321
G02 X98.460114 Y73.625672 Z0.000000 I0.163642 J-0.237485
G03 X98.651375 Y73.691109 Z0.000000 I0.023525 J0.243474
G03 X98.734824 Y73.884382 Z0.000000 I-0.182092 J0.193273
G02 X98.823903 Y74.039903 Z0.000000 I0.180302 J-0.000001
G02 X99.028525 Y74.056731 Z0.000000 I0.119799 J-0.204239
G03 X99.317020 Y74.018735 Z0.000000 I0.223492 J0.582700
G03 X99.647945 Y74.121529 Z0.000000 I-0.092279 J0.881146
G02 X99.984882 Y74.273162 Z0.000000 I1.175780 J-2.162486
G02 X101.260497 Y74.705944 Z0.000000 I11.105062 J-30.635577
G01 X102.546978 Y75.112801 Z0.000000
G01 X102.546980 Y75.939181 Z0.000000
G03 X102.449731 Y76.697424 Z0.000000 I-3.004540 J0.000009
G03 X102.308743 Y76.852671 Z0.000000 I-0.218805 J-0.057065
G02 X102.222590 Y76.976029 Z0.000000 I0.045238 J0.123357
G02 X102.308744 Y77.192901 Z0.000000 I0.316042 J-0.000001
G03 X102.932904 Y78.697077 Z0.000000 I-1.668175 J1.573799
G03 X102.372050 Y79.275226 Z0.000000 I-0.560856 J0.017034
G02 X102.199913 Y79.293582 Z0.000000 I0.000002 J0.816346
G02 X101.847930 Y79.388390 Z0.000000 I0.759137 J3.519144
G03 X101.772954 Y79.362877 Z0.000000 I-0.020416 J-0.062928
G01 X101.784630 Y79.296070 Z0.000000
G02 X101.891476 Y79.146600 Z0.000000 I-0.167204 J-0.232446
G01 X101.847929 Y79.087242 Z0.000000
G03 X101.629688 Y79.061547 Z0.000000 I0.012843 J-1.048758
G03 X101.323819 Y78.968870 Z0.000000 I0.489049 J-2.165133
G02 X101.143025 Y79.028807 Z0.000000 I-0.053825 J0.140286
G02 X101.022300 Y79.445343 Z0.000000 I0.658219 J0.416534
G02 X101.132540 Y79.927328 Z0.000000 I1.108791 J-0.000003
G02 X101.308182 Y80.037580 Z0.000000 I0.175642 J-0.084780
G03 X101.481975 Y80.209090 Z0.000000 I0.000001 J0.173808
G03 X101.317184 Y80.715807 Z0.000000 I-0.827794 J0.010946
G03 X101.191876 Y80.768146 Z0.000000 I-0.106965 J-0.079920
G03 X101.139994 Y80.691238 Z0.000000 I0.008561 J-0.061729
G02 X100.958397 Y80.042191 Z0.000000 I-0.659103 J-0.165517
G02 X100.354932 Y79.915859 Z0.000000 I-0.399683 J0.404725
G03 X100.262408 Y79.850106 Z0.000000 I-0.024413 J-0.063621
G03 X100.369830 Y79.436781 Z0.000000 I0.965080 J0.030199
G02 X100.525478 Y78.870635 Z0.000000 I-1.256962 J-0.650039
G02 X100.419728 Y78.597007 Z0.000000 I-0.352686 J-0.020945
G02 X98.828010 Y77.573269 Z0.000000 I-3.291546 J3.368451
G02 X97.977435 Y77.651884 Z0.000000 I-0.346233 J0.894633
G02 X97.896463 Y77.787214 Z0.000000 I0.090095 J0.145796
G02 X97.916038 Y78.655084 Z0.000000 I5.184796 J0.317212
G03 X97.998447 Y79.561891 Z0.000000 I-29.095611 J3.101303
G03 X98.023992 Y80.085236 Z0.000000 I-9.935773 J0.747275
G02 X98.211853 Y80.460831 Z0.000000 I0.491482 J-0.011045
G02 X98.448723 Y80.418764 Z0.000000 I0.099637 J-0.126881
G03 X98.599916 Y80.288851 Z0.000000 I0.280257 J0.173227
G03 X98.888713 Y80.231152 Z0.000000 I0.282928 J0.664526
G03 X98.997488 Y80.295095 Z0.000000 I-0.001156 J0.126459
G03 X98.975413 Y80.383771 Z0.000000 I-0.057588 J0.032750
G02 X98.860805 Y80.579289 Z0.000000 I0.132890 J0.209246
G02 X98.930715 Y81.190796 Z0.000000 I1.824326 J0.101185
G03 X99.211354 Y82.734885 Z0.000000 I-7.303654 J2.124990
G03 X99.061380 Y82.896786 Z0.000000 I-0.149974 J0.011487
G03 X98.544048 Y82.706037 Z0.000000 I-0.000002 J-0.796900
G03 X98.353379 Y82.292638 Z0.000000 I0.352824 J-0.413401
G03 X98.409916 Y82.228337 Z0.000000 I0.064833 J-0.000000
G03 X98.639259 Y82.255787 Z0.000000 I0.060340 J0.467668
G02 X98.763924 Y82.155296 Z0.000000 I0.033166 J-0.086429
G02 X98.517906 Y81.465888 Z0.000000 I-1.912707 J0.293956
G02 X98.085417 Y80.974782 Z0.000000 I-1.500088 J0.885054
G02 X97.899975 Y80.986439 Z0.000000 I-0.086110 J0.110998
G02 X97.809459 Y81.187043 Z0.000000 I0.219935 J0.219961
G02 X97.878376 Y81.331881 Z0.000000 I0.165031 J0.010290
G01 X97.873659 Y81.353893 Z0.000000
G03 X97.620416 Y81.392562 Z0.000000 I-0.543688 J-2.712044
G03 X97.289455 Y83.144890 Z0.000000 I-8.013246 J-0.606037
G03 X97.006222 Y83.416450 Z0.000000 I-0.385169 J-0.118242
G02 X96.211884 Y83.972040 Z0.000000 I0.353215 J1.350633
G02 X95.875347 Y85.048741 Z0.000000 I1.554086 J1.076696
G03 X95.805056 Y85.319564 Z0.000000 I-0.556869 J0.000002
G03 X95.388089 Y85.924258 Z0.000000 I-3.355019 J-1.867348
G02 X95.076116 Y86.521572 Z0.000000 I1.190999 J1.002181
G02 X95.121192 Y86.914797 Z0.000000 I0.518727 J0.139733
G03 X95.182635 Y87.314681 Z0.000000 I-0.536421 J0.287084
G03 X94.941395 Y87.867369 Z0.000000 I-1.327582 J-0.250476
G02 X94.587583 Y88.423939 Z0.000000 I3.771080 J2.788017
G02 X94.541237 Y88.607018 Z0.000000 I0.338424 J0.183078
G03 X94.492929 Y88.757380 Z0.000000 I-0.258157 J0.000001
G03 X94.398298 Y88.806539 Z0.000000 I-0.095710 J-0.068578
G02 X93.734883 Y89.149857 Z0.000000 I0.006982 J0.826130
G02 X93.397342 Y90.196127 Z0.000000 I1.452765 J1.046265
G02 X93.457806 Y90.257248 Z0.000000 I0.061125 J-0.000000
G02 X94.510722 Y90.208034 Z0.000000 I0.099001 J-9.169830
G03 X95.547410 Y90.307426 Z0.000000 I0.272843 J2.610355
G03 X96.274033 Y90.744431 Z0.000000 I-0.506358 J1.664531
G03 X97.583298 Y93.413037 Z0.000000 I-3.278342 J3.263889
G03 X97.033060 Y96.592743 Z0.000000 I-5.407627 J0.701688
G03 X95.008758 Y98.928292 Z0.000000 I-5.735185 J-2.925843
G03 X92.670009 Y99.670089 Z0.000000 I-2.338760 J-3.315960
G02 X91.853870 Y99.840258 Z0.000000 I0.000006 J2.042234
G02 X91.686170 Y100.098916 Z0.000000 I0.111637 J0.256073
G02 X91.766700 Y100.508083 Z0.000000 I1.128376 J-0.009571
G02 X92.331645 Y101.716683 Z0.000000 I10.857200 J-4.338727
G03 X92.839586 Y102.764893 Z0.000000 I-11.896890 J6.412165
G01 X92.799928 Y102.799166 Z0.000000
G03 X92.661961 Y102.661310 Z0.000000 I0.223747 J-0.361895
G03 X92.151845 Y101.753165 Z0.000000 I10.357790 J-6.415432
G02 X91.515971 Y100.986796 Z0.000000 I-2.003191 J1.015110
G02 X91.181783 Y101.008681 Z0.000000 I-0.154619 J0.201453
G02 X90.717327 Y102.381884 Z0.000000 I1.156167 J1.156196
G02 X91.541371 Y103.695904 Z0.000000 I1.855984 J-0.248523
G03 X91.552053 Y104.106465 Z0.000000 I-0.138008 J0.209010
G03 X90.543763 Y104.431832 Z0.000000 I-0.989430 J-1.341177
G03 X90.285084 Y104.354114 Z0.000000 I0.005797 J-0.488650
G03 X89.803741 Y103.955363 Z0.000000 I1.413284 J-2.195902
G03 X89.521429 Y103.553792 Z0.000000 I1.221529 J-1.158782
G01 X89.565510 Y103.482242 Z0.000000
G02 X89.682770 Y103.388945 Z0.000000 I-0.000000 J-0.120338
G02 X89.775817 Y102.571363 Z0.000000 I-3.545332 J-0.817572
G01 X89.775815 Y101.660483 Z0.000000
G01 X88.394054 Y101.415552 Z0.000000
G02 X87.010316 Y101.182813 Z0.000000 I-14.217414 J80.299380
G02 X86.384313 Y101.095056 Z0.000000 I-2.652481 J16.644481
G03 X84.496250 Y100.428683 Z0.000000 I0.554593 J-4.579304
G03 X83.679958 Y99.406939 Z0.000000 I1.042280 J-1.669646
G03 X83.538431 Y98.706361 Z0.000000 I2.486437 J-0.866881
G03 X83.627456 Y98.574231 Z0.000000 I0.130325 J-0.008247
G03 X83.781758 Y98.597350 Z0.000000 I0.054415 J0.163312
G03 X84.891968 Y99.475058 Z0.000000 I-8.231228 J11.552667
G02 X86.346722 Y100.220644 Z0.000000 I2.216793 J-2.533285
G02 X86.990310 Y99.962690 Z0.000000 I0.137082 J-0.589829
G02 X87.028199 Y99.506268 Z0.000000 I-0.401582 J-0.263120
G02 X86.678368 Y99.253195 Z0.000000 I-0.390807 J0.171896
G03 X86.208143 Y99.079201 Z0.000000 I0.094196 J-0.976966
G03 X86.115537 Y98.857501 Z0.000000 I0.129552 J-0.184306
G02 X86.062207 Y98.585055 Z0.000000 I-0.388662 J-0.065365
G02 X85.829645 Y98.394805 Z0.000000 I-0.392265 J0.242239
G03 X85.505095 Y98.243700 Z0.000000 I0.758107 J-2.052399
G03 X85.391895 Y98.145775 Z0.000000 I0.190605 J-0.334728
G02 X84.680362 Y97.622097 Z0.000000 I-1.285655 J1.001621
G02 X83.364652 Y97.382682 Z0.000000 I-1.315698 J3.495484
G02 X83.192390 Y97.491820 Z0.000000 I0.000001 J0.190518
G02 X83.148004 Y97.841658 Z0.000000 I0.514362 J0.242995
G03 X83.103576 Y98.142774 Z0.000000 I-0.454331 J0.086802
G03 X82.962635 Y98.196035 Z0.000000 I-0.100364 J-0.052474
G03 X82.801915 Y98.028658 Z0.000000 I0.097720 J-0.254685
G03 X82.775393 Y97.641764 Z0.000000 I0.721773 J-0.243834
G02 X82.760434 Y97.273226 Z0.000000 I-0.796088 J-0.152259
G02 X82.649202 Y97.186139 Z0.000000 I-0.114536 J0.031713
G03 X82.093421 Y96.893790 Z0.000000 I0.019778 J-0.712068
G03 X80.915655 Y94.809372 Z0.000000 I8.373446 J-6.106226
G03 X80.494425 Y92.840198 Z0.000000 I4.970142 J-2.092813
G03 X80.818843 Y90.587763 Z0.000000 I6.885264 J-0.157898
G03 X81.131535 Y89.899942 Z0.000000 I3.066273 J0.978981
G03 X81.636279 Y89.237632 Z0.000000 I3.339107 J2.021233
G02 X82.008462 Y88.593348 Z0.000000 I-1.163866 J-1.101972
G02 X81.962736 Y88.141747 Z0.000000 I-0.571405 J-0.170258
G02 X81.671975 Y87.718758 Z0.000000 I-2.045660 J1.094751
G02 X81.547684 Y87.661927 Z0.000000 I-0.124290 J0.107493
G03 X81.446498 Y87.604455 Z0.000000 I-0.000000 J-0.117810
G03 X81.389103 Y87.396146 Z0.000000 I0.349325 J-0.208310
G02 X81.316360 Y87.180650 Z0.000000 I-0.355570 J0.000001
G02 X81.103222 Y87.020926 Z0.000000 I-0.387913 J0.295568
G03 X80.917421 Y86.842388 Z0.000000 I0.118780 J-0.309560
G03 X80.817340 Y86.356472 Z0.000000 I1.129594 J-0.485919
G03 X80.966730 Y85.905502 Z0.000000 I0.755373 J-0.000002
G03 X81.389098 Y85.588160 Z0.000000 I0.749442 J0.557728
G03 X82.825407 Y85.098112 Z0.000000 I9.195086 J24.600503
G03 X83.638936 Y84.892431 Z0.000000 I2.372538 J7.672380
G02 X83.915325 Y84.544213 Z0.000000 I-0.066622 J-0.336676
G02 X83.611434 Y84.075731 Z0.000000 I-0.541126 J0.018209
G03 X82.849371 Y83.424821 Z0.000000 I0.875858 J-1.796977
G03 X82.359949 Y82.286733 Z0.000000 I2.500393 J-1.749547
G02 X82.176060 Y81.740538 Z0.000000 I-2.303918 J0.471612
G02 X82.039817 Y81.620417 Z0.000000 I-0.209937 J0.100789
G01 X82.037262 Y81.617125 Z0.000000
G03 X82.035817 Y81.566067 Z0.000000 I0.900869 J-0.051061
G02 X81.909271 Y81.629933 Z0.000000 I0.078559 J0.312961
G02 X80.460110 Y82.864456 Z0.000000 I36.140475 J43.891800
G03 X75.098740 Y87.144968 Z0.000000 I-46.719747 J-53.018962
G03 X69.191214 Y90.998003 Z0.000000 I-43.682958 J-60.520039
G02 X67.966401 Y91.745401 Z0.000000 I21.089579 J35.938246
G02 X67.666137 Y91.965096 Z0.000000 I1.497966 J2.362362
G03 X66.699190 Y92.633769 Z0.000000 I-4.060474 J-4.838249
G03 X59.356183 Y96.689755 Z0.000000 I-286.600559 J-510.190263
G03 X51.843700 Y100.697535 Z0.000000 I-274.102625 J-504.753571
G03 X51.371586 Y100.813736 Z0.000000 I-0.472117 J-0.900989
G02 X51.063438 Y100.911668 Z0.000000 I0.000002 J0.533773
G02 X45.481966 Y104.977667 Z0.000000 I140.754023 J199.079537
G03 X28.470223 Y116.814148 Z0.000000 I-173.581385 J-231.333215
G03 X23.540353 Y119.105109 Z0.000000 I-10.771622 J-16.729502
G03 X21.529620 Y119.565538 Z0.000000 I-4.158545 J-13.539970
G03 X19.702156 Y119.705920 Z0.000000 I-1.840944 J-12.000102
G01 X19.702108 Y119.705937 Z0.000000
G00 Z5.000000

(End cutting path id: path23748)


(Start cutting path id: path23748)
(Change tool to Cylindrical cutter)

G00 Z5.000000
G00 X18.825474 Y119.283445

G01 Z0.000000 F1000.0(Penetrate)
G02 X19.000858 Y119.201304 Z0.000000 I-0.006342 J-0.241845 F1100.000000
G02 X19.061103 Y119.041487 Z0.000000 I-0.181853 J-0.159816
G02 X18.953983 Y118.872968 Z0.000000 I-0.186116 J0.000001
G02 X18.251101 Y118.661800 Z0.000000 I-1.067023 J2.276266
G03 X17.442178 Y118.535514 Z0.000000 I6.228962 J-42.553308
G03 X16.821314 Y118.424685 Z0.000000 I4.208862 J-25.372606
G02 X16.760609 Y118.551030 Z0.000000 I-0.013616 J0.071214
G02 X17.382659 Y118.904133 Z0.000000 I1.226032 J-1.435385
G02 X18.502704 Y119.244734 Z0.000000 I6.148093 J-18.205675
G02 X18.825474 Y119.283445 Z0.000000 I0.293582 J-1.082898
G01 X18.825474 Y119.283445 Z0.000000
G00 Z5.000000

(End cutting path id: path23748)


(Start cutting path id: path23748)
(Change tool to Cylindrical cutter)

G00 Z5.000000
G00 X18.174045 Y118.324548

G01 Z0.000000 F1000.0(Penetrate)
G02 X19.282323 Y118.176752 Z0.000000 I0.014556 J-4.120057 F1100.000000
G02 X22.352845 Y117.190309 Z0.000000 I-10.155102 J-36.882072
G01 X25.155833 Y116.157700 Z0.000000
G01 X25.158031 Y115.538287 Z0.000000
G02 X25.095961 Y114.991255 Z0.000000 I-2.362192 J-0.009006
G02 X25.017321 Y114.936370 Z0.000000 I-0.069882 J0.016346
G02 X20.498053 Y116.216264 Z0.000000 I1.873509 J15.233951
G02 X19.292972 Y117.558840 Z0.000000 I0.943142 J2.058675
G03 X19.178933 Y117.669548 Z0.000000 I-0.163747 J-0.054584
G03 X19.002250 Y117.646321 Z0.000000 I-0.062533 J-0.207936
G02 X18.107963 Y117.410911 Z0.000000 I-0.832865 J1.347591
G02 X17.093759 Y117.720407 Z0.000000 I0.080750 J2.081110
G02 X17.071438 Y117.821545 Z0.000000 I0.037956 J0.061409
G02 X17.348376 Y118.106422 Z0.000000 I0.885090 J-0.583373
G02 X17.665740 Y118.255411 Z0.000000 I0.587270 J-0.838443
G02 X18.174011 Y118.324555 Z0.000000 I0.515291 J-1.885164
G01 X18.174045 Y118.324548 Z0.000000
G00 Z5.000000

(End cutting path id: path23748)


(Start cutting path id: path23748)
(Change tool to Cylindrical cutter)

G00 Z5.000000
G00 X16.635936 Y117.958641

G01 Z0.000000 F1000.0(Penetrate)
G02 X16.696979 Y117.912654 Z0.000000 I-0.000000 J-0.063507 F1100.000000
G02 X16.678376 Y117.777733 Z0.000000 I-0.161788 J-0.046436
G02 X16.527193 Y117.647793 Z0.000000 I-0.280348 J0.173262
G02 X16.238382 Y117.590122 Z0.000000 I-0.282654 J0.663497
G02 X16.152462 Y117.661587 Z0.000000 I0.000795 J0.088339
G02 X16.201903 Y117.777734 Z0.000000 I0.110593 J0.021520
G02 X16.501836 Y117.932807 Z0.000000 I0.950496 J-1.470799
G02 X16.635938 Y117.958641 Z0.000000 I0.134101 J-0.335143
G01 X16.635936 Y117.958641 Z0.000000
G00 Z5.000000

(End cutting path id: path23748)


(Start cutting path id: path23748)
(Change tool to Cylindrical cutter)

G00 Z5.000000
G00 X15.906712 Y118.305575

G01 Z0.000000 F1000.0(Penetrate)
G02 X15.929554 Y118.300139 Z0.000000 I-0.009891 J-0.092275 F1100.000000
G01 X15.941332 Y118.292535 Z0.000000
G02 X15.951103 Y118.216439 Z0.000000 I-0.044373 J-0.044373
G02 X15.776426 Y118.010746 Z0.000000 I-0.672285 J0.393898
G02 X14.738711 Y117.477235 Z0.000000 I-1.724003 J2.077333
G02 X14.486604 Y117.671638 Z0.000000 I-0.051101 J0.194402
G02 X14.809672 Y118.152457 Z0.000000 I0.519325 J0.000006
G02 X15.906713 Y118.305564 Z0.000000 I0.849750 J-2.081813
G01 X15.906712 Y118.305575 Z0.000000
G00 Z5.000000

(End cutting path id: path23748)


(Start cutting path id: path23748)
(Change tool to Cylindrical cutter)

G00 Z5.000000
G00 X17.356966 Y116.443612

G01 Z0.000000 F1000.0(Penetrate)
G03 X17.202676 Y116.398452 Z0.000000 I-0.000001 J-0.286145 F1100.000000
G03 X17.059544 Y116.253024 Z0.000000 I0.247795 J-0.387032
G03 X17.071516 Y116.134761 Z0.000000 I0.083053 J-0.051330
G03 X17.238964 Y116.062435 Z0.000000 I0.167448 J0.157675
G03 X17.468681 Y116.129805 Z0.000000 I0.000001 J0.425326
G03 X17.536015 Y116.253022 Z0.000000 I-0.079074 J0.123218
G03 X17.482023 Y116.389466 Z0.000000 I-0.199400 J0.000001
G03 X17.356966 Y116.443612 Z0.000000 I-0.125058 J-0.117348
G01 X17.356966 Y116.443612 Z0.000000
G00 Z5.000000

(End cutting path id: path23748)


(Start cutting path id: path23748)
(Change tool to Cylindrical cutter)

G00 Z5.000000
G00 X16.275223 Y115.178356

G01 Z0.000000 F1000.0(Penetrate)
G03 X16.145175 Y115.163743 Z0.000000 I-0.020354 J-0.404845 F1100.000000
G03 X16.004975 Y115.101307 Z0.000000 I0.143773 J-0.511471
G03 X15.964331 Y114.992557 Z0.000000 I0.051325 J-0.081152
G03 X16.058954 Y114.921513 Z0.000000 I0.095498 J0.028657
G02 X16.322616 Y114.849331 Z0.000000 I-0.004364 J-0.533580
G02 X16.392484 Y114.727945 Z0.000000 I-0.070513 J-0.121386
G03 X16.448303 Y114.593180 Z0.000000 I0.190589 J-0.000001
G03 X16.583072 Y114.537355 Z0.000000 I0.134769 J0.134764
G03 X16.729308 Y114.698987 Z0.000000 I0.000000 J0.146968
G03 X16.529094 Y115.075247 Z0.000000 I-0.559000 J-0.056054
G03 X16.402749 Y115.150443 Z0.000000 I-0.302435 J-0.364414
G03 X16.275224 Y115.178359 Z0.000000 I-0.147338 J-0.367831
G01 X16.275223 Y115.178356 Z0.000000
G00 Z5.000000

(End cutting path id: path23748)


(Start cutting path id: path23748)
(Change tool to Cylindrical cutter)

G00 Z5.000000
G00 X14.772479 Y115.109500

G01 Z0.000000 F1000.0(Penetrate)
G03 X14.595549 Y115.036216 Z0.000000 I-0.000001 J-0.250222 F1100.000000
G03 X14.581889 Y114.918913 Z0.000000 I0.067278 J-0.067281
G03 X14.713323 Y114.752518 Z0.000000 I0.786051 J0.485786
G03 X14.772478 Y114.727950 Z0.000000 I0.059155 J0.058935
G03 X14.831626 Y114.752515 Z0.000000 I0.000000 J0.083492
G03 X14.963066 Y114.918912 Z0.000000 I-0.654817 J0.652365
G03 X14.949408 Y115.036215 Z0.000000 I-0.080938 J0.050022
G03 X14.772479 Y115.109500 Z0.000000 I-0.176930 J-0.176933
G01 X14.772479 Y115.109500 Z0.000000
G00 Z5.000000

(End cutting path id: path23748)


(Start cutting path id: path23748)
(Change tool to Cylindrical cutter)

G00 Z5.000000
G00 X14.105046 Y115.490674

G01 Z0.000000 F1000.0(Penetrate)
G03 X13.970282 Y115.434855 Z0.000000 I-0.000001 J-0.190588 F1100.000000
G03 X13.914457 Y115.300087 Z0.000000 I0.134763 J-0.134769
G03 X13.970277 Y115.165321 Z0.000000 I0.190590 J-0.000001
G03 X14.105045 Y115.109497 Z0.000000 I0.134768 J0.134763
G03 X14.240034 Y115.165278 Z0.000000 I0.000001 J0.191227
G03 X14.296007 Y115.300086 Z0.000000 I-0.134353 J0.134809
G03 X14.240036 Y115.434891 Z0.000000 I-0.190331 J-0.000003
G03 X14.105046 Y115.490674 Z0.000000 I-0.134991 J-0.135442
G01 X14.105046 Y115.490674 Z0.000000
G00 Z5.000000

(End cutting path id: path23748)


(Start cutting path id: path23748)
(Change tool to Cylindrical cutter)

G00 Z5.000000
G00 X12.697965 Y114.905517

G01 Z0.000000 F1000.0(Penetrate)
G02 X12.894949 Y114.817383 Z0.000000 I0.009179 J-0.243685 F1100.000000
G02 X12.961512 Y114.632663 Z0.000000 I-0.223023 J-0.184719
G02 X12.844491 Y114.463802 Z0.000000 I-0.180344 J0.000001
G02 X12.199158 Y114.346782 Z0.000000 I-0.645329 J1.720880
G02 X11.896991 Y114.557480 Z0.000000 I0.000001 J0.322022
G02 X12.032394 Y114.799430 Z0.000000 I0.171179 J0.063066
G02 X12.496811 Y114.884915 Z0.000000 I3.013005 J-15.064634
G02 X12.697965 Y114.905517 Z0.000000 I0.259823 J-1.544521
G01 X12.697965 Y114.905517 Z0.000000
G00 Z5.000000

(End cutting path id: path23748)


(Start cutting path id: path23748)
(Change tool to Cylindrical cutter)

G00 Z5.000000
G00 X12.149280 Y115.663773

G01 Z0.000000 F1000.0(Penetrate)
G02 X12.317314 Y115.568036 Z0.000000 I-0.007565 J-0.208610 F1100.000000
G02 X12.357365 Y115.361881 Z0.000000 I-0.238492 J-0.153300
G02 X12.196083 Y115.116532 Z0.000000 I-0.375724 J0.071299
G02 X11.752095 Y114.952044 Z0.000000 I-0.557382 J0.823042
G02 X11.369052 Y115.035437 Z0.000000 I-0.069269 J0.603232
G02 X11.278602 Y115.237928 Z0.000000 I0.100366 J0.166279
G02 X11.439884 Y115.483279 Z0.000000 I0.375726 J-0.071300
G02 X11.883870 Y115.647766 Z0.000000 I0.557373 J-0.823021
G02 X12.046562 Y115.662338 Z0.000000 I0.373081 J-3.249712
G02 X12.149280 Y115.663775 Z0.000000 I0.065606 J-1.017900
G01 X12.149280 Y115.663773 Z0.000000
G00 Z5.000000

(End cutting path id: path23748)


(Start cutting path id: path23748)
(Change tool to Cylindrical cutter)

G00 Z5.000000
G00 X12.180924 Y116.530357

G01 Z0.000000 F1000.0(Penetrate)
G02 X12.311482 Y116.483261 Z0.000000 I0.010926 J-0.174223 F1100.000000
G02 X12.337266 Y116.381087 Z0.000000 I-0.067061 J-0.071263
G02 X11.909972 Y115.992243 Z0.000000 I-0.560358 J0.186573
G02 X11.627397 Y116.216930 Z0.000000 I-0.051959 J0.224687
G02 X11.694060 Y116.347748 Z0.000000 I0.161689 J-0.000000
G02 X12.019370 Y116.501694 Z0.000000 I0.571204 J-0.786348
G02 X12.113667 Y116.522330 Z0.000000 I0.301638 J-1.152594
G02 X12.180924 Y116.530354 Z0.000000 I0.104963 J-0.593930
G01 X12.180924 Y116.530357 Z0.000000
G00 Z5.000000

(End cutting path id: path23748)


(Start cutting path id: path23748)
(Change tool to Cylindrical cutter)

G00 Z5.000000
G00 X11.204529 Y116.060219

G01 Z0.000000 F1000.0(Penetrate)
G02 X11.370337 Y115.999931 Z0.000000 I-0.028366 J-0.336170 F1100.000000
G02 X11.436808 Y115.871863 Z0.000000 I-0.090138 J-0.128068
G02 X11.383403 Y115.734699 Z0.000000 I-0.202847 J0.000001
G02 X11.261852 Y115.681275 Z0.000000 I-0.121550 J0.111564
G03 X11.090632 Y115.660743 Z0.000000 I-0.000002 J-0.724160
G03 X10.783147 Y115.564764 Z0.000000 I0.596692 J-2.452125
G02 X10.629708 Y115.598422 Z0.000000 I-0.051165 J0.133327
G02 X10.597399 Y115.755353 Z0.000000 I0.106410 J0.103700
G02 X10.841438 Y116.004666 Z0.000000 I0.410157 J-0.157386
G02 X11.204529 Y116.060219 Z0.000000 I0.297073 J-0.727310
G01 X11.204529 Y116.060219 Z0.000000
G00 Z5.000000

(End cutting path id: path23748)


(Start cutting path id: path23748)
(Change tool to Cylindrical cutter)

G00 Z5.000000
G00 X10.717631 Y115.242772

G01 Z0.000000 F1000.0(Penetrate)
G02 X10.868200 Y115.174636 Z0.000000 I-0.030506 J-0.267846 F1100.000000
G02 X11.011703 Y114.954656 Z0.000000 I-0.348002 J-0.383815
G02 X10.966555 Y114.815100 Z0.000000 I-0.117350 J-0.039116
G02 X10.696040 Y114.727960 Z0.000000 I-0.270514 J0.376314
G02 X10.455660 Y114.831547 Z0.000000 I0.000001 J0.330704
G02 X10.417976 Y115.022033 Z0.000000 I0.132492 J0.125182
G02 X10.564328 Y115.205490 Z0.000000 I0.362569 J-0.139133
G02 X10.717631 Y115.242772 Z0.000000 I0.127416 J-0.190101
G01 X10.717631 Y115.242772 Z0.000000
G00 Z5.000000

(End cutting path id: path23748)


(Start cutting path id: path23748)
(Change tool to Cylindrical cutter)

G00 Z5.000000
G00 X11.488913 Y112.608786

G01 Z0.000000 F1000.0(Penetrate)
G02 X11.586665 Y112.560646 Z0.000000 I-0.000000 J-0.123320 F1100.000000
G02 X11.627386 Y112.440903 Z0.000000 I-0.155695 J-0.119742
G02 X11.548616 Y112.331126 Z0.000000 I-0.115881 J0.000000
G02 X11.103268 Y112.263719 Z0.000000 I-0.412433 J1.220008
G02 X10.936780 Y112.345947 Z0.000000 I0.005651 J0.221098
G02 X10.960326 Y112.440905 Z0.000000 I0.047785 J0.038550
G02 X11.344875 Y112.585892 Z0.000000 I1.791447 J-4.168994
G02 X11.488913 Y112.608786 Z0.000000 I0.144036 J-0.441659
G01 X11.488913 Y112.608786 Z0.000000
G00 Z5.000000

(End cutting path id: path23748)


(Start cutting path id: path23748)
(Change tool to Cylindrical cutter)

G00 Z5.000000
G00 X10.000683 Y111.971511

G01 Z0.000000 F1000.0(Penetrate)
G01 X9.970758 Y111.955051 Z0.000000 F1100.000000
G03 X9.941862 Y111.678556 Z0.000000 I1.308401 J-0.276498
G03 X9.988289 Y111.440287 Z0.000000 I0.634619 J-0.000002
G01 X10.038271 Y111.440320 Z0.000000
G03 X10.084528 Y111.678556 Z0.000000 I-0.590377 J0.238238
G03 X10.038273 Y111.916792 Z0.000000 I-0.636633 J0.000002
G03 X10.014051 Y111.961208 Z0.000000 I-0.203623 J-0.082232
G01 X10.000673 Y111.971512 Z0.000000
G01 X10.000683 Y111.971511 Z0.000000
G00 Z5.000000

(End cutting path id: path23748)


(Start cutting path id: path23748)
(Change tool to Cylindrical cutter)

G00 Z5.000000
G00 X11.221637 Y110.726370

G01 Z0.000000 F1000.0(Penetrate)
G03 X11.193196 Y110.716753 Z0.000000 I0.017552 J-0.098781 F1100.000000
G03 X11.162827 Y110.695470 Z0.000000 I0.063128 J-0.122382
G03 X11.116467 Y110.430848 Z0.000000 I0.150464 J-0.162732
G03 X12.651048 Y107.820257 Z0.000000 I25.032575 J12.958545
G03 X13.752536 Y106.450725 Z0.000000 I7.958045 J5.272781
G03 X13.914437 Y106.516286 Z0.000000 I0.067676 J0.065561
G03 X13.871151 Y106.661838 Z0.000000 I-0.266359 J0.000001
G03 X13.758841 Y106.754521 Z0.000000 I-0.204525 J-0.133450
G02 X12.869881 Y107.505865 Z0.000000 I0.710635 J1.742358
G02 X11.378356 Y110.597196 Z0.000000 I13.903119 J8.613550
G03 X11.299759 Y110.706698 Z0.000000 I-0.230998 J-0.082844
G03 X11.221642 Y110.726366 Z0.000000 I-0.060879 J-0.076835
G01 X11.221637 Y110.726370 Z0.000000
G00 Z5.000000

(End cutting path id: path23748)


(Start cutting path id: path23748)
(Change tool to Cylindrical cutter)

G00 Z5.000000
G00 X12.591492 Y110.534661

G01 Z0.000000 F1000.0(Penetrate)
G03 X12.447114 Y110.477238 Z0.000000 I-0.000001 J-0.210213 F1100.000000
G03 X12.389734 Y110.344072 Z0.000000 I0.125834 J-0.133166
G03 X12.422956 Y110.186649 Z0.000000 I0.389582 J-0.000001
G03 X12.473863 Y110.153484 Z0.000000 I0.050908 J0.022488
G03 X12.542637 Y110.180839 Z0.000000 I0.000000 J0.100127
G03 X12.675619 Y110.344071 Z0.000000 I-0.557750 J0.590175
G03 X12.684579 Y110.474008 Z0.000000 I-0.118886 J0.073476
G03 X12.591490 Y110.534661 Z0.000000 I-0.093090 J-0.041111
G01 X12.591492 Y110.534661 Z0.000000
G00 Z5.000000

(End cutting path id: path23748)


(Start cutting path id: path23748)
(Change tool to Cylindrical cutter)

G00 Z5.000000
G00 X13.194896 Y109.853831

G01 Z0.000000 F1000.0(Penetrate)
G03 X13.005521 Y109.830308 Z0.000000 I-0.038965 J-0.460361 F1100.000000
G03 X12.961498 Y109.768592 Z0.000000 I0.021250 J-0.061717
G03 X13.019180 Y109.654328 Z0.000000 I0.142014 J-0.000000
G03 X13.295028 Y109.522537 Z0.000000 I0.480349 J0.650825
G02 X13.627184 Y109.431714 Z0.000000 I-3.848149 J-14.726018
G02 X13.676204 Y109.413469 Z0.000000 I-0.092104 J-0.322454
G01 X13.702414 Y109.424865 Z0.000000
G03 X13.723855 Y109.559388 Z0.000000 I-0.411289 J0.134524
G03 X13.661469 Y109.679686 Z0.000000 I-0.147176 J0.000000
G03 X13.342679 Y109.827776 Z0.000000 I-0.568418 J-0.806446
G03 X13.263079 Y109.845052 Z0.000000 I-0.245702 J-0.940113
G03 X13.194899 Y109.853837 Z0.000000 I-0.134690 J-0.776333
G01 X13.194896 Y109.853831 Z0.000000
G00 Z5.000000

(End cutting path id: path23748)


(Start cutting path id: path23748)
(Change tool to Cylindrical cutter)

G00 Z5.000000
G00 X13.812817 Y109.112693

G01 Z0.000000 F1000.0(Penetrate)
G01 X13.782868 Y109.096210 Z0.000000 F1100.000000
G03 X13.753997 Y108.819366 Z0.000000 I1.312906 J-0.276848
G03 X13.800424 Y108.581097 Z0.000000 I0.634636 J0.000003
G01 X13.850406 Y108.581130 Z0.000000
G03 X13.896662 Y108.819366 Z0.000000 I-0.590378 J0.238238
G03 X13.850407 Y109.057601 Z0.000000 I-0.636626 J0.000002
G03 X13.826202 Y109.102308 Z0.000000 I-0.210134 J-0.084861
G01 X13.812807 Y109.112691 Z0.000000
G01 X13.812817 Y109.112693 Z0.000000
G00 Z5.000000

(End cutting path id: path23748)


(Start cutting path id: path23748)
(Change tool to Cylindrical cutter)

G00 Z5.000000
G00 X14.031321 Y108.174617

G01 Z0.000000 F1000.0(Penetrate)
G03 X13.958817 Y108.131665 Z0.000000 I0.003919 J-0.089285 F1100.000000
G03 X13.914436 Y107.972861 Z0.000000 I0.261935 J-0.158806
G03 X13.981801 Y107.743149 Z0.000000 I0.425333 J-0.000001
G03 X14.105023 Y107.675810 Z0.000000 I0.123223 J0.079073
G03 X14.241740 Y107.729920 Z0.000000 I0.000001 J0.199771
G03 X14.295986 Y107.855232 Z0.000000 I-0.117617 J0.125312
G03 X14.250643 Y108.009351 Z0.000000 I-0.284615 J-0.000005
G03 X14.105025 Y108.152282 Z0.000000 I-0.388728 J-0.250394
G03 X14.064097 Y108.170599 Z0.000000 I-0.089021 J-0.144026
G03 X14.031325 Y108.174612 Z0.000000 I-0.028351 J-0.095703
G01 X14.031321 Y108.174617 Z0.000000
G00 Z5.000000

(End cutting path id: path23748)


(Start cutting path id: path23748)
(Change tool to Cylindrical cutter)

G00 Z5.000000
G00 X15.505031 Y108.389027

G01 Z0.000000 F1000.0(Penetrate)
G03 X15.052627 Y108.187012 Z0.000000 I0.112662 J-0.859880 F1100.000000
G03 X14.867752 Y107.784505 Z0.000000 I0.345731 J-0.402509
G03 X14.972587 Y107.711048 Z0.000000 I0.078152 J-0.000001
G03 X15.380330 Y107.970624 Z0.000000 I-0.380693 J1.048023
G03 X15.585904 Y108.265599 Z0.000000 I-0.723019 J0.723010
G03 X15.566452 Y108.374508 Z0.000000 I-0.087860 J0.040499
G01 X15.542987 Y108.387372 Z0.000000
G03 X15.505032 Y108.389028 Z0.000000 I-0.023688 J-0.107161
G01 X15.505031 Y108.389027 Z0.000000
G00 Z5.000000

(End cutting path id: path23748)


(Start cutting path id: path23748)
(Change tool to Cylindrical cutter)

G00 Z5.000000
G00 X15.584317 Y107.350088

G01 Z0.000000 F1000.0(Penetrate)
G03 X15.210170 Y107.296648 Z0.000000 I0.019862 J-1.475533 F1100.000000
G03 X15.056848 Y107.197470 Z0.000000 I0.081470 J-0.294049
G03 X15.085458 Y107.079570 Z0.000000 I0.058198 J-0.048299
G03 X15.526991 Y106.997576 Z0.000000 I0.405536 J0.953977
G03 X15.886968 Y107.166994 Z0.000000 I-0.017509 J0.504347
G03 X15.825903 Y107.334453 Z0.000000 I-0.075774 J0.067232
G03 X15.703945 Y107.347178 Z0.000000 I-0.212815 J-1.448915
G03 X15.584317 Y107.350084 Z0.000000 I-0.098247 J-1.580523
G01 X15.584317 Y107.350088 Z0.000000
G00 Z5.000000

(End cutting path id: path23748)


(Start cutting path id: path23748)
(Change tool to Cylindrical cutter)

G00 Z5.000000
G00 X17.357684 Y107.383963

G01 Z0.000000 F1000.0(Penetrate)
G03 X17.150303 Y107.377589 Z0.000000 I-0.057921 J-1.492347 F1100.000000
G03 X16.950078 Y107.340414 Z0.000000 I0.122424 J-1.217174
G03 X16.896941 Y107.227571 Z0.000000 I0.021659 J-0.079132
G03 X17.059518 Y107.097713 Z0.000000 I0.208046 J0.093765
G03 X17.673318 Y107.136713 Z0.000000 I0.234775 J1.154632
G03 X17.689352 Y107.311750 Z0.000000 I-0.030946 J0.091088
G03 X17.563739 Y107.358708 Z0.000000 I-0.215600 J-0.385247
G03 X17.357684 Y107.383971 Z0.000000 I-0.254357 J-1.221669
G01 X17.357684 Y107.383963 Z0.000000
G00 Z5.000000

(End cutting path id: path23748)


(Start cutting path id: path23748)
(Change tool to Cylindrical cutter)

G00 Z5.000000
G00 X17.036442 Y108.554671

G01 Z0.000000 F1000.0(Penetrate)
G03 X17.003002 Y108.550345 Z0.000000 I-0.003447 J-0.104761 F1100.000000
G03 X16.961252 Y108.531591 Z0.000000 I0.049758 J-0.166623
G03 X16.855185 Y108.391030 Z0.000000 I0.127753 J-0.206701
G03 X16.877121 Y108.234170 Z0.000000 I0.189169 J-0.053509
G03 X17.041926 Y108.182321 Z0.000000 I0.112417 J0.069477
G03 X17.154816 Y108.354030 Z0.000000 I-0.074143 J0.171710
G03 X17.110106 Y108.511885 Z0.000000 I-0.301011 J0.000001
G03 X17.036442 Y108.554671 Z0.000000 I-0.076692 J-0.047234
G01 X17.036442 Y108.554671 Z0.000000
G00 Z5.000000

(End cutting path id: path23748)


(Start cutting path id: path23748)
(Change tool to Cylindrical cutter)

G00 Z5.000000
G00 X16.818310 Y109.514708

G01 Z0.000000 F1000.0(Penetrate)
G03 X16.761505 Y109.490845 Z0.000000 I0.014283 J-0.113538 F1100.000000
G03 X16.691002 Y109.411596 Z0.000000 I0.190909 J-0.240825
G02 X16.517803 Y109.277397 Z0.000000 I-0.265947 J0.164370
G02 X16.011287 Y109.200537 Z0.000000 I-0.506511 J1.630530
G02 X15.504770 Y109.277397 Z0.000000 I0.000005 J1.707455
G02 X15.331570 Y109.411600 Z0.000000 I0.092743 J0.298558
G03 X15.201195 Y109.472483 Z0.000000 I-0.111616 J-0.068980
G03 X15.045316 Y109.370280 Z0.000000 I0.031491 J-0.218003
G03 X14.988044 Y109.124895 Z0.000000 I0.336348 J-0.207879
G03 X15.092585 Y108.873335 Z0.000000 I0.460535 J0.043883
G03 X15.278133 Y108.774550 Z0.000000 I0.213329 J0.177046
G01 X15.325239 Y108.849885 Z0.000000
G02 X15.377576 Y108.954093 Z0.000000 I0.058242 J0.035996
G02 X16.505249 Y108.952248 Z0.000000 I0.553376 J-6.393071
G03 X17.421906 Y108.958272 Z0.000000 I0.427112 J4.753302
G01 X17.440697 Y109.048655 Z0.000000
G02 X17.082805 Y109.288320 Z0.000000 I1.367500 J2.429143
G02 X16.940403 Y109.442862 Z0.000000 I0.411130 J0.521713
G03 X16.875974 Y109.503175 Z0.000000 I-0.159478 J-0.105794
G03 X16.818307 Y109.514702 Z0.000000 I-0.046085 J-0.080537
G01 X16.818310 Y109.514708 Z0.000000
G00 Z5.000000

(End cutting path id: path23748)


(Start cutting path id: path23748)
(Change tool to Cylindrical cutter)

G00 Z5.000000
G00 X18.332222 Y109.087740

G01 Z0.000000 F1000.0(Penetrate)
G03 X18.009120 Y109.026951 Z0.000000 I0.011902 J-0.952331 F1100.000000
G03 X17.917171 Y108.894175 Z0.000000 I0.049892 J-0.132777
G01 X17.951106 Y108.853175 Z0.000000
G03 X18.309887 Y108.819354 Z0.000000 I0.358786 J1.886138
G03 X18.565750 Y108.895494 Z0.000000 I0.000001 J0.467971
G03 X18.589442 Y109.001752 Z0.000000 I-0.042623 J0.065274
G03 X18.506312 Y109.064576 Z0.000000 I-0.122538 J-0.075734
G03 X18.332222 Y109.087743 Z0.000000 I-0.166484 J-0.585360
G01 X18.332222 Y109.087740 Z0.000000
G00 Z5.000000

(End cutting path id: path23748)


(Start cutting path id: path23748)
(Change tool to Cylindrical cutter)

G00 Z5.000000
G00 X19.266561 Y111.966284

G01 Z0.000000 F1000.0(Penetrate)
G03 X19.224567 Y111.958575 Z0.000000 I0.003543 J-0.137524 F1100.000000
G03 X19.196581 Y111.940974 Z0.000000 I0.024632 J-0.070219
G03 X19.184359 Y111.827268 Z0.000000 I0.064435 J-0.064436
G03 X19.485439 Y111.491304 Z0.000000 I1.195216 J0.768222
G03 X19.916265 Y111.269245 Z0.000000 I0.750090 J0.926323
G03 X20.287251 Y111.268699 Z0.000000 I0.186481 J0.670763
G03 X20.366399 Y111.365428 Z0.000000 I-0.028632 J0.104175
G03 X20.299911 Y111.452215 Z0.000000 I-0.082451 J0.005696
G02 X19.942004 Y111.574492 Z0.000000 I0.271650 J1.380070
G02 X19.617218 Y111.793936 Z0.000000 I0.675987 J1.350554
G03 X19.400206 Y111.937723 Z0.000000 I-0.621275 J-0.702010
G03 X19.266565 Y111.966286 Z0.000000 I-0.126390 J-0.264432
G01 X19.266561 Y111.966284 Z0.000000
G00 Z5.000000

(End cutting path id: path23748)


(Start cutting path id: path23748)
(Change tool to Cylindrical cutter)

G00 Z5.000000
G00 X20.776383 Y112.989559

G01 Z0.000000 F1000.0(Penetrate)
G03 X20.588087 Y112.979808 Z0.000000 I-0.000005 J-1.822903 F1100.000000
G03 X20.442853 Y112.953450 Z0.000000 I0.100325 J-0.966082
G01 X20.442856 Y112.909169 Z0.000000
G03 X20.776382 Y112.866339 Z0.000000 I0.333530 J1.277236
G03 X21.109907 Y112.909164 Z0.000000 I0.000004 J1.320152
G01 X21.109913 Y112.953448 Z0.000000
G03 X20.964676 Y112.979807 Z0.000000 I-0.245569 J-0.939750
G03 X20.776383 Y112.989559 Z0.000000 I-0.188298 J-1.813139
G01 X20.776383 Y112.989559 Z0.000000
G00 Z5.000000

(End cutting path id: path23748)


(Start cutting path id: path23748)
(Change tool to Cylindrical cutter)

G00 Z5.000000
G00 X22.457434 Y113.456348

G01 Z0.000000 F1000.0(Penetrate)
G03 X22.393334 Y113.425517 Z0.000000 I-0.003428 J-0.074923 F1100.000000
G03 X22.338688 Y113.305217 Z0.000000 I0.266314 J-0.193535
G02 X22.218750 Y113.111902 Z0.000000 I-0.341271 J0.077870
G02 X21.909120 Y112.954566 Z0.000000 I-0.516128 J0.632377
G03 X21.679323 Y112.784367 Z0.000000 I0.097090 J-0.371318
G03 X21.657108 Y112.545098 Z0.000000 I0.230978 J-0.142110
G03 X21.805165 Y112.463382 Z0.000000 I0.122529 J0.047018
G03 X22.049826 Y112.622897 Z0.000000 I-0.076197 J0.384253
G02 X22.372498 Y112.917518 Z0.000000 I0.820712 J-0.574846
G02 X22.729916 Y113.012634 Z0.000000 I0.357415 J-0.623968
G03 X22.841234 Y113.109947 Z0.000000 I0.000000 J0.112325
G03 X22.766767 Y113.285861 Z0.000000 I-0.185817 J0.025060
G03 X22.542305 Y113.431812 Z0.000000 I-1.340531 J-1.816067
G03 X22.457432 Y113.456350 Z0.000000 I-0.093513 J-0.164393
G01 X22.457434 Y113.456348 Z0.000000
G00 Z5.000000

(End cutting path id: path23748)


(Start cutting path id: path23748)
(Change tool to Cylindrical cutter)

G00 Z5.000000
G00 X22.264992 Y115.447101

G01 Z0.000000 F1000.0(Penetrate)
G03 X22.225500 Y115.444100 Z0.000000 I-0.013354 J-0.085623 F1100.000000
G03 X22.066957 Y115.388661 Z0.000000 I0.844498 J-2.669512
G03 X21.621540 Y114.979962 Z0.000000 I0.294879 J-0.768437
G03 X21.644831 Y114.520219 Z0.000000 I0.429485 J-0.208703
G03 X21.802207 Y114.459917 Z0.000000 I0.118244 J0.073080
G03 X21.865570 Y114.584989 Z0.000000 I-0.027081 J0.092306
G02 X21.865840 Y114.807185 Z0.000000 I0.305669 J0.110727
G02 X22.077379 Y115.165315 Z0.000000 I1.070285 J-0.390650
G03 X22.276742 Y115.419428 Z0.000000 I-2.348927 J2.048099
G01 X22.264992 Y115.447104 Z0.000000
G01 X22.264992 Y115.447101 Z0.000000
G00 Z5.000000

(End cutting path id: path23748)


(Start cutting path id: path23748)
(Change tool to Cylindrical cutter)

G00 Z5.000000
G00 X19.603450 Y115.109486

G01 Z0.000000 F1000.0(Penetrate)
G01 X19.572515 Y115.055566 Z0.000000 F1100.000000
G03 X19.830518 Y114.721236 Z0.000000 I1.426124 J0.833823
G02 X20.101202 Y114.316989 Z0.000000 I-0.886023 J-0.886030
G02 X20.088480 Y114.101823 Z0.000000 I-0.226977 J-0.094539
G01 X20.110985 Y114.064098 Z0.000000
G03 X20.210203 Y114.104022 Z0.000000 I-0.002659 J0.149856
G03 X20.293933 Y114.345153 Z0.000000 I-0.184661 J0.199224
G03 X20.113425 Y114.723436 Z0.000000 I-0.723300 J-0.112934
G03 X19.743614 Y115.062351 Z0.000000 I-1.993767 J-1.804300
G03 X19.603453 Y115.109455 Z0.000000 I-0.140161 J-0.184978
G01 X19.603450 Y115.109486 Z0.000000
G00 Z5.000000

(End cutting path id: path23748)


(Start cutting path id: path23748)
(Change tool to Cylindrical cutter)

G00 Z5.000000
G00 X18.606211 Y115.047699

G01 Z0.000000 F1000.0(Penetrate)
G01 X18.589636 Y115.042776 Z0.000000 F1100.000000
G03 X18.493793 Y114.966549 Z0.000000 I0.734867 J-1.022339
G02 X18.193944 Y114.801474 Z0.000000 I-0.523667 J0.596345
G02 X17.640984 Y114.716031 Z0.000000 I-0.596805 J2.030310
G03 X17.463274 Y114.630097 Z0.000000 I0.004927 J-0.236904
G03 X17.488363 Y114.531398 Z0.000000 I0.048610 J-0.040182
G02 X17.842826 Y114.305406 Z0.000000 I-0.425265 J-1.057996
G02 X17.932447 Y114.114858 Z0.000000 I-0.194984 J-0.208057
G01 X17.978798 Y114.083879 Z0.000000
G03 X18.052682 Y114.156178 Z0.000000 I-0.039079 J0.113836
G02 X18.183996 Y114.427467 Z0.000000 I1.439108 J-0.529154
G02 X18.461406 Y114.823610 Z0.000000 I3.346091 J-2.047996
G03 X18.612824 Y115.035003 Z0.000000 I-1.993224 J1.587649
G01 X18.606211 Y115.047699 Z0.000000
G01 X18.606211 Y115.047699 Z0.000000
G00 Z5.000000

(End cutting path id: path23748)


(Start cutting path id: path23748)
(Change tool to Cylindrical cutter)

G00 Z5.000000
G00 X19.730761 Y116.341610

G01 Z0.000000 F1000.0(Penetrate)
G01 X19.699976 Y116.338295 Z0.000000 F1100.000000
G03 X19.309754 Y116.053866 Z0.000000 I5.358381 J-7.761336
G03 X18.745301 Y115.561957 Z0.000000 I3.720118 J-4.838536
G03 X18.690340 Y115.443018 Z0.000000 I0.130647 J-0.132539
G03 X18.739314 Y115.355324 Z0.000000 I0.090983 J-0.006711
G03 X18.965798 Y115.300076 Z0.000000 I0.226486 J0.436611
G03 X19.178460 Y115.373155 Z0.000000 I0.000001 J0.345962
G03 X19.251682 Y115.523048 Z0.000000 I-0.116814 J0.149894
G02 X19.303705 Y115.727030 Z0.000000 I0.425923 J-0.000001
G02 X19.585214 Y116.134270 Z0.000000 I2.065231 J-1.126693
G03 X19.735352 Y116.325710 Z0.000000 I-2.042342 J1.756313
G01 X19.730761 Y116.341610 Z0.000000
G01 X19.730761 Y116.341610 Z0.000000
G00 Z5.000000

(End cutting path id: path23748)


(Start cutting path id: path23748)
(Change tool to Cylindrical cutter)

G00 Z5.000000
G00 X17.287346 Y112.700709

G01 Z0.000000 F1000.0(Penetrate)
G03 X17.209605 Y112.695351 Z0.000000 I0.001692 J-0.591248 F1100.000000
G03 X17.122070 Y112.677999 Z0.000000 I0.098437 J-0.726062
G03 X17.072049 Y112.551922 Z0.000000 I0.021288 J-0.081408
G03 X17.348021 Y112.317295 Z0.000000 I0.508587 J0.318592
G02 X17.724410 Y111.994323 Z0.000000 I-0.313966 J-0.746701
G02 X17.711329 Y111.725429 Z0.000000 I-0.203440 J-0.124868
G03 X17.690965 Y111.643529 Z0.000000 I0.085599 J-0.064765
G01 X17.726599 Y111.630879 Z0.000000
G02 X18.020577 Y111.802168 Z0.000000 I0.568053 J-0.637016
G02 X18.479646 Y111.886237 Z0.000000 I0.515819 J-1.521260
G01 X18.515324 Y111.958957 Z0.000000
G03 X18.337078 Y112.084641 Z0.000000 I-0.270553 J-0.194463
G02 X17.769740 Y112.332240 Z0.000000 I0.657340 J2.279986
G02 X17.610088 Y112.522774 Z0.000000 I0.197362 J0.327528
G03 X17.500273 Y112.647460 Z0.000000 I-0.222704 J-0.085441
G03 X17.287354 Y112.700707 Z0.000000 I-0.211628 J-0.393917
G01 X17.287346 Y112.700709 Z0.000000
G00 Z5.000000

(End cutting path id: path23748)


(Start cutting path id: path23748)
(Change tool to Cylindrical cutter)

G00 Z5.000000
G00 X16.376838 Y112.798612

G01 Z0.000000 F1000.0(Penetrate)
G03 X16.275462 Y112.792332 Z0.000000 I-0.020199 J-0.495363 F1100.000000
G03 X16.166150 Y112.761762 Z0.000000 I0.086042 J-0.518391
G01 X16.153893 Y112.702340 Z0.000000
G03 X16.281172 Y112.646366 Z0.000000 I0.135131 J0.134577
G03 X16.519151 Y112.687165 Z0.000000 I0.023784 J0.575727
G01 X16.531320 Y112.746499 Z0.000000
G03 X16.474943 Y112.781027 Z0.000000 I-0.100013 J-0.100012
G03 X16.376838 Y112.798610 Z0.000000 I-0.113161 J-0.348905
G01 X16.376838 Y112.798612 Z0.000000
G00 Z5.000000

(End cutting path id: path23748)


(Start cutting path id: path23748)
(Change tool to Cylindrical cutter)

G00 Z5.000000
G00 X16.106588 Y111.678549

G01 Z0.000000 F1000.0(Penetrate)
G03 X15.929654 Y111.605262 Z0.000000 I-0.000001 J-0.250221 F1100.000000
G03 X15.915999 Y111.487961 Z0.000000 I0.067277 J-0.067277
G03 X16.047445 Y111.321869 Z0.000000 I0.778989 J0.481436
G03 X16.106587 Y111.297371 Z0.000000 I0.059142 J0.059141
G03 X16.165724 Y111.321867 Z0.000000 I0.000000 J0.083631
G03 X16.297176 Y111.487960 Z0.000000 I-0.647720 J0.647696
G03 X16.283518 Y111.605263 Z0.000000 I-0.080938 J0.050023
G03 X16.106588 Y111.678549 Z0.000000 I-0.176931 J-0.176933
G01 X16.106588 Y111.678549 Z0.000000
G00 Z5.000000

(End cutting path id: path23748)


(Start cutting path id: path23748)
(Change tool to Cylindrical cutter)

G00 Z5.000000
G00 X15.183798 Y111.983406

G01 Z0.000000 F1000.0(Penetrate)
G03 X15.065990 Y111.963531 Z0.000000 I-0.025144 J-0.210047 F1100.000000
G03 X14.964917 Y111.872107 Z0.000000 I0.107296 J-0.220201
G03 X14.976347 Y111.751550 Z0.000000 I0.085316 J-0.052731
G03 X15.142477 Y111.678539 Z0.000000 I0.166130 J0.152502
G03 X15.313942 Y111.791444 Z0.000000 I0.000001 J0.186651
G03 X15.261968 Y111.956232 Z0.000000 I-0.121517 J0.052264
G03 X15.223537 Y111.974363 Z0.000000 I-0.099272 J-0.160625
G03 X15.183798 Y111.983402 Z0.000000 I-0.063003 J-0.185107
G01 X15.183798 Y111.983406 Z0.000000
G00 Z5.000000

(End cutting path id: path23748)


(Start cutting path id: path23748)
(Change tool to Cylindrical cutter)

G00 Z5.000000
G00 X14.497752 Y111.678554

G01 Z0.000000 F1000.0(Penetrate)
G03 X14.353376 Y111.621131 Z0.000000 I-0.000001 J-0.210209 F1100.000000
G03 X14.295996 Y111.487966 Z0.000000 I0.125836 J-0.133166
G03 X14.328973 Y111.330560 Z0.000000 I0.392120 J-0.000009
G03 X14.379746 Y111.297376 Z0.000000 I0.050773 J0.022252
G03 X14.448634 Y111.324708 Z0.000000 I0.000000 J0.100481
G03 X14.581875 Y111.487965 Z0.000000 I-0.553469 J0.587710
G03 X14.590836 Y111.617901 Z0.000000 I-0.118886 J0.073476
G03 X14.497746 Y111.678554 Z0.000000 I-0.093090 J-0.041111
G01 X14.497752 Y111.678554 Z0.000000
G00 Z5.000000

(End cutting path id: path23748)


(Start cutting path id: path23748)
(Change tool to Cylindrical cutter)

G00 Z5.000000
G00 X13.829204 Y111.638726

G01 Z0.000000 F1000.0(Penetrate)
G03 X13.766744 Y111.632378 Z0.000000 I0.013914 J-0.447328 F1100.000000
G03 X13.494184 Y111.582887 Z0.000000 I2.907822 J-16.789581
G03 X12.180585 Y111.144529 Z0.000000 I0.964372 J-5.077238
G03 X12.111298 Y110.903919 Z0.000000 I0.074513 J-0.151738
G03 X12.257727 Y110.836786 Z0.000000 I0.123639 J0.076417
G03 X12.551662 Y110.973898 Z0.000000 I-0.092328 J0.581549
G02 X12.888767 Y111.209742 Z0.000000 I1.287391 J-1.481297
G02 X13.437974 Y111.464138 Z0.000000 I2.046178 J-3.697392
G03 X13.832562 Y111.623674 Z0.000000 I-3.412393 J9.007772
G01 X13.829204 Y111.638720 Z0.000000
G01 X13.829204 Y111.638726 Z0.000000
G00 Z5.000000

(End cutting path id: path23748)


(Start cutting path id: path23748)
(Change tool to Cylindrical cutter)

G00 Z5.000000
G00 X14.198839 Y110.916204

G01 Z0.000000 F1000.0(Penetrate)
G03 X14.070984 Y110.695034 Z0.000000 I-0.000000 J-0.147540 F1100.000000
G03 X14.770602 Y109.923430 Z0.000000 I2.124946 J1.223727
G03 X14.952312 Y109.877718 Z0.000000 I0.149120 J0.208750
G03 X15.142472 Y109.971079 Z0.000000 I-0.041645 J0.325166
G02 X15.916045 Y110.278433 Z0.000000 I0.743089 J-0.743097
G02 X16.735674 Y109.924915 Z0.000000 I-0.035061 J-1.208200
G03 X16.897289 Y109.857971 Z0.000000 I0.161616 J0.161617
G03 X16.964232 Y109.924914 Z0.000000 I0.000000 J0.066943
G02 X17.478659 Y110.465512 Z0.000000 I0.541266 J-0.000002
G02 X18.374288 Y109.994890 Z0.000000 I0.049330 J-0.993656
G03 X19.159109 Y109.626120 Z0.000000 I0.675091 J0.417221
G03 X19.632843 Y110.170584 Z0.000000 I-0.076011 J0.544465
G03 X19.561779 Y110.248115 Z0.000000 I-0.077825 J0.000000
G03 X19.061450 Y110.220466 Z0.000000 I-0.153596 J-1.761273
G02 X18.512788 Y110.196206 Z0.000000 I-0.352882 J1.764382
G02 X18.244748 Y110.309808 Z0.000000 I0.055045 J0.502892
G03 X17.975915 Y110.415007 Z0.000000 I-0.293281 J-0.353374
G03 X17.316745 Y110.359321 Z0.000000 I-0.128430 J-2.408954
G02 X16.646118 Y110.288542 Z0.000000 I-0.637304 J2.825952
G02 X16.337747 Y110.370854 Z0.000000 I0.007439 J0.646662
G03 X16.034713 Y110.445342 Z0.000000 I-0.286531 J-0.512021
G03 X15.546357 Y110.348526 Z0.000000 I0.041978 J-1.491830
G02 X15.084189 Y110.314043 Z0.000000 I-0.289105 J0.760406
G02 X14.673447 Y110.538372 Z0.000000 I0.176750 J0.811823
G03 X14.283487 Y110.886614 Z0.000000 I-3.275925 J-3.275906
G03 X14.198839 Y110.916200 Z0.000000 I-0.084648 J-0.106300
G01 X14.198839 Y110.916204 Z0.000000
G00 Z5.000000

(End cutting path id: path23748)


(Start cutting path id: path23748)
(Change tool to Cylindrical cutter)

G00 Z5.000000
G00 X21.275924 Y109.905547

G01 Z0.000000 F1000.0(Penetrate)
G03 X21.231940 Y109.898580 Z0.000000 I-0.001623 J-0.132073 F1100.000000
G03 X21.201844 Y109.879858 Z0.000000 I0.024929 J-0.073624
G03 X21.182840 Y109.763678 Z0.000000 I0.071308 J-0.071308
G03 X21.353717 Y109.574247 Z0.000000 I0.423955 J0.210645
G03 X21.611692 Y109.554928 Z0.000000 I0.147134 J0.232651
G03 X21.638857 Y109.699691 Z0.000000 I-0.035928 J0.081672
G03 X21.413781 Y109.869167 Z0.000000 I-0.713777 J-0.713750
G03 X21.275920 Y109.905543 Z0.000000 I-0.140941 J-0.254721
G01 X21.275924 Y109.905547 Z0.000000
G00 Z5.000000

(End cutting path id: path23748)


(Start cutting path id: path23748)
(Change tool to Cylindrical cutter)

G00 Z5.000000
G00 X21.645565 Y110.534634

G01 Z0.000000 F1000.0(Penetrate)
G03 X21.576676 Y110.507303 Z0.000000 I-0.000000 J-0.100480 F1100.000000
G03 X21.443435 Y110.344046 Z0.000000 I0.553495 J-0.587733
G03 X21.434475 Y110.214110 Z0.000000 I0.118885 J-0.073475
G03 X21.527564 Y110.153458 Z0.000000 I0.093090 J0.041112
G03 X21.671943 Y110.210881 Z0.000000 I0.000001 J0.210213
G03 X21.729322 Y110.344045 Z0.000000 I-0.125833 J0.133165
G03 X21.696345 Y110.501451 Z0.000000 I-0.392149 J0.000001
G03 X21.645573 Y110.534634 Z0.000000 I-0.050773 J-0.022251
G01 X21.645565 Y110.534634 Z0.000000
G00 Z5.000000

(End cutting path id: path23748)


(Start cutting path id: path23748)
(Change tool to Cylindrical cutter)

G00 Z5.000000
G00 X21.160896 Y107.771085

G01 Z0.000000 F1000.0(Penetrate)
G01 X20.880222 Y107.294613 Z0.000000 F1100.000000
G03 X20.812685 Y106.731522 Z0.000000 I0.608765 J-0.358612
G03 X21.160146 Y106.369216 Z0.000000 I0.529583 J0.160120
G02 X21.670212 Y106.102778 Z0.000000 I-0.651264 J-1.868224
G02 X21.849540 Y105.869291 Z0.000000 I-0.303666 J-0.418837
G03 X22.008140 Y105.735472 Z0.000000 I0.200750 J0.077032
G03 X22.234067 Y105.792610 Z0.000000 I0.053061 J0.265430
G03 X22.247766 Y105.981263 Z0.000000 I-0.083744 J0.100906
G03 X21.714415 Y106.369587 Z0.000000 I-1.184937 J-1.067043
G02 X21.135372 Y106.827597 Z0.000000 I0.613883 J1.371144
G02 X21.043265 Y107.246595 Z0.000000 I0.402511 J0.308105
G01 X21.160896 Y107.771085 Z0.000000
G00 Z5.000000

(End cutting path id: path23748)


(Start cutting path id: path23748)
(Change tool to Cylindrical cutter)

G00 Z5.000000
G00 X22.985626 Y106.081464

G01 Z0.000000 F1000.0(Penetrate)
G03 X22.798022 Y105.989396 Z0.000000 I-0.000589 J-0.235970 F1100.000000
G03 X22.786103 Y105.756497 Z0.000000 I0.162545 J-0.125073
G03 X22.920084 Y105.622772 Z0.000000 I0.348978 J0.215665
G03 X23.074964 Y105.578936 Z0.000000 I0.154881 J0.251697
G03 X23.234260 Y105.718827 Z0.000000 I0.000000 J0.160641
G03 X23.132285 Y106.018555 Z0.000000 I-0.355401 J0.046296
G03 X23.057627 Y106.067614 Z0.000000 I-0.155877 J-0.155876
G03 X22.985621 Y106.081465 Z0.000000 I-0.072548 J-0.183059
G01 X22.985626 Y106.081464 Z0.000000
G00 Z5.000000

(End cutting path id: path23748)


(Start cutting path id: path23748)
(Change tool to Cylindrical cutter)

G00 Z5.000000
G00 X24.122455 Y105.284865

G01 Z0.000000 F1000.0(Penetrate)
G03 X24.048818 Y105.238211 Z0.000000 I0.013120 J-0.102149 F1100.000000
G03 X24.016737 Y105.128524 Z0.000000 I0.171476 J-0.109688
G03 X24.118583 Y104.976404 Z0.000000 I0.164529 J-0.000000
G03 X24.683796 Y104.853434 Z0.000000 I0.627067 J1.521786
G03 X25.266607 Y104.915755 Z0.000000 I0.076697 J2.039087
G03 X25.350857 Y105.024291 Z0.000000 I-0.027789 J0.108537
