%
(Header)
(Generated by gcodetools from Inkscape.)
(Using default header. To add your own header create file "header" in the output dir.)
M3
(Header end.)
G21 (All units in mm)

(Start cutting path id: path879)
(Change tool to Cylindrical cutter)

G00 Z5.000000
G00 X52.912154 Y2.783357

G01 Z0.000000 F1000.0(Penetrate)
G02 X49.132246 Y3.818778 Z0.000000 I5.004782 J25.687633 F1100.000000
G02 X47.924459 Y4.560706 Z0.000000 I1.149082 J3.224634
G03 X47.606819 Y4.799339 Z0.000000 I-1.190756 J-1.254276
G03 X47.438467 Y4.844954 Z0.000000 I-0.168350 J-0.287856
G02 X46.992485 Y5.239500 Z0.000000 I-0.000002 J0.449334
G02 X47.110944 Y7.511023 Z0.000000 I6.507742 J0.799473
G02 X47.500911 Y8.430671 Z0.000000 I2.801661 J-0.645509
G02 X47.968399 Y8.832247 Z0.000000 I0.917984 J-0.595759
G03 X48.769105 Y9.494097 Z0.000000 I-0.811992 J1.797619
G03 X48.627174 Y9.767649 Z0.000000 I-0.141930 J0.099957
G02 X48.448289 Y9.816273 Z0.000000 I-0.000001 J0.353361
G02 X48.399676 Y9.901178 Z0.000000 I0.049840 J0.084906
G02 X48.459362 Y9.967552 Z0.000000 I0.066748 J0.000000
G02 X48.993500 Y9.964381 Z0.000000 I0.252964 J-2.377264
G01 X49.587321 Y9.894083 Z0.000000
G01 X49.811368 Y10.387604 Z0.000000
G03 X49.992464 Y10.890758 Z0.000000 I-3.021200 J1.371557
G03 X50.040561 Y11.232755 Z0.000000 I-1.335795 J0.362243
G02 X50.087474 Y11.575052 Z0.000000 I1.416479 J-0.019770
G02 X50.257223 Y12.053196 Z0.000000 I2.969731 J-0.785098
G03 X50.688784 Y13.473572 Z0.000000 I-5.266319 J2.375847
G03 X50.711492 Y14.762238 Z0.000000 I-4.294963 J0.720218
G02 X50.653575 Y15.218046 Z0.000000 I49.804852 J6.560017
G02 X50.521854 Y16.311047 Z0.000000 I290.773226 J35.596507
G03 X50.357876 Y17.398514 Z0.000000 I-17.275557 J-2.048867
G03 X49.963325 Y19.358405 Z0.000000 I-56.566737 J-10.367959
G02 X49.554888 Y21.315733 Z0.000000 I94.600686 J20.761638
G02 X49.495367 Y21.722748 Z0.000000 I4.021868 J0.796012
G01 X49.456295 Y22.132970 Z0.000000
G01 X49.622846 Y21.781348 Z0.000000
G02 X49.754704 Y21.418794 Z0.000000 I-1.866601 J-0.884124
G02 X49.928736 Y20.609285 Z0.000000 I-9.205362 J-2.402466
G03 X50.097770 Y19.798888 Z0.000000 I10.915769 J1.854014
G03 X50.189362 Y19.558086 Z0.000000 I1.040683 J0.258014
G02 X50.281244 Y19.317377 Z0.000000 I-0.957970 J-0.503564
G02 X50.454422 Y18.499397 Z0.000000 I-11.053536 J-2.767510
G03 X50.931118 Y16.897410 Z0.000000 I7.036827 J1.222000
G03 X51.699424 Y15.607212 Z0.000000 I5.295575 J2.279624
G03 X52.344236 Y15.133701 Z0.000000 I1.178931 J0.929631
G03 X54.564336 Y14.516654 Z0.000000 I4.431276 J11.641065
G02 X55.476828 Y14.291973 Z0.000000 I-1.325836 J-7.349887
G01 X55.468290 Y14.232687 Z0.000000
G03 X54.888421 Y14.171452 Z0.000000 I0.059973 J-3.344042
G03 X54.784524 Y14.099625 Z0.000000 I0.030144 J-0.154659
G02 X54.679925 Y14.036923 Z0.000000 I-0.112956 J0.069836
G02 X53.986464 Y14.049321 Z0.000000 I-0.270217 J4.285732
G01 X53.263746 Y14.120918 Z0.000000
G01 X53.626871 Y13.790270 Z0.000000
G03 X54.008820 Y13.484578 Z0.000000 I2.587363 J2.841329
G03 X54.900919 Y12.897415 Z0.000000 I10.513019 J15.001571
G02 X55.748222 Y12.327804 Z0.000000 I-6.887882 J-11.160787
G01 X55.752260 Y12.275649 Z0.000000
G02 X55.584960 Y12.257345 Z0.000000 I-0.095054 J0.095085
G02 X52.946980 Y14.063077 Z0.000000 I26.057511 J40.896964
G03 X52.356087 Y14.441775 Z0.000000 I-3.285727 J-4.476479
G03 X51.795050 Y14.702422 Z0.000000 I-2.092670 J-3.770282
G01 X51.212634 Y14.923720 Z0.000000
G01 X51.212636 Y14.495740 Z0.000000
G03 X51.472122 Y13.760968 Z0.000000 I1.170064 J0.000005
G03 X52.405687 Y13.017245 Z0.000000 I2.136387 J1.723925
G03 X54.514728 Y12.127213 Z0.000000 I9.256345 J18.990233
G03 X55.282897 Y11.982847 Z0.000000 I0.833203 J2.317557
G02 X55.719842 Y11.943084 Z0.000000 I-0.081910 J-3.320722
G02 X56.018111 Y11.867310 Z0.000000 I-0.261784 J-1.655382
G02 X55.997817 Y11.762923 Z0.000000 I-0.017960 J-0.050674
G02 X54.377221 Y11.938703 Z0.000000 I0.548058 J12.611214
G01 X53.966994 Y12.010201 Z0.000000
G01 X54.377222 Y11.636673 Z0.000000
G01 X54.787447 Y11.263125 Z0.000000
G01 X54.021358 Y11.683501 Z0.000000
G03 X52.181835 Y12.489249 Z0.000000 I-5.432865 J-9.900548
G03 X51.414704 Y12.558381 Z0.000000 I-0.528616 J-1.575000
G03 X51.233257 Y12.448011 Z0.000000 I0.038813 J-0.268140
G03 X51.072334 Y12.080479 Z0.000000 I0.786492 J-0.563358
G02 X50.948215 Y11.652587 Z0.000000 I-2.782073 J0.575056
G02 X50.803440 Y11.367888 Z0.000000 I-1.365772 J0.515359
G03 X50.677842 Y11.102117 Z0.000000 I0.890206 J-0.583258
G03 X50.696572 Y11.025978 Z0.000000 I0.072284 J-0.022592
G02 X50.706463 Y10.951921 Z0.000000 I-0.043447 J-0.043492
G02 X50.379263 Y10.472267 Z0.000000 I-3.220361 J1.845365
G03 X50.097695 Y9.983243 Z0.000000 I1.428945 J-1.148323
G03 X50.116505 Y9.790555 Z0.000000 I0.201347 J-0.077607
G03 X50.290077 Y9.677808 Z0.000000 I0.209002 J0.131776
G03 X51.621377 Y9.572512 Z0.000000 I1.474926 J10.179281
G02 X52.968378 Y9.476248 Z0.000000 I-0.164116 J-11.768715
G02 X53.183974 Y9.370198 Z0.000000 I-0.047822 J-0.369396
G02 X53.173971 Y9.189492 Z0.000000 I-0.085871 J-0.085877
G02 X52.835510 Y9.091417 Z0.000000 I-0.287607 J0.359485
G01 X52.443322 Y9.135015 Z0.000000
G01 X52.736338 Y9.268076 Z0.000000
G01 X52.730669 Y9.337923 Z0.000000
G03 X52.217228 Y9.408564 Z0.000000 I-0.532087 J-1.966127
G03 X51.410477 Y9.377962 Z0.000000 I-0.077123 J-8.616053
G03 X51.045169 Y9.308759 Z0.000000 I0.153945 J-1.811456
G02 X50.684252 Y9.205070 Z0.000000 I-5.680855 J19.093752
G02 X49.747577 Y8.949264 Z0.000000 I-34.723267 J125.301806
G03 X48.193902 Y8.306466 Z0.000000 I1.692496 J-6.289901
G03 X47.641644 Y7.738685 Z0.000000 I0.720338 J-1.253115
G01 X47.423463 Y7.333534 Z0.000000
G01 X47.923596 Y6.857766 Z0.000000
G02 X48.357258 Y6.365439 Z0.000000 I-2.565749 J-2.697171
G02 X48.376803 Y6.241228 Z0.000000 I-0.110160 J-0.080978
G02 X48.004543 Y5.947164 Z0.000000 I-0.410311 J0.136761
G02 X47.555425 Y6.168725 Z0.000000 I-0.042397 J0.480036
G01 X47.507469 Y6.164849 Z0.000000
G03 X47.463856 Y5.955125 Z0.000000 I0.495422 J-0.212422
G03 X47.641554 Y5.260481 Z0.000000 I1.419759 J-0.006857
G03 X47.948995 Y5.079297 Z0.000000 I0.307439 J0.170243
G02 X48.065367 Y5.055025 Z0.000000 I0.000001 J-0.291103
G02 X49.026512 Y4.609361 Z0.000000 I-9.240910 J-21.188766
G03 X49.998911 Y4.195824 Z0.000000 I4.244877 J8.631453
G03 X50.509438 Y4.072867 Z0.000000 I0.807816 J2.232770
G03 X50.947197 Y4.160206 Z0.000000 I0.088226 J0.698532
G03 X51.234716 Y4.487570 Z0.000000 I-0.333146 J0.582540
G02 X51.508145 Y4.895259 Z0.000000 I1.138431 J-0.467987
G02 X51.956628 Y5.200683 Z0.000000 I1.056865 J-1.069909
G02 X53.166248 Y5.462358 Z0.000000 I1.239032 J-2.800917
G02 X54.269374 Y5.222893 Z0.000000 I0.024469 J-2.547848
G03 X55.024763 Y4.878121 Z0.000000 I19.716074 J42.197722
G03 X55.256298 Y4.783047 Z0.000000 I1.719695 J3.858516
G01 X55.274111 Y4.709843 Z0.000000
G02 X55.096917 Y4.606176 Z0.000000 I-0.251505 J0.226620
G02 X54.722717 Y4.596047 Z0.000000 I-0.212825 J0.945307
G02 X54.478969 Y4.710503 Z0.000000 I0.083561 J0.494726
G03 X54.004640 Y4.931824 Z0.000000 I-0.630619 J-0.732580
G03 X53.105934 Y4.935488 Z0.000000 I-0.460826 J-2.812611
G03 X51.440785 Y4.335356 Z0.000000 I0.714051 J-4.591393
G03 X51.399314 Y3.918161 Z0.000000 I0.133484 J-0.223928
G03 X52.721049 Y3.324143 Z0.000000 I1.577457 J1.742471
G03 X55.959543 Y3.418999 Z0.000000 I1.278485 J11.681324
G03 X56.363366 Y3.586140 Z0.000000 I-0.163782 J0.967111
G03 X56.624822 Y3.891102 Z0.000000 I-0.479240 J0.675430
G02 X57.601541 Y4.884531 Z0.000000 I2.022369 J-1.011494
G02 X59.352504 Y5.313703 Z0.000000 I1.750978 J-3.357314
G02 X60.044437 Y5.195319 Z0.000000 I0.000009 J-2.081246
G02 X60.414494 Y4.939378 Z0.000000 I-0.284336 J-0.806610
G02 X60.702905 Y4.549472 Z0.000000 I-2.963301 J-2.493558
G02 X60.833267 Y4.292039 Z0.000000 I-1.150720 J-0.744443
G03 X60.986867 Y4.110483 Z0.000000 I0.334402 J0.127157
G03 X61.202661 Y4.075711 Z0.000000 I0.152716 J0.260756
G02 X61.468732 Y4.129994 Z0.000000 I3.088851 J-14.460880
G02 X62.171489 Y4.264145 Z0.000000 I19.789146 J-101.758781
G03 X63.696785 Y4.657109 Z0.000000 I-2.166687 J11.566732
G03 X64.845267 Y5.147616 Z0.000000 I-2.320619 J7.023339
G03 X65.536528 Y5.830362 Z0.000000 I-0.793912 J1.495126
G03 X65.689414 Y6.690859 Z0.000000 I-1.201744 J0.657346
G03 X65.372169 Y7.605195 Z0.000000 I-2.599959 J-0.389898
G03 X64.870067 Y8.124916 Z0.000000 I-1.272717 J-0.727169
G02 X64.509753 Y8.409619 Z0.000000 I1.051122 J1.700630
G02 X64.456998 Y8.536694 Z0.000000 I0.126673 J0.127076
G03 X64.421548 Y8.667882 Z0.000000 I-0.260469 J-0.000001
G03 X64.343026 Y8.732254 Z0.000000 I-0.125748 J-0.073312
G02 X63.525224 Y9.278267 Z0.000000 I0.623614 J1.819477
G02 X62.638838 Y10.661117 Z0.000000 I4.022762 J3.554033
G02 X62.051017 Y12.716443 Z0.000000 I7.114934 J3.146585
G02 X62.234076 Y13.518175 Z0.000000 I1.139904 J0.161492
G02 X62.355550 Y13.571110 Z0.000000 I0.102016 J-0.068259
G02 X62.521166 Y13.472076 Z0.000000 I-0.041265 J-0.257007
G03 X62.738393 Y13.352107 Z0.000000 I0.245139 J0.187221
G03 X64.247734 Y13.315193 Z0.000000 I1.033236 J11.371561
G01 X64.265371 Y13.233967 Z0.000000
G02 X63.724440 Y13.102571 Z0.000000 I-0.712199 J1.752832
G03 X63.001224 Y12.968616 Z0.000000 I0.360338 J-3.964705
G03 X62.933296 Y12.878808 Z0.000000 I0.025403 J-0.089807
G03 X63.069730 Y12.717792 Z0.000000 I0.163232 J0.000001
G03 X64.735348 Y12.578875 Z0.000000 I1.680974 J10.100110
G02 X65.801136 Y12.549216 Z0.000000 I-0.030210 J-20.249254
G02 X66.068573 Y12.506581 Z0.000000 I-0.070640 J-1.303201
G02 X66.258429 Y12.340307 Z0.000000 I-0.073919 J-0.275931
G02 X66.184047 Y12.228831 Z0.000000 I-0.074382 J-0.030922
G03 X66.042632 Y12.201597 Z0.000000 I0.000002 J-0.380775
G03 X65.599697 Y11.995099 Z0.000000 I1.628894 J-4.072249
G02 X65.152066 Y11.801421 Z0.000000 I-1.378532 J2.571951
G02 X64.839592 Y11.739246 Z0.000000 I-0.397258 J1.180220
G02 X63.736917 Y11.764655 Z0.000000 I-0.412331 J6.045187
G02 X63.636539 Y11.877201 Z0.000000 I0.012907 J0.112547
G02 X63.667383 Y11.951644 Z0.000000 I0.105255 J0.000000
G02 X63.724449 Y11.965101 Z0.000000 I0.039420 J-0.039436
G03 X63.790416 Y11.975827 Z0.000000 I0.022748 J0.068315
G03 X63.841654 Y12.053002 Z0.000000 I-0.083158 J0.110806
G03 X63.803094 Y12.117266 Z0.000000 I-0.051406 J0.012855
G03 X63.372829 Y12.170210 Z0.000000 I-0.430257 J-1.721799
G03 X62.980043 Y12.077400 Z0.000000 I0.000004 J-0.877584
G03 X62.904482 Y11.935798 Z0.000000 I0.062118 J-0.124108
G03 X62.934815 Y11.701450 Z0.000000 I51.665080 J6.568048
G03 X63.008759 Y11.144308 Z0.000000 I288.948250 J38.066238
G01 X63.083242 Y10.587239 Z0.000000
G01 X63.814068 Y10.361512 Z0.000000
G03 X64.553859 Y10.189178 Z0.000000 I1.586218 J5.135252
G03 X65.409296 Y10.107088 Z0.000000 I1.083862 J6.796444
G03 X66.159380 Y10.211395 Z0.000000 I0.073747 J2.218809
G03 X66.311137 Y10.395502 Z0.000000 I-0.067156 J0.209955
G02 X67.569836 Y11.875138 Z0.000000 I1.740659 J-0.205552
G02 X70.127385 Y11.486938 Z0.000000 I0.854651 J-2.988316
G02 X70.131397 Y11.355120 Z0.000000 I-0.044085 J-0.067312
G02 X69.922872 Y11.334447 Z0.000000 I-0.121434 J0.162861
G03 X69.243267 Y11.478929 Z0.000000 I-0.643437 J-1.355967
G03 X68.307605 Y11.295540 Z0.000000 I0.068124 J-2.826164
G03 X67.243744 Y10.668575 Z0.000000 I1.300438 J-3.422719
G03 X67.035535 Y10.219815 Z0.000000 I0.379503 J-0.448757
G03 X67.530742 Y9.718615 Z0.000000 I0.501238 J0.000002
G03 X69.520233 Y10.189925 Z0.000000 I0.050786 J4.220294
G02 X69.846366 Y10.314594 Z0.000000 I0.715516 J-1.382870
G02 X70.153725 Y10.353648 Z0.000000 I0.307364 J-1.189991
G03 X70.804572 Y10.513242 Z0.000000 I-0.000006 J1.406947
G03 X72.220001 Y11.431816 Z0.000000 I-4.126314 J7.908028
G02 X72.536817 Y11.623609 Z0.000000 I0.915593 J-1.154872
G02 X72.617627 Y11.608608 Z0.000000 I0.029487 J-0.066316
G02 X72.607639 Y11.423434 Z0.000000 I-0.088100 J-0.088104
G02 X71.620355 Y10.806124 Z0.000000 I-3.079387 J3.826811
G03 X70.860802 Y10.414235 Z0.000000 I5.010555 J-10.643411
G03 X70.455013 Y10.150219 Z0.000000 I1.851872 J-3.290148
G02 X70.035464 Y9.922698 Z0.000000 I-0.993936 J1.332239
G02 X68.872724 Y9.567532 Z0.000000 I-3.727334 J10.121654
G02 X67.672418 Y9.364987 Z0.000000 I-1.987125 J8.118067
G02 X66.571418 Y9.349893 Z0.000000 I-0.643963 J6.809908
G02 X65.487149 Y9.483337 Z0.000000 I0.659077 J9.826879
G02 X65.282143 Y9.581858 Z0.000000 I0.075460 J0.419574
G03 X64.220577 Y10.154709 Z0.000000 I-1.792804 J-2.052258
G03 X63.806707 Y9.992862 Z0.000000 I-0.099248 J-0.356297
G03 X63.820120 Y9.702050 Z0.000000 I0.219402 J-0.135596
G03 X64.975689 Y8.441486 Z0.000000 I7.107594 J5.355651
G02 X65.779173 Y7.605269 Z0.000000 I-5.334217 J-5.929534
G02 X65.863483 Y7.371650 Z0.000000 I-0.281524 J-0.233620
G03 X65.897094 Y7.107214 Z0.000000 I1.057051 J0.000004
G03 X66.047086 Y6.661051 Z0.000000 I3.191593 J0.824657
G02 X65.789487 Y5.532744 Z0.000000 I-0.918626 J-0.383831
G02 X62.874729 Y3.844288 Z0.000000 I-5.599703 J6.306604
G02 X60.504583 Y3.201817 Z0.000000 I-6.597025 J19.644047
G02 X58.069265 Y2.843028 Z0.000000 I-4.247246 J20.384270
G02 X54.304429 Y2.657020 Z0.000000 I-4.343583 J49.721314
G02 X52.912172 Y2.783207 Z0.000000 I-0.079613 J6.865278
G01 X52.912154 Y2.783357 Z0.000000
G00 Z5.000000

(End cutting path id: path879)


(Start cutting path id: path879)
(Change tool to Cylindrical cutter)

G00 Z5.000000
G00 X54.084221 Y3.086882

G01 Z0.000000 F1000.0(Penetrate)
G03 X53.034480 Y3.302878 Z0.000000 I-1.049731 J-2.442827 F1100.000000
G03 X52.970759 Y3.086877 Z0.000000 I0.000000 J-0.117399
G03 X53.159114 Y3.016676 Z0.000000 I0.253330 J0.391915
G03 X53.732603 Y2.979720 Z0.000000 I0.531547 J3.780470
G03 X54.081281 Y3.033663 Z0.000000 I-0.014355 J1.246658
G01 X54.084221 Y3.086882 Z0.000000
G01 X54.084221 Y3.086882 Z0.000000
G00 Z5.000000

(End cutting path id: path879)


(Start cutting path id: path879)
(Change tool to Cylindrical cutter)

G00 Z5.000000
G00 X59.351774 Y3.792293

G01 Z0.000000 F1000.0(Penetrate)
G03 X60.498962 Y3.944012 Z0.000000 I-1.618860 J16.653670 F1100.000000
G03 X60.615582 Y4.004089 Z0.000000 I-0.035587 J0.212307
G03 X60.629381 Y4.269576 Z0.000000 I-0.140409 J0.140401
G03 X59.965562 Y4.805456 Z0.000000 I-1.588176 J-1.288255
G03 X59.355264 Y5.016806 Z0.000000 I-1.079463 J-2.130248
G03 X58.800043 Y5.038991 Z0.000000 I-0.347319 J-1.733466
G03 X57.843287 Y4.721355 Z0.000000 I0.294383 J-2.486460
G03 X57.278095 Y4.161075 Z0.000000 I0.779917 J-1.351970
G03 X57.088222 Y3.808436 Z0.000000 I4.540387 J-2.672142
G03 X57.072985 Y3.742754 Z0.000000 I0.133946 J-0.065681
G03 X57.155670 Y3.661844 Z0.000000 I0.080929 J0.000000
G03 X59.351774 Y3.792263 Z0.000000 I-0.634625 J29.241478
G01 X59.351774 Y3.792293 Z0.000000
G00 Z5.000000

(End cutting path id: path879)


(Start cutting path id: path879)
(Change tool to Cylindrical cutter)

G00 Z5.000000
G00 X61.526834 Y3.790302

G01 Z0.000000 F1000.0(Penetrate)
G03 X61.492490 Y3.873196 Z0.000000 I-0.117211 J-0.000000 F1100.000000
G03 X61.409625 Y3.907512 Z0.000000 I-0.082865 J-0.082893
G03 X61.326770 Y3.873204 Z0.000000 I0.000000 J-0.117203
G03 X61.292419 Y3.790301 Z0.000000 I0.082862 J-0.082902
G03 X61.326765 Y3.707412 Z0.000000 I0.117196 J0.000000
G03 X61.409626 Y3.673102 Z0.000000 I0.082861 J0.082900
G03 X61.492491 Y3.707415 Z0.000000 I-0.000000 J0.117215
G03 X61.526834 Y3.790302 Z0.000000 I-0.082850 J0.082887
G01 X61.526834 Y3.790302 Z0.000000
G00 Z5.000000

(End cutting path id: path879)


(Start cutting path id: path879)
(Change tool to Cylindrical cutter)

G00 Z5.000000
G00 X62.074396 Y4.922495

G01 Z0.000000 F1000.0(Penetrate)
G02 X61.959975 Y5.221006 Z0.000000 I0.277535 J0.277565 F1100.000000
G02 X62.121192 Y5.798175 Z0.000000 I1.377268 J-0.073603
G02 X62.777715 Y6.448070 Z0.000000 I1.382166 J-0.739703
G02 X63.886982 Y6.720262 Z0.000000 I1.109278 J-2.124254
G02 X64.505929 Y6.578706 Z0.000000 I0.000006 J-1.423908
G02 X64.534934 Y6.407525 Z0.000000 I-0.046282 J-0.095890
G02 X64.339364 Y6.328826 Z0.000000 I-0.190067 J0.189976
G02 X63.636538 Y6.425921 Z0.000000 I0.062329 J3.043426
G03 X62.958531 Y6.283018 Z0.000000 I-0.195418 J-0.752699
G03 X62.338107 Y5.398386 Z0.000000 I1.173624 J-1.482982
G02 X62.132624 Y4.930687 Z0.000000 I-2.635421 J0.878882
G01 X62.074395 Y4.922505 Z0.000000
G01 X62.074396 Y4.922495 Z0.000000
G00 Z5.000000

(End cutting path id: path879)


(Start cutting path id: path879)
(Change tool to Cylindrical cutter)

G00 Z5.000000
G00 X58.457464 Y9.730550

G01 Z0.000000 F1000.0(Penetrate)
G02 X58.603914 Y9.755690 Z0.000000 I0.131892 J-0.329181 F1100.000000
G02 X58.682111 Y9.721551 Z0.000000 I-0.004836 J-0.117704
G01 X58.674687 Y9.685165 Z0.000000
G02 X58.528280 Y9.660050 Z0.000000 I-0.131794 J0.328986
G02 X58.450012 Y9.694445 Z0.000000 I0.005187 J0.118056
G01 X58.457460 Y9.730850 Z0.000000
G01 X58.457464 Y9.730550 Z0.000000
G00 Z5.000000

(End cutting path id: path879)


(Start cutting path id: path879)
(Change tool to Cylindrical cutter)

G00 Z5.000000
G00 X60.305130 Y14.074127

G01 Z0.000000 F1000.0(Penetrate)
G02 X59.546735 Y14.465356 Z0.000000 I1.404536 J3.653375 F1100.000000
G02 X58.916988 Y14.994532 Z0.000000 I2.009428 J3.030632
G03 X58.311975 Y15.565979 Z0.000000 I-5.464328 J-5.179291
G03 X57.945113 Y15.815788 Z0.000000 I-1.382858 J-1.636538
G02 X57.600157 Y16.073961 Z0.000000 I0.690275 J1.281845
G02 X57.416793 Y16.350055 Z0.000000 I0.612681 J0.605840
G03 X57.244395 Y16.639002 Z0.000000 I-1.073797 J-0.444768
G03 X57.008291 Y16.851914 Z0.000000 I-0.804749 J-0.655045
G02 X56.674698 Y17.292638 Z0.000000 I0.450599 J0.687682
G02 X56.487546 Y18.505502 Z0.000000 I3.865612 J1.217356
G03 X56.438817 Y19.077446 Z0.000000 I-3.424269 J-0.003696
G03 X56.366005 Y19.218271 Z0.000000 I-0.257531 J-0.043917
G02 X56.291613 Y19.360112 Z0.000000 I0.190225 J0.190198
G02 X56.195727 Y20.150060 Z0.000000 I6.531633 J1.193616
G03 X56.105894 Y20.953472 Z0.000000 I-7.984999 J-0.486111
G03 X55.974512 Y21.504658 Z0.000000 I-3.881683 J-0.633998
G02 X55.873051 Y22.051355 Z0.000000 I2.168135 J0.685146
G02 X55.911738 Y22.533673 Z0.000000 I1.718764 J0.104848
G03 X55.904462 Y23.400888 Z0.000000 I-1.860503 J0.418029
G03 X55.653720 Y23.598114 Z0.000000 I-0.250741 J-0.060775
G02 X55.506180 Y23.706512 Z0.000000 I-0.000001 J0.154606
G02 X55.556119 Y23.909750 Z0.000000 I0.192794 J0.060382
G03 X55.867671 Y24.650364 Z0.000000 I-0.752319 J0.752313
G03 X55.607000 Y28.537711 Z0.000000 I-25.014018 J0.275065
G02 X55.606681 Y29.064563 Z0.000000 I1.812815 J0.264526
G02 X55.730625 Y29.391974 Z0.000000 I0.800267 J-0.115784
G03 X55.849515 Y29.723908 Z0.000000 I-0.630396 J0.413050
G03 X55.867972 Y30.660672 Z0.000000 I-5.291235 J0.572816
G02 X56.020929 Y32.605483 Z0.000000 I6.647221 J0.455625
G02 X56.365596 Y32.830772 Z0.000000 I0.289329 J-0.066345
G02 X56.654008 Y32.497772 Z0.000000 I-0.066178 J-0.348714
G02 X56.445084 Y31.036973 Z0.000000 I-3.978654 J-0.176311
G03 X56.425035 Y30.538040 Z0.000000 I0.831414 J-0.283278
G03 X56.607401 Y30.396105 Z0.000000 I0.182366 J0.046189
G03 X56.728227 Y30.481936 Z0.000000 I-0.000001 J0.127960
G03 X56.883254 Y31.187248 Z0.000000 I-2.868633 J1.000217
G02 X57.210290 Y33.714971 Z0.000000 I40.348607 J-3.935265
G02 X57.304394 Y33.795099 Z0.000000 I0.094105 J-0.015197
G01 X57.337371 Y33.759782 Z0.000000
G02 X57.238038 Y32.828145 Z0.000000 I-12.397178 J0.850698
G03 X57.116883 Y31.859297 Z0.000000 I24.796066 J-3.592765
G03 X57.056099 Y31.100220 Z0.000000 I15.139924 J-1.594316
G01 X57.014283 Y30.339255 Z0.000000
G01 X57.600318 Y30.174613 Z0.000000
G03 X58.195287 Y30.074801 Z0.000000 I0.759211 J2.702381
G03 X60.413273 Y30.009741 Z0.000000 I2.221932 J37.909134
G03 X62.624140 Y30.105194 Z0.000000 I0.002903 J25.584267
G03 X63.386419 Y30.267278 Z0.000000 I-0.273867 J3.161530
G02 X64.122365 Y30.480447 Z0.000000 I2.469831 J-7.149878
G02 X64.199049 Y30.458637 Z0.000000 I0.018772 J-0.079715
G02 X64.169492 Y30.313641 Z0.000000 I-0.062722 J-0.062725
G02 X63.166167 Y30.042272 Z0.000000 I-1.636146 J4.058810
G03 X62.296283 Y29.880990 Z0.000000 I1.674856 J-11.459920
G03 X61.585339 Y29.686219 Z0.000000 I1.766108 J-7.841515
G02 X60.156004 Y29.454010 Z0.000000 I-1.471557 J4.542827
G02 X58.017378 Y29.654665 Z0.000000 I-0.092907 J10.507078
G03 X57.073818 Y29.772167 Z0.000000 I-1.285687 J-6.477066
G03 X56.980419 Y29.708461 Z0.000000 I-0.004837 J-0.093227
G02 X56.907605 Y29.654349 Z0.000000 I-0.075126 J0.025046
G02 X56.768472 Y29.702260 Z0.000000 I-0.006084 J0.208308
G03 X56.673020 Y29.692878 Z0.000000 I-0.043085 J-0.051913
G03 X56.605857 Y29.502037 Z0.000000 I0.233000 J-0.189240
G03 X56.651960 Y29.319424 Z0.000000 I0.393869 J0.002312
G01 X56.704108 Y29.317423 Z0.000000
G02 X56.807030 Y29.368246 Z0.000000 I0.093212 J-0.059138
G02 X56.944379 Y29.296204 Z0.000000 I-0.017728 J-0.200748
G03 X57.354476 Y29.044508 Z0.000000 I0.575358 J0.477507
G03 X58.866062 Y28.860687 Z0.000000 I1.655046 J7.302804
G02 X59.471360 Y28.821695 Z0.000000 I-0.127944 J-6.703743
G02 X59.768641 Y28.761421 Z0.000000 I-0.183599 J-1.668813
G01 X59.773446 Y28.696591 Z0.000000
G02 X59.390544 Y28.584137 Z0.000000 I-0.556604 J1.187098
G02 X58.719888 Y28.533458 Z0.000000 I-0.775996 J5.806213
G02 X58.277082 Y28.564112 Z0.000000 I-0.045878 J2.550811
G03 X57.833794 Y28.626627 Z0.000000 I-2.160943 J-13.720100
G03 X57.102194 Y28.710514 Z0.000000 I-4.636196 J-37.201231
G01 X56.369651 Y28.787231 Z0.000000
G01 X56.369653 Y28.185151 Z0.000000
G03 X56.422606 Y27.636029 Z0.000000 I2.873820 J0.000012
G03 X56.486866 Y27.583073 Z0.000000 I0.064260 J0.012509
G03 X56.562213 Y27.624930 Z0.000000 I-0.000000 J0.088744
G03 X56.604070 Y27.771422 Z0.000000 I-0.235411 J0.146491
G02 X56.664421 Y27.869799 Z0.000000 I0.110357 J0.000000
G02 X56.809182 Y27.875679 Z0.000000 I0.078796 J-0.155016
G03 X57.020481 Y27.816095 Z0.000000 I0.365335 J0.891113
G03 X57.922426 Y27.695300 Z0.000000 I2.647113 J16.337727
G02 X58.826609 Y27.580160 Z0.000000 I-2.285239 J-21.553374
G02 X59.060839 Y27.525929 Z0.000000 I-0.221832 J-1.491082
G03 X59.295068 Y27.497761 Z0.000000 I0.191337 J0.603116
G03 X60.672643 Y27.635416 Z0.000000 I-1.477931 J21.752253
G03 X64.332033 Y28.564189 Z0.000000 I-2.115622 J16.009038
G03 X64.515382 Y29.106995 Z0.000000 I-0.132996 J0.347292
G03 X64.355571 Y29.182877 Z0.000000 I-0.138592 J-0.085656
G03 X63.501982 Y28.973877 Z0.000000 I0.523577 J-3.985976
G03 X63.114697 Y28.667157 Z0.000000 I0.268852 J-0.737337
G03 X63.196934 Y28.509068 Z0.000000 I0.085368 J-0.056026
G02 X63.300817 Y28.458447 Z0.000000 I-0.004317 J-0.140764
G01 X63.284845 Y28.403546 Z0.000000
G02 X61.905544 Y28.188068 Z0.000000 I-1.379319 J4.306897
G02 X61.175125 Y28.403538 Z0.000000 I-0.000006 J1.345735
G01 X61.175563 Y28.465638 Z0.000000
G02 X61.359358 Y28.518950 Z0.000000 I0.185541 J-0.296185
G03 X62.610213 Y28.756829 Z0.000000 I-0.016394 J3.493872
G03 X62.789132 Y29.075092 Z0.000000 I-0.104338 J0.268079
G02 X62.849240 Y29.196009 Z0.000000 I0.111807 J0.019818
G02 X63.577857 Y29.478430 Z0.000000 I1.731531 J-3.386085
G03 X64.367322 Y29.748672 Z0.000000 I-1.749237 J6.398339
G03 X64.527002 Y29.871636 Z0.000000 I-0.148091 J0.357472
G03 X64.607079 Y30.058768 Z0.000000 I-0.331254 J0.252449
G03 X64.727562 Y31.134518 Z0.000000 I-11.638452 J1.848120
G02 X64.984485 Y32.379985 Z0.000000 I4.617483 J-0.303289
G02 X65.202074 Y32.470520 Z0.000000 I0.149762 J-0.053191
G02 X65.344219 Y32.243843 Z0.000000 I-0.105841 J-0.224278
G02 X65.183702 Y30.571875 Z0.000000 I-9.773060 J0.094574
G03 X64.734735 Y27.355889 Z0.000000 I37.118476 J-6.821248
G03 X64.736146 Y25.908270 Z0.000000 I7.466382 J-0.716532
G02 X64.742372 Y24.888911 Z0.000000 I-5.550615 J-0.543604
G02 X64.583744 Y24.128190 Z0.000000 I-3.229257 J0.276476
G03 X64.437177 Y23.382051 Z0.000000 I2.741379 J-0.925967
G03 X64.510259 Y22.947981 Z0.000000 I0.967710 J-0.060258
G03 X64.733297 Y22.618691 Z0.000000 I0.925537 J0.386712
G03 X64.876099 Y22.589041 Z0.000000 I0.094471 J0.096287
G02 X65.063447 Y22.653344 Z0.000000 I0.995004 J-2.593875
G02 X65.111153 Y22.660432 Z0.000000 I0.047706 J-0.157012
G01 X65.140597 Y22.680034 Z0.000000
G03 X65.160183 Y22.777639 Z0.000000 I-0.233408 J0.097604
G03 X65.115416 Y22.850073 Z0.000000 I-0.080984 J-0.000000
G03 X64.925767 Y22.894842 Z0.000000 I-0.189647 J-0.379296
G02 X64.891355 Y23.007278 Z0.000000 I-0.000000 J0.061484
G02 X65.337512 Y23.172928 Z0.000000 I0.563735 J-0.834693
G02 X65.966905 Y23.154619 Z0.000000 I0.252476 J-2.148057
G02 X66.560845 Y22.956403 Z0.000000 I-0.372627 J-2.105507
G02 X67.107417 Y22.620085 Z0.000000 I-1.758233 J-3.469710
G02 X67.814521 Y22.034248 Z0.000000 I-4.718865 J-6.415316
G01 X68.491024 Y21.404560 Z0.000000
G01 X68.538718 Y20.538113 Z0.000000
G03 X68.651091 Y19.711414 Z0.000000 I5.204581 J0.286474
G03 X68.748609 Y19.577942 Z0.000000 I0.199916 J0.043702
G02 X69.034984 Y18.907463 Z0.000000 I-0.304130 J-0.526298
G02 X68.013144 Y16.565689 Z0.000000 I-7.252449 J1.770798
G02 X67.021636 Y15.456570 Z0.000000 I-4.266221 J2.816088
G02 X65.577002 Y14.533269 Z0.000000 I-4.349245 J5.213186
G02 X63.868236 Y13.960367 Z0.000000 I-3.258773 J6.885011
G02 X62.347258 Y13.862016 Z0.000000 I-1.108583 J5.333988
G03 X61.821631 Y13.873218 Z0.000000 I-0.365707 J-4.822341
G03 X61.468212 Y13.832112 Z0.000000 I0.071201 J-2.152032
G02 X61.122704 Y13.833637 Z0.000000 I-0.169006 J0.850099
G02 X60.305151 Y14.074077 Z0.000000 I1.072945 J5.158411
G01 X60.305130 Y14.074127 Z0.000000
G00 Z5.000000

(End cutting path id: path879)


(Start cutting path id: path879)
(Change tool to Cylindrical cutter)

G00 Z5.000000
G00 X59.151166 Y16.266813

G01 Z0.000000 F1000.0(Penetrate)
G03 X59.207798 Y16.457465 Z0.000000 I-0.042480 J0.116356 F1100.000000
G03 X58.840424 Y16.681351 Z0.000000 I-0.463781 J-0.347662
G03 X57.900207 Y16.766050 Z0.000000 I-1.017134 J-6.030044
G03 X57.799518 Y16.694447 Z0.000000 I-0.001318 J-0.104744
G03 X57.960751 Y16.138365 Z0.000000 I0.483588 J-0.161202
G03 X58.588992 Y16.049980 Z0.000000 I0.387040 J0.474119
G02 X58.773798 Y16.125251 Z0.000000 I2.113956 J-4.925705
G02 X59.151166 Y16.266893 Z0.000000 I7.973463 J-20.669775
G01 X59.151166 Y16.266813 Z0.000000
G00 Z5.000000

(End cutting path id: path879)


(Start cutting path id: path879)
(Change tool to Cylindrical cutter)

G00 Z5.000000
G00 X57.131529 Y18.206624

G01 Z0.000000 F1000.0(Penetrate)
G03 X57.137040 Y18.286541 Z0.000000 I-0.073210 J0.045197 F1100.000000
G03 X57.079849 Y18.323824 Z0.000000 I-0.057191 J-0.025224
G03 X56.991048 Y18.288536 Z0.000000 I0.000001 J-0.129376
G03 X56.955724 Y18.206624 Z0.000000 I0.077310 J-0.081912
G03 X56.976161 Y18.109770 Z0.000000 I0.239730 J0.000001
G01 X57.007405 Y18.089414 Z0.000000
G03 X57.049719 Y18.106229 Z0.000000 I-0.000000 J0.061650
G03 X57.131529 Y18.206624 Z0.000000 I-0.341383 J0.361715
G01 X57.131529 Y18.206624 Z0.000000
G00 Z5.000000

(End cutting path id: path879)


(Start cutting path id: path879)
(Change tool to Cylindrical cutter)

G00 Z5.000000
G00 X56.519626 Y21.258643

G01 Z0.000000 F1000.0(Penetrate)
G03 X56.440224 Y21.435433 Z0.000000 I-0.566080 J-0.148017 F1100.000000
G01 X56.398915 Y21.439515 Z0.000000
G03 X56.331730 Y21.165736 Z0.000000 I0.192212 J-0.192302
G03 X56.530833 Y21.019582 Z0.000000 I0.199102 J0.062538
G01 X56.552599 Y21.042394 Z0.000000
G03 X56.519622 Y21.258643 Z0.000000 I-1.048005 J-0.049180
G01 X56.519626 Y21.258643 Z0.000000
G00 Z5.000000

(End cutting path id: path879)


(Start cutting path id: path879)
(Change tool to Cylindrical cutter)

G00 Z5.000000
G00 X56.252455 Y24.718508

G01 Z0.000000 F1000.0(Penetrate)
G03 X56.207971 Y24.821447 Z0.000000 I-0.141349 J-0.000001 F1100.000000
G03 X56.135249 Y24.828798 Z0.000000 I-0.041153 J-0.043734
G03 X56.045828 Y24.740870 Z0.000000 I0.148652 J-0.240611
G03 X56.018041 Y24.646070 Z0.000000 I0.147818 J-0.094800
G03 X56.051319 Y24.569061 Z0.000000 I0.105744 J0.000000
G03 X56.135250 Y24.535780 Z0.000000 I0.083931 J0.089194
G03 X56.211035 Y24.577207 Z0.000000 I-0.000000 J0.090033
G03 X56.252455 Y24.718508 Z0.000000 I-0.220307 J0.141300
G01 X56.252455 Y24.718508 Z0.000000
G00 Z5.000000

(End cutting path id: path879)


(Start cutting path id: path879)
(Change tool to Cylindrical cutter)

G00 Z5.000000
G00 X56.252447 Y26.528296

G01 Z0.000000 F1000.0(Penetrate)
G03 X56.218121 Y26.611170 Z0.000000 I-0.117205 J-0.000000 F1100.000000
G03 X56.135242 Y26.645500 Z0.000000 I-0.082878 J-0.082875
G03 X56.052361 Y26.611169 Z0.000000 I0.000000 J-0.117212
G03 X56.018033 Y26.528295 Z0.000000 I0.082875 J-0.082874
G03 X56.052359 Y26.445420 Z0.000000 I0.117209 J0.000000
G03 X56.135243 Y26.411086 Z0.000000 I0.082883 J0.082876
G03 X56.218120 Y26.445417 Z0.000000 I-0.000000 J0.117202
G03 X56.252447 Y26.528296 Z0.000000 I-0.082884 J0.082878
G01 X56.252447 Y26.528296 Z0.000000
G00 Z5.000000

(End cutting path id: path879)


(Start cutting path id: path879)
(Change tool to Cylindrical cutter)

G00 Z5.000000
G00 X59.876535 Y25.335456

G01 Z0.000000 F1000.0(Penetrate)
G03 X60.476346 Y25.570909 Z0.000000 I-1.377233 J4.390207 F1100.000000
G03 X60.552668 Y25.657194 Z0.000000 I-0.063187 J0.132787
G03 X60.434292 Y25.853251 Z0.000000 I-0.142739 J0.047582
G03 X57.953611 Y26.083670 Z0.000000 I-2.883031 J-17.569970
G03 X56.507265 Y26.024285 Z0.000000 I-0.257316 J-11.375925
G03 X56.393337 Y25.919740 Z0.000000 I0.013568 J-0.129135
G03 X56.530982 Y25.635787 Z0.000000 I0.258748 J-0.049911
G03 X57.682751 Y25.252551 Z0.000000 I1.791943 J3.463102
G03 X58.934371 Y25.172873 Z0.000000 I1.017552 J6.113792
G03 X59.876535 Y25.335460 Z0.000000 I-0.136030 J3.599399
G01 X59.876535 Y25.335456 Z0.000000
G00 Z5.000000

(End cutting path id: path879)


(Start cutting path id: path879)
(Change tool to Cylindrical cutter)

G00 Z5.000000
G00 X60.589084 Y27.348758

G01 Z0.000000 F1000.0(Penetrate)
G03 X60.555806 Y27.432682 Z0.000000 I-0.122465 J-0.000001 F1100.000000
G03 X60.478792 Y27.465962 Z0.000000 I-0.077013 J-0.072469
G03 X60.383997 Y27.438173 Z0.000000 I0.000001 J-0.175580
G03 X60.296066 Y27.348757 Z0.000000 I0.152775 J-0.238183
G03 X60.303421 Y27.276036 Z0.000000 I0.051096 J-0.031564
G03 X60.406355 Y27.231553 Z0.000000 I0.102934 J0.096851
G03 X60.547660 Y27.272976 Z0.000000 I-0.000001 J0.261728
G03 X60.589084 Y27.348758 Z0.000000 I-0.048607 J0.075782
G01 X60.589084 Y27.348758 Z0.000000
G00 Z5.000000

(End cutting path id: path879)


(Start cutting path id: path879)
(Change tool to Cylindrical cutter)

G00 Z5.000000
G00 X62.281585 Y26.264601

G01 Z0.000000 F1000.0(Penetrate)
G03 X62.620351 Y26.499565 Z0.000000 I-0.633359 J1.274862 F1100.000000
G03 X62.645935 Y26.605193 Z0.000000 I-0.067567 J0.072277
G02 X62.835096 Y27.043799 Z0.000000 I0.329494 J0.117990
G02 X64.024229 Y27.208468 Z0.000000 I0.886410 J-2.025170
G03 X64.189175 Y27.286400 Z0.000000 I0.022833 J0.165197
G03 X64.317896 Y27.686723 Z0.000000 I-0.755027 J0.463631
G03 X64.238840 Y28.059873 Z0.000000 I-0.687708 J0.049250
G03 X64.083480 Y28.127200 Z0.000000 I-0.119926 J-0.063820
G02 X63.811389 Y28.057375 Z0.000000 I-2.878129 J10.650332
G02 X62.757403 Y27.804830 Z0.000000 I-38.837855 J159.762761
G03 X61.713360 Y27.523970 Z0.000000 I4.020258 J-17.025465
G03 X61.233721 Y27.343998 Z0.000000 I1.136907 J-3.759068
G02 X60.057936 Y27.004976 Z0.000000 I-1.760960 J3.898881
G02 X58.188798 Y26.923549 Z0.000000 I-1.367914 J9.906592
G03 X56.714172 Y26.887303 Z0.000000 I-0.495192 J-9.868699
G03 X56.604066 Y26.765684 Z0.000000 I0.012115 J-0.121619
G03 X56.681558 Y26.605788 Z0.000000 I0.203712 J0.000001
G03 X56.904788 Y26.528298 Z0.000000 I0.223229 J0.282788
G02 X57.197721 Y26.497221 Z0.000000 I0.000006 J-1.396077
G02 X57.406789 Y26.420580 Z0.000000 I-0.167433 J-0.780217
G03 X57.620187 Y26.358088 Z0.000000 I0.255834 J0.478019
G03 X59.581901 Y26.249812 Z0.000000 I3.312864 J42.196548
G02 X61.543084 Y26.157543 Z0.000000 I-2.079814 J-65.095193
G02 X61.619375 Y26.123132 Z0.000000 I-0.007338 J-0.118044
G03 X61.758428 Y26.082021 Z0.000000 I0.107339 J0.107339
G03 X62.281585 Y26.264601 Z0.000000 I-0.463119 J2.167803
G01 X62.281585 Y26.264601 Z0.000000
G00 Z5.000000

(End cutting path id: path879)


(Start cutting path id: path879)
(Change tool to Cylindrical cutter)

G00 Z5.000000
G00 X61.270370 Y21.802901

G01 Z0.000000 F1000.0(Penetrate)
G02 X61.416879 Y21.828075 Z0.000000 I0.132191 J-0.330416 F1100.000000
G02 X61.495016 Y21.794102 Z0.000000 I-0.004741 J-0.117746
G01 X61.487527 Y21.757641 Z0.000000
G02 X61.341185 Y21.732591 Z0.000000 I-0.131689 J0.329338
G02 X61.262920 Y21.766970 Z0.000000 I0.005093 J0.117871
G01 X61.270375 Y21.803421 Z0.000000
G01 X61.270370 Y21.802901 Z0.000000
G00 Z5.000000

(End cutting path id: path879)


(Start cutting path id: path879)
(Change tool to Cylindrical cutter)

G00 Z5.000000
G00 X62.959755 Y20.031968

G01 Z0.000000 F1000.0(Penetrate)
G02 X63.162766 Y20.183481 Z0.000000 I0.550325 J-0.525613 F1100.000000
G02 X63.233512 Y20.172369 Z0.000000 I0.027749 J-0.054099
G01 X63.234198 Y20.112037 Z0.000000
G02 X63.031191 Y19.960548 Z0.000000 I-0.550350 J0.525746
G02 X62.960450 Y19.971646 Z0.000000 I-0.027752 J0.054111
G01 X62.959751 Y20.031948 Z0.000000
G01 X62.959755 Y20.031968 Z0.000000
G00 Z5.000000

(End cutting path id: path879)


(Start cutting path id: path879)
(Change tool to Cylindrical cutter)

G00 Z5.000000
G00 X65.746214 Y18.323870

G01 Z0.000000 F1000.0(Penetrate)
G03 X65.725833 Y18.420662 Z0.000000 I-0.240035 J-0.000001 F1100.000000
G01 X65.694523 Y18.441079 Z0.000000
G03 X65.652213 Y18.424264 Z0.000000 I0.000000 J-0.061640
G03 X65.570399 Y18.323869 Z0.000000 I0.341644 J-0.361945
G03 X65.564890 Y18.243955 Z0.000000 I0.073204 J-0.045193
G03 X65.622089 Y18.206669 Z0.000000 I0.057199 J0.025231
G03 X65.710890 Y18.241957 Z0.000000 I-0.000001 J0.129376
G03 X65.746214 Y18.323870 Z0.000000 I-0.077310 J0.081912
G01 X65.746214 Y18.323870 Z0.000000
G00 Z5.000000

(End cutting path id: path879)


(Start cutting path id: path879)
(Change tool to Cylindrical cutter)

G00 Z5.000000
G00 X68.559169 Y18.382481

G01 Z0.000000 F1000.0(Penetrate)
G03 X68.525370 Y18.525626 Z0.000000 I-0.320026 J-0.000001 F1100.000000
G03 X68.441957 Y18.616891 Z0.000000 I-0.202369 J-0.101208
G01 X68.375621 Y18.598023 Z0.000000
G03 X68.324754 Y18.382480 Z0.000000 I0.431224 J-0.215540
G03 X68.375643 Y18.166904 Z0.000000 I0.482063 J0.000002
G01 X68.441959 Y18.148071 Z0.000000
G03 X68.525375 Y18.239312 Z0.000000 I-0.118739 J0.192307
G03 X68.559169 Y18.382481 Z0.000000 I-0.286369 J0.143168
G01 X68.559169 Y18.382481 Z0.000000
G00 Z5.000000

(End cutting path id: path879)


(Start cutting path id: path879)
(Change tool to Cylindrical cutter)

G00 Z5.000000
G00 X68.324746 Y20.264700

G01 Z0.000000 F1000.0(Penetrate)
G03 X68.277682 Y20.503741 Z0.000000 I-0.630594 J-0.000003 F1100.000000
G03 X68.207539 Y20.550807 Z0.000000 I-0.070143 J-0.028734
G03 X68.124646 Y20.516463 Z0.000000 I0.000000 J-0.117208
G03 X68.090330 Y20.433596 Z0.000000 I0.082895 J-0.082866
G02 X68.044279 Y20.361769 Z0.000000 I-0.079041 J-0.000000
G02 X67.826617 Y20.312488 Z0.000000 I-0.225640 J0.491281
G01 X67.562903 Y20.308487 Z0.000000
G01 X67.838826 Y20.078598 Z0.000000
G03 X68.160086 Y20.025261 Z0.000000 I0.206136 J0.247426
G03 X68.324746 Y20.264600 Z0.000000 I-0.091612 J0.239338
G01 X68.324746 Y20.264700 Z0.000000
G00 Z5.000000

(End cutting path id: path879)


(Start cutting path id: path879)
(Change tool to Cylindrical cutter)

G00 Z5.000000
G00 X68.208156 Y25.900942

G01 Z0.000000 F1000.0(Penetrate)
G02 X67.795102 Y26.148360 Z0.000000 I0.509310 J1.318766 F1100.000000
G01 X67.830991 Y26.225657 Z0.000000
G03 X68.282959 Y26.195684 Z0.000000 I0.387903 J2.426581
G01 X68.324721 Y26.238549 Z0.000000
G03 X68.300851 Y26.322318 Z0.000000 I-0.158924 J-0.000001
G03 X68.019865 Y26.730054 Z0.000000 I-4.366267 J-2.708269
G02 X68.033406 Y26.871905 Z0.000000 I0.083398 J0.063611
G02 X68.168527 Y26.862787 Z0.000000 I0.063099 J-0.070671
G03 X68.506422 Y26.479670 Z0.000000 I12.473351 J10.660449
G03 X68.881453 Y26.079372 Z0.000000 I13.993868 J12.734768
G02 X69.247230 Y25.678310 Z0.000000 I-7.000447 J-6.751869
G02 X69.262378 Y25.637541 Z0.000000 I-0.047288 J-0.040769
G02 X69.198191 Y25.587419 Z0.000000 I-0.051662 J-0.000000
G02 X68.208156 Y25.900962 Z0.000000 I2.036931 J8.151607
G01 X68.208156 Y25.900942 Z0.000000
G00 Z5.000000

(End cutting path id: path879)


(Start cutting path id: path879)
(Change tool to Cylindrical cutter)

G00 Z5.000000
G00 X69.310570 Y26.821045

G01 Z0.000000 F1000.0(Penetrate)
G02 X69.294338 Y27.109977 Z0.000000 I0.744217 J0.186732 F1100.000000
G02 X69.407147 Y27.540161 Z0.000000 I1.798187 J-0.241666
G01 X69.577199 Y27.966518 Z0.000000
G01 X69.567502 Y27.247406 Z0.000000
G02 X69.440347 Y26.801688 Z0.000000 I-0.887040 J0.012060
G02 X69.310644 Y26.821045 Z0.000000 I-0.060827 J0.036644
G01 X69.310570 Y26.821045 Z0.000000
G00 Z5.000000

(End cutting path id: path879)


(Start cutting path id: path879)
(Change tool to Cylindrical cutter)

G00 Z5.000000
G00 X69.987106 Y27.114326

G01 Z0.000000 F1000.0(Penetrate)
G03 X69.869876 Y28.471128 Z0.000000 I-7.882564 J0.002398 F1100.000000
G03 X69.623623 Y29.198461 Z0.000000 I-2.469378 J-0.430701
G02 X69.534755 Y29.406070 Z0.000000 I1.324084 J0.689608
G02 X69.391747 Y29.878237 Z0.000000 I6.737557 J2.298379
G03 X69.177939 Y30.299098 Z0.000000 I-1.091212 J-0.289624
G03 X68.563200 Y30.901432 Z0.000000 I-2.916347 J-2.361539
G03 X67.835368 Y31.334840 Z0.000000 I-2.113919 J-2.722119
G03 X67.491431 Y31.372215 Z0.000000 I-0.231195 J-0.526331
G02 X67.217259 Y31.383277 Z0.000000 I-0.114260 J0.571262
G02 X67.175267 Y31.462473 Z0.000000 I0.017064 J0.059779
G02 X67.272299 Y31.573182 Z0.000000 I0.178737 J-0.058780
G02 X67.590636 Y31.662718 Z0.000000 I0.412343 J-0.855363
G02 X67.920382 Y31.607445 Z0.000000 I0.063120 J-0.634669
G02 X68.354717 Y31.311101 Z0.000000 I-0.659373 J-1.432868
G03 X68.765900 Y30.933246 Z0.000000 I8.410358 J8.739528
G03 X69.130431 Y30.630522 Z0.000000 I5.760004 J6.565197
G02 X69.431375 Y30.289367 Z0.000000 I-0.776090 J-0.987926
G02 X69.675906 Y29.722175 Z0.000000 I-1.985454 J-1.192288
G03 X69.849412 Y29.107130 Z0.000000 I186.761520 J52.354067
G03 X70.024208 Y28.495264 Z0.000000 I184.453535 J52.363176
G02 X70.192234 Y27.423558 Z0.000000 I-4.201061 J-1.207682
G02 X70.081776 Y26.645503 Z0.000000 I-2.292853 J-0.071359
G01 X70.033626 Y26.648249 Z0.000000
G02 X69.987104 Y27.114327 Z0.000000 I2.304692 J0.465406
G01 X69.987106 Y27.114326 Z0.000000
G00 Z5.000000

(End cutting path id: path879)


(Start cutting path id: path879)
(Change tool to Cylindrical cutter)

G00 Z5.000000
G00 X71.793789 Y25.707854

G01 Z0.000000 F1000.0(Penetrate)
G02 X71.887017 Y26.232328 Z0.000000 I8.723368 J-1.280105 F1100.000000
G02 X72.271685 Y27.993388 Z0.000000 I98.899568 J-20.680095
G03 X72.669927 Y29.751980 Z0.000000 I-687.172125 J156.537765
G03 X72.740015 Y30.073806 Z0.000000 I-23.000203 J5.177583
G02 X72.841526 Y30.354626 Z0.000000 I1.050829 J-0.221100
G02 X72.910413 Y30.396127 Z0.000000 I0.068887 J-0.036422
G02 X72.972650 Y30.323356 Z0.000000 I0.000000 J-0.062999
G02 X72.659339 Y28.797036 Z0.000000 I-16.480169 J2.587607
G03 X72.332366 Y27.402044 Z0.000000 I36.642608 J-9.324511
G03 X72.189712 Y26.607520 Z0.000000 I11.735789 J-2.517182
G02 X72.029539 Y25.822863 Z0.000000 I-6.914437 J1.002774
G02 X71.895043 Y25.494057 Z0.000000 I-1.328971 J0.351696
G01 X71.825332 Y25.496690 Z0.000000
G02 X71.793789 Y25.707854 Z0.000000 I0.332908 J0.157667
G01 X71.793789 Y25.707854 Z0.000000
G00 Z5.000000

(End cutting path id: path879)


(Start cutting path id: path879)
(Change tool to Cylindrical cutter)

G00 Z5.000000
G00 X69.769907 Y31.050284

G01 Z0.000000 F1000.0(Penetrate)
G02 X69.734200 Y31.240676 Z0.000000 I0.502516 J0.192787 F1100.000000
G02 X69.765503 Y32.031946 Z0.000000 I9.003832 J0.040066
G03 X69.568672 Y32.982198 Z0.000000 I-1.703019 J0.142757
G03 X68.947115 Y33.558422 Z0.000000 I-1.148899 J-0.615946
G02 X68.483315 Y33.812438 Z0.000000 I1.265933 J2.861855
G01 X68.477559 Y33.869871 Z0.000000
G02 X68.932977 Y33.932913 Z0.000000 I0.269360 J-0.269372
G02 X69.867567 Y33.091864 Z0.000000 I-1.391466 J-2.486018
G02 X70.335820 Y31.945603 Z0.000000 I-2.239152 J-1.583475
G02 X70.191797 Y31.084077 Z0.000000 I-1.347293 J-0.217572
G02 X69.958570 Y30.931385 Z0.000000 I-0.256453 J0.137251
G02 X69.769872 Y31.050275 Z0.000000 I-0.014867 J0.185595
G01 X69.769907 Y31.050284 Z0.000000
G00 Z5.000000

(End cutting path id: path879)


(Start cutting path id: path879)
(Change tool to Cylindrical cutter)

G00 Z5.000000
G00 X73.130863 Y31.773304

G01 Z0.000000 F1000.0(Penetrate)
G02 X73.295270 Y33.569664 Z0.000000 I10.293942 J-0.036421 F1100.000000
G02 X74.472498 Y39.186631 Z0.000000 I102.333268 J-18.515609
G02 X75.422110 Y42.703808 Z0.000000 I60.045068 J-14.324941
G02 X76.018869 Y44.308412 Z0.000000 I13.049662 J-3.939958
G02 X76.807576 Y46.035417 Z0.000000 I91.211059 J-40.611610
G02 X78.697081 Y50.028258 Z0.000000 I489.534176 J-229.215436
G03 X79.186841 Y51.089655 Z0.000000 I-38.297358 J18.315240
G03 X79.627022 Y52.118782 Z0.000000 I-35.571850 J15.823581
G02 X80.694693 Y54.469978 Z0.000000 I32.766984 J-13.461380
G02 X81.098264 Y55.068155 Z0.000000 I2.475153 J-1.234681
G03 X81.269417 Y55.322736 Z0.000000 I-0.869955 J0.769686
G03 X81.446203 Y55.771397 Z0.000000 I-2.572690 J1.272880
G02 X81.591104 Y56.238752 Z0.000000 I24.949964 J-7.479440
G02 X81.652721 Y56.416035 Z0.000000 I3.653543 J-1.170485
G03 X81.708494 Y56.594383 Z0.000000 I-1.567434 J0.588064
G03 X81.741449 Y56.767655 Z0.000000 I-1.442850 J0.364192
G02 X81.915203 Y57.377485 Z0.000000 I2.120285 J-0.274447
G02 X82.035066 Y57.413959 Z0.000000 I0.075985 J-0.034519
G02 X82.123134 Y57.164579 Z0.000000 I-0.110874 J-0.179396
G02 X80.739114 Y53.729970 Z0.000000 I-39.000307 J13.719523
G02 X79.659013 Y51.461167 Z0.000000 I-69.438324 J31.665752
G02 X79.541530 Y51.317536 Z0.000000 I-0.372789 J0.185061
G03 X79.420846 Y51.177063 Z0.000000 I0.285006 J-0.366932
G03 X79.116257 Y50.555692 Z0.000000 I5.665295 J-3.162407
G02 X78.830054 Y49.916416 Z0.000000 I-17.391085 J7.402260
G02 X77.740953 Y47.630328 Z0.000000 I-223.587055 J105.115225
G03 X76.699115 Y45.347139 Z0.000000 I52.242974 J-25.218193
G03 X76.696231 Y45.203134 Z0.000000 I0.175516 J-0.075546
G02 X76.698115 Y45.060572 Z0.000000 I-0.192349 J-0.073836
G02 X76.458057 Y44.529962 Z0.000000 I-3.241815 J1.147049
G03 X75.761590 Y42.966331 Z0.000000 I8.255469 J-4.614049
G03 X74.717162 Y39.421042 Z0.000000 I41.735736 J-14.221662
G03 X73.910262 Y35.809646 Z0.000000 I72.548380 J-18.105439
G03 X73.356600 Y32.535147 Z0.000000 I59.082101 J-11.673849
G02 X73.189175 Y31.764746 Z0.000000 I-5.274716 J0.742913
G01 X73.130863 Y31.773304 Z0.000000
G01 X73.130863 Y31.773304 Z0.000000
G00 Z5.000000

(End cutting path id: path879)


(Start cutting path id: path879)
(Change tool to Cylindrical cutter)

G00 Z5.000000
G00 X71.840884 Y34.908562

G01 Z0.000000 F1000.0(Penetrate)
G03 X71.800024 Y35.043514 Z0.000000 I-0.243295 J-0.000001 F1100.000000
G03 X71.723679 Y35.084373 Z0.000000 I-0.076344 J-0.050895
G03 X71.647331 Y35.043514 Z0.000000 I0.000000 J-0.091761
G03 X71.606469 Y34.908561 Z0.000000 I0.202418 J-0.134952
G03 X71.647331 Y34.773612 Z0.000000 I0.243270 J0.000001
G03 X71.723681 Y34.732753 Z0.000000 I0.076349 J0.050904
G03 X71.800027 Y34.773613 Z0.000000 I-0.000000 J0.091756
G03 X71.840884 Y34.908562 Z0.000000 I-0.202429 J0.134947
G01 X71.840884 Y34.908562 Z0.000000
G00 Z5.000000

(End cutting path id: path879)


(Start cutting path id: path879)
(Change tool to Cylindrical cutter)

G00 Z5.000000
G00 X69.862445 Y38.131615

G01 Z0.000000 F1000.0(Penetrate)
G01 X69.598946 Y38.600439 Z0.000000 F1100.000000
G01 X69.951146 Y38.600441 Z0.000000
G02 X70.278614 Y38.556080 Z0.000000 I0.000005 J-1.230831
G02 X70.375788 Y38.483238 Z0.000000 I-0.044224 J-0.160234
G02 X70.366588 Y38.411554 Z0.000000 I-0.048831 J-0.030165
G02 X70.252958 Y38.366027 Z0.000000 I-0.113631 J0.119044
G03 X70.142551 Y38.308827 Z0.000000 I0.000001 J-0.135153
G03 X70.128833 Y38.190220 Z0.000000 I0.101791 J-0.071870
G01 X70.271122 Y37.838599 Z0.000000
G02 X70.185334 Y37.771101 Z0.000000 I-0.052676 J-0.021317
G02 X69.862445 Y38.131615 Z0.000000 I0.650870 J0.907794
G01 X69.862445 Y38.131615 Z0.000000
G00 Z5.000000

(End cutting path id: path879)


(Start cutting path id: path879)
(Change tool to Cylindrical cutter)

G00 Z5.000000
G00 X67.562846 Y34.146580

G01 Z0.000000 F1000.0(Penetrate)
G02 X67.562770 Y34.223435 Z0.000000 I0.062305 J0.038489 F1100.000000
G02 X67.634966 Y34.263790 Z0.000000 I0.072196 J-0.044402
G03 X67.735750 Y34.509839 Z0.000000 I-0.000001 J0.143666
G03 X67.016210 Y34.872876 Z0.000000 I-0.925923 J-0.940601
G02 X66.910585 Y35.017004 Z0.000000 I0.019841 J0.125308
G02 X67.056699 Y35.142836 Z0.000000 I0.146114 J-0.021917
G02 X67.271866 Y35.063804 Z0.000000 I0.000001 J-0.332412
G02 X67.712303 Y34.586108 Z0.000000 I-1.728838 J-2.035882
G02 X67.940072 Y34.117673 Z0.000000 I-1.247810 J-0.896319
G02 X67.873742 Y34.029377 Z0.000000 I-0.066330 J-0.019234
G02 X67.657269 Y34.068824 Z0.000000 I-0.000003 J0.613686
G02 X67.562837 Y34.146580 Z0.000000 I0.066900 J0.177469
G01 X67.562846 Y34.146580 Z0.000000
G00 Z5.000000

(End cutting path id: path879)


(Start cutting path id: path879)
(Change tool to Cylindrical cutter)

G00 Z5.000000
G00 X65.164787 Y33.144668

G01 Z0.000000 F1000.0(Penetrate)
G02 X65.069751 Y33.586089 Z0.000000 I0.375669 J0.311821 F1100.000000
G02 X65.343825 Y33.794902 Z0.000000 I0.274075 J-0.075462
G02 X65.444297 Y33.727465 Z0.000000 I0.000000 J-0.108562
G02 X65.511737 Y33.384680 Z0.000000 I-0.837454 J-0.342789
G02 X65.371079 Y33.116324 Z0.000000 I-0.326318 J-0.000001
G02 X65.164787 Y33.144642 Z0.000000 I-0.087691 J0.126749
G01 X65.164787 Y33.144668 Z0.000000
G00 Z5.000000

(End cutting path id: path879)


(Start cutting path id: path879)
(Change tool to Cylindrical cutter)

G00 Z5.000000
G00 X65.072215 Y32.700644

G01 Z0.000000 F1000.0(Penetrate)
G02 X64.955894 Y32.780130 Z0.000000 I0.122982 J0.304828 F1100.000000
G02 X64.925705 Y32.856224 Z0.000000 I0.080809 J0.076095
G02 X65.096939 Y32.990861 Z0.000000 I0.138547 J0.000001
G02 X65.461883 Y32.726077 Z0.000000 I-0.140063 J-0.576932
G02 X65.419988 Y32.644816 Z0.000000 I-0.045368 J-0.028040
G02 X65.072215 Y32.700646 Z0.000000 I-0.051559 J0.789918
G01 X65.072215 Y32.700644 Z0.000000
G00 Z5.000000

(End cutting path id: path879)


(Start cutting path id: path879)
(Change tool to Cylindrical cutter)

G00 Z5.000000
G00 X63.751595 Y33.504349

G01 Z0.000000 F1000.0(Penetrate)
G02 X63.762476 Y33.605026 Z0.000000 I0.054291 J0.045058 F1100.000000
G02 X63.973698 Y33.677698 Z0.000000 I0.211223 J-0.270627
G02 X64.151791 Y33.579532 Z0.000000 I0.000001 J-0.210630
G02 X64.117568 Y33.449872 Z0.000000 I-0.077444 J-0.048905
G02 X63.911739 Y33.414154 Z0.000000 I-0.156879 J0.293119
G02 X63.751595 Y33.504350 Z0.000000 I0.037891 J0.254541
G01 X63.751595 Y33.504349 Z0.000000
G00 Z5.000000

(End cutting path id: path879)


(Start cutting path id: path879)
(Change tool to Cylindrical cutter)

G00 Z5.000000
G00 X63.108999 Y33.560517

G01 Z0.000000 F1000.0(Penetrate)
G02 X63.117398 Y33.632645 Z0.000000 I0.049776 J0.030757 F1100.000000
G02 X63.226208 Y33.677721 Z0.000000 I0.108811 J-0.108792
G02 X63.335014 Y33.632654 Z0.000000 I0.000001 J-0.153880
G02 X63.343414 Y33.560518 Z0.000000 I-0.041372 J-0.041375
G02 X63.262586 Y33.458375 Z0.000000 I-0.478888 J0.295904
G02 X63.226209 Y33.443306 Z0.000000 I-0.036377 J0.036376
G02 X63.189830 Y33.458376 Z0.000000 I-0.000000 J0.051444
G02 X63.108999 Y33.560517 Z0.000000 I0.398342 J0.398287
G01 X63.108999 Y33.560517 Z0.000000
G00 Z5.000000

(End cutting path id: path879)


(Start cutting path id: path879)
(Change tool to Cylindrical cutter)

G00 Z5.000000
G00 X62.405760 Y33.560514

G01 Z0.000000 F1000.0(Penetrate)
G02 X62.497022 Y33.643929 Z0.000000 I0.192372 J-0.118836 F1100.000000
G02 X62.640175 Y33.677719 Z0.000000 I0.143155 J-0.286352
G02 X62.783307 Y33.643933 Z0.000000 I0.000001 J-0.320075
G02 X62.874589 Y33.560516 Z0.000000 I-0.101173 J-0.202366
G01 X62.855748 Y33.494198 Z0.000000
G02 X62.640176 Y33.443304 Z0.000000 I-0.215574 J0.431113
G02 X62.424601 Y33.494194 Z0.000000 I-0.000002 J0.482032
G01 X62.405760 Y33.560514 Z0.000000
G01 X62.405760 Y33.560514 Z0.000000
G00 Z5.000000

(End cutting path id: path879)


(Start cutting path id: path879)
(Change tool to Cylindrical cutter)

G00 Z5.000000
G00 X61.643919 Y33.430731

G01 Z0.000000 F1000.0(Penetrate)
G02 X61.678650 Y33.511530 Z0.000000 I0.111352 J0.000000 F1100.000000
G02 X61.829315 Y33.606544 Z0.000000 I0.314319 J-0.331460
G02 X62.038894 Y33.607870 Z0.000000 I0.106551 J-0.277659
G02 X62.112743 Y33.501876 Z0.000000 I-0.039143 J-0.105995
G02 X62.054141 Y33.384671 Z0.000000 I-0.146507 J-0.000001
G02 X61.878334 Y33.326067 Z0.000000 I-0.175808 J0.234405
G02 X61.685099 Y33.367246 Z0.000000 I-0.000002 J0.473960
G02 X61.643919 Y33.430731 Z0.000000 I0.028345 J0.063485
G01 X61.643919 Y33.430731 Z0.000000
G00 Z5.000000

(End cutting path id: path879)


(Start cutting path id: path879)
(Change tool to Cylindrical cutter)

G00 Z5.000000
G00 X60.940678 Y33.443268

G01 Z0.000000 F1000.0(Penetrate)
G02 X60.985445 Y33.515705 Z0.000000 I0.080988 J0.000000 F1100.000000
G02 X61.175092 Y33.560478 Z0.000000 I0.189649 J-0.379273
G02 X61.364738 Y33.515706 Z0.000000 I0.000002 J-0.424026
G02 X61.409504 Y33.443270 Z0.000000 I-0.036221 J-0.072436
G02 X61.364738 Y33.370834 Z0.000000 I-0.080986 J-0.000000
G02 X61.175093 Y33.326063 Z0.000000 I-0.189646 J0.379272
G02 X60.985449 Y33.370829 Z0.000000 I-0.000002 J0.424076
G02 X60.940678 Y33.443268 Z0.000000 I0.036217 J0.072440
G01 X60.940678 Y33.443268 Z0.000000
G00 Z5.000000

(End cutting path id: path879)


(Start cutting path id: path879)
(Change tool to Cylindrical cutter)

G00 Z5.000000
G00 X61.035913 Y33.054531

G01 Z0.000000 F1000.0(Penetrate)
G02 X61.182251 Y33.079596 Z0.000000 I0.131727 J-0.329352 F1100.000000
G02 X61.260556 Y33.045232 Z0.000000 I-0.004841 J-0.117429
G01 X61.253075 Y33.008763 Z0.000000
G02 X61.106724 Y32.983672 Z0.000000 I-0.131760 J0.329164
G02 X61.028426 Y33.018003 Z0.000000 I0.004816 J0.117432
G01 X61.035913 Y33.054481 Z0.000000
G01 X61.035913 Y33.054531 Z0.000000
G00 Z5.000000

(End cutting path id: path879)


(Start cutting path id: path879)
(Change tool to Cylindrical cutter)

G00 Z5.000000
G00 X60.032328 Y33.055413

G01 Z0.000000 F1000.0(Penetrate)
G02 X60.237440 Y33.081789 Z0.000000 I0.205115 J-0.784366 F1100.000000
G02 X60.442551 Y33.055415 Z0.000000 I0.000003 J-0.810742
G01 X60.442548 Y33.028165 Z0.000000
G02 X60.237441 Y33.001814 Z0.000000 I-0.205111 J0.785093
G02 X60.032332 Y33.028164 Z0.000000 I-0.000003 J0.811428
G01 X60.032328 Y33.055413 Z0.000000
G01 X60.032328 Y33.055413 Z0.000000
G00 Z5.000000

(End cutting path id: path879)


(Start cutting path id: path879)
(Change tool to Cylindrical cutter)

G00 Z5.000000
G00 X59.856520 Y33.406853

G01 Z0.000000 F1000.0(Penetrate)
G02 X59.692900 Y33.492490 Z0.000000 I0.103771 J0.397395 F1100.000000
G02 X59.651408 Y33.582740 Z0.000000 I0.077406 J0.090250
G02 X59.699969 Y33.641725 Z0.000000 I0.060104 J0.000000
G02 X59.915121 Y33.634341 Z0.000000 I0.091632 J-0.468233
G03 X60.181126 Y33.580699 Z0.000000 I0.560070 J2.090990
G03 X60.442549 Y33.562073 Z0.000000 I0.273490 J1.994584
G02 X60.660145 Y33.514625 Z0.000000 I-0.003279 J-0.537709
G02 X60.706263 Y33.443266 Z0.000000 I-0.032149 J-0.071360
G02 X60.595743 Y33.327908 Z0.000000 I-0.115463 J-0.000000
G02 X59.856520 Y33.406852 Z0.000000 I-0.107054 J2.498024
G01 X59.856520 Y33.406853 Z0.000000
G00 Z5.000000

(End cutting path id: path879)


(Start cutting path id: path879)
(Change tool to Cylindrical cutter)

G00 Z5.000000
G00 X59.065377 Y33.560500

G01 Z0.000000 F1000.0(Penetrate)
G02 X59.106233 Y33.636843 Z0.000000 I0.091753 J0.000000 F1100.000000
G02 X59.241185 Y33.677705 Z0.000000 I0.134952 J-0.202419
G02 X59.376139 Y33.636846 Z0.000000 I0.000001 J-0.243298
G02 X59.416998 Y33.560502 Z0.000000 I-0.050894 J-0.076345
G02 X59.376140 Y33.484153 Z0.000000 I-0.091761 J-0.000000
G02 X59.241186 Y33.443290 Z0.000000 I-0.134955 J0.202419
G02 X59.106237 Y33.484151 Z0.000000 I-0.000001 J0.243270
G02 X59.065377 Y33.560500 Z0.000000 I0.050903 J0.076350
G01 X59.065377 Y33.560500 Z0.000000
G00 Z5.000000

(End cutting path id: path879)


(Start cutting path id: path879)
(Change tool to Cylindrical cutter)

G00 Z5.000000
G00 X58.567250 Y33.532058

G01 Z0.000000 F1000.0(Penetrate)
G02 X58.400855 Y33.608726 Z0.000000 I0.093965 J0.422837 F1100.000000
G02 X58.362137 Y33.686292 Z0.000000 I0.058339 J0.077567
G02 X58.508332 Y33.826828 Z0.000000 I0.140644 J0.000001
G02 X58.777180 Y33.669904 Z0.000000 I-0.013081 J-0.331173
G02 X58.754216 Y33.566288 Z0.000000 I-0.064731 J-0.040007
G02 X58.567250 Y33.532058 Z0.000000 I-0.133970 J0.204028
G01 X58.567250 Y33.532058 Z0.000000
G00 Z5.000000

(End cutting path id: path879)


(Start cutting path id: path879)
(Change tool to Cylindrical cutter)

G00 Z5.000000
G00 X57.717500 Y33.677715

G01 Z0.000000 F1000.0(Penetrate)
G02 X57.731830 Y33.746538 Z0.000000 I0.043460 J0.026854 F1100.000000
G02 X57.886392 Y33.794921 Z0.000000 I0.154563 J-0.222688
G02 X58.082595 Y33.749799 Z0.000000 I0.000002 J-0.449118
G02 X58.127722 Y33.677716 Z0.000000 I-0.035007 J-0.072083
G02 X58.087464 Y33.600774 Z0.000000 I-0.093655 J-0.000000
G02 X57.958830 Y33.560512 Z0.000000 I-0.128634 J0.185355
G02 X57.809135 Y33.594938 Z0.000000 I-0.000001 J0.342665
G02 X57.717500 Y33.677715 Z0.000000 I0.096742 J0.199204
G01 X57.717500 Y33.677715 Z0.000000
G00 Z5.000000

(End cutting path id: path879)


(Start cutting path id: path879)
(Change tool to Cylindrical cutter)

G00 Z5.000000
G00 X56.252418 Y33.677709

G01 Z0.000000 F1000.0(Penetrate)
G02 X56.297184 Y33.750143 Z0.000000 I0.080985 J0.000000 F1100.000000
G02 X56.486832 Y33.794916 Z0.000000 I0.189651 J-0.379282
G02 X56.676473 Y33.750149 Z0.000000 I0.000002 J-0.424054
G02 X56.721243 Y33.677711 Z0.000000 I-0.036218 J-0.072439
G02 X56.676477 Y33.605276 Z0.000000 I-0.080985 J-0.000000
G02 X56.486833 Y33.560506 Z0.000000 I-0.189645 J0.379279
G02 X56.297187 Y33.605273 Z0.000000 I-0.000002 J0.424074
G02 X56.252418 Y33.677709 Z0.000000 I0.036216 J0.072436
G01 X56.252418 Y33.677709 Z0.000000
G00 Z5.000000

(End cutting path id: path879)


(Start cutting path id: path879)
(Change tool to Cylindrical cutter)

G00 Z5.000000
G00 X56.255658 Y33.146508

G01 Z0.000000 F1000.0(Penetrate)
G02 X56.258848 Y33.254684 Z0.000000 I0.062991 J0.052278 F1100.000000
G02 X56.423646 Y33.326224 Z0.000000 I0.164799 J-0.154043
G02 X56.661070 Y33.268770 Z0.000000 I0.000002 J-0.519280
G02 X56.694387 Y33.187043 Z0.000000 I-0.030994 J-0.060289
G02 X56.510243 Y33.040977 Z0.000000 I-0.203918 J0.067969
G02 X56.255658 Y33.146512 Z0.000000 I-0.027185 J0.294260
G01 X56.255658 Y33.146508 Z0.000000
G00 Z5.000000

(End cutting path id: path879)


(Start cutting path id: path879)
(Change tool to Cylindrical cutter)

G00 Z5.000000
G00 X55.783053 Y34.468853

G01 Z0.000000 F1000.0(Penetrate)
G03 X55.768481 Y35.259584 Z0.000000 I-22.111571 J-0.011982 F1100.000000
G03 X55.706534 Y36.578572 Z0.000000 I-62.127903 J-2.256908
G01 X55.630549 Y37.897145 Z0.000000
G01 X55.941473 Y37.897146 Z0.000000
G02 X56.136971 Y37.782086 Z0.000000 I0.000001 J-0.223613
G02 X56.250608 Y37.340417 Z0.000000 I-0.790178 J-0.438759
G02 X56.196820 Y36.964231 Z0.000000 I-1.374440 J0.004584
G01 X56.139774 Y36.956100 Z0.000000
G03 X56.003323 Y36.936651 Z0.000000 I-0.063856 J-0.040383
G03 X55.954480 Y36.313539 Z0.000000 I1.492851 J-0.430489
G03 X56.090780 Y35.743650 Z0.000000 I2.637820 J0.329643
G03 X56.173771 Y35.703740 Z0.000000 I0.061774 J0.022213
G03 X56.255534 Y35.786258 Z0.000000 I-0.042206 J0.123587
G03 X56.282773 Y36.032736 Z0.000000 I-0.565033 J0.187188
G02 X56.312283 Y36.093916 Z0.000000 I0.064745 J0.006478
G01 X56.356843 Y36.080446 Z0.000000
G03 X56.484150 Y35.864066 Z0.000000 I0.958834 J0.418486
G03 X56.703809 Y35.626005 Z0.000000 I1.384153 J1.056793
G03 X59.720391 Y34.269502 Z0.000000 I3.626752 J4.032767
G03 X61.414707 Y35.092645 Z0.000000 I0.197904 J1.747964
G02 X61.502428 Y35.129179 Z0.000000 I0.069309 J-0.042836
G02 X61.591538 Y35.051626 Z0.000000 I-0.028456 J-0.122668
G03 X61.859934 Y34.848480 Z0.000000 I0.297477 J0.114152
G03 X62.195081 Y34.996308 Z0.000000 I0.034438 J0.375750
G03 X62.265133 Y35.157364 Z0.000000 I-0.296439 J0.224700
G03 X62.326399 Y35.752463 Z0.000000 I-4.252789 J0.738538
G03 X62.268587 Y36.318043 Z0.000000 I-2.109316 J0.070136
G03 X62.152985 Y36.470494 Z0.000000 I-0.232310 J-0.056104
G02 X62.037598 Y36.607197 Z0.000000 I0.124139 J0.221832
G02 X62.039859 Y36.788800 Z0.000000 I0.246879 J0.087742
G02 X62.213061 Y36.792865 Z0.000000 I0.087436 J-0.033552
G02 X62.436801 Y35.883751 Z0.000000 I-2.504531 J-1.098472
G03 X62.562134 Y35.066425 Z0.000000 I4.982061 J0.345701
G03 X62.666046 Y34.926358 Z0.000000 I0.216116 J0.051753
G02 X62.708512 Y34.821904 Z0.000000 I-0.046704 J-0.079847
G02 X62.591437 Y34.655995 Z0.000000 I-0.289176 J0.079797
G03 X62.418303 Y34.447856 Z0.000000 I0.295475 J-0.421861
G03 X62.347151 Y34.120380 Z0.000000 I0.718020 J-0.327474
G02 X62.306013 Y33.855707 Z0.000000 I-0.871963 J-0.000004
G01 X62.259242 Y33.844426 Z0.000000
G02 X62.203720 Y33.946319 Z0.000000 I0.147514 J0.146456
G02 X62.171341 Y34.244880 Z0.000000 I1.360333 J0.298566
G03 X62.046875 Y34.437057 Z0.000000 I-0.210597 J-0.000001
G03 X61.409492 Y34.586335 Z0.000000 I-0.704111 J-1.571022
G03 X60.656140 Y34.567702 Z0.000000 I-0.230181 J-5.932263
G03 X60.344440 Y34.492120 Z0.000000 I0.094789 J-1.071434
G02 X60.032228 Y34.430997 Z0.000000 I-0.311478 J0.763065
G02 X58.821319 Y34.493414 Z0.000000 I0.010659 J11.983980
G03 X57.637747 Y34.562314 Z0.000000 I-1.372213 J-13.371848
G03 X57.565547 Y34.511039 Z0.000000 I-0.001052 J-0.074989
G01 X57.509496 Y34.489056 Z0.000000
G02 X57.247997 Y34.685176 Z0.000000 I0.556033 J1.013791
G03 X56.825880 Y34.793543 Z0.000000 I-0.302671 J-0.302670
G03 X56.604029 Y34.498043 Z0.000000 I0.085871 J-0.295498
G02 X56.536811 Y34.096434 Z0.000000 I-1.233345 J-0.000005
G02 X56.442570 Y34.029216 Z0.000000 I-0.094241 J0.032456
G03 X56.299031 Y33.991066 Z0.000000 I0.000001 J-0.289114
G03 X56.135206 Y33.853404 Z0.000000 I0.297870 J-0.520790
G02 X55.942451 Y33.870111 Z0.000000 I-0.090586 J0.075179
G02 X55.783047 Y34.468740 Z0.000000 I1.047421 J0.599447
G01 X55.783053 Y34.468853 Z0.000000
G00 Z5.000000

(End cutting path id: path879)


(Start cutting path id: path879)
(Change tool to Cylindrical cutter)

G00 Z5.000000
G00 X56.146481 Y35.168723

G01 Z0.000000 F1000.0(Penetrate)
G01 X56.078869 Y35.174070 Z0.000000 F1100.000000
G03 X56.021563 Y35.015817 Z0.000000 I0.196779 J-0.160759
G03 X56.052108 Y34.668211 Z0.000000 I1.807069 J-0.016358
G03 X56.105905 Y34.565164 Z0.000000 I0.195364 J0.036427
G03 X56.273265 Y34.627264 Z0.000000 I0.069723 J0.068663
G03 X56.146483 Y35.168723 Z0.000000 I-0.947586 J0.063696
G01 X56.146481 Y35.168723 Z0.000000
G00 Z5.000000

(End cutting path id: path879)


(Start cutting path id: path879)
(Change tool to Cylindrical cutter)

G00 Z5.000000
G00 X57.688181 Y37.224644

G01 Z0.000000 F1000.0(Penetrate)
G02 X57.257875 Y37.397864 Z0.000000 I0.370909 J1.542478 F1100.000000
G02 X57.190057 Y37.516121 Z0.000000 I0.069198 J0.118258
G02 X57.241747 Y37.612625 Z0.000000 I0.115929 J0.000000
G02 X57.353665 Y37.625035 Z0.000000 I0.067969 J-0.102106
G03 X57.518840 Y37.566871 Z0.000000 I1.118390 J2.912381
G03 X57.998303 Y37.418137 Z0.000000 I7.896456 J24.608070
G02 X58.437689 Y37.243021 Z0.000000 I-0.771094 J-2.573568
G02 X58.479329 Y37.175365 Z0.000000 I-0.034146 J-0.067657
G02 X58.415504 Y37.115392 Z0.000000 I-0.060089 J-0.000000
G02 X57.688181 Y37.224642 Z0.000000 I0.263449 J4.229562
G01 X57.688181 Y37.224644 Z0.000000
G00 Z5.000000

(End cutting path id: path879)


(Start cutting path id: path879)
(Change tool to Cylindrical cutter)

G00 Z5.000000
G00 X60.640747 Y37.600423

G01 Z0.000000 F1000.0(Penetrate)
G02 X60.562422 Y37.724053 Z0.000000 I0.125796 J0.166322 F1100.000000
G01 X60.603976 Y37.776230 Z0.000000
G02 X60.774994 Y37.736897 Z0.000000 I0.007524 J-0.358739
G02 X60.940646 Y37.604150 Z0.000000 I-0.240496 J-0.469839
G02 X60.899595 Y37.515366 Z0.000000 I-0.041695 J-0.034604
G02 X60.640731 Y37.600649 Z0.000000 I-0.004999 J0.420343
G01 X60.640747 Y37.600423 Z0.000000
G00 Z5.000000

(End cutting path id: path879)


(Start cutting path id: path879)
(Change tool to Cylindrical cutter)

G00 Z5.000000
G00 X60.794156 Y36.812919

G01 Z0.000000 F1000.0(Penetrate)
G02 X60.713863 Y36.955482 Z0.000000 I0.024448 J0.107662 F1100.000000
G02 X60.882055 Y37.076723 Z0.000000 I0.168193 J-0.056043
G02 X61.129960 Y37.031614 Z0.000000 I0.000003 J-0.703746
G02 X61.175072 Y36.966432 Z0.000000 I-0.024534 J-0.065182
G02 X61.087276 Y36.836390 Z0.000000 I-0.140204 J-0.000001
G02 X60.794150 Y36.812919 Z0.000000 I-0.184076 J0.456759
G01 X60.794156 Y36.812919 Z0.000000
G00 Z5.000000

(End cutting path id: path879)


(Start cutting path id: path879)
(Change tool to Cylindrical cutter)

G00 Z5.000000
G00 X61.995521 Y37.545548

G01 Z0.000000 F1000.0(Penetrate)
G02 X62.036380 Y37.621895 Z0.000000 I0.091756 J0.000000 F1100.000000
G02 X62.171333 Y37.662755 Z0.000000 I0.134953 J-0.202431
G02 X62.306282 Y37.621896 Z0.000000 I0.000001 J-0.243280
G02 X62.347141 Y37.545550 Z0.000000 I-0.050898 J-0.076346
G02 X62.306281 Y37.469203 Z0.000000 I-0.091756 J-0.000000
G02 X62.171334 Y37.428345 Z0.000000 I-0.134949 J0.202428
G02 X62.036384 Y37.469200 Z0.000000 I-0.000001 J0.243301
G02 X61.995521 Y37.545548 Z0.000000 I0.050893 J0.076348
G01 X61.995521 Y37.545548 Z0.000000
G00 Z5.000000

(End cutting path id: path879)


(Start cutting path id: path879)
(Change tool to Cylindrical cutter)

G00 Z5.000000
G00 X62.478177 Y38.307393

G01 Z0.000000 F1000.0(Penetrate)
G02 X62.501112 Y38.774959 Z0.000000 I6.604426 J-0.089619 F1100.000000
G02 X62.567173 Y39.362253 Z0.000000 I10.687503 J-0.904796
G02 X62.675021 Y39.683723 Z0.000000 I0.916708 J-0.128714
G01 X62.742775 Y39.677756 Z0.000000
G02 X62.838925 Y38.844904 Z0.000000 I-1.838696 J-0.634246
G02 X62.572046 Y38.014376 Z0.000000 I-2.094954 J0.215041
G01 X62.521032 Y38.019741 Z0.000000
G02 X62.478195 Y38.307393 Z0.000000 I0.857743 J0.274750
G01 X62.478177 Y38.307393 Z0.000000
G00 Z5.000000

(End cutting path id: path879)


(Start cutting path id: path879)
(Change tool to Cylindrical cutter)

G00 Z5.000000
G00 X63.519205 Y37.721362

G01 Z0.000000 F1000.0(Penetrate)
G02 X63.691801 Y37.837506 Z0.000000 I0.283942 J-0.235638 F1100.000000
G02 X64.031686 Y37.883582 Z0.000000 I0.302712 J-0.956368
G02 X64.168055 Y37.847014 Z0.000000 I-0.011691 J-0.316162
G01 X64.163842 Y37.813602 Z0.000000
G03 X63.941232 Y37.735519 Z0.000000 I0.272744 J-1.133938
G03 X63.818084 Y37.651388 Z0.000000 I0.197972 J-0.421981
G02 X63.695332 Y37.574113 Z0.000000 I-0.253760 J0.266967
G02 X63.540018 Y37.545558 Z0.000000 I-0.155316 J0.408112
G02 X63.482375 Y37.596777 Z0.000000 I-0.000000 J0.058046
G02 X63.519197 Y37.721365 Z0.000000 I0.163621 J0.019377
G01 X63.519205 Y37.721362 Z0.000000
G00 Z5.000000

(End cutting path id: path879)


(Start cutting path id: path879)
(Change tool to Cylindrical cutter)

G00 Z5.000000
G00 X63.728003 Y40.762787

G01 Z0.000000 F1000.0(Penetrate)
G03 X63.765735 Y40.833935 Z0.000000 I-0.097048 J0.097047 F1100.000000
G03 X63.841209 Y41.352012 Z0.000000 I-5.691464 J1.093680
G03 X63.810553 Y41.829345 Z0.000000 I-1.461409 J0.145794
G03 X63.701525 Y41.954645 Z0.000000 I-0.172435 J-0.039957
G02 X63.623219 Y42.057004 Z0.000000 I0.044066 J0.114842
G02 X63.674544 Y42.219125 Z0.000000 I0.213059 J0.021734
G03 X63.778039 Y42.435098 Z0.000000 I-0.341367 J0.296368
G03 X63.907226 Y43.506664 Z0.000000 I-9.035626 J1.632898
G02 X64.085276 Y44.590395 Z0.000000 I5.400466 J-0.330773
G02 X64.214596 Y44.641501 Z0.000000 I0.083720 J-0.022676
G02 X64.497131 Y44.146166 Z0.000000 I-0.313273 J-0.506933
G02 X64.237691 Y43.458756 Z0.000000 I-0.989367 J-0.019260
G03 X63.933383 Y42.752436 Z0.000000 I0.863844 J-0.790888
G03 X64.160665 Y42.394752 Z0.000000 I0.354683 J-0.025677
G03 X65.465712 Y42.419953 Z0.000000 I0.621490 J1.619691
G03 X65.864026 Y43.125009 Z0.000000 I-0.263077 J0.613663
G02 X65.896759 Y43.197797 Z0.000000 I0.074412 J0.010291
G02 X66.116208 Y43.293175 Z0.000000 I0.374562 J-0.561657
G03 X66.446192 Y43.603068 Z0.000000 I-0.104257 J0.441652
G03 X66.488298 Y44.519486 Z0.000000 I-1.783370 J0.541116
G02 X66.441552 Y44.873269 Z0.000000 I2.446330 J0.503219
G02 X66.434455 Y45.417231 Z0.000000 I5.801086 J0.347719
G01 X66.452873 Y45.963362 Z0.000000
G01 X65.982882 Y46.042761 Z0.000000
G02 X65.537139 Y46.158191 Z0.000000 I0.446576 J2.642827
G02 X65.444476 Y46.232860 Z0.000000 I0.059589 J0.168780
G03 X65.347240 Y46.291241 Z0.000000 I-0.105189 J-0.065032
G03 X63.967128 Y46.328074 Z0.000000 I-1.178740 J-18.292070
G02 X62.582215 Y46.371506 Z0.000000 I-0.178946 J16.396202
G02 X62.429201 Y46.441588 Z0.000000 I0.017763 J0.240868
G01 X62.439631 Y46.512834 Z0.000000
G02 X62.668346 Y46.570586 Z0.000000 I0.228717 J-0.424024
G03 X63.067575 Y46.727307 Z0.000000 I-0.000002 J0.586861
G03 X63.048440 Y46.923368 Z0.000000 I-0.084224 J0.090744
G02 X62.965035 Y47.052634 Z0.000000 I0.094109 J0.152262
G02 X62.886913 Y48.170236 Z0.000000 I9.414359 J1.219609
G01 X62.874508 Y49.324939 Z0.000000
G01 X60.940598 Y49.359171 Z0.000000
G03 X58.359136 Y49.210189 Z0.000000 I-0.304215 J-17.168173
G03 X56.242798 Y48.730604 Z0.000000 I1.603974 J-11.987436
G02 X54.947167 Y48.418217 Z0.000000 I-2.696750 J8.341816
G02 X54.845861 Y48.504440 Z0.000000 I-0.013960 J0.086223
G02 X54.869786 Y48.656305 Z0.000000 I0.493928 J0.000002
G01 X54.902690 Y48.680252 Z0.000000
G03 X54.958472 Y48.687846 Z0.000000 I-0.000001 J0.208674
G03 X55.986852 Y48.981005 Z0.000000 I-20.157500 J72.661490
G02 X58.236791 Y49.455013 Z0.000000 I4.190560 J-14.314185
G02 X60.905675 Y49.626491 Z0.000000 I2.625355 J-20.006107
G03 X62.893591 Y49.673023 Z0.000000 I0.077556 J39.173223
G03 X62.987586 Y49.728474 Z0.000000 I-0.005716 J0.117080
G03 X63.752890 Y52.770450 Z0.000000 I-4.412647 J2.727395
G03 X62.654670 Y55.209721 Z0.000000 I-3.766286 J-0.228817
G03 X62.624321 Y55.225615 Z0.000000 I-0.040600 J-0.040600
G03 X61.521198 Y55.415411 Z0.000000 I-10.972069 J-60.470678
G03 X58.685173 Y55.685361 Z0.000000 I-3.448240 J-21.194066
G03 X56.715262 Y55.552492 Z0.000000 I-0.294059 J-10.309581
G02 X55.595868 Y55.418589 Z0.000000 I-2.075038 J12.600922
G02 X55.173150 Y55.436773 Z0.000000 I-0.134594 J1.793589
G03 X54.337315 Y55.343120 Z0.000000 I-0.250313 J-1.542661
G03 X53.113438 Y54.604466 Z0.000000 I1.691373 J-4.185686
G01 X52.728923 Y54.279268 Z0.000000
G01 X52.807090 Y52.739726 Z0.000000
G03 X52.901603 Y51.206701 Z0.000000 I70.897036 J3.601468
G03 X52.921890 Y51.157359 Z0.000000 I0.085169 J0.006176
G01 X52.958598 Y51.154809 Z0.000000
G03 X53.229520 Y51.429600 Z0.000000 I-1.882806 J2.127251
G02 X53.539208 Y51.687327 Z0.000000 I0.922305 J-0.793326
G02 X54.143579 Y51.962365 Z0.000000 I1.663875 J-2.854674
G03 X54.715831 Y52.247271 Z0.000000 I-0.758599 J2.240847
G03 X54.863155 Y52.451970 Z0.000000 I-0.207159 J0.304460
G01 X54.939674 Y52.723879 Z0.000000
G01 X54.951355 Y52.460166 Z0.000000
G03 X55.046371 Y52.283559 Z0.000000 I0.230622 J0.010213
G03 X55.314662 Y52.196453 Z0.000000 I0.268289 J0.369616
G02 X55.502435 Y52.073560 Z0.000000 I0.000001 J-0.204898
G02 X55.431867 Y51.928079 Z0.000000 I-0.097479 J-0.042571
G03 X55.261793 Y51.817097 Z0.000000 I0.081110 J-0.310102
G03 X55.197454 Y51.632364 Z0.000000 I0.233034 J-0.184731
G02 X55.126565 Y51.489762 Z0.000000 I-0.178873 J-0.000001
G02 X54.967355 Y51.458123 Z0.000000 I-0.112191 J0.148159
G03 X54.239666 Y51.385901 Z0.000000 I-0.266344 J-1.018501
G03 X53.524961 Y50.754908 Z0.000000 I0.784202 J-1.608499
G03 X53.410836 Y50.478754 Z0.000000 I0.676676 J-0.441305
G03 X53.297988 Y49.668114 Z0.000000 I5.933838 J-1.239215
G03 X53.325845 Y48.866543 Z0.000000 I3.799063 J-0.269243
G03 X53.452098 Y48.576424 Z0.000000 I0.586797 J0.082830
G02 X53.614749 Y48.290086 Z0.000000 I-0.783388 J-0.634359
G02 X53.798496 Y47.634794 Z0.000000 I-4.040426 J-1.486362
G03 X54.185651 Y47.014088 Z0.000000 I1.009597 J0.198626
G03 X54.730235 Y46.926955 Z0.000000 I0.353770 J0.465674
G02 X55.378400 Y47.119739 Z0.000000 I2.551277 J-7.391734
G02 X55.630084 Y47.152739 Z0.000000 I0.268096 J-1.068449
G03 X55.863647 Y47.197544 Z0.000000 I-0.010703 J0.686970
G03 X55.962836 Y47.279465 Z0.000000 I-0.071225 J0.187248
G02 X56.050923 Y47.328246 Z0.000000 I0.087493 J-0.054070
G02 X56.188462 Y47.278166 Z0.000000 I-0.001256 J-0.217359
G03 X56.356468 Y47.196432 Z0.000000 I0.251046 J0.302493
G03 X57.320792 Y47.033442 Z0.000000 I2.275455 J10.528446
G02 X58.299455 Y46.888803 Z0.000000 I-2.437066 J-19.873019
G02 X59.682492 Y46.624546 Z0.000000 I-6.920377 J-39.970333
G03 X61.062084 Y46.341430 Z0.000000 I38.568077 J184.434910
G03 X61.114923 Y46.336164 Z0.000000 I0.052838 J0.262451
G01 X61.150345 Y46.359782 Z0.000000
G03 X61.273581 Y46.717083 Z0.000000 I-2.793311 J1.163346
G01 X61.378855 Y47.098007 Z0.000000
G01 X61.508443 Y46.775691 Z0.000000
G03 X61.689282 Y46.525744 Z0.000000 I0.592267 J0.238117
G03 X61.904651 Y46.441691 Z0.000000 I0.231061 J0.274100
G01 X61.932563 Y46.402969 Z0.000000
G02 X61.878251 Y46.349111 Z0.000000 I-0.075097 J0.021416
G03 X61.678748 Y46.191413 Z0.000000 I0.086993 J-0.315100
G03 X61.546599 Y45.745457 Z0.000000 I0.958425 J-0.526563
G03 X61.535187 Y45.223119 Z0.000000 I5.016190 J-0.370890
G03 X61.583945 Y44.502284 Z0.000000 I9.650767 J0.290713
G03 X61.765985 Y43.879323 Z0.000000 I1.810260 J0.190912
G03 X61.974209 Y43.721533 Z0.000000 I0.263834 J0.131879
G03 X62.275396 Y43.712439 Z0.000000 I0.178870 J0.931880
G03 X62.433616 Y43.781205 Z0.000000 I-0.040134 J0.308744
G02 X62.553041 Y43.803322 Z0.000000 I0.079583 J-0.096235
G02 X62.653160 Y43.707296 Z0.000000 I-0.051975 J-0.154396
G03 X62.767075 Y43.580649 Z0.000000 I0.222055 J0.085178
G03 X62.965970 Y43.547587 Z0.000000 I0.151538 J0.296831
G02 X63.085074 Y43.413859 Z0.000000 I0.015263 J-0.106309
G02 X62.880412 Y43.223560 Z0.000000 I-0.252893 J0.066777
G03 X62.497434 Y43.093188 Z0.000000 I0.262411 J-1.398558
G03 X62.349020 Y42.953120 Z0.000000 I0.164193 J-0.322639
G02 X62.278756 Y42.920838 Z0.000000 I-0.058151 J0.033962
G02 X62.233463 Y42.974249 Z0.000000 I0.009936 J0.054335
G03 X62.155565 Y43.102349 Z0.000000 I-0.148331 J-0.002466
G03 X61.907579 Y43.150061 Z0.000000 I-0.199866 J-0.370499
G03 X61.681555 Y43.014936 Z0.000000 I0.036551 J-0.317737
G03 X61.514964 Y42.585539 Z0.000000 I0.803291 J-0.558662
G01 X61.444667 Y42.058112 Z0.000000
G01 X61.427074 Y42.610324 Z0.000000
G03 X61.280211 Y43.059647 Z0.000000 I-0.843062 J-0.026896
G03 X60.969941 Y43.278583 Z0.000000 I-0.449189 J-0.307257
G03 X59.142097 Y43.652705 Z0.000000 I-4.235417 J-16.040742
G03 X57.704071 Y43.757599 Z0.000000 I-1.437986 J-9.804201
G03 X57.307639 Y43.636815 Z0.000000 I0.000003 J-0.710975
G03 X57.224230 Y43.435275 Z0.000000 I0.109807 J-0.163475
G02 X57.281635 Y43.111922 Z0.000000 I-8.596107 J-1.692850
G02 X57.427464 Y42.150879 Z0.000000 I-75.412312 J-11.934686
G03 X57.686560 Y41.290863 Z0.000000 I3.006173 J0.436628
G03 X57.935353 Y41.074865 Z0.000000 I0.369633 J0.174470
G03 X58.309364 Y40.989599 Z0.000000 I0.747170 J2.414494
G03 X59.592771 Y40.827459 Z0.000000 I4.242002 J28.416852
G02 X60.880961 Y40.686394 Z0.000000 I-11.302267 J-109.163302
G02 X61.116461 Y40.651485 Z0.000000 I-0.424334 J-3.674358
G03 X63.156693 Y40.511738 Z0.000000 I1.647327 J9.087080
G03 X63.728003 Y40.762777 Z0.000000 I-0.036572 J0.858835
G01 X63.728003 Y40.762787 Z0.000000
G00 Z5.000000

(End cutting path id: path879)


(Start cutting path id: path879)
(Change tool to Cylindrical cutter)

G00 Z5.000000
G00 X65.479394 Y41.060618

G01 Z0.000000 F1000.0(Penetrate)
G03 X65.804969 Y41.243221 Z0.000000 I-0.001673 J0.384531 F1100.000000
G03 X66.162633 Y42.167691 Z0.000000 I-2.308881 J1.424695
G01 X66.247631 Y42.620760 Z0.000000
G01 X65.791765 Y42.546928 Z0.000000
G03 X65.340735 Y42.452947 Z0.000000 I0.822345 J-5.075857
G03 X64.691261 Y42.265614 Z0.000000 I2.738096 J-10.712362
G03 X64.186840 Y41.948069 Z0.000000 I0.368408 J-1.144626
G03 X64.009930 Y41.546596 Z0.000000 I0.472871 J-0.448086
G03 X64.210150 Y41.002667 Z0.000000 I0.702119 J-0.050365
G03 X64.656735 Y40.888836 Z0.000000 I0.317345 J0.312075
G02 X65.222599 Y41.033457 Z0.000000 I1.911464 J-6.299707
G02 X65.479399 Y41.060616 Z0.000000 I0.263098 J-1.260024
G01 X65.479394 Y41.060618 Z0.000000
G00 Z5.000000

(End cutting path id: path879)


(Start cutting path id: path879)
(Change tool to Cylindrical cutter)

G00 Z5.000000
G00 X67.007303 Y45.732463

G01 Z0.000000 F1000.0(Penetrate)
G01 X66.942707 Y45.766238 Z0.000000 F1100.000000
G03 X66.815167 Y45.651332 Z0.000000 I0.101908 J-0.241347
G03 X66.725201 Y45.369318 Z0.000000 I0.669452 J-0.368921
G03 X66.748099 Y45.065302 Z0.000000 I0.805607 J-0.092192
G01 X66.832381 Y44.753896 Z0.000000
G01 X66.940236 Y45.146426 Z0.000000
G03 X67.016347 Y45.539913 Z0.000000 I-2.507854 J0.689190
G03 X67.007303 Y45.732462 Z0.000000 I-0.597796 J0.068411
G01 X67.007303 Y45.732463 Z0.000000
G00 Z5.000000

(End cutting path id: path879)


(Start cutting path id: path879)
(Change tool to Cylindrical cutter)

G00 Z5.000000
G00 X66.910581 Y46.442740

G01 Z0.000000 F1000.0(Penetrate)
G03 X67.048656 Y46.805142 Z0.000000 I-0.626815 J0.446321 F1100.000000
G03 X67.016668 Y47.409694 Z0.000000 I-1.863931 J0.204498
G03 X66.830430 Y48.005269 Z0.000000 I-3.465142 J-0.756652
G03 X66.696908 Y48.185074 Z0.000000 I-0.422425 J-0.174209
G03 X66.496661 Y48.301922 Z0.000000 I-0.470897 J-0.576990
G03 X65.690443 Y48.577683 Z0.000000 I-3.656654 J-9.374206
G02 X64.887456 Y48.857716 Z0.000000 I2.493027 J8.439969
G02 X64.681998 Y48.985022 Z0.000000 I0.266239 J0.659129
G03 X64.188355 Y49.156228 Z0.000000 I-0.454064 J-0.511947
G03 X63.974394 Y48.944039 Z0.000000 I0.013166 J-0.227243
G01 X63.944014 Y48.915570 Z0.000000
G01 X63.907204 Y48.943959 Z0.000000
G03 X63.591654 Y49.312330 Z0.000000 I-0.536480 J-0.140218
G03 X63.221257 Y49.241939 Z0.000000 I-0.133488 J-0.307295
G03 X63.100201 Y48.962275 Z0.000000 I0.292758 J-0.292756
G03 X63.157505 Y47.230186 Z0.000000 I13.396248 J-0.423795
G01 X63.197773 Y47.201482 Z0.000000
G03 X63.344707 Y47.274977 Z0.000000 I-0.084148 J0.351859
G02 X63.441668 Y47.272977 Z0.000000 I0.047325 J-0.057024
G02 X63.491215 Y47.142817 Z0.000000 I-0.102361 J-0.113475
G03 X63.595812 Y46.976746 Z0.000000 I0.156798 J-0.017218
G03 X64.487593 Y46.793384 Z0.000000 I1.123409 J3.203440
G02 X65.481858 Y46.631466 Z0.000000 I-0.369423 J-5.402061
G02 X65.951287 Y46.412472 Z0.000000 I-0.360569 J-1.385531
G03 X66.528475 Y46.238084 Z0.000000 I0.547378 J0.769326
G03 X66.910567 Y46.442776 Z0.000000 I-0.015406 J0.487724
G01 X66.910581 Y46.442740 Z0.000000
G00 Z5.000000

(End cutting path id: path879)


(Start cutting path id: path879)
(Change tool to Cylindrical cutter)

G00 Z5.000000
G00 X66.983467 Y49.737280

G01 Z0.000000 F1000.0(Penetrate)
G03 X66.745376 Y50.897664 Z0.000000 I-2.840936 J0.021706 F1100.000000
G03 X66.337881 Y51.212933 Z0.000000 I-0.492347 J-0.215389
G02 X66.247005 Y51.360683 Z0.000000 I0.018058 J0.112930
G02 X66.426920 Y51.491486 Z0.000000 I0.179136 J-0.057261
G02 X66.948439 Y51.359265 Z0.000000 I-0.004861 J-1.113801
G02 X67.261702 Y51.043720 Z0.000000 I-0.359252 J-0.669923
G03 X67.415010 Y50.829852 Z0.000000 I0.852516 J0.449233
G01 X67.465167 Y50.829188 Z0.000000
G03 X67.498260 Y50.899908 Z0.000000 I-0.081015 J0.081014
G03 X67.579726 Y52.099196 Z0.000000 I-27.035621 J2.438907
G02 X67.638939 Y53.309741 Z0.000000 I188.264581 J-8.602044
G02 X67.657510 Y53.591593 Z0.000000 I10.291658 J-0.536583
G03 X67.567520 Y53.814271 Z0.000000 I-0.267733 J0.021324
G03 X66.683701 Y54.451203 Z0.000000 I-3.656732 J-4.142482
G03 X65.668248 Y54.973762 Z0.000000 I-5.682006 J-9.793543
G03 X65.277219 Y55.087440 Z0.000000 I-0.593387 J-1.311769
G01 X64.866996 Y55.145668 Z0.000000
G01 X65.156496 Y54.911108 Z0.000000
G01 X65.445998 Y54.676543 Z0.000000
G01 X65.039288 Y54.637912 Z0.000000
G01 X64.632588 Y54.599240 Z0.000000
G01 X64.546052 Y53.731325 Z0.000000
G02 X64.468980 Y53.663270 Z0.000000 I-0.075203 J0.007498
G02 X64.404616 Y53.734824 Z0.000000 I0.001638 J0.066199
G01 X64.486412 Y54.742930 Z0.000000
G01 X63.923287 Y54.934803 Z0.000000
G03 X63.323827 Y54.708222 Z0.000000 I-0.162399 J-0.476623
G03 X62.976958 Y53.280668 Z0.000000 I2.296798 J-1.313999
G03 X63.225831 Y50.448302 Z0.000000 I31.773222 J1.364721
G03 X63.370974 Y50.321203 Z0.000000 I0.145142 J0.019324
G02 X63.458448 Y50.263756 Z0.000000 I0.000000 J-0.095322
G02 X63.459785 Y50.116092 Z0.000000 I-0.174171 J-0.075414
G03 X63.429029 Y49.649820 Z0.000000 I0.677294 J-0.278824
G03 X63.622687 Y49.500760 Z0.000000 I0.193657 J0.051268
G03 X63.915422 Y49.575989 Z0.000000 I-0.000002 J0.607177
G03 X63.995405 Y49.705871 Z0.000000 I-0.074557 J0.135482
G01 X64.034619 Y49.729313 Z0.000000
G02 X64.107538 Y49.650772 Z0.000000 I-0.066085 J-0.134476
G03 X64.256510 Y49.442224 Z0.000000 I0.504774 J0.203094
G03 X64.481030 Y49.327937 Z0.000000 I0.343841 J0.397803
G02 X64.749614 Y49.264429 Z0.000000 I-9.838173 J-42.206715
G02 X65.687476 Y49.038575 Z0.000000 I-119.140065 J-496.790805
G03 X66.626532 Y48.839824 Z0.000000 I3.933361 J16.266503
G03 X66.800939 Y48.836087 Z0.000000 I0.098897 J0.543821
G03 X66.899244 Y48.928407 Z0.000000 I-0.015926 J0.115457
G03 X66.983467 Y49.737280 Z0.000000 I-4.153884 J0.841343
G01 X66.983467 Y49.737280 Z0.000000
G00 Z5.000000

(End cutting path id: path879)


(Start cutting path id: path879)
(Change tool to Cylindrical cutter)

G00 Z5.000000
G00 X64.137100 Y50.555617

G01 Z0.000000 F1000.0(Penetrate)
G02 X64.162267 Y50.819331 Z0.000000 I1.394165 J0.000006 F1100.000000
G01 X64.187899 Y50.819331 Z0.000000
G02 X64.213077 Y50.555617 Z0.000000 I-1.368512 J-0.263720
G02 X64.187901 Y50.291904 Z0.000000 I-1.393671 J-0.000006
G01 X64.162265 Y50.291905 Z0.000000
G02 X64.137100 Y50.555617 Z0.000000 I1.369197 J0.263717
G01 X64.137100 Y50.555617 Z0.000000
G00 Z5.000000

(End cutting path id: path879)


(Start cutting path id: path879)
(Change tool to Cylindrical cutter)

G00 Z5.000000
G00 X67.800529 Y54.810377

G01 Z0.000000 F1000.0(Penetrate)
G03 X67.847450 Y55.199884 Z0.000000 I-2.945638 J0.552418 F1100.000000
G03 X67.893732 Y56.522964 Z0.000000 I-34.039998 J1.853089
G01 X67.914367 Y57.848629 Z0.000000
G01 X67.474967 Y58.228763 Z0.000000
G03 X67.012130 Y58.567165 Z0.000000 I-2.292500 J-2.649761
G03 X66.654525 Y58.731132 Z0.000000 I-0.861555 J-1.407072
G02 X66.522004 Y58.820133 Z0.000000 I0.087919 J0.274072
G01 X66.541860 Y58.865330 Z0.000000
G02 X66.800549 Y58.832626 Z0.000000 I0.034337 J-0.767865
G02 X67.268021 Y58.643759 Z0.000000 I-0.839444 J-2.750700
G03 X67.701075 Y58.498600 Z0.000000 I0.702283 J1.376580
G03 X67.810785 Y58.547731 Z0.000000 I0.018650 J0.105412
G03 X67.813685 Y58.667267 Z0.000000 I-0.100718 J0.062247
G03 X67.641350 Y58.854169 Z0.000000 I-0.468355 J-0.258949
G02 X67.478828 Y59.073355 Z0.000000 I0.222145 J0.334562
G02 X67.375249 Y59.741345 Z0.000000 I2.360806 J0.708093
G03 X67.179766 Y60.868622 Z0.000000 I-3.695134 J-0.060193
G03 X66.912872 Y61.103976 Z0.000000 I-0.338503 J-0.114858
G02 X66.637552 Y61.192366 Z0.000000 I0.266697 J1.303714
G02 X66.328196 Y61.364756 Z0.000000 I0.812492 J1.821785
G03 X66.010554 Y61.513021 Z0.000000 I-0.616606 J-0.906623
G03 X65.199376 Y61.684665 Z0.000000 I-1.672391 J-5.900992
G02 X63.788465 Y61.980776 Z0.000000 I1.534976 J10.823284
G02 X63.766563 Y62.085619 Z0.000000 I0.016260 J0.058106
G02 X63.818357 Y62.101119 Z0.000000 I0.044539 J-0.054548
G02 X65.510988 Y61.904999 Z0.000000 I-7.217929 J-69.697223
G03 X67.205637 Y61.722375 Z0.000000 I5.375207 J41.924983
G03 X67.356995 Y61.743645 Z0.000000 I0.029594 J0.338572
G03 X67.500733 Y61.966159 Z0.000000 I-0.080457 J0.209655
G03 X67.258308 Y63.464338 Z0.000000 I-7.358920 J-0.422066
G03 X66.892466 Y64.264315 Z0.000000 I-2.579708 J-0.696098
G03 X66.525760 Y64.548348 Z0.000000 I-0.615538 J-0.415965
G03 X66.035787 Y64.710409 Z0.000000 I-3.909729 J-10.998906
G03 X65.687412 Y64.805218 Z0.000000 I-1.673458 J-5.461622
G01 X65.335793 Y64.889067 Z0.000000
G01 X65.746014 Y65.002584 Z0.000000
G02 X66.555207 Y65.090911 Z0.000000 I0.676113 J-2.443277
G02 X67.515845 Y64.909551 Z0.000000 I-0.191956 J-3.651617
G03 X68.095465 Y64.755445 Z0.000000 I1.555111 J4.681960
G03 X68.169307 Y64.777738 Z0.000000 I0.016136 J0.079994
G03 X68.207589 Y64.853545 Z0.000000 I-0.096099 J0.096098
G03 X68.294964 Y65.610127 Z0.000000 I-10.793302 J1.629820
G01 X68.356641 Y66.378534 Z0.000000
G01 X67.300384 Y66.378530 Z0.000000
G02 X65.630883 Y66.497827 Z0.000000 I-0.000048 J11.740908
G02 X65.511586 Y66.635485 Z0.000000 I0.019775 J0.137658
G02 X65.555381 Y66.686090 Z0.000000 I0.051135 J0.000000
G02 X65.750452 Y66.670126 Z0.000000 I0.062768 J-0.432788
G03 X66.870826 Y66.477674 Z0.000000 I1.257005 J3.960369
G03 X67.931749 Y66.598345 Z0.000000 I0.120555 J3.664200
G03 X68.189093 Y66.753672 Z0.000000 I-0.137776 J0.519110
G03 X68.303023 Y67.001609 Z0.000000 I-0.325569 J0.299748
G03 X68.282532 Y67.265018 Z0.000000 I-0.677480 J0.079799
G03 X68.215102 Y67.316187 Z0.000000 I-0.067430 J-0.018845
G03 X68.134388 Y67.271338 Z0.000000 I0.000000 J-0.095056
G03 X68.087506 Y67.111074 Z0.000000 I0.263999 J-0.164217
G01 X68.030652 Y67.068748 Z0.000000
G02 X67.881769 Y67.169833 Z0.000000 I0.078968 J0.276490
G03 X67.632345 Y67.358696 Z0.000000 I-0.470416 J-0.362126
G03 X66.800218 Y67.603628 Z0.000000 I-1.698867 J-4.235710
G02 X65.936262 Y67.816881 Z0.000000 I1.660436 J8.583664
G02 X65.410663 Y68.022700 Z0.000000 I1.015610 J3.367572
G03 X64.889523 Y68.234142 Z0.000000 I-1.809895 J-3.712901
G03 X64.590217 Y68.292138 Z0.000000 I-0.378747 J-1.153309
G01 X64.280898 Y68.312427 Z0.000000
G01 X64.248696 Y66.407822 Z0.000000
G01 X64.216504 Y64.503215 Z0.000000
G01 X64.512423 Y64.503217 Z0.000000
G02 X64.644371 Y64.369761 Z0.000000 I0.000001 J-0.131956
G02 X64.508924 Y64.198150 Z0.000000 I-0.179016 J0.002034
G03 X64.363321 Y63.893899 Z0.000000 I0.053332 J-0.212488
G03 X64.837526 Y63.485773 Z0.000000 I0.684458 J0.315722
G02 X65.308586 Y63.259730 Z0.000000 I-0.444410 J-1.529976
G02 X65.394258 Y63.094902 Z0.000000 I-0.115723 J-0.164829
G02 X65.300823 Y63.004619 Z0.000000 I-0.090336 J-0.000000
G02 X64.778923 Y63.116030 Z0.000000 I0.052290 J1.523069
G03 X64.161687 Y63.361448 Z0.000000 I-15.898877 J-39.087320
G03 X63.427084 Y63.641249 Z0.000000 I-21.402399 J-55.086688
G01 X62.690579 Y63.916171 Z0.000000
G01 X62.584765 Y63.652959 Z0.000000
G02 X62.516250 Y63.599354 Z0.000000 I-0.080566 J0.032387
G01 X62.471520 Y63.637088 Z0.000000
G03 X62.200080 Y63.980086 Z0.000000 I-0.366320 J-0.010992
G03 X59.797637 Y64.353770 Z0.000000 I-2.931502 J-10.937264
G03 X58.500639 Y64.392762 Z0.000000 I-1.816188 J-38.822192
G01 X58.478905 Y64.371395 Z0.000000
G02 X58.475157 Y64.327660 Z0.000000 I-0.268658 J0.000997
G02 X58.303261 Y63.331087 Z0.000000 I-141.255570 J23.851589
G03 X58.160973 Y62.331929 Z0.000000 I15.107618 J-2.661163
G03 X58.127619 Y61.719496 Z0.000000 I5.632903 J-0.613900
G02 X58.074399 Y61.157229 Z0.000000 I-3.004905 J0.000769
G02 X58.010252 Y61.104162 Z0.000000 I-0.064147 J0.012236
G02 X57.875696 Y61.245915 Z0.000000 I-0.000001 J0.134738
G02 X58.120238 Y63.213882 Z0.000000 I13.853006 J-0.722210
G03 X58.279968 Y64.309738 Z0.000000 I-10.775983 J2.130258
G03 X58.235900 Y64.436691 Z0.000000 I-0.161021 J0.015231
G03 X58.111540 Y64.488024 Z0.000000 I-0.120155 J-0.114786
G03 X57.221092 Y64.411007 Z0.000000 I0.185540 J-7.331221
G02 X56.308488 Y64.297187 Z0.000000 I-2.908353 J19.603578
G02 X55.153519 Y64.201723 Z0.000000 I-3.170360 J31.322205
G03 X53.381359 Y63.911090 Z0.000000 I0.584493 J-9.112262
G03 X53.204769 Y63.681131 Z0.000000 I0.061432 J-0.229958
G02 X53.155745 Y63.614519 Z0.000000 I-0.069766 J-0.000000
G02 X52.833449 Y63.565498 Z0.000000 I-0.322300 J1.034995
G03 X51.127254 Y63.393707 Z0.000000 I0.000035 J-8.559081
G03 X51.044103 Y63.201488 Z0.000000 I0.025450 J-0.125104
G03 X51.131377 Y63.145988 Z0.000000 I0.100974 J0.062412
G03 X51.424557 Y63.157280 Z0.000000 I0.110257 J0.949003
G02 X51.507006 Y63.142812 Z0.000000 I0.022369 J-0.114686
G01 X51.505277 Y63.108890 Z0.000000
G02 X51.268050 Y63.006279 Z0.000000 I-1.828063 J3.900765
G02 X51.072219 Y62.936805 Z0.000000 I-1.028008 J2.587006
G03 X50.931699 Y62.822938 Z0.000000 I0.073400 J-0.234220
G03 X50.791719 Y62.438210 Z0.000000 I1.095911 J-0.616566
G03 X50.695296 Y60.407596 Z0.000000 I7.262487 J-1.362452
G03 X51.081054 Y59.251528 Z0.000000 I2.644851 J0.240143
G03 X51.188905 Y59.204200 Z0.000000 I0.088248 J0.054548
G03 X52.153938 Y59.457968 Z0.000000 I-1.407161 J7.312980
G02 X53.155866 Y59.758909 Z0.000000 I5.144165 J-15.308188
G02 X53.733107 Y59.877030 Z0.000000 I1.313732 J-4.950515
G03 X54.408904 Y60.269319 Z0.000000 I-0.150852 J1.038119
G03 X54.766728 Y61.200048 Z0.000000 I-1.346118 J1.051670
G02 X54.960699 Y62.528416 Z0.000000 I9.039691 J-0.641647
G02 X55.084718 Y62.627854 Z0.000000 I0.124020 J-0.027620
G02 X55.265066 Y62.447586 Z0.000000 I0.000001 J-0.180347
G02 X55.085077 Y61.730227 Z0.000000 I-1.516885 J-0.000666
G03 X54.907138 Y61.267999 Z0.000000 I1.757299 J-0.941853
G03 X54.845621 Y60.764053 Z0.000000 I2.033335 J-0.503937
G03 X54.940205 Y60.718467 Z0.000000 I0.058278 J0.000000
G03 X55.074325 Y60.946204 Z0.000000 I-0.230048 J0.288843
G01 X55.169663 Y61.514391 Z0.000000
G01 X55.183446 Y60.797600 Z0.000000
G01 X55.197229 Y60.080805 Z0.000000
G01 X55.988375 Y60.019449 Z0.000000
G02 X56.773414 Y59.932446 Z0.000000 I-0.926392 J-11.944262
G02 X56.977545 Y59.876674 Z0.000000 I-0.122836 J-0.851042
G03 X57.117858 Y59.919743 Z0.000000 I0.043952 J0.106906
G03 X57.415402 Y60.537624 Z0.000000 I-2.103645 J1.393602
G02 X57.545226 Y60.823604 Z0.000000 I1.317466 J-0.425622
G01 X57.579297 Y60.811160 Z0.000000
G03 X57.716359 Y59.999892 Z0.000000 I1.260798 J-0.204203
G03 X58.185996 Y59.688101 Z0.000000 I0.527510 J0.284972
G01 X58.889238 Y59.619903 Z0.000000
G01 X58.102804 Y59.600190 Z0.000000
G01 X57.316368 Y59.580477 Z0.000000
G01 X57.077247 Y58.806281 Z0.000000
G03 X56.858264 Y58.029055 Z0.000000 I15.467875 J-4.777524
G03 X56.838132 Y57.868631 Z0.000000 I0.629080 J-0.160421
G02 X56.798366 Y57.744930 Z0.000000 I-0.212283 J-0.000001
G02 X56.720922 Y57.705165 Z0.000000 I-0.077444 J0.055530
G02 X56.654013 Y57.780733 Z0.000000 I-0.000000 J0.067406
G02 X56.834084 Y58.632697 Z0.000000 I4.980137 J-0.607591
G03 X57.020821 Y59.378990 Z0.000000 I-7.362794 J2.238828
G03 X57.002078 Y59.482446 Z0.000000 I-0.141015 J0.027879
G03 X56.764027 Y59.615343 Z0.000000 I-0.238367 J-0.147321
G03 X55.255834 Y59.484239 Z0.000000 I-0.009741 J-8.628428
G01 X54.787008 Y59.401677 Z0.000000
G01 X54.718811 Y58.699849 Z0.000000
G01 X54.650614 Y57.998031 Z0.000000
G01 X54.630902 Y58.652432 Z0.000000
G03 X54.584793 Y59.295431 Z0.000000 I-7.775854 J-0.234439
G03 X54.549599 Y59.368429 Z0.000000 I-0.122031 J-0.013852
G03 X54.283494 Y59.448235 Z0.000000 I-0.207134 J-0.207114
G03 X52.687546 Y58.985721 Z0.000000 I2.109437 J-10.263548
G03 X52.127105 Y58.703493 Z0.000000 I1.057855 J-2.798227
G03 X51.591026 Y58.280441 Z0.000000 I1.916799 J-2.980087
G01 X51.090804 Y57.800582 Z0.000000
G01 X51.814272 Y56.434218 Z0.000000
G03 X52.541177 Y55.070074 Z0.000000 I259.258821 J137.274295
G03 X52.567330 Y55.029913 Z0.000000 I0.248761 J0.133399
G01 X52.603051 Y55.020069 Z0.000000
G03 X52.982719 Y55.191475 Z0.000000 I-1.419813 J3.651096
G02 X53.376067 Y55.373222 Z0.000000 I2.240945 J-4.333474
G02 X53.960563 Y55.591601 Z0.000000 I3.830953 J-9.362216
G03 X54.438947 Y55.887794 Z0.000000 I-0.400030 J1.180510
G03 X54.623874 Y56.250488 Z0.000000 I-0.459882 J0.462972
G02 X54.675383 Y56.349328 Z0.000000 I0.171880 J-0.026731
G01 X54.711774 Y56.334748 Z0.000000
G03 X54.763412 Y55.981287 Z0.000000 I1.780742 J0.079650
G03 X54.819674 Y55.904339 Z0.000000 I0.122831 J0.030767
G03 X54.917054 Y55.882974 Z0.000000 I0.079143 J0.128121
G03 X55.669421 Y56.008009 Z0.000000 I-1.067323 J8.748435
G02 X59.351486 Y56.337542 Z0.000000 I3.222171 J-15.267507
G02 X63.296697 Y55.783115 Z0.000000 I-0.534129 J-18.114699
G03 X64.384276 Y55.549743 Z0.000000 I3.582228 J14.043346
G03 X64.470177 Y55.578065 Z0.000000 I0.016495 J0.094400
G03 X65.253598 Y57.334176 Z0.000000 I-2.080996 J1.981158
G03 X64.721464 Y58.776282 Z0.000000 I-1.830420 J0.143810
G03 X63.839896 Y59.193935 Z0.000000 I-1.025629 J-1.025644
G03 X62.769947 Y58.971068 Z0.000000 I-0.180827 J-1.811641
G02 X62.613256 Y58.937511 Z0.000000 I-0.132735 J0.237185
G02 X62.523527 Y58.992857 Z0.000000 I0.010373 J0.117225
G03 X62.428462 Y59.072414 Z0.000000 I-0.167103 J-0.103099
G03 X62.222750 Y59.111514 Z0.000000 I-0.205710 J-0.521590
G02 X62.075535 Y59.227462 Z0.000000 I-0.000001 J0.151430
G02 X62.157309 Y59.383034 Z0.000000 I0.129494 J0.031211
G03 X62.247626 Y59.497378 Z0.000000 I-0.051122 J0.133222
G03 X62.421014 Y61.358786 Z0.000000 I-23.281860 J3.107460
G01 X62.522674 Y63.272351 Z0.000000
G01 X62.581281 Y61.346676 Z0.000000
G01 X62.639889 Y59.420995 Z0.000000
G01 X62.991510 Y59.321576 Z0.000000
G03 X63.347844 Y59.250759 Z0.000000 I0.623385 J2.204796
G03 X64.222177 Y59.177154 Z0.000000 I1.557627 J13.272977
G02 X64.812609 Y58.866402 Z0.000000 I-0.040627 J-0.793480
G02 X64.944802 Y58.232476 Z0.000000 I-0.594420 J-0.454701
G03 X64.856633 Y57.759258 Z0.000000 I4.058459 J-1.000991
G03 X64.748469 Y56.689831 Z0.000000 I20.668692 J-2.630661
G03 X65.003731 Y55.747272 Z0.000000 I1.462124 J-0.109874
G03 X65.745883 Y55.244223 Z0.000000 I1.017354 J0.701933
G02 X66.493022 Y55.013453 Z0.000000 I-1.161257 J-5.084534
G02 X67.093763 Y54.714267 Z0.000000 I-1.405732 J-3.575304
G03 X67.567901 Y54.445188 Z0.000000 I4.269344 J6.970641
G03 X67.645179 Y54.425198 Z0.000000 I0.081382 J0.155243
G03 X67.698007 Y54.460109 Z0.000000 I0.001087 J0.055782
G03 X67.800359 Y54.810199 Z0.000000 I-1.711519 J0.690386
G01 X67.800529 Y54.810377 Z0.000000
G00 Z5.000000

(End cutting path id: path879)


(Start cutting path id: path879)
(Change tool to Cylindrical cutter)

G00 Z5.000000
G00 X72.426831 Y56.459805

G01 Z0.000000 F1000.0(Penetrate)
G03 X72.417403 Y56.620188 Z0.000000 I-1.369035 J-0.000006 F1100.000000
G03 X72.361128 Y57.016540 Z0.000000 I-8.418499 J-0.993102
G01 X72.295427 Y57.412107 Z0.000000
G01 X72.474182 Y57.119096 Z0.000000
G02 X72.690542 Y56.458159 Z0.000000 I-1.294280 J-0.789568
G02 X72.544035 Y56.298646 Z0.000000 I-0.146507 J-0.012475
G02 X72.466378 Y56.338190 Z0.000000 I-0.000000 J0.096025
G02 X72.426829 Y56.459805 Z0.000000 I0.167213 J0.121616
G01 X72.426831 Y56.459805 Z0.000000
G00 Z5.000000

(End cutting path id: path879)


(Start cutting path id: path879)
(Change tool to Cylindrical cutter)

G00 Z5.000000
G00 X72.875090 Y55.750804

G01 Z0.000000 F1000.0(Penetrate)
G02 X72.875879 Y55.954919 Z0.000000 I0.491449 J0.100161 F1100.000000
G01 X72.921210 Y55.968367 Z0.000000
G02 X72.989531 Y55.841275 Z0.000000 I-0.177127 J-0.177128
G02 X72.988741 Y55.637160 Z0.000000 I-0.491312 J-0.100158
G01 X72.943417 Y55.623719 Z0.000000
G02 X72.875096 Y55.750804 Z0.000000 I0.177120 J0.177126
G01 X72.875090 Y55.750804 Z0.000000
G00 Z5.000000

(End cutting path id: path879)


(Start cutting path id: path879)
(Change tool to Cylindrical cutter)

G00 Z5.000000
G00 X72.618852 Y57.294899

G01 Z0.000000 F1000.0(Penetrate)
G02 X72.613954 Y57.427710 Z0.000000 I0.191613 J0.073563 F1100.000000
G02 X72.671831 Y57.470711 Z0.000000 I0.057877 J-0.017450
G03 X72.726490 Y57.507386 Z0.000000 I-0.000000 J0.059067
G03 X72.719841 Y57.587915 Z0.000000 I-0.082357 J0.033739
G03 X72.626124 Y57.666919 Z0.000000 I-0.167265 J-0.103328
G03 X72.429299 Y57.705120 Z0.000000 I-0.196822 J-0.487941
G02 X72.283370 Y57.795292 Z0.000000 I-0.000001 J0.163167
G02 X72.033559 Y58.496264 Z0.000000 I2.746223 J1.373691
G02 X71.891699 Y59.291303 Z0.000000 I8.897062 J1.997692
G02 X71.858118 Y59.814837 Z0.000000 I3.814370 J0.507512
G03 X71.844238 Y60.339690 Z0.000000 I-8.492817 J0.038025
G03 X71.821255 Y60.459474 Z0.000000 I-0.461843 J-0.026517
G02 X71.828061 Y60.553543 Z0.000000 I0.116575 J0.038847
G02 X71.899394 Y60.614811 Z0.000000 I0.109132 J-0.054901
G02 X72.270388 Y60.406115 Z0.000000 I0.089479 J-0.275037
G02 X72.094432 Y59.787178 Z0.000000 I-0.643297 J-0.151599
G03 X72.055367 Y59.650452 Z0.000000 I0.103518 J-0.103521
G03 X72.181963 Y59.411296 Z0.000000 I0.516367 J0.120252
G02 X72.689800 Y58.556909 Z0.000000 I-1.763900 J-1.626558
G02 X72.895667 Y57.311565 Z0.000000 I-3.663864 J-1.245360
G02 X72.781415 Y57.190227 Z0.000000 I-0.121557 J-0.000000
G02 X72.618867 Y57.294904 Z0.000000 I-0.009829 J0.163282
G01 X72.618852 Y57.294899 Z0.000000
G00 Z5.000000

(End cutting path id: path879)


(Start cutting path id: path879)
(Change tool to Cylindrical cutter)

G00 Z5.000000
G00 X75.263759 Y59.913558

G01 Z0.000000 F1000.0(Penetrate)
G02 X75.350363 Y60.055931 Z0.000000 I0.233547 J-0.044538 F1100.000000
G02 X75.557656 Y60.144576 Z0.000000 I0.268829 J-0.341948
G03 X75.718757 Y60.268923 Z0.000000 I-0.029205 J0.204369
G03 X75.849472 Y60.838558 Z0.000000 I-1.569537 J0.659979
G02 X75.992151 Y60.941686 Z0.000000 I0.112948 J-0.006001
G02 X76.129159 Y60.762359 Z0.000000 I-0.048857 J-0.179328
G01 X76.129162 Y59.948320 Z0.000000
G01 X75.677951 Y59.833788 Z0.000000
G02 X75.324874 Y59.823487 Z0.000000 I-0.199634 J0.786471
G02 X75.263759 Y59.913557 Z0.000000 I0.014570 J0.075654
G01 X75.263759 Y59.913558 Z0.000000
G00 Z5.000000

(End cutting path id: path879)


(Start cutting path id: path879)
(Change tool to Cylindrical cutter)

G00 Z5.000000
G00 X75.366227 Y60.469255

G01 Z0.000000 F1000.0(Penetrate)
G02 X75.400562 Y60.547553 Z0.000000 I0.117426 J-0.004816 F1100.000000
G01 X75.437047 Y60.540065 Z0.000000
G02 X75.462111 Y60.393729 Z0.000000 I-0.329350 J-0.131726
G02 X75.427748 Y60.315419 Z0.000000 I-0.117443 J0.004841
G01 X75.391271 Y60.322903 Z0.000000
G02 X75.366187 Y60.469255 Z0.000000 I0.329233 J0.131754
G01 X75.366227 Y60.469255 Z0.000000
G00 Z5.000000

(End cutting path id: path879)


(Start cutting path id: path879)
(Change tool to Cylindrical cutter)

G00 Z5.000000
G00 X77.115074 Y60.391582

G01 Z0.000000 F1000.0(Penetrate)
G02 X77.159759 Y60.462886 Z0.000000 I0.079232 J0.000000 F1100.000000
G02 X77.495996 Y60.576140 Z0.000000 I0.614107 J-1.267458
G03 X77.875694 Y60.657884 Z0.000000 I-2.855847 J14.187915
G03 X78.082026 Y60.710562 Z0.000000 I-0.971900 J4.237240
G02 X78.244615 Y60.712147 Z0.000000 I0.084218 J-0.299137
G02 X78.287137 Y60.657123 Z0.000000 I-0.014340 J-0.055024
G02 X78.239780 Y60.582852 Z0.000000 I-0.081918 J-0.000000
G02 X77.766413 Y60.414812 Z0.000000 I-1.123883 J2.415212
G02 X77.177708 Y60.331159 Z0.000000 I-0.689256 J2.737286
G02 X77.115074 Y60.391599 Z0.000000 I-0.002154 J0.060441
G01 X77.115074 Y60.391582 Z0.000000
G00 Z5.000000

(End cutting path id: path879)


(Start cutting path id: path879)
(Change tool to Cylindrical cutter)

G00 Z5.000000
G00 X79.272991 Y60.342032

G01 Z0.000000 F1000.0(Penetrate)
G02 X79.362099 Y60.791167 Z0.000000 I0.519388 J0.130361 F1100.000000
G02 X79.750774 Y60.986936 Z0.000000 I0.388677 J-0.287953
G03 X80.033190 Y61.091235 Z0.000000 I-0.000002 J0.434511
G03 X80.093366 Y61.279951 Z0.000000 I-0.122244 J0.142932
G02 X80.185566 Y61.447096 Z0.000000 I0.135811 J0.034086
G02 X80.462358 Y61.400887 Z0.000000 I0.094247 J-0.287556
G02 X80.552673 Y61.267354 Z0.000000 I-0.150680 J-0.199220
G01 X80.514059 Y61.211211 Z0.000000
G01 X80.507876 Y61.182299 Z0.000000
G03 X80.689866 Y61.110220 Z0.000000 I0.339067 J0.590312
G01 X80.702624 Y61.031526 Z0.000000
G02 X80.308949 Y60.874420 Z0.000000 I-0.642182 J1.037387
G03 X79.701790 Y60.620040 Z0.000000 I0.351963 J-1.691848
G03 X79.576407 Y60.385649 Z0.000000 I0.156392 J-0.234389
G02 X79.440941 Y60.229310 Z0.000000 I-0.157946 J-0.000001
G02 X79.272986 Y60.342018 Z0.000000 I-0.021492 J0.149469
G01 X79.272991 Y60.342032 Z0.000000
G00 Z5.000000

(End cutting path id: path879)


(Start cutting path id: path879)
(Change tool to Cylindrical cutter)

G00 Z5.000000
G00 X78.521546 Y62.159129

G01 Z0.000000 F1000.0(Penetrate)
G02 X78.555872 Y62.242004 Z0.000000 I0.117207 J0.000000 F1100.000000
G02 X78.638751 Y62.276335 Z0.000000 I0.082879 J-0.082873
G02 X78.721628 Y62.242010 Z0.000000 I0.000000 J-0.117213
G02 X78.755961 Y62.159130 Z0.000000 I-0.082870 J-0.082881
G02 X78.721631 Y62.076253 Z0.000000 I-0.117201 J-0.000000
G02 X78.638752 Y62.041924 Z0.000000 I-0.082880 J0.082885
G02 X78.555877 Y62.076250 Z0.000000 I-0.000000 J0.117205
G02 X78.521546 Y62.159129 Z0.000000 I0.082874 J0.082879
G01 X78.521546 Y62.159129 Z0.000000
G00 Z5.000000

(End cutting path id: path879)


(Start cutting path id: path879)
(Change tool to Cylindrical cutter)

G00 Z5.000000
G00 X79.503797 Y62.950282

G01 Z0.000000 F1000.0(Penetrate)
G03 X79.256434 Y63.609605 Z0.000000 I-6.148990 J-1.930897 F1100.000000
G03 X78.693591 Y64.796280 Z0.000000 I-20.529707 J-9.010473
G02 X77.575270 Y67.205523 Z0.000000 I31.473874 J16.073704
G02 X77.609829 Y67.381247 Z0.000000 I0.148169 J0.062121
G01 X77.655079 Y67.374798 Z0.000000
G02 X78.101538 Y66.486006 Z0.000000 I-11.864609 J-6.516379
G03 X78.547650 Y65.595249 Z0.000000 I12.747436 J5.827114
G01 X78.591431 Y65.588954 Z0.000000
G03 X78.607355 Y65.652461 Z0.000000 I-0.045045 J0.045045
G03 X78.173689 Y66.968383 Z0.000000 I-27.280633 J-8.260990
G02 X77.732529 Y68.285967 Z0.000000 I33.451956 J11.933209
G02 X77.745047 Y68.336915 Z0.000000 I0.048329 J0.015137
G01 X77.795710 Y68.326373 Z0.000000
G02 X78.931525 Y65.323660 Z0.000000 I-110.768608 J-43.615846
G03 X79.736598 Y63.163333 Z0.000000 I126.396143 J45.872923
G03 X79.881841 Y62.838896 Z0.000000 I2.985711 J1.141908
G02 X79.991114 Y62.386649 Z0.000000 I-0.871471 J-0.449892
G02 X79.880544 Y62.276344 Z0.000000 I-0.110571 J0.000265
G02 X79.765286 Y62.343975 Z0.000000 I-0.000001 J0.132025
G02 X79.504012 Y62.950282 Z0.000000 I2.813358 J1.571804
G01 X79.503797 Y62.950282 Z0.000000
G00 Z5.000000

(End cutting path id: path879)


(Start cutting path id: path879)
(Change tool to Cylindrical cutter)

G00 Z5.000000
G00 X80.462898 Y62.757699

G01 Z0.000000 F1000.0(Penetrate)
G03 X80.404856 Y62.920507 Z0.000000 I-9.961060 J-3.459410 F1100.000000
G03 X80.169903 Y63.558634 Z0.000000 I-149.597445 J-54.718117
G02 X79.969868 Y64.188345 Z0.000000 I6.546037 J2.426054
G02 X79.986124 Y64.248826 Z0.000000 I0.060601 J0.016137
G01 X80.025891 Y64.244108 Z0.000000
G02 X80.161140 Y63.962796 Z0.000000 I-1.319600 J-0.807604
G03 X80.289740 Y63.626666 Z0.000000 I9.239264 J3.342202
G03 X80.475778 Y63.183500 Z0.000000 I16.235528 J6.554919
G02 X80.617826 Y62.752271 Z0.000000 I-2.241669 J-0.977421
G02 X80.593760 Y62.668600 Z0.000000 I-0.087654 J-0.020085
G01 X80.535389 Y62.663079 Z0.000000
G02 X80.462898 Y62.757700 Z0.000000 I0.106391 J0.156589
G01 X80.462898 Y62.757699 Z0.000000
G00 Z5.000000

(End cutting path id: path879)


(Start cutting path id: path879)
(Change tool to Cylindrical cutter)

G00 Z5.000000
G00 X79.616841 Y64.566928

G01 Z0.000000 F1000.0(Penetrate)
G02 X79.671662 Y64.683498 Z0.000000 I0.083342 J0.031981 F1100.000000
G02 X79.805437 Y64.630519 Z0.000000 I0.035583 J-0.105534
G02 X79.857385 Y64.433320 Z0.000000 I-0.387958 J-0.207641
G01 X79.811238 Y64.386065 Z0.000000
G02 X79.712825 Y64.424765 Z0.000000 I-0.000001 J0.144480
G02 X79.616824 Y64.566932 Z0.000000 I0.259002 J0.278392
G01 X79.616841 Y64.566928 Z0.000000
G00 Z5.000000

(End cutting path id: path879)


(Start cutting path id: path879)
(Change tool to Cylindrical cutter)

G00 Z5.000000
G00 X78.050919 Y64.122340

G01 Z0.000000 F1000.0(Penetrate)
G03 X78.032759 Y64.205216 Z0.000000 I-0.216285 J-0.003964 F1100.000000
G03 X77.935502 Y64.386055 Z0.000000 I-1.171536 J-0.513497
G01 X77.869751 Y64.397548 Z0.000000
G03 X77.820091 Y64.298154 Z0.000000 I0.076357 J-0.100253
G03 X77.864859 Y64.080654 Z0.000000 I0.534873 J-0.003265
G03 X77.935503 Y64.034436 Z0.000000 I0.070644 J0.030880
G03 X78.022686 Y64.063856 Z0.000000 I-0.000001 J0.143888
G03 X78.050919 Y64.122336 Z0.000000 I-0.043431 J0.057023
G01 X78.050919 Y64.122340 Z0.000000
G00 Z5.000000

(End cutting path id: path879)


(Start cutting path id: path879)
(Change tool to Cylindrical cutter)

G00 Z5.000000
G00 X75.938876 Y62.503038

G01 Z0.000000 F1000.0(Penetrate)
G03 X76.020852 Y62.739609 Z0.000000 I-0.702270 J0.375837 F1100.000000
G03 X76.060203 Y63.186282 Z0.000000 I-2.515275 J0.446662
G02 X76.156831 Y63.542700 Z0.000000 I0.705637 J0.000003
G02 X76.321930 Y63.633513 Z0.000000 I0.158571 J-0.092802
G03 X76.501000 Y63.736249 Z0.000000 I0.006932 J0.195346
G03 X76.852902 Y64.620465 Z0.000000 I-3.657641 J1.967809
G03 X77.031481 Y65.625845 Z0.000000 I-5.598336 J1.512948
G03 X77.045986 Y66.818091 Z0.000000 I-7.876427 J0.692034
G02 X77.043120 Y67.950685 Z0.000000 I9.304651 J0.589847
G02 X77.116021 Y68.019459 Z0.000000 I0.072902 J-0.004251
G02 X77.189645 Y67.957518 Z0.000000 I0.000000 J-0.074725
