%
(Header)
(Generated by gcodetools from Inkscape.)
(Using default header. To add your own header create file "header" in the output dir.)
M3
(Header end.)
G21 (All units in mm)

(Pass at depth -1.0)
(Start cutting path id: path847)
(Change tool to Cylindrical cutter)

G00 Z5.000000
G00 X50.940245 Y0.548968

G01 Z-1.000000 F1000.0(Penetrate)
G02 X50.438720 Y0.981333 Z-1.000000 I0.748372 J1.375137 F1100.000000
G02 X49.991199 Y1.807160 Z-1.000000 I2.515243 J1.897199
G02 X49.968689 Y2.648425 Z-1.000000 I1.257105 J0.454570
G02 X50.484110 Y3.438259 Z-1.000000 I1.607121 J-0.485667
G03 X52.985925 Y5.820037 Z-1.000000 I-21.229227 J24.803981
G03 X53.828453 Y6.977823 Z-1.000000 I-4.077750 J3.852850
G01 X54.390376 Y8.003692 Z-1.000000
G01 X53.371070 Y7.644064 Z-1.000000
G02 X52.653667 Y7.494867 Z-1.000000 I-0.911510 J2.583544
G02 X52.604958 Y7.589665 Z-1.000000 I-0.004106 J0.057803
G03 X52.812155 Y7.921705 Z-1.000000 I-1.121221 J0.930324
G03 X53.513047 Y9.605954 Z-1.000000 I-28.863808 J12.999486
G03 X53.963298 Y11.354524 Z-1.000000 I-7.444635 J2.849223
G03 X54.156936 Y14.224523 Z-1.000000 I-20.036962 J2.793422
G02 X54.555542 Y17.626166 Z-1.000000 I14.253228 J0.053978
G02 X55.268954 Y18.826751 Z-1.000000 I2.303662 J-0.556629
G02 X55.514086 Y18.754680 Z-1.000000 I0.100508 J-0.111060
G02 X55.730422 Y17.115030 Z-1.000000 I-6.059504 J-1.633589
G03 X56.177520 Y9.328765 Z-1.000000 I66.902243 J-0.064354
G03 X57.171078 Y4.716977 Z-1.000000 I24.313615 J2.825177
G02 X57.395293 Y3.488561 Z-1.000000 I-4.653612 J-1.484064
G02 X57.293804 Y2.375317 Z-1.000000 I-3.909086 J-0.204876
G02 X56.819630 Y1.422175 Z-1.000000 I-2.296190 J0.547802
G02 X55.934557 Y0.725299 Z-1.000000 I-2.040179 J1.680663
G02 X53.140169 Y0.030308 Z-1.000000 I-3.039745 J6.256795
G02 X50.940245 Y0.549028 Z-1.000000 I-0.151173 J4.283229
G01 X50.940245 Y0.548968 Z-1.000000
G00 Z5.000000

(Change tool to Cylindrical cutter)

G00 Z5.000000
G00 X114.300815 Y1.686124

G01 Z-1.000000 F1000.0(Penetrate)
G02 X113.372066 Y3.206305 Z-1.000000 I4.255450 J3.643649 F1100.000000
G02 X113.048081 Y4.744537 Z-1.000000 I4.036728 J1.653459
G02 X113.230168 Y5.138105 Z-1.000000 I0.488461 J0.012916
G02 X114.516063 Y5.926084 Z-1.000000 I3.705815 J-4.604272
G02 X116.000775 Y6.480254 Z-1.000000 I5.025644 J-11.198538
G02 X116.316704 Y6.468601 Z-1.000000 I0.140926 J-0.467746
G02 X116.482262 Y6.277690 Z-1.000000 I-0.096190 J-0.250658
G02 X116.926108 Y4.042905 Z-1.000000 I-39.167059 J-8.940365
G02 X117.242572 Y1.786510 Z-1.000000 I-39.621645 J-6.707397
G02 X117.149195 Y1.550999 Z-1.000000 I-0.268277 J-0.029899
G02 X117.056410 Y1.508459 Z-1.000000 I-0.121502 J0.142550
G02 X115.881055 Y1.354181 Z-1.000000 I-3.882268 J25.022598
G02 X114.767066 Y1.409871 Z-1.000000 I-0.381174 J3.544889
G02 X114.300815 Y1.686124 Z-1.000000 I0.172952 J0.823490
G01 X114.300815 Y1.686124 Z-1.000000
G00 Z5.000000

(Change tool to Cylindrical cutter)

G00 Z5.000000
G00 X118.291115 Y1.659517

G01 Z-1.000000 F1000.0(Penetrate)
G02 X116.965894 Y5.573455 Z-1.000000 I7.808412 J4.825174 F1100.000000
G02 X117.742215 Y7.162008 Z-1.000000 I1.672097 J0.166820
G02 X117.804096 Y7.193910 Z-1.000000 I0.222335 J-0.355301
G02 X118.585586 Y7.511297 Z-1.000000 I22.833441 J-55.101164
G03 X121.345256 Y9.445129 Z-1.000000 I-2.703482 J6.794004
G03 X121.312261 Y10.576312 Z-1.000000 I-0.616102 J0.548102
G03 X121.192530 Y10.619017 Z-1.000000 I-0.104793 J-0.104606
G03 X120.299931 Y10.473613 Z-1.000000 I0.755573 J-7.450703
G02 X119.452654 Y10.346635 Z-1.000000 I-1.291010 J5.724141
G02 X119.390111 Y10.404615 Z-1.000000 I-0.004397 J0.057980
G02 X119.716094 Y11.475686 Z-1.000000 I1.922594 J-0.000003
G02 X121.242826 Y13.166362 Z-1.000000 I6.609632 J-4.434019
G02 X121.596805 Y13.352863 Z-1.000000 I0.619209 J-0.746083
G02 X121.754526 Y13.311891 Z-1.000000 I0.043996 J-0.154696
G02 X121.863646 Y13.133459 Z-1.000000 I-0.314606 J-0.314980
G02 X122.967249 Y9.549219 Z-1.000000 I-136.703787 J-44.053705
G02 X124.086636 Y4.170239 Z-1.000000 I-32.793444 J-9.630406
G02 X123.801627 Y2.893617 Z-1.000000 I-1.922249 J-0.240980
G02 X123.415553 Y2.599037 Z-1.000000 I-0.590326 J0.373393
G02 X121.016757 Y1.964675 Z-1.000000 I-9.494811 J31.051342
G02 X118.584184 Y1.522007 Z-1.000000 I-6.704145 J29.935893
G02 X118.291115 Y1.659537 Z-1.000000 I-0.041224 J0.293176
G01 X118.291115 Y1.659517 Z-1.000000
G00 Z5.000000

(Change tool to Cylindrical cutter)

G00 Z5.000000
G00 X78.491254 Y2.211299

G01 Z-1.000000 F1000.0(Penetrate)
G02 X77.542944 Y4.458085 Z-1.000000 I1.420447 J1.923055 F1100.000000
G02 X79.944499 Y12.844816 Z-1.000000 I30.311797 J-4.142625
G02 X80.457693 Y12.852601 Z-1.000000 I0.258416 J-0.116006
G02 X80.568058 Y11.561465 Z-1.000000 I-1.624080 J-0.789110
G03 X80.049822 Y8.257450 Z-1.000000 I12.764772 J-3.694810
G03 X80.441725 Y7.267815 Z-1.000000 I1.345504 J-0.039586
G03 X80.683436 Y7.261286 Z-1.000000 I0.124288 J0.123831
G03 X81.241162 Y7.987864 Z-1.000000 I-1.685315 J1.871004
G02 X81.800961 Y8.919433 Z-1.000000 I6.985290 J-3.563625
G02 X81.945575 Y8.994752 Z-1.000000 I0.144614 J-0.101170
G02 X82.056439 Y8.903680 Z-1.000000 I-0.000000 J-0.113014
G02 X82.514038 Y6.122471 Z-1.000000 I-42.787526 J-8.468188
G03 X82.944316 Y3.264828 Z-1.000000 I76.640557 J10.078621
G03 X83.071330 Y2.839330 Z-1.000000 I1.799472 J0.305450
G02 X83.006460 Y2.544724 Z-1.000000 I-0.234986 J-0.102703
G02 X82.314560 Y2.168462 Z-1.000000 I-1.159667 J1.308197
G02 X79.654236 Y1.821133 Z-1.000000 I-2.553457 J9.196024
G02 X78.491254 Y2.211369 Z-1.000000 I0.022336 J1.994645
G01 X78.491254 Y2.211299 Z-1.000000
G00 Z5.000000

(Change tool to Cylindrical cutter)

G00 Z5.000000
G00 X84.206725 Y3.197638

G01 Z-1.000000 F1000.0(Penetrate)
G02 X84.013279 Y4.009132 Z-1.000000 I4.679373 J1.544285 F1100.000000
G02 X83.992919 Y4.619389 Z-1.000000 I2.610403 J0.392561
G01 X84.044100 Y5.238149 Z-1.000000
G01 X85.094522 Y4.651057 Z-1.000000
G03 X86.079556 Y4.175408 Z-1.000000 I4.463770 J7.986356
G01 X86.144944 Y4.219225 Z-1.000000
G03 X85.935876 Y4.938359 Z-1.000000 I-1.341335 J0.000002
G03 X84.452617 Y6.883768 Z-1.000000 I-12.081385 J-7.673189
G02 X83.589970 Y8.219659 Z-1.000000 I3.614551 J3.280553
G02 X82.473947 Y11.439232 Z-1.000000 I20.558666 J8.929612
G03 X82.125407 Y12.518259 Z-1.000000 I-10.001773 J-2.634894
G03 X81.335065 Y14.399404 Z-1.000000 I-31.254964 J-12.024830
G01 X80.485974 Y16.259555 Z-1.000000
G01 X81.131361 Y18.375434 Z-1.000000
G01 X81.776757 Y20.491323 Z-1.000000
G01 X82.882891 Y19.696951 Z-1.000000
G02 X84.021113 Y18.540838 Z-1.000000 I-2.790390 J-3.885568
G02 X84.544036 Y17.305998 Z-1.000000 I-2.684019 J-1.864757
G03 X85.372710 Y14.073893 Z-1.000000 I28.720682 J5.641362
G03 X85.632795 Y13.883706 Z-1.000000 I0.260086 J0.082743
G03 X85.783954 Y13.969293 Z-1.000000 I0.000000 J0.176277
G03 X86.366108 Y15.105955 Z-1.000000 I-8.170692 J4.902124
G02 X86.957740 Y16.228220 Z-1.000000 I7.394293 J-3.181015
G02 X87.139298 Y16.328203 Z-1.000000 I0.181558 J-0.114851
G02 X87.375618 Y16.282081 Z-1.000000 I-0.000001 J-0.628495
G02 X88.348298 Y15.837611 Z-1.000000 I-4.662684 J-11.490378
G02 X88.817927 Y15.051317 Z-1.000000 I-0.391362 J-0.767143
G02 X88.220558 Y10.094751 Z-1.000000 I-25.583575 J0.569068
G03 X87.438757 Y6.422771 Z-1.000000 I232.827068 J-51.490468
G03 X87.278603 Y5.493073 Z-1.000000 I14.758906 J-3.021069
G02 X86.599178 Y3.610408 Z-1.000000 I-4.820320 J0.675650
G02 X85.592863 Y2.764526 Z-1.000000 I-1.786369 J1.103649
G02 X84.682735 Y2.729115 Z-1.000000 I-0.504844 J1.261743
G02 X84.206694 Y3.197628 Z-1.000000 I0.217941 J0.697544
G01 X84.206725 Y3.197638 Z-1.000000
G00 Z5.000000

(Change tool to Cylindrical cutter)

G00 Z5.000000
G00 X43.121878 Y3.850242

G01 Z-1.000000 F1000.0(Penetrate)
G02 X43.552282 Y6.194919 Z-1.000000 I6.601717 J-0.000012 F1100.000000
G02 X45.222176 Y9.378309 Z-1.000000 I14.033474 J-5.331787
G02 X46.187638 Y10.716388 Z-1.000000 I31.023260 J-21.366808
G02 X46.332805 Y10.848587 Z-1.000000 I0.425428 J-0.321357
G02 X46.443078 Y10.809862 Z-1.000000 I0.039494 J-0.063906
G02 X46.875297 Y9.323786 Z-1.000000 I-12.410742 J-4.415505
G02 X47.014750 Y7.722447 Z-1.000000 I-5.720958 J-1.304953
G02 X46.742856 Y6.705026 Z-1.000000 I-2.515604 J0.127224
G02 X44.478274 Y3.397913 Z-1.000000 I-13.911923 J7.097438
G02 X43.329115 Y2.883562 Z-1.000000 I-1.149156 J1.026539
G02 X43.214513 Y2.976200 Z-1.000000 I0.000000 J0.117207
G02 X43.121878 Y3.850242 Z-1.000000 I4.077070 J0.874034
G01 X43.121878 Y3.850242 Z-1.000000
G00 Z5.000000

(Change tool to Cylindrical cutter)

G00 Z5.000000
G00 X40.760765 Y3.673337

G01 Z-1.000000 F1000.0(Penetrate)
G02 X40.320578 Y4.269420 Z-1.000000 I2.841024 J2.558570 F1100.000000
G02 X39.040061 Y6.550310 Z-1.000000 I40.883475 J24.452335
G03 X37.805315 Y8.865019 Z-1.000000 I-195.822747 J-102.971922
G03 X37.353675 Y9.667033 Z-1.000000 I-23.944032 J-12.955508
G02 X37.132833 Y10.463087 Z-1.000000 I1.390886 J0.814520
G02 X37.335558 Y11.248353 Z-1.000000 I1.553314 J0.017796
G03 X38.667958 Y15.423807 Z-1.000000 I-9.233082 J5.246619
G03 X37.850556 Y16.328272 Z-1.000000 I-0.817404 J0.082871
G03 X37.667029 Y16.262847 Z-1.000000 I-0.000001 J-0.290121
G03 X36.597250 Y15.304604 Z-1.000000 I9.971092 J-12.207963
G02 X35.556756 Y14.380311 Z-1.000000 I-9.813146 J9.999036
G02 X35.455830 Y14.387926 Z-1.000000 I-0.046392 J0.057765
G02 X34.240478 Y16.323092 Z-1.000000 I4.627475 J4.255442
G02 X33.838653 Y18.460229 Z-1.000000 I5.291109 J2.101181
G02 X34.065420 Y20.742102 Z-1.000000 I12.375566 J-0.077653
G02 X34.406269 Y21.383278 Z-1.000000 I1.218759 J-0.236706
G02 X34.542593 Y21.397284 Z-1.000000 I0.076770 J-0.076781
G02 X37.666595 Y19.244542 Z-1.000000 I-45.627013 J-69.555834
G03 X40.802311 Y16.982238 Z-1.000000 I952.239256 J1316.567844
G03 X42.755219 Y15.582483 Z-1.000000 I366.621525 J509.440232
G02 X45.243526 Y12.795114 Z-1.000000 I-4.928696 J-6.904235
G02 X45.220755 Y11.140539 Z-1.000000 I-1.454668 J-0.807425
G02 X44.563401 Y10.122714 Z-1.000000 I-13.304809 J7.871626
G02 X43.997023 Y9.399481 Z-1.000000 I-7.269239 J5.109293
G01 X43.391980 Y8.704142 Z-1.000000
G01 X42.706923 Y9.945973 Z-1.000000
G03 X41.982573 Y11.122828 Z-1.000000 I-12.709042 J-7.011026
G03 X41.856119 Y11.191305 Z-1.000000 I-0.129781 J-0.088666
G03 X41.422408 Y10.798230 Z-1.000000 I-0.009767 J-0.425035
G03 X41.545897 Y7.077675 Z-1.000000 I17.151578 J-1.293049
G02 X41.782271 Y3.571342 Z-1.000000 I-23.435930 J-3.341031
G02 X41.518870 Y3.206425 Z-1.000000 I-0.388235 J0.002711
G02 X41.289963 Y3.232240 Z-1.000000 I-0.087018 J0.256185
G02 X40.760769 Y3.673337 Z-1.000000 I1.269256 J2.060751
G01 X40.760765 Y3.673337 Z-1.000000
G00 Z5.000000

(Change tool to Cylindrical cutter)

G00 Z5.000000
G00 X48.984338 Y6.672512

G01 Z-1.000000 F1000.0(Penetrate)
G03 X48.667545 Y12.549487 Z-1.000000 I-60.357976 J-0.306521 F1100.000000
G03 X47.765229 Y18.509784 Z-1.000000 I-62.984185 J-6.486589
G02 X47.082761 Y22.282802 Z-1.000000 I99.346784 J19.918179
G02 X47.074764 Y22.787645 Z-1.000000 I1.734529 J0.279961
G03 X47.077971 Y23.281455 Z-1.000000 I-2.014918 J0.260000
G03 X46.987526 Y23.539925 Z-1.000000 I-0.619727 J-0.071798
G02 X46.775498 Y24.173120 Z-1.000000 I1.219152 J0.760334
G02 X46.764977 Y26.045088 Z-1.000000 I11.248065 J0.999229
G02 X46.911838 Y26.217562 Z-1.000000 I0.192217 J-0.014909
G02 X48.027383 Y26.350648 Z-1.000000 I1.115536 J-4.608724
G03 X48.960067 Y26.576502 Z-1.000000 I0.000004 J2.038709
G03 X49.096437 Y26.900663 Z-1.000000 I-0.125254 J0.243457
G03 X48.900327 Y27.439954 Z-1.000000 I-5.535574 J-1.707674
G03 X48.570267 Y28.150988 Z-1.000000 I-9.962485 J-4.192435
G02 X48.355373 Y28.828861 Z-1.000000 I1.942175 J0.988691
G02 X48.437161 Y29.074714 Z-1.000000 I0.286371 J0.041264
G02 X48.693983 Y29.244997 Z-1.000000 I0.548651 J-0.548666
G02 X51.085796 Y30.149816 Z-1.000000 I20.096755 J-49.510394
G03 X53.496772 Y31.036984 Z-1.000000 I-28.630142 J81.525194
G03 X54.688343 Y31.536598 Z-1.000000 I-7.851398 J20.396212
G02 X55.801919 Y31.862166 Z-1.000000 I1.694191 J-3.727598
G02 X56.073706 Y31.735051 Z-1.000000 I0.038833 J-0.271085
G02 X56.111221 Y31.406785 Z-1.000000 I-0.330076 J-0.203998
G02 X55.703677 Y30.640529 Z-1.000000 I-2.536141 J0.857373
G03 X55.114107 Y29.689988 Z-1.000000 I4.618864 J-3.522951
G03 X53.245058 Y25.662484 Z-1.000000 I82.068117 J-40.532879
G01 X52.892611 Y24.852095 Z-1.000000
G01 X51.876214 Y25.722083 Z-1.000000
G03 X50.863428 Y26.498757 Z-1.000000 I-7.725400 J-9.025266
G03 X50.756570 Y26.488849 Z-1.000000 I-0.047462 J-0.069305
G03 X50.645918 Y25.982673 Z-1.000000 I0.339373 J-0.339370
G03 X51.863983 Y23.501167 Z-1.000000 I12.809624 J4.747991
G02 X52.518245 Y21.995888 Z-1.000000 I-4.733793 J-2.952346
G02 X52.936941 Y19.506075 Z-1.000000 I-12.749402 J-3.424100
G03 X53.125588 Y16.939863 Z-1.000000 I503.596205 J35.730166
G03 X53.284370 Y14.939084 Z-1.000000 I306.365456 J23.306537
G02 X53.280605 Y12.961145 Z-1.000000 I-11.696957 J-0.966707
G02 X53.004264 Y11.700135 Z-1.000000 I-4.980972 J0.430757
G02 X52.500083 Y10.545045 Z-1.000000 I-8.942869 J3.215865
G02 X52.362682 Y10.461476 Z-1.000000 I-0.137401 J0.071169
G02 X52.258572 Y10.553524 Z-1.000000 I0.000000 J0.104901
G02 X52.166524 Y12.050386 Z-1.000000 I12.124459 J1.496841
G03 X52.076806 Y13.549591 Z-1.000000 I-12.570495 J0.000023
G03 X51.975670 Y13.639306 Z-1.000000 I-0.101136 J-0.012148
G03 X51.622621 Y13.372262 Z-1.000000 I-0.000001 J-0.366897
G03 X50.904048 Y9.850348 Z-1.000000 I23.277833 J-6.583621
G02 X50.450390 Y7.707032 Z-1.000000 I-13.318120 J1.699268
G02 X49.808802 Y6.183620 Z-1.000000 I-7.323639 J2.187554
G01 X48.994263 Y4.716932 Z-1.000000
G01 X48.984366 Y6.672512 Z-1.000000
G01 X48.984338 Y6.672512 Z-1.000000
G00 Z5.000000

(Change tool to Cylindrical cutter)

G00 Z5.000000
G00 X112.301078 Y8.564548

G01 Z-1.000000 F1000.0(Penetrate)
G03 X112.222140 Y10.124035 Z-1.000000 I-15.443580 J0.000028 F1100.000000
G03 X111.912525 Y12.392749 Z-1.000000 I-33.037036 J-3.353148
G01 X111.523969 Y14.654739 Z-1.000000
G01 X113.110222 Y16.297806 Z-1.000000
G03 X114.531294 Y18.034790 Z-1.000000 I-9.841914 J9.501733
G03 X114.993106 Y19.028983 Z-1.000000 I-2.687280 J1.852622
G02 X115.296397 Y20.115155 Z-1.000000 I88.624137 J-24.160967
G02 X115.507670 Y20.828962 Z-1.000000 I38.344013 J-10.960907
G03 X115.663575 Y21.525370 Z-1.000000 I-4.444483 J1.360644
G03 X115.624981 Y21.641442 Z-1.000000 I-0.135151 J0.019514
G03 X115.278004 Y21.692899 Z-1.000000 I-0.208177 J-0.208176
G03 X113.064579 Y20.272656 Z-1.000000 I7.802309 J-14.594686
G01 X112.239118 Y19.645118 Z-1.000000
G01 X112.403999 Y20.492228 Z-1.000000
G02 X112.575313 Y21.337981 Z-1.000000 I54.366915 J-10.572192
G02 X112.833603 Y22.531947 Z-1.000000 I110.619864 J-23.305425
G01 X113.098325 Y23.724566 Z-1.000000
G01 X114.478225 Y23.580344 Z-1.000000
G03 X115.843555 Y23.583379 Z-1.000000 I0.668453 J6.394925
G03 X117.318575 Y23.890079 Z-1.000000 I-0.848131 J7.779215
G02 X118.713898 Y24.178940 Z-1.000000 I2.178152 J-7.006966
G02 X118.938726 Y24.063926 Z-1.000000 I0.024591 J-0.229182
G02 X119.297398 Y22.906175 Z-1.000000 I-2.436748 J-1.389340
G02 X119.103722 Y22.072526 Z-1.000000 I-1.393927 J-0.115482
G03 X118.153532 Y19.919396 Z-1.000000 I8.191023 J-4.900976
G03 X116.801028 Y14.412140 Z-1.000000 I53.072157 J-15.953478
G03 X116.539224 Y12.610527 Z-1.000000 I19.729034 J-3.786783
G03 X116.456712 Y10.944660 Z-1.000000 I16.775731 J-1.665897
G02 X116.351975 Y9.292812 Z-1.000000 I-13.078740 J0.000024
G02 X116.155978 Y8.582791 Z-1.000000 I-2.568957 J0.327084
G02 X115.974301 Y8.567342 Z-1.000000 I-0.095027 J0.041530
G02 X115.777199 Y9.158812 Z-1.000000 I1.013088 J0.666178
G01 X115.699101 Y10.422992 Z-1.000000
G01 X114.191768 Y8.792144 Z-1.000000
G02 X112.661346 Y7.194082 Z-1.000000 I-45.844501 J42.372213
G02 X112.492735 Y7.079818 Z-1.000000 I-0.375556 J0.372642
G02 X112.392805 Y7.137074 Z-1.000000 I-0.028260 J0.066511
G02 X112.301028 Y8.564548 Z-1.000000 I11.055052 J1.427453
G01 X112.301078 Y8.564548 Z-1.000000
G00 Z5.000000

(Change tool to Cylindrical cutter)

G00 Z5.000000
G00 X117.799654 Y11.928048

G01 Z-1.000000 F1000.0(Penetrate)
G02 X118.474909 Y17.201374 Z-1.000000 I47.441055 J-3.394981 F1100.000000
G02 X119.095386 Y18.918516 Z-1.000000 I5.515578 J-1.022344
G02 X119.282997 Y18.932580 Z-1.000000 I0.098463 J-0.055103
G02 X119.809575 Y17.998004 Z-1.000000 I-2.897973 J-2.248470
G02 X120.203014 Y16.704194 Z-1.000000 I-8.881855 J-3.407644
G02 X120.162282 Y16.450344 Z-1.000000 I-0.335239 J-0.076401
G03 X120.038421 Y16.197225 Z-1.000000 I1.386715 J-0.835436
G03 X119.973831 Y15.961444 Z-1.000000 I1.136136 J-0.437973
G02 X118.845320 Y11.237443 Z-1.000000 I-35.408084 J5.961796
G02 X118.148040 Y10.104407 Z-1.000000 I-2.571996 J0.801755
G01 X117.633460 Y9.605778 Z-1.000000
G01 X117.799654 Y11.928048 Z-1.000000
G00 Z5.000000

(Change tool to Cylindrical cutter)

G00 Z5.000000
G00 X14.729516 Y11.808203

G01 Z-1.000000 F1000.0(Penetrate)
G02 X13.977916 Y12.503010 Z-1.000000 I1.698466 J2.591218 F1100.000000
G02 X13.463476 Y13.443856 Z-1.000000 I2.689069 J2.081407
G02 X12.368448 Y16.808678 Z-1.000000 I60.804352 J21.648408
G02 X12.415247 Y16.992668 Z-1.000000 I0.178172 J0.052628
G02 X12.504108 Y16.992318 Z-1.000000 I0.044257 J-0.044257
G02 X13.697892 Y15.689665 Z-1.000000 I-17.634991 J-17.359488
G03 X14.941861 Y14.347716 Z-1.000000 I16.811926 J14.336881
G03 X16.519026 Y12.888470 Z-1.000000 I21.468179 J21.621074
G02 X18.007521 Y11.477531 Z-1.000000 I-14.146552 J-16.414779
G02 X18.006091 Y11.338848 Z-1.000000 I-0.071498 J-0.068612
G02 X16.924972 Y10.978707 Z-1.000000 I-0.900534 J0.900552
G02 X14.729516 Y11.808203 Z-1.000000 I0.765991 J5.347518
G01 X14.729516 Y11.808203 Z-1.000000
G00 Z5.000000

(Change tool to Cylindrical cutter)

G00 Z5.000000
G00 X16.483479 Y14.072640

G01 Z-1.000000 F1000.0(Penetrate)
G03 X15.704878 Y14.974266 Z-1.000000 I-37.568924 J-31.655728 F1100.000000
G03 X14.919977 Y15.839413 Z-1.000000 I-35.360479 J-31.292022
G02 X12.992765 Y19.138556 Z-1.000000 I6.396344 J5.948926
G02 X12.905834 Y22.166277 Z-1.000000 I5.231078 J1.665301
G03 X12.884225 Y24.104761 Z-1.000000 I-3.625983 J0.928941
G03 X12.332913 Y24.211788 Z-1.000000 I-0.302492 J-0.084725
G01 X11.814862 Y23.539549 Z-1.000000
G01 X11.967589 Y25.984043 Z-1.000000
G02 X12.155943 Y28.424985 Z-1.000000 I83.608120 J-5.223832
G02 X12.338190 Y30.017445 Z-1.000000 I35.752920 J-3.285049
G03 X12.499614 Y31.610294 Z-1.000000 I-22.488067 J3.083602
G03 X12.560910 Y33.401270 Z-1.000000 I-28.377659 J1.867772
G01 X12.565714 Y35.196177 Z-1.000000
G01 X13.846696 Y34.044465 Z-1.000000
G02 X14.988614 Y32.797481 Z-1.000000 I-5.834017 J-6.488814
G02 X15.551922 Y31.775113 Z-1.000000 I-3.324668 J-2.498209
G02 X15.597655 Y30.879297 Z-1.000000 I-1.366871 J-0.518855
G02 X15.275586 Y30.739578 Z-1.000000 I-0.216392 J0.057745
G03 X15.013164 Y30.574496 Z-1.000000 I-0.084184 J-0.157297
G03 X15.353362 Y28.959110 Z-1.000000 I5.053553 J0.220758
G02 X15.979322 Y26.214342 Z-1.000000 I-8.939132 J-3.482378
G02 X15.960471 Y21.086281 Z-1.000000 I-31.737143 J-2.447401
G03 X15.833937 Y18.391539 Z-1.000000 I35.952324 J-3.038520
G03 X15.922214 Y17.070231 Z-1.000000 I8.692844 J-0.082830
G03 X16.311755 Y15.929344 Z-1.000000 I3.224638 J0.464065
G03 X16.767839 Y15.576470 Z-1.000000 I0.648664 J0.367210
G03 X17.406687 Y15.464610 Z-1.000000 I0.953036 J3.562729
G03 X17.533617 Y15.510968 Z-1.000000 I0.013645 J0.159587
G03 X17.573233 Y15.638483 Z-1.000000 I-0.101347 J0.101398
G03 X17.304635 Y16.746779 Z-1.000000 I-10.279080 J-1.904464
G02 X16.998828 Y17.877596 Z-1.000000 I19.880217 J5.982966
G02 X16.965778 Y18.156509 Z-1.000000 I1.160332 J0.278911
G02 X17.094497 Y18.330775 Z-1.000000 I0.182324 J-0.000000
G02 X18.920180 Y18.757666 Z-1.000000 I4.013962 J-13.049105
G02 X20.833241 Y18.880607 Z-1.000000 I1.589450 J-9.787281
G02 X21.486900 Y18.673861 Z-1.000000 I-0.041391 J-1.267563
G02 X21.878962 Y18.153656 Z-1.000000 I-0.527923 J-0.805724
G02 X22.099214 Y16.700880 Z-1.000000 I-4.681045 J-1.452767
G02 X21.999089 Y15.150825 Z-1.000000 I-12.048674 J0.000022
G02 X21.814143 Y14.503451 Z-1.000000 I-2.244900 J0.291229
G02 X21.392519 Y14.124405 Z-1.000000 I-0.645677 J0.294192
G02 X20.388705 Y14.029073 Z-1.000000 I-0.708662 J2.129402
G03 X19.277547 Y14.010175 Z-1.000000 I-0.492581 J-3.713536
G03 X18.249782 Y13.670917 Z-1.000000 I0.586544 J-3.503316
G01 X17.251223 Y13.161499 Z-1.000000
G01 X16.483479 Y14.072640 Z-1.000000
G00 Z5.000000

(Change tool to Cylindrical cutter)

G00 Z5.000000
G00 X88.158490 Y17.374381

G01 Z-1.000000 F1000.0(Penetrate)
G01 X87.116355 Y18.136473 Z-1.000000 F1100.000000
G01 X88.148275 Y19.187911 Z-1.000000
G03 X88.051458 Y19.639846 Z-1.000000 I-0.197662 J0.193993
G03 X87.015283 Y19.630863 Z-1.000000 I-0.506887 J-1.296517
G01 X85.563294 Y19.033976 Z-1.000000
G01 X84.326346 Y20.202428 Z-1.000000
G03 X83.060057 Y21.330863 Z-1.000000 I-20.065843 J-21.242446
G03 X82.633462 Y21.625041 Z-1.000000 I-1.754320 J-2.087585
G02 X82.382372 Y21.984114 Z-1.000000 I0.244242 J0.438119
G02 X82.352432 Y23.386082 Z-1.000000 I5.073505 J0.809649
G02 X83.222544 Y24.775183 Z-1.000000 I1.895010 J-0.219942
G02 X85.148897 Y25.167327 Z-1.000000 I1.474248 J-2.314501
G03 X86.758106 Y25.014208 Z-1.000000 I1.886483 J11.293525
G03 X88.222834 Y25.092821 Z-1.000000 I0.228405 J9.429186
G01 X89.689532 Y25.286849 Z-1.000000
G01 X88.345059 Y25.938518 Z-1.000000
G01 X87.000587 Y26.590184 Z-1.000000
G01 X88.161730 Y26.623152 Z-1.000000
G02 X91.233815 Y26.388601 Z-1.000000 I0.418413 J-14.755634
G02 X91.667323 Y25.982449 Z-1.000000 I-0.098628 J-0.539700
G02 X91.709879 Y24.811275 Z-1.000000 I-2.731767 J-0.685623
G02 X90.861337 Y20.779031 Z-1.000000 I-59.435652 J10.402194
G02 X89.722192 Y16.824052 Z-1.000000 I-51.414636 J12.667315
G02 X89.353853 Y16.592429 Z-1.000000 I-0.324451 J0.107271
G02 X89.213455 Y16.644310 Z-1.000000 I0.042976 J0.332212
G02 X88.158490 Y17.374351 Z-1.000000 I13.473945 J20.598150
G01 X88.158490 Y17.374381 Z-1.000000
G00 Z5.000000

(Change tool to Cylindrical cutter)

G00 Z5.000000
G00 X109.955006 Y18.589282

G01 Z-1.000000 F1000.0(Penetrate)
G03 X109.421087 Y19.587361 Z-1.000000 I-7.324192 J-3.276202 F1100.000000
G03 X108.342140 Y21.151545 Z-1.000000 I-19.137560 J-12.046542
G02 X107.339559 Y22.708504 Z-1.000000 I10.032581 J7.561618
G02 X107.277994 Y23.107127 Z-1.000000 I0.523655 J0.284941
G02 X107.362460 Y23.539289 Z-1.000000 I200.577593 J-38.978623
G02 X107.662557 Y25.063396 Z-1.000000 I2389.850656 J-469.770290
G01 X107.963130 Y26.587419 Z-1.000000
G01 X109.887668 Y25.586162 Z-1.000000
G02 X111.699296 Y24.516583 Z-1.000000 I-9.059417 J-17.413653
G02 X111.811466 Y24.306599 Z-1.000000 I-0.139231 J-0.209326
G02 X111.787048 Y24.030574 Z-1.000000 I-1.631402 J0.005225
G02 X111.322551 Y21.514000 Z-1.000000 I-136.130489 J23.825161
G03 X110.888311 Y18.994551 Z-1.000000 I59.508393 J-11.553735
G03 X110.834395 Y18.275060 Z-1.000000 I4.773887 J-0.719499
G02 X110.527915 Y18.059114 Z-1.000000 I-0.229318 J0.000000
G02 X109.955006 Y18.589282 Z-1.000000 I0.334479 J0.936076
G01 X109.955006 Y18.589282 Z-1.000000
G00 Z5.000000

(Change tool to Cylindrical cutter)

G00 Z5.000000
G00 X40.188511 Y18.935408

G01 Z-1.000000 F1000.0(Penetrate)
G03 X38.810296 Y20.020366 Z-1.000000 I-17.629776 J-20.977133 F1100.000000
G03 X36.827336 Y21.411334 Z-1.000000 I-30.985920 J-42.064527
G02 X34.957427 Y22.835840 Z-1.000000 I10.448048 J15.654393
G02 X34.810632 Y23.157067 Z-1.000000 I0.278066 J0.321226
G02 X35.254549 Y23.856826 Z-1.000000 I0.773486 J-0.000001
G02 X40.488760 Y25.831318 Z-1.000000 I15.019086 J-31.889361
G03 X43.039877 Y26.637180 Z-1.000000 I-15.045514 J52.070549
G03 X44.474255 Y27.199340 Z-1.000000 I-5.835176 J16.999756
G02 X45.874282 Y27.776592 Z-1.000000 I12.103417 J-27.368392
G02 X45.936534 Y27.759397 Z-1.000000 I0.019464 J-0.050818
G02 X45.944485 Y27.690565 Z-1.000000 I-0.052096 J-0.040893
G02 X44.371145 Y24.395070 Z-1.000000 I-166.883057 J77.650241
G01 X42.755235 Y21.095013 Z-1.000000
G01 X41.838550 Y21.148815 Z-1.000000
G03 X41.285862 Y20.730933 Z-1.000000 I-0.031281 J-0.533060
G03 X41.381176 Y19.078306 Z-1.000000 I2.976096 J-0.657419
G02 X41.731274 Y17.863964 Z-1.000000 I-11.505284 J-3.974642
G02 X41.678754 Y17.800205 Z-1.000000 I-0.050646 J-0.011792
G02 X41.548836 Y17.846769 Z-1.000000 I0.008545 J0.228363
G02 X40.188511 Y18.935398 Z-1.000000 I21.990607 J28.873190
G01 X40.188511 Y18.935408 Z-1.000000
G00 Z5.000000

(Change tool to Cylindrical cutter)

G00 Z5.000000
G00 X123.454818 Y19.933728

G01 Z-1.000000 F1000.0(Penetrate)
G02 X123.129152 Y21.106833 Z-1.000000 I14.013181 J4.521967 F1100.000000
G02 X122.812543 Y22.683779 Z-1.000000 I25.024186 J5.844441
G03 X122.489879 Y24.259296 Z-1.000000 I-22.551446 J-3.797714
G03 X122.073949 Y25.739390 Z-1.000000 I-20.321902 J-4.912292
G02 X121.663909 Y27.221043 Z-1.000000 I17.965417 J5.769397
G02 X121.243995 Y29.296199 Z-1.000000 I34.854483 J8.132975
G03 X120.847696 Y31.378643 Z-1.000000 I-58.122119 J-9.981981
G03 X120.273293 Y33.940729 Z-1.000000 I-88.526720 J-18.501670
G02 X119.689664 Y36.501281 Z-1.000000 I116.656807 J27.936511
G02 X119.059043 Y39.550760 Z-1.000000 I164.801831 J35.670327
G03 X118.393554 Y42.586999 Z-1.000000 I-72.330898 J-14.262590
G03 X118.144460 Y43.339718 Z-1.000000 I-4.663459 J-1.125681
G03 X117.946338 Y43.332218 Z-1.000000 I-0.097630 J-0.041545
G03 X117.606167 Y41.750802 Z-1.000000 I6.689203 J-2.266178
G02 X117.343478 Y39.444933 Z-1.000000 I-70.749381 J6.892023
G02 X117.290573 Y39.332230 Z-1.000000 I-0.202901 J0.026477
G02 X117.197373 Y39.326173 Z-1.000000 I-0.049796 J0.046158
G02 X114.934507 Y41.290762 Z-1.000000 I44.647434 J53.711636
G03 X112.660475 Y43.337318 Z-1.000000 I-284.021931 J-313.304417
G03 X111.567792 Y44.298737 Z-1.000000 I-63.807882 J-71.418022
G02 X108.382973 Y47.352177 Z-1.000000 I28.698057 J33.120491
G02 X108.420288 Y47.636333 Z-1.000000 I0.134524 J0.126862
G02 X108.758299 Y47.801364 Z-1.000000 I0.996444 J-1.612218
G02 X110.372749 Y48.359680 Z-1.000000 I13.580878 J-36.657636
G03 X111.904094 Y49.057105 Z-1.000000 I-2.220140 J6.904701
G03 X113.630443 Y50.328531 Z-1.000000 I-6.090464 J10.077395
G03 X114.690060 Y51.554975 Z-1.000000 I-4.078953 J4.595077
G03 X114.573995 Y51.767842 Z-1.000000 I-0.114986 J0.075380
G03 X113.909615 Y51.673780 Z-1.000000 I0.020223 J-2.536212
G03 X112.814765 Y51.274604 Z-1.000000 I2.063194 J-7.359925
G02 X111.749739 Y50.843317 Z-1.000000 I-5.769525 J12.716707
G02 X111.663514 Y50.862680 Z-1.000000 I-0.027824 J0.077762
G01 X111.665324 Y50.934265 Z-1.000000
G02 X112.954156 Y52.028154 Z-1.000000 I18.454147 J-20.436667
G03 X114.244739 Y53.192416 Z-1.000000 I-8.897897 J11.160740
G03 X115.405980 Y54.527053 Z-1.000000 I-10.556003 J10.357075
G02 X116.520349 Y55.776774 Z-1.000000 I9.218654 J-7.098526
G02 X116.715193 Y55.797998 Z-1.000000 I0.111037 J-0.114380
G02 X117.978161 Y54.057567 Z-1.000000 I-1.488701 J-2.408757
G02 X120.745023 Y39.206316 Z-1.000000 I-135.807104 J-32.984904
G03 X121.665395 Y33.958656 Z-1.000000 I60.733896 J7.947406
G03 X122.826096 Y29.772800 Z-1.000000 I39.759085 J8.770988
G02 X124.241028 Y24.694210 Z-1.000000 I-47.945286 J-16.094308
G02 X124.517262 Y22.194886 Z-1.000000 I-11.229176 J-2.506015
G02 X124.288568 Y19.003122 Z-1.000000 I-22.235107 J-0.010898
G02 X124.022326 Y18.772597 Z-1.000000 I-0.266241 J0.038483
G02 X123.889761 Y18.855357 Z-1.000000 I0.000000 J0.147551
G02 X123.454818 Y19.933728 Z-1.000000 I7.339595 J3.587206
G01 X123.454818 Y19.933728 Z-1.000000
G00 Z5.000000

(Change tool to Cylindrical cutter)

G00 Z5.000000
G00 X53.747968 Y21.530823

G01 Z-1.000000 F1000.0(Penetrate)
G02 X53.698707 Y23.738271 Z-1.000000 I4.797349 J1.211329 F1100.000000
G02 X55.017163 Y27.706081 Z-1.000000 I17.379093 J-3.571906
G01 X55.930070 Y29.650697 Z-1.000000
G01 X56.144698 Y26.732869 Z-1.000000
G01 X56.359327 Y23.815039 Z-1.000000
G01 X55.505090 Y23.066140 Z-1.000000
G03 X54.724312 Y22.260596 Z-1.000000 I4.557842 J-5.198869
G03 X54.285295 Y21.583892 Z-1.000000 I2.760218 J-2.271474
G01 X53.919736 Y20.850543 Z-1.000000
G01 X53.747968 Y21.530823 Z-1.000000
G00 Z5.000000

(Change tool to Cylindrical cutter)

G00 Z5.000000
G00 X105.089845 Y23.957291

G01 Z-1.000000 F1000.0(Penetrate)
G02 X104.389818 Y24.520919 Z-1.000000 I4.521310 J6.332008 F1100.000000
G02 X102.128270 Y26.637994 Z-1.000000 I62.046474 J68.547104
G03 X99.826019 Y28.612166 Z-1.000000 I-17.490376 J-18.067520
G03 X99.281899 Y28.795049 Z-1.000000 I-0.544121 J-0.718002
G03 X95.793919 Y28.621631 Z-1.000000 I-0.000063 J-35.162559
G03 X93.031166 Y28.171955 Z-1.000000 I2.240889 J-22.479546
G02 X92.696836 Y28.312587 Z-1.000000 I-0.068987 J0.303718
G02 X92.541395 Y28.968829 Z-1.000000 I0.917342 J0.563817
G03 X92.502171 Y29.760747 Z-1.000000 I-2.927319 J0.251938
G03 X92.377617 Y29.844134 Z-1.000000 I-0.103094 J-0.019275
G03 X92.154710 Y29.748678 Z-1.000000 I0.125834 J-0.601839
G03 X90.869057 Y28.805227 Z-1.000000 I15.088559 J-21.909098
G02 X89.545498 Y27.986970 Z-1.000000 I-4.388655 J5.619216
G02 X88.791233 Y27.815909 Z-1.000000 I-0.757196 J1.590303
G03 X87.986475 Y27.755591 Z-1.000000 I0.009115 J-5.520231
G03 X87.047135 Y27.555945 Z-1.000000 I1.152800 J-7.733616
G02 X86.324025 Y27.755644 Z-1.000000 I-0.195100 J0.702583
G02 X86.273635 Y28.368093 Z-1.000000 I0.354308 J0.337448
G03 X86.035295 Y28.652482 Z-1.000000 I-0.159507 J0.108389
G03 X84.247098 Y27.460381 Z-1.000000 I2.644555 J-5.904172
G01 X82.308606 Y25.636802 Z-1.000000
G01 X81.385807 Y27.968329 Z-1.000000
G02 X80.609960 Y30.263521 Z-1.000000 I22.138115 J8.762100
G02 X80.676179 Y30.482691 Z-1.000000 I0.204648 J0.057757
G02 X81.731531 Y31.109086 Z-1.000000 I2.317505 J-2.702312
G02 X86.911608 Y32.846989 Z-1.000000 I25.017121 J-65.978291
G01 X90.000459 Y33.751847 Z-1.000000
G01 X92.045046 Y32.889767 Z-1.000000
G03 X94.701901 Y32.296643 Z-1.000000 I2.963923 J7.029515
G03 X94.945205 Y32.772938 Z-1.000000 I0.011853 J0.294236
G02 X94.491738 Y33.406735 Z-1.000000 I6.737109 J5.299372
G02 X94.456315 Y33.526409 Z-1.000000 I0.184441 J0.119674
G01 X94.515060 Y33.567162 Z-1.000000
G02 X96.106339 Y32.909461 Z-1.000000 I-8.836206 J-23.632696
G03 X97.757277 Y32.162571 Z-1.000000 I309.992580 J683.014357
G03 X99.711971 Y31.283508 Z-1.000000 I430.790725 J955.297505
G02 X101.642543 Y30.356920 Z-1.000000 I-16.930836 J-37.750414
G02 X104.029495 Y29.072036 Z-1.000000 I-30.221533 J-59.002619
G01 X106.391432 Y27.737622 Z-1.000000
G01 X106.481430 Y26.616302 Z-1.000000
G02 X106.410793 Y23.908192 Z-1.000000 I-12.738712 J-1.022708
G02 X106.067625 Y23.506419 Z-1.000000 I-0.481829 J0.064104
G02 X105.838058 Y23.522843 Z-1.000000 I-0.093005 J0.312616
G02 X105.089835 Y23.957291 Z-1.000000 I1.928668 J4.183159
G01 X105.089845 Y23.957291 Z-1.000000
G00 Z5.000000

(Change tool to Cylindrical cutter)

G00 Z5.000000
G00 X113.410048 Y25.678299

G01 Z-1.000000 F1000.0(Penetrate)
G02 X113.991788 Y27.043490 Z-1.000000 I6.310944 J-1.882698 F1100.000000
G02 X115.399335 Y29.187337 Z-1.000000 I17.110641 J-9.700033
G03 X115.936491 Y29.969120 Z-1.000000 I-8.575724 J6.467742
G03 X116.673278 Y31.229085 Z-1.000000 I-21.577696 J13.463349
G02 X117.380654 Y32.289825 Z-1.000000 I6.384356 J-3.491302
G02 X117.517120 Y32.281467 Z-1.000000 I0.065283 J-0.052347
G02 X117.621760 Y31.987266 Z-1.000000 I-0.631475 J-0.390308
G02 X118.263580 Y26.564201 Z-1.000000 I-225.191309 J-29.400918
G01 X118.357678 Y25.677865 Z-1.000000
G01 X116.856689 Y25.798354 Z-1.000000
G03 X115.378651 Y25.775008 Z-1.000000 I-0.617669 J-7.694372
G03 X114.409668 Y25.523564 Z-1.000000 I0.393655 J-3.509814
G02 X113.572249 Y25.421654 Z-1.000000 I-0.599530 J1.434881
G02 X113.410038 Y25.678299 Z-1.000000 I0.030814 J0.199060
G01 X113.410048 Y25.678299 Z-1.000000
G00 Z5.000000

(Change tool to Cylindrical cutter)

G00 Z5.000000
G00 X35.314110 Y26.897952

G01 Z-1.000000 F1000.0(Penetrate)
G02 X35.550926 Y30.305714 Z-1.000000 I28.547969 J-0.271778 F1100.000000
G02 X35.830958 Y30.874747 Z-1.000000 I0.975895 J-0.126835
G02 X35.972414 Y30.947516 Z-1.000000 I0.184263 J-0.184320
G02 X37.519391 Y31.155858 Z-1.000000 I4.119869 J-24.743214
G03 X39.016859 Y31.516334 Z-1.000000 I-0.593574 J5.756378
G03 X40.674825 Y32.378667 Z-1.000000 I-3.078298 J7.943507
G01 X42.261139 Y33.439677 Z-1.000000
G01 X41.102612 Y33.439679 Z-1.000000
G02 X40.079493 Y33.575087 Z-1.000000 I0.000007 J3.933028
G02 X39.944089 Y33.751798 Z-1.000000 I0.047608 J0.176711
G02 X41.006746 Y36.339247 Z-1.000000 I3.681416 J-0.000007
G02 X43.494749 Y37.345420 Z-1.000000 I2.410719 J-2.381902
G02 X43.713364 Y37.284881 Z-1.000000 I-0.010605 J-0.463294
G02 X44.344185 Y36.861957 Z-1.000000 I-2.568539 J-4.513075
G03 X44.960916 Y36.641905 Z-1.000000 I0.639186 J0.817151
G03 X45.086132 Y36.845896 Z-1.000000 I0.003000 J0.138584
G02 X44.929718 Y37.770865 Z-1.000000 I1.299471 J0.695452
G02 X45.260873 Y37.954320 Z-1.000000 I0.237100 J-0.037378
G03 X45.692079 Y37.780717 Z-1.000000 I4.574097 J10.739161
G03 X47.830308 Y36.978859 Z-1.000000 I100.063622 J263.576971
G02 X49.841105 Y35.975589 Z-1.000000 I-3.618229 J-9.768510
G02 X51.863718 Y34.388608 Z-1.000000 I-7.367509 J-11.472321
G02 X53.716497 Y32.574883 Z-1.000000 I-59.374946 J-62.506633
G02 X53.755480 Y32.480182 Z-1.000000 I-0.095535 J-0.094701
G02 X53.704887 Y32.406119 Z-1.000000 I-0.079508 J0.000000
G02 X52.411007 Y31.955281 Z-1.000000 I-6.748451 J17.285584
G03 X51.089935 Y31.481723 Z-1.000000 I4.500846 J-14.635358
G03 X48.925146 Y30.522242 Z-1.000000 I16.574091 J-40.316438
G02 X46.791164 Y29.638235 Z-1.000000 I-9.620347 J20.205686
G02 X46.517134 Y29.667453 Z-1.000000 I-0.106564 J0.300200
G02 X46.375212 Y29.886425 Z-1.000000 I0.160318 J0.259385
G02 X46.397101 Y30.565162 Z-1.000000 I2.046990 J0.273705
G01 X46.543689 Y31.298100 Z-1.000000
G01 X45.382816 Y30.360843 Z-1.000000
G03 X44.256931 Y29.392565 Z-1.000000 I15.020039 J-18.603563
G03 X44.037546 Y29.129175 Z-1.000000 I0.860190 J-0.939537
G02 X43.788470 Y28.917194 Z-1.000000 I-0.459909 J0.288070
G02 X41.470825 Y28.046976 Z-1.000000 I-12.079722 J28.650437
G03 X39.119985 Y27.182884 Z-1.000000 I11.957226 J-36.160566
G03 X37.194020 Y26.313312 Z-1.000000 I10.187030 J-25.130317
G01 X35.299535 Y25.367426 Z-1.000000
G01 X35.314108 Y26.897959 Z-1.000000
G01 X35.314110 Y26.897952 Z-1.000000
G00 Z5.000000

(Change tool to Cylindrical cutter)

G00 Z5.000000
G00 X110.589959 Y26.193222

G01 Z-1.000000 F1000.0(Penetrate)
G02 X109.766626 Y26.577384 Z-1.000000 I2.004918 J5.371288 F1100.000000
G02 X107.289893 Y28.064719 Z-1.000000 I28.598856 J50.429077
G03 X104.801300 Y29.537344 Z-1.000000 I-24.689523 J-38.883828
G03 X101.913178 Y31.022577 Z-1.000000 I-28.007307 J-50.911182
G02 X99.618785 Y32.401578 Z-1.000000 I6.154978 J12.838912
G02 X99.657649 Y32.685574 Z-1.000000 I0.096880 J0.131399
G03 X100.311476 Y32.988347 Z-1.000000 I-1.821206 J4.790167
G03 X101.650213 Y33.784588 Z-1.000000 I-11.564513 J20.967205
G02 X102.955732 Y34.531236 Z-1.000000 I8.176299 J-12.781627
G02 X103.081074 Y34.511299 Z-1.000000 I0.048932 J-0.096346
G03 X103.172460 Y34.507636 Z-1.000000 I0.047679 J0.047701
G03 X103.317445 Y34.712380 Z-1.000000 I-0.329077 J0.386734
G03 X103.221247 Y34.865850 Z-1.000000 I-0.105743 J0.040602
G03 X101.453175 Y34.870050 Z-1.000000 I-0.909593 J-10.754897
G03 X99.480904 Y34.641321 Z-1.000000 I2.203840 J-27.620708
G03 X98.524817 Y34.423595 Z-1.000000 I1.018484 J-6.680447
G02 X97.588259 Y34.346136 Z-1.000000 I-0.646485 J2.115990
G02 X95.851171 Y34.777170 Z-1.000000 I1.052133 J7.955943
G03 X91.985328 Y35.308093 Z-1.000000 I-3.128549 J-8.440337
G03 X87.716534 Y34.108634 Z-1.000000 I0.952028 J-11.584108
G02 X86.497515 Y33.538776 Z-1.000000 I-10.585695 J21.055760
G02 X85.900581 Y33.322091 Z-1.000000 I-2.086190 J4.816558
G02 X85.794187 Y33.449414 Z-1.000000 I-0.025648 J0.086682
G02 X86.389484 Y34.293452 Z-1.000000 I3.128821 J-1.574795
G01 X87.489505 Y35.445638 Z-1.000000
G01 X86.633933 Y35.283550 Z-1.000000
G03 X84.267999 Y34.480379 Z-1.000000 I1.665977 J-8.793838
G03 X81.087385 Y32.484885 Z-1.000000 I9.105452 J-18.045696
G01 X79.818697 Y31.513740 Z-1.000000
G01 X78.210588 Y31.780215 Z-1.000000
G02 X76.995705 Y32.185971 Z-1.000000 I0.664865 J4.012320
G02 X76.949323 Y32.437588 Z-1.000000 I0.075006 J0.143910
G03 X77.594729 Y33.507673 Z-1.000000 I-2.567983 J2.278518
G03 X78.347436 Y36.155377 Z-1.000000 I-15.590779 J5.863100
G02 X79.277041 Y37.596928 Z-1.000000 I2.277281 J-0.448027
G02 X83.066740 Y39.521261 Z-1.000000 I8.274583 J-11.601805
G02 X86.058755 Y40.332081 Z-1.000000 I8.789787 J-26.509434
G02 X89.121627 Y40.806200 Z-1.000000 I5.795575 J-27.309900
G01 X92.220436 Y41.110986 Z-1.000000
G01 X93.695510 Y40.337769 Z-1.000000
G03 X96.192599 Y39.397219 Z-1.000000 I5.065594 J9.663695
G03 X98.955410 Y39.063744 Z-1.000000 I2.793694 J11.533957
G03 X99.251583 Y39.246231 Z-1.000000 I0.000846 J0.330212
G03 X99.207600 Y39.567909 Z-1.000000 I-0.257241 J0.128674
G03 X98.710778 Y40.028230 Z-1.000000 I-2.858700 J-2.587114
G03 X97.560560 Y40.844436 Z-1.000000 I-10.242956 J-13.216071
G01 X96.371451 Y41.614952 Z-1.000000
G01 X97.919499 Y41.997008 Z-1.000000
G03 X100.542969 Y42.988207 Z-1.000000 I-2.823590 J11.440826
G03 X104.594764 Y45.476613 Z-1.000000 I-15.658308 J30.038858
G02 X107.083173 Y46.852355 Z-1.000000 I7.149513 J-9.993504
G02 X107.412156 Y46.631672 Z-1.000000 I0.090474 J-0.220683
G02 X107.363976 Y46.390604 Z-1.000000 I-0.627185 J0.000001
G02 X106.822594 Y45.215652 Z-1.000000 I-16.033281 J6.675450
G03 X105.939044 Y43.010359 Z-1.000000 I12.061224 J-6.111968
G03 X105.352715 Y40.345242 Z-1.000000 I17.080109 J-5.154700
G03 X105.713151 Y40.164183 Z-1.000000 I0.210775 J-0.029701
G03 X107.867289 Y42.831636 Z-1.000000 I-10.813712 J10.936288
G03 X108.586310 Y44.048707 Z-1.000000 I-17.511983 J11.166655
G03 X108.634402 Y44.237214 Z-1.000000 I-0.345411 J0.188508
G02 X108.880072 Y44.362222 Z-1.000000 I0.154640 J-0.000000
G02 X109.279411 Y43.767520 Z-1.000000 I-0.614773 J-0.844245
G03 X111.163197 Y39.024312 Z-1.000000 I18.175919 J4.472964
G03 X112.356181 Y38.328528 Z-1.000000 I1.192987 J0.674852
G03 X112.451729 Y38.396940 Z-1.000000 I0.000000 J0.100930
G03 X112.433682 Y38.556266 Z-1.000000 I-0.177877 J0.060536
G02 X112.365743 Y38.800151 Z-1.000000 I0.387223 J0.239274
G02 X112.449584 Y40.116475 Z-1.000000 I12.337425 J-0.124986
G01 X112.606197 Y41.448946 Z-1.000000
G01 X113.658166 Y40.738974 Z-1.000000
G02 X114.676452 Y39.986638 Z-1.000000 I-8.308541 J-12.310896
G02 X115.818902 Y38.995422 Z-1.000000 I-13.309042 J-16.493642
G02 X116.668262 Y37.838039 Z-1.000000 I-2.627214 J-2.818363
G02 X117.033628 Y36.452897 Z-1.000000 I-3.461671 J-1.653859
G02 X116.914244 Y35.032629 Z-1.000000 I-4.635543 J-0.325500
G02 X116.529954 Y34.375083 Z-1.000000 I-1.289600 J0.312614
G03 X115.696386 Y33.262121 Z-1.000000 I2.691722 J-2.884638
G03 X114.524157 Y30.383938 Z-1.000000 I17.609068 J-8.849645
G02 X112.798076 Y26.503375 Z-1.000000 I-18.322553 J5.825738
G02 X111.918629 Y25.928864 Z-1.000000 I-1.015266 J0.593769
G02 X111.454520 Y25.947611 Z-1.000000 I-0.172440 J1.485141
G02 X110.589999 Y26.193222 Z-1.000000 I1.090600 J5.483102
G01 X110.589959 Y26.193222 Z-1.000000
G00 Z5.000000

(Change tool to Cylindrical cutter)

G00 Z5.000000
G00 X16.496623 Y32.339703

G01 Z-1.000000 F1000.0(Penetrate)
G02 X16.106441 Y34.936261 Z-1.000000 I9.327009 J2.729153 F1100.000000
G02 X16.425302 Y37.566327 Z-1.000000 I9.892783 J0.134992
G03 X16.784904 Y39.380179 Z-1.000000 I-15.115073 J3.939184
G03 X16.811395 Y40.377489 Z-1.000000 I-4.504482 J0.618657
G03 X16.366988 Y42.459289 Z-1.000000 I-8.378392 J-0.700221
G03 X15.986914 Y42.728780 Z-1.000000 I-0.380075 J-0.133272
G03 X15.715705 Y42.523842 Z-1.000000 I-0.000001 J-0.281924
G03 X15.502497 Y41.022254 Z-1.000000 I5.398680 J-1.532480
G02 X15.367014 Y40.977089 Z-1.000000 I-0.075409 J0.000417
G02 X14.575083 Y42.244501 Z-1.000000 I6.579178 J4.992063
G03 X13.577675 Y44.028333 Z-1.000000 I-21.747086 J-10.988855
G03 X12.375045 Y45.818544 Z-1.000000 I-23.106300 J-14.223331
G02 X11.131664 Y47.574476 Z-1.000000 I57.349839 J41.927759
G02 X11.099081 Y47.679623 Z-1.000000 I0.153363 J0.105146
G02 X11.153261 Y47.751365 Z-1.000000 I0.074589 J-0.000000
G02 X12.626891 Y48.114244 Z-1.000000 I5.815635 J-20.443331
G03 X15.101251 Y48.858945 Z-1.000000 I-3.051222 J14.621102
G03 X16.660310 Y49.720353 Z-1.000000 I-2.625541 J6.593526
G02 X17.005585 Y49.716650 Z-1.000000 I0.170158 J-0.233085
G02 X17.214063 Y49.297600 Z-1.000000 I-0.321754 J-0.421458
G03 X17.895612 Y48.885066 Z-1.000000 I0.466917 J0.002134
G03 X19.526317 Y50.494403 Z-1.000000 I-1.775129 J3.429547
G02 X20.435828 Y51.714169 Z-1.000000 I4.493106 J-2.401288
G02 X21.854865 Y52.798862 Z-1.000000 I4.938327 J-4.989945
G02 X23.470076 Y53.623453 Z-1.000000 I8.569578 J-14.791860
G02 X23.932720 Y53.724177 Z-1.000000 I0.474038 J-1.064481
G02 X25.113405 Y53.427656 Z-1.000000 I0.023563 J-2.405061
G02 X28.314331 Y51.458210 Z-1.000000 I-18.208615 J-33.180261
G02 X31.299847 Y49.165909 Z-1.000000 I-19.887656 J-28.992211
G02 X31.632835 Y48.442172 Z-1.000000 I-0.620006 J-0.723735
G02 X31.214294 Y47.548960 Z-1.000000 I-1.162379 J0.000002
G02 X28.494344 Y45.828543 Z-1.000000 I-7.918464 J9.508647
G02 X27.927847 Y45.758417 Z-1.000000 I-0.392554 J0.847945
G02 X26.828754 Y46.144115 Z-1.000000 I0.724289 J3.822801
G02 X25.838474 Y46.826847 Z-1.000000 I2.438310 J4.596234
G02 X25.377539 Y47.415512 Z-1.000000 I1.324708 J1.512064
G03 X24.943263 Y47.980325 Z-1.000000 I-1.784835 J-0.922971
G03 X24.616187 Y48.106639 Z-1.000000 I-0.327077 J-0.360310
G03 X24.262675 Y47.982474 Z-1.000000 I-0.000001 J-0.565325
G03 X22.328265 Y46.273277 Z-1.000000 I16.778612 J-20.938704
G02 X20.402098 Y44.534538 Z-1.000000 I-24.145125 J24.811584
G02 X20.110664 Y44.417453 Z-1.000000 I-0.325502 J0.388956
G02 X19.776931 Y44.396663 Z-1.000000 I-2.251836 J33.458989
G02 X19.043682 Y44.356335 Z-1.000000 I-9.191919 J160.441578
G01 X18.310333 Y44.317686 Z-1.000000
G01 X18.285880 Y42.484320 Z-1.000000
G02 X17.789129 Y35.187581 Z-1.000000 I-66.954561 J0.892881
G02 X16.980252 Y31.889258 Z-1.000000 I-14.329672 J1.765851
G02 X16.800614 Y31.846957 Z-1.000000 I-0.103970 J0.038943
G02 X16.496617 Y32.339695 Z-1.000000 I0.744713 J0.799599
G01 X16.496623 Y32.339703 Z-1.000000
G00 Z5.000000

(Change tool to Cylindrical cutter)

G00 Z5.000000
G00 X71.638652 Y32.475958

G01 Z-1.000000 F1000.0(Penetrate)
G02 X69.987575 Y32.715137 Z-1.000000 I3.412712 J29.376677 F1100.000000
G02 X69.849219 Y32.786943 Z-1.000000 I0.044207 J0.254371
G02 X69.886750 Y33.136266 Z-1.000000 I0.159539 J0.159537
G02 X73.727750 Y35.280337 Z-1.000000 I19.126689 J-29.752025
G02 X75.434926 Y35.958193 Z-1.000000 I5.763153 J-12.025794
G02 X75.595450 Y35.876650 Z-1.000000 I0.038970 J-0.122058
G02 X75.615564 Y35.616371 Z-1.000000 I-0.511539 J-0.170448
G02 X75.264504 Y33.918209 Z-1.000000 I-23.444678 J3.961332
G02 X74.317362 Y32.830156 Z-1.000000 I-1.528980 J0.374700
G02 X71.638652 Y32.475958 Z-1.000000 I-2.041369 J5.132048
G01 X71.638652 Y32.475958 Z-1.000000
G00 Z5.000000

(Change tool to Cylindrical cutter)

G00 Z5.000000
G00 X54.340515 Y33.808374

G01 Z-1.000000 F1000.0(Penetrate)
G02 X53.926856 Y34.930188 Z-1.000000 I8.656930 J3.829338 F1100.000000
G02 X53.962997 Y35.073119 Z-1.000000 I0.137906 J0.041164
G02 X54.091159 Y35.083220 Z-1.000000 I0.069995 J-0.069996
G02 X55.143093 Y34.216138 Z-1.000000 I-6.540915 J-9.006999
G02 X55.661286 Y33.272864 Z-1.000000 I-1.174628 J-1.259261
G02 X55.399850 Y32.840628 Z-1.000000 I-0.372936 J-0.069613
G02 X54.966531 Y32.937968 Z-1.000000 I-0.131514 J0.427708
G02 X54.340515 Y33.808374 Z-1.000000 I1.758915 J1.925377
G01 X54.340515 Y33.808374 Z-1.000000
G00 Z5.000000

(Change tool to Cylindrical cutter)

G00 Z5.000000
G00 X35.453639 Y36.556412

G01 Z-1.000000 F1000.0(Penetrate)
G03 X35.273653 Y40.161155 Z-1.000000 I-420.066988 J-19.167229 F1100.000000
G03 X35.133497 Y42.459381 Z-1.000000 I-170.847045 J-9.265645
G01 X34.977869 Y44.756726 Z-1.000000
G01 X35.681538 Y44.580115 Z-1.000000
G02 X40.409702 Y42.245148 Z-1.000000 I-3.039049 J-12.108489
G02 X42.635897 Y39.053348 Z-1.000000 I-4.229889 J-5.322490
G01 X42.975472 Y38.024421 Z-1.000000
G01 X42.009796 Y37.173276 Z-1.000000
G03 X41.055251 Y36.310037 Z-1.000000 I33.313242 J-37.796192
G03 X39.699641 Y35.029829 Z-1.000000 I71.930515 J-77.524887
G02 X37.403876 Y33.280573 Z-1.000000 I-8.752372 J9.105686
G02 X36.204339 Y32.950791 Z-1.000000 I-1.199533 J2.016673
G02 X35.874466 Y33.219057 Z-1.000000 I0.000001 J0.336948
G02 X35.453639 Y36.556412 Z-1.000000 I20.645891 J4.298570
G01 X35.453639 Y36.556412 Z-1.000000
G00 Z5.000000

(Change tool to Cylindrical cutter)

G00 Z5.000000
G00 X66.595457 Y33.539004

G01 Z-1.000000 F1000.0(Penetrate)
G02 X65.875875 Y33.966001 Z-1.000000 I0.756113 J2.094039 F1100.000000
G02 X65.580915 Y34.437091 Z-1.000000 I0.651154 J0.735586
G02 X65.392472 Y36.263738 Z-1.000000 I5.232771 J1.462876
G02 X65.845525 Y38.380554 Z-1.000000 I7.533739 J-0.505525
G03 X66.279430 Y39.686132 Z-1.000000 I-19.072127 J7.063462
G03 X66.587845 Y40.895323 Z-1.000000 I-16.047482 J4.736973
G02 X66.865741 Y42.113861 Z-1.000000 I51.846742 J-11.183064
G02 X66.995446 Y42.590218 Z-1.000000 I8.045624 J-1.934863
G03 X66.452279 Y42.945538 Z-1.000000 I-0.323366 J0.098500
G03 X64.881049 Y40.780594 Z-1.000000 I3.733414 J-4.362205
G02 X64.530395 Y40.189575 Z-1.000000 I-2.231025 J0.924144
G02 X64.384728 Y40.164648 Z-1.000000 I-0.086956 J0.070068
G02 X63.511247 Y41.612147 Z-1.000000 I0.973089 J1.574499
G02 X64.149159 Y43.589758 Z-1.000000 I2.789597 J0.191858
G02 X65.203015 Y44.259414 Z-1.000000 I1.565045 J-1.298885
G02 X70.712021 Y45.293994 Z-1.000000 I10.301925 J-39.671774
G02 X74.546435 Y45.156604 Z-1.000000 I1.471788 J-12.499956
G02 X75.182342 Y44.439664 Z-1.000000 I-0.147388 J-0.771217
G02 X75.220595 Y43.260916 Z-1.000000 I-16.026476 J-1.110092
G01 X75.176840 Y43.217421 Z-1.000000
G02 X75.097265 Y43.245256 Z-1.000000 I0.000213 J0.128269
G02 X74.234478 Y43.965989 Z-1.000000 I14.215434 J17.894016
G03 X73.385350 Y44.613583 Z-1.000000 I-5.110606 J-5.820565
G03 X73.269462 Y44.601789 Z-1.000000 I-0.050711 J-0.076971
G03 X73.139250 Y44.037934 Z-1.000000 I0.386120 J-0.386130
G03 X74.567474 Y40.830757 Z-1.000000 I19.004450 J6.541486
G02 X75.234627 Y39.259573 Z-1.000000 I-7.131018 J-3.955193
G02 X75.341775 Y38.297950 Z-1.000000 I-2.505447 J-0.765950
G02 X74.975635 Y37.510799 Z-1.000000 I-1.226598 J0.091817
G02 X73.677857 Y36.669050 Z-1.000000 I-2.731960 J2.790729
G03 X72.139651 Y35.944894 Z-1.000000 I4.883598 J-12.369189
G03 X69.959375 Y34.618448 Z-1.000000 I14.470504 J-26.240208
G02 X67.814948 Y33.254278 Z-1.000000 I-31.267657 J46.784055
G02 X67.637103 Y33.213779 Z-1.000000 I-0.150008 J0.248001
G02 X67.448767 Y33.251830 Z-1.000000 I0.089484 J0.928041
G02 X66.595195 Y33.539004 Z-1.000000 I6.108710 J19.569115
G01 X66.595457 Y33.539004 Z-1.000000
G00 Z5.000000

(Change tool to Cylindrical cutter)

G00 Z5.000000
G00 X55.819789 Y34.798507

G01 Z-1.000000 F1000.0(Penetrate)
G03 X53.899342 Y36.160053 Z-1.000000 I-4.320568 J-4.058959 F1100.000000
G03 X49.485578 Y37.603205 Z-1.000000 I-9.339060 J-21.091614
G02 X47.666064 Y38.166676 Z-1.000000 I2.391500 J10.941869
G02 X47.697672 Y38.328644 Z-1.000000 I0.031608 J0.077900
G03 X48.428180 Y38.405577 Z-1.000000 I0.000006 J3.506648
G03 X49.209578 Y38.650668 Z-1.000000 I-0.907977 J4.262965
G01 X49.975456 Y38.972694 Z-1.000000
G01 X48.834389 Y39.792149 Z-1.000000
G02 X48.525435 Y40.632023 Z-1.000000 I0.465309 J0.647930
G02 X49.336584 Y41.817896 Z-1.000000 I1.995745 J-0.494755
G03 X52.007828 Y44.608530 Z-1.000000 I-5.793555 J8.219493
G03 X51.880804 Y45.784916 Z-1.000000 I-0.794116 J0.509303
G03 X51.783956 Y45.807678 Z-1.000000 I-0.066799 J-0.066799
G03 X50.630043 Y45.365272 Z-1.000000 I4.636061 J-13.818129
G02 X49.486745 Y44.978510 Z-1.000000 I-2.915704 J6.735828
G02 X49.292482 Y45.032433 Z-1.000000 I-0.049452 J0.198728
G02 X49.211644 Y45.586495 Z-1.000000 I0.331257 J0.331259
G02 X51.022796 Y48.521553 Z-1.000000 I26.516260 J-14.336199
G02 X53.163082 Y51.276225 Z-1.000000 I28.365442 J-19.830184
G02 X54.081412 Y51.882603 Z-1.000000 I1.528598 J-1.316414
G02 X54.522342 Y51.972210 Z-1.000000 I0.638248 J-2.010986
G02 X56.579158 Y52.117227 Z-1.000000 I4.143769 J-44.113392
G03 X58.626438 Y52.299572 Z-1.000000 I-1.160964 J24.618907
G03 X59.316089 Y52.476562 Z-1.000000 I-0.384951 J2.932099
G02 X59.855864 Y52.427798 Z-1.000000 I0.220921 J-0.566403
G02 X60.368791 Y51.828122 Z-1.000000 I-0.675959 J-1.097376
G02 X61.847440 Y47.442622 Z-1.000000 I-29.978281 J-12.549739
G02 X62.187164 Y44.821890 Z-1.000000 I-10.256395 J-2.661914
G02 X62.034720 Y44.698520 Z-1.000000 I-0.125720 J-0.000523
G02 X61.516772 Y44.967739 Z-1.000000 I0.236755 J1.088335
G03 X59.913622 Y46.258177 Z-1.000000 I-10.454220 J-11.346549
G03 X59.478402 Y46.395435 Z-1.000000 I-0.435222 J-0.621382
G03 X59.164148 Y45.983910 Z-1.000000 I-0.000001 J-0.325750
G03 X60.627398 Y42.185896 Z-1.000000 I19.417141 J5.299912
G01 X61.240960 Y40.975089 Z-1.000000
G01 X60.261719 Y39.468521 Z-1.000000
G03 X59.327946 Y37.937144 Z-1.000000 I26.118467 J-16.976396
G03 X58.841253 Y36.980550 Z-1.000000 I9.687013 J-5.530636
G02 X57.340984 Y34.540971 Z-1.000000 I-10.164995 J4.570072
G02 X56.569986 Y34.172997 Z-1.000000 I-0.770996 J0.623726
G02 X56.429445 Y34.223902 Z-1.000000 I0.000000 J0.219461
G02 X55.819789 Y34.798507 Z-1.000000 I4.414895 J5.294930
G01 X55.819789 Y34.798507 Z-1.000000
G00 Z5.000000

(Change tool to Cylindrical cutter)

G00 Z5.000000
G00 X63.044561 Y34.437873

G01 Z-1.000000 F1000.0(Penetrate)
G03 X62.304042 Y34.630786 Z-1.000000 I-2.769485 J-9.113208 F1100.000000
G03 X60.783405 Y34.930858 Z-1.000000 I-8.323078 J-38.174909
G02 X59.331566 Y35.262574 Z-1.000000 I2.613069 J14.779763
G02 X59.260857 Y35.359217 Z-1.000000 I0.026283 J0.093419
G02 X60.237740 Y38.847893 Z-1.000000 I7.622858 J-0.253409
G02 X61.812587 Y39.891107 Z-1.000000 I1.806887 J-1.017387
G02 X62.374729 Y39.600237 Z-1.000000 I0.063689 J-0.565553
G02 X63.779390 Y36.322064 Z-1.000000 I-15.826093 J-8.721333
G02 X64.373355 Y34.389779 Z-1.000000 I-124.266998 J-39.255884
G02 X64.389033 Y34.282589 Z-1.000000 I-0.358586 J-0.107189
G02 X64.275962 Y34.181826 Z-1.000000 I-0.101433 J0.000000
G02 X63.044561 Y34.437873 Z-1.000000 I0.802582 J6.948952
G01 X63.044561 Y34.437873 Z-1.000000
G00 Z5.000000

(Change tool to Cylindrical cutter)

G00 Z5.000000
G00 X76.869634 Y36.373001

G01 Z-1.000000 F1000.0(Penetrate)
G02 X77.125988 Y37.221578 Z-1.000000 I1.480656 J0.015707 F1100.000000
G02 X77.772641 Y37.700994 Z-1.000000 I1.010872 J-0.687679
G02 X78.009137 Y37.496550 Z-1.000000 I0.054803 J-0.175614
G02 X77.599241 Y36.608215 Z-1.000000 I-1.779514 J0.282371
G02 X77.050536 Y36.242647 Z-1.000000 I-0.920105 J0.786469
G02 X76.869634 Y36.373001 Z-1.000000 I-0.042476 J0.131755
G01 X76.869634 Y36.373001 Z-1.000000
G00 Z5.000000

(Change tool to Cylindrical cutter)

G00 Z5.000000
G00 X13.176883 Y37.365631

G01 Z-1.000000 F1000.0(Penetrate)
G02 X12.208158 Y38.468293 Z-1.000000 I2.417734 J3.100919 F1100.000000
G02 X11.710066 Y39.851457 Z-1.000000 I3.397362 J2.004691
G01 X11.465495 Y41.384320 Z-1.000000
G01 X8.165552 Y41.542401 Z-1.000000
G02 X2.097298 Y42.200827 Z-1.000000 I2.426784 J50.658670
G02 X-0.067612 Y42.941220 Z-1.000000 I1.193624 J7.025451
G01 X-0.051126 Y43.016467 Z-1.000000
G02 X1.917990 Y43.059227 Z-1.000000 I1.552099 J-26.114271
G03 X4.927519 Y43.295644 Z-1.000000 I0.255404 J16.022203
G03 X8.604633 Y44.225835 Z-1.000000 I-4.347784 J24.920150
G03 X10.077095 Y45.014842 Z-1.000000 I-1.574465 J4.706779
G03 X10.414385 Y45.633316 Z-1.000000 I-0.541844 J0.696710
G02 X10.670412 Y45.731459 Z-1.000000 I0.152009 J-0.013527
G02 X11.988983 Y44.166620 Z-1.000000 I-5.793350 J-6.219566
G02 X13.664205 Y41.135384 Z-1.000000 I-19.427146 J-12.714999
G02 X14.371484 Y38.974792 Z-1.000000 I-9.092749 J-4.172614
G02 X14.768608 Y36.814799 Z-1.000000 I-52.042713 J-10.684774
G02 X14.691599 Y36.498365 Z-1.000000 I-0.412850 J-0.067114
G02 X14.449431 Y36.455243 Z-1.000000 I-0.143952 J0.106867
G02 X13.176883 Y37.365631 Z-1.000000 I10.395978 J15.876179
G01 X13.176883 Y37.365631 Z-1.000000
G00 Z5.000000

(Change tool to Cylindrical cutter)

G00 Z5.000000
G00 X76.807419 Y42.117930

G01 Z-1.000000 F1000.0(Penetrate)
G02 X76.795047 Y45.604997 Z-1.000000 I101.054906 J2.102098 F1100.000000
G02 X76.855925 Y45.667278 Z-1.000000 I0.063183 J-0.000866
G03 X78.996670 Y45.934885 Z-1.000000 I-0.448419 J12.283465
G03 X83.333840 Y47.063136 Z-1.000000 I-11.172125 J51.847887
G01 X86.267226 Y47.960123 Z-1.000000
G01 X90.667315 Y47.913065 Z-1.000000
G03 X95.020171 Y48.056241 Z-1.000000 I0.534550 J49.988150
G03 X95.891241 Y48.313284 Z-1.000000 I-0.166001 J2.167010
G01 X96.715078 Y48.760555 Z-1.000000
G01 X95.300462 Y49.044653 Z-1.000000
G03 X93.881255 Y49.282582 Z-1.000000 I-4.415570 J-21.986594
G03 X93.193269 Y49.328751 Z-1.000000 I-0.687995 J-5.102972
G02 X92.974676 Y49.622814 Z-1.000000 I0.000000 J0.228278
G02 X93.417382 Y50.073448 Z-1.000000 I0.649744 J-0.195538
G03 X94.306461 Y50.428503 Z-1.000000 I-2.092238 J6.529772
G03 X95.678535 Y51.165201 Z-1.000000 I-7.888278 J16.337707
G02 X99.010445 Y52.990709 Z-1.000000 I28.144441 J-47.415672
G02 X100.470049 Y53.579638 Z-1.000000 I4.258598 J-8.451310
G02 X100.911180 Y53.489278 Z-1.000000 I0.138315 J-0.446721
G02 X102.810125 Y51.591167 Z-1.000000 I-10.765982 J-12.669658
G02 X104.720961 Y48.088810 Z-1.000000 I-7.452570 J-6.338457
G02 X104.316416 Y46.618116 Z-1.000000 I-1.368576 J-0.414531
G02 X101.824867 Y44.710494 Z-1.000000 I-12.259767 J13.431589
G02 X100.895702 Y44.439760 Z-1.000000 I-0.929162 J1.459080
G02 X100.823105 Y44.512586 Z-1.000000 I0.000000 J0.072597
G02 X100.900705 Y45.949799 Z-1.000000 I14.174954 J-0.044649
G01 X101.058538 Y47.459838 Z-1.000000
G01 X100.422497 Y46.866484 Z-1.000000
G03 X99.831523 Y46.233853 Z-1.000000 I4.298288 J-4.607597
G03 X98.797254 Y44.867408 Z-1.000000 I19.157872 J-15.575337
G02 X97.599941 Y43.754252 Z-1.000000 I-3.227765 J2.271295
G02 X95.434621 Y42.850046 Z-1.000000 I-4.183104 J6.972595
G02 X95.063513 Y42.781445 Z-1.000000 I-0.689372 J2.691186
G02 X92.350224 Y42.494354 Z-1.000000 I-16.631376 J144.217278
G03 X89.648999 Y42.147824 Z-1.000000 I4.135987 J-42.941711
G03 X88.353806 Y41.852864 Z-1.000000 I1.626653 J-10.133894
G02 X87.096597 Y41.557846 Z-1.000000 I-3.161172 J10.644938
G02 X86.941231 Y41.607024 Z-1.000000 I-0.030321 J0.174219
G02 X86.914620 Y41.751815 Z-1.000000 I0.091693 J0.091693
G02 X87.414983 Y42.662561 Z-1.000000 I5.894419 J-2.645565
G03 X88.005995 Y43.594083 Z-1.000000 I-26.316423 J17.349909
G03 X88.329098 Y44.160691 Z-1.000000 I-9.399898 J5.735633
G03 X88.216094 Y44.317246 Z-1.000000 I-0.094986 J0.050499
G03 X87.191335 Y43.967403 Z-1.000000 I0.566689 J-3.335725
G03 X85.809858 Y43.106858 Z-1.000000 I5.682437 J-10.661470
G03 X84.017354 Y41.679788 Z-1.000000 I13.998533 J-19.422455
G02 X82.167321 Y40.371733 Z-1.000000 I-7.142497 J8.139597
G02 X79.877600 Y39.360738 Z-1.000000 I-6.458952 J11.529966
G02 X77.460896 Y38.604135 Z-1.000000 I-22.770992 J68.496059
G02 X77.174578 Y38.566286 Z-1.000000 I-0.264727 J0.900698
G02 X77.018878 Y38.709994 Z-1.000000 I0.003653 J0.160159
G02 X76.807915 Y42.117921 Z-1.000000 I41.382238 J4.272197
G01 X76.807419 Y42.117930 Z-1.000000
G00 Z5.000000

(Change tool to Cylindrical cutter)

G00 Z5.000000
G00 X41.410801 Y42.379933

G01 Z-1.000000 F1000.0(Penetrate)
G02 X40.063783 Y43.901359 Z-1.000000 I4.527739 J5.365715 F1100.000000
G02 X40.222788 Y44.195430 Z-1.000000 I0.159004 J0.104048
G03 X40.716070 Y44.360033 Z-1.000000 I0.000001 J0.821431
G03 X42.198756 Y45.679392 Z-1.000000 I-7.185303 J9.567579
G03 X42.726834 Y46.994927 Z-1.000000 I-1.388254 J1.321026
G03 X42.203659 Y47.390326 Z-1.000000 I-0.410115 J0.001175
G02 X41.470667 Y47.242375 Z-1.000000 I-1.287700 J4.489923
G02 X41.410812 Y47.295497 Z-1.000000 I-0.006354 J0.053123
G02 X41.448575 Y47.415709 Z-1.000000 I0.210222 J-0.000000
G02 X43.315815 Y50.028482 Z-1.000000 I112.024684 J-78.085802
G03 X45.211584 Y52.635542 Z-1.000000 I-368.648651 J270.061966
G03 X46.387084 Y54.283551 Z-1.000000 I-146.193605 J105.520944
G02 X47.623446 Y55.865677 Z-1.000000 I16.630970 J-11.722233
G02 X48.161328 Y56.336551 Z-1.000000 I1.951398 J-1.686441
G03 X48.694715 Y56.802195 Z-1.000000 I-1.413980 J2.158006
G03 X49.153964 Y57.478763 Z-1.000000 I-2.597238 J2.257134
G03 X50.488473 Y60.519717 Z-1.000000 I-23.158197 J11.976170
G03 X50.699925 Y61.716321 Z-1.000000 I-3.280080 J1.196610
G03 X50.531605 Y61.810069 Z-1.000000 I-0.110267 J0.000000
G03 X49.015215 Y60.673060 Z-1.000000 I5.617975 J-9.072179
G02 X48.360078 Y60.813211 Z-1.000000 I-0.276718 J0.307778
G02 X48.008056 Y62.946740 Z-1.000000 I3.942178 J1.746246
G02 X48.415372 Y65.399427 Z-1.000000 I16.606556 J-1.497678
G02 X49.259896 Y68.080162 Z-1.000000 I20.701551 J-5.048305
G02 X50.353164 Y70.667007 Z-1.000000 I45.654906 J-17.770509
G02 X50.554425 Y70.913846 Z-1.000000 I0.573107 J-0.261816
G02 X52.894237 Y71.579366 Z-1.000000 I2.069904 J-2.831420
G02 X54.951076 Y70.574459 Z-1.000000 I-0.239010 J-3.096623
G02 X55.518370 Y69.565705 Z-1.000000 I-1.903700 J-1.734478
G02 X57.039053 Y63.465194 Z-1.000000 I-72.926133 J-21.418179
G03 X57.536855 Y61.103867 Z-1.000000 I243.511642 J50.102712
G03 X57.696837 Y60.418336 Z-1.000000 I20.676704 J4.463875
G02 X57.529559 Y60.261924 Z-1.000000 I-0.126968 J-0.031867
G02 X56.545238 Y60.791054 Z-1.000000 I0.959860 J2.965708
G03 X55.369331 Y61.470934 Z-1.000000 I-2.848632 J-3.570084
G03 X55.145397 Y61.342013 Z-1.000000 I-0.060534 J-0.153800
G03 X55.349428 Y60.074348 Z-1.000000 I2.076086 J-0.316105
G03 X57.079432 Y57.537082 Z-1.000000 I10.708832 J5.443264
G02 X57.925980 Y56.393593 Z-1.000000 I-5.960436 J-5.297730
G02 X57.870273 Y56.241243 Z-1.000000 I-0.088488 J-0.054004
G03 X57.603775 Y56.122733 Z-1.000000 I0.477904 J-1.433580
G03 X56.108956 Y55.244235 Z-1.000000 I26.302371 J-46.466128
G03 X54.752043 Y54.197667 Z-1.000000 I4.084805 J-6.699025
G03 X52.884509 Y52.139996 Z-1.000000 I14.308743 J-14.862872
G02 X51.108169 Y49.987989 Z-1.000000 I-53.472904 J42.329235
G02 X50.921427 Y49.858478 Z-1.000000 I-0.342898 J0.295040
G02 X50.796525 Y49.916195 Z-1.000000 I-0.033591 J0.091313
G02 X50.696569 Y50.469601 Z-1.000000 I1.525370 J0.561241
G03 X50.477882 Y52.051163 Z-1.000000 I-6.039135 J-0.029149
G03 X50.200478 Y52.262226 Z-1.000000 I-0.277404 J-0.076767
G03 X49.542261 Y51.811060 Z-1.000000 I-0.000001 J-0.705727
G03 X48.400573 Y47.608236 Z-1.000000 I19.605102 J-7.582162
G02 X47.526865 Y44.326517 Z-1.000000 I-17.001860 J2.769322
G02 X46.226556 Y41.813715 Z-1.000000 I-11.194405 J4.199973
G02 X45.558567 Y41.268455 Z-1.000000 I-1.247314 J0.846262
G02 X44.344203 Y41.030044 Z-1.000000 I-1.193315 J2.866305
G02 X43.098773 Y41.307286 Z-1.000000 I0.020548 J3.028295
G02 X41.410812 Y42.379935 Z-1.000000 I3.110371 J6.759041
G01 X41.410801 Y42.379933 Z-1.000000
G00 Z5.000000

(Change tool to Cylindrical cutter)

G00 Z5.000000
G00 X36.207075 Y45.409715

G01 Z-1.000000 F1000.0(Penetrate)
G02 X35.307028 Y46.278800 Z-1.000000 I1.664060 J2.623943 F1100.000000
G02 X35.055124 Y47.092887 Z-1.000000 I1.189498 J0.814084
G03 X35.014245 Y48.041461 Z-1.000000 I-11.025493 J0.000020
G03 X34.910340 Y48.769448 Z-1.000000 I-6.588076 J-0.568900
G02 X35.040856 Y49.376525 Z-1.000000 I0.765238 J0.153049
G02 X35.990425 Y50.279385 Z-1.000000 I2.826190 J-2.021624
G03 X38.289840 Y52.279108 Z-1.000000 I-5.683764 J8.857444
G03 X39.321139 Y54.156722 Z-1.000000 I-3.945084 J3.388911
G03 X39.129955 Y54.371013 Z-1.000000 I-0.160913 J0.048868
G03 X38.207043 Y53.952846 Z-1.000000 I0.376825 J-2.059203
G02 X37.736094 Y54.081184 Z-1.000000 I-0.188205 J0.237630
G02 X37.717824 Y55.218476 Z-1.000000 I1.535297 J0.593457
G02 X38.846339 Y57.658633 Z-1.000000 I13.174213 J-4.611727
G02 X40.542841 Y60.044038 Z-1.000000 I14.279462 J-8.359591
G03 X41.563712 Y61.393363 Z-1.000000 I-10.896459 J9.304881
G03 X41.766730 Y61.877402 Z-1.000000 I-1.146919 J0.765639
G03 X42.350969 Y64.862622 Z-1.000000 I-120.232329 J25.080520
G03 X42.388641 Y65.278013 Z-1.000000 I-2.271368 J0.415395
G03 X42.292552 Y65.331431 Z-1.000000 I-0.062893 J0.000000
G03 X41.582541 Y64.777084 Z-1.000000 I2.228647 J-3.586331
G02 X40.616341 Y64.391427 Z-1.000000 I-0.952201 J0.982426
G02 X40.297022 Y64.790236 Z-1.000000 I0.003376 J0.329944
G03 X40.735693 Y67.724030 Z-1.000000 I-23.475208 J5.009791
G03 X40.742846 Y69.925771 Z-1.000000 I-13.174325 J1.143681
G02 X41.156958 Y71.336238 Z-1.000000 I2.048920 J0.164464
G02 X41.841706 Y71.367518 Z-1.000000 I0.355464 J-0.270924
G03 X42.990070 Y70.607716 Z-1.000000 I2.101815 J1.928964
G03 X44.786459 Y70.323291 Z-1.000000 I1.663434 J4.690946
G03 X45.131285 Y70.691956 Z-1.000000 I-0.009472 J0.354457
G03 X44.745361 Y71.348133 Z-1.000000 I-0.805741 J-0.032311
G02 X44.302107 Y71.725838 Z-1.000000 I0.962530 J1.578514
G02 X44.344247 Y71.817718 Z-1.000000 I0.042354 J0.036178
G02 X48.048658 Y71.497904 Z-1.000000 I0.086118 J-20.616539
G02 X49.189091 Y70.955237 Z-1.000000 I-0.418953 J-2.350108
G02 X49.220284 Y70.831557 Z-1.000000 I-0.072527 J-0.084065
G02 X48.488924 Y69.024714 Z-1.000000 I-46.069766 J17.596329
G02 X47.686235 Y67.246612 Z-1.000000 I-45.606286 J19.517814
G02 X47.570690 Y67.173599 Z-1.000000 I-0.115545 J0.054920
G02 X47.439439 Y67.220852 Z-1.000000 I0.000000 J0.205911
G02 X46.462590 Y68.090284 Z-1.000000 I11.534485 J13.943037
G01 X45.504710 Y69.006969 Z-1.000000
G01 X45.635055 Y67.964393 Z-1.000000
G03 X45.858559 Y66.950881 Z-1.000000 I5.564131 J0.695629
G03 X46.292089 Y65.911332 Z-1.000000 I6.289796 J2.012900
G02 X46.605777 Y64.850335 Z-1.000000 I-2.557332 J-1.332956
G02 X46.760642 Y60.964911 Z-1.000000 I-35.463288 J-3.359290
G02 X46.598467 Y57.050360 Z-1.000000 I-73.546250 J1.086288
G02 X46.450785 Y56.417852 Z-1.000000 I-2.017006 J0.137451
G02 X45.080213 Y54.152508 Z-1.000000 I-8.012182 J3.300224
G02 X44.628183 Y54.242877 Z-1.000000 I-0.201321 J0.168704
G03 X44.514648 Y54.582177 Z-1.000000 I-8.520407 J-2.662412
G03 X44.035039 Y55.904076 Z-1.000000 I-129.772516 J-46.335881
G03 X43.523961 Y55.967064 Z-1.000000 I-0.271767 J-0.100174
G03 X42.751033 Y54.020818 Z-1.000000 I3.957676 J-2.698346
G02 X41.335840 Y49.554384 Z-1.000000 I-15.566635 J2.474878
G02 X38.919583 Y46.209544 Z-1.000000 I-10.976101 J5.383801
G01 X37.359024 Y44.679159 Z-1.000000
G01 X36.207074 Y45.409706 Z-1.000000
G01 X36.207075 Y45.409715 Z-1.000000
G00 Z5.000000

(Change tool to Cylindrical cutter)

G00 Z5.000000
G00 X63.081617 Y46.319771

G01 Z-1.000000 F1000.0(Penetrate)
G02 X62.965321 Y47.254135 Z-1.000000 I11.636381 J1.922737 F1100.000000
G02 X62.925053 Y48.181521 Z-1.000000 I11.421079 J0.960486
G03 X62.796369 Y49.086806 Z-1.000000 I-3.317023 J-0.009716
G03 X62.060369 Y51.194398 Z-1.000000 I-18.998961 J-5.452391
G01 X61.198379 Y53.276758 Z-1.000000
G01 X62.456827 Y54.858261 Z-1.000000
G03 X63.624733 Y56.434630 Z-1.000000 I-22.259343 J17.712404
G03 X63.615112 Y56.539927 Z-1.000000 I-0.068050 J0.046871
G03 X63.496180 Y56.583901 Z-1.000000 I-0.107249 J-0.107248
G03 X61.837632 Y56.402555 Z-1.000000 I2.020711 J-26.155944
G02 X60.179553 Y56.222618 Z-1.000000 I-3.589411 J25.346305
G02 X60.057471 Y56.267867 Z-1.000000 I-0.011770 J0.155561
G02 X60.060863 Y56.360973 Z-1.000000 I0.044969 J0.044976
G02 X61.044879 Y57.120820 Z-1.000000 I7.403124 J-8.570099
G03 X62.105454 Y57.909446 Z-1.000000 I-10.195573 J14.818865
G03 X64.301016 Y59.733144 Z-1.000000 I-52.497114 J65.435088
G02 X67.359526 Y61.970137 Z-1.000000 I15.718963 J-18.282266
G02 X69.621916 Y63.016158 Z-1.000000 I5.477818 J-8.878100
G03 X72.885792 Y64.906583 Z-1.000000 I-2.766977 J8.540074
G03 X73.678165 Y66.694933 Z-1.000000 I-1.621936 J1.788355
G03 X73.475790 Y66.865037 Z-1.000000 I-0.172677 J0.000000
G03 X70.747065 Y66.183182 Z-1.000000 I3.361424 J-19.253094
G02 X69.416370 Y65.791182 Z-1.000000 I-7.110533 J21.683027
G02 X69.334569 Y65.813352 Z-1.000000 I-0.021573 J0.082395
G02 X69.300300 Y66.042487 Z-1.000000 I0.137729 J0.137728
G02 X72.265905 Y71.329194 Z-1.000000 I117.744452 J-62.574204
G01 X73.349841 Y73.162559 Z-1.000000
G01 X75.800153 Y73.312719 Z-1.000000
G03 X78.246888 Y73.496987 Z-1.000000 I-5.373531 J87.686263
G03 X79.386617 Y73.633251 Z-1.000000 I-1.711349 J19.148511
G02 X80.467169 Y73.739059 Z-1.000000 I1.571768 J-10.481089
G02 X80.522769 Y73.685979 Z-1.000000 I0.002463 J-0.053080
G02 X80.128303 Y71.122002 Z-1.000000 I-8.530093 J0.000015
G02 X78.297923 Y66.626513 Z-1.000000 I-28.481337 J8.976067
G02 X76.482911 Y63.614136 Z-1.000000 I-21.155199 J10.693414
G02 X73.965008 Y60.512337 Z-1.000000 I-24.958232 J17.687127
G02 X73.091889 Y60.193343 Z-1.000000 I-0.748005 J0.692962
G02 X72.376699 Y60.708709 Z-1.000000 I0.112518 J0.910075
G03 X71.915184 Y61.416499 Z-1.000000 I-2.878766 J-1.372739
G03 X71.744871 Y61.442809 Z-1.000000 I-0.100559 J-0.086552
G03 X71.442052 Y61.014793 Z-1.000000 I0.352663 J-0.570637
G03 X70.735060 Y56.801789 Z-1.000000 I43.516940 J-9.468484
G02 X70.190067 Y54.727609 Z-1.000000 I-7.703955 J0.915533
G02 X68.846464 Y52.279488 Z-1.000000 I-12.138861 J5.069407
G02 X67.155716 Y49.988097 Z-1.000000 I-42.642516 J29.695153
G02 X65.396154 Y47.862125 Z-1.000000 I-38.459446 J30.039845
G03 X63.575991 Y45.783486 Z-1.000000 I2283.536127 J-2001.417972
G03 X63.405268 Y45.586432 Z-1.000000 I20.352420 J-17.805275
G02 X63.295374 Y45.602672 Z-1.000000 I-0.049830 J0.042749
G02 X63.081617 Y46.319778 Z-1.000000 I2.725189 J1.202744
G01 X63.081617 Y46.319771 Z-1.000000
G00 Z5.000000

(Change tool to Cylindrical cutter)

G00 Z5.000000
G00 X65.008389 Y45.685032

G01 Z-1.000000 F1000.0(Penetrate)
G02 X66.960932 Y48.234260 Z-1.000000 I12.235663 J-7.349350 F1100.000000
G02 X67.809978 Y48.595459 Z-1.000000 I0.849043 J-0.817293
G03 X69.256215 Y49.011352 Z-1.000000 I0.000005 J2.722524
G03 X72.075240 Y51.269734 Z-1.000000 I-8.332352 J13.289465
G03 X73.404786 Y52.737962 Z-1.000000 I-15.967775 J15.795643
G03 X73.398716 Y52.867545 Z-1.000000 I-0.074198 J0.061458
G03 X73.135862 Y52.933244 Z-1.000000 I-0.186172 J-0.186176
G03 X70.164902 Y51.883014 Z-1.000000 I10.372237 J-34.068996
G02 X70.056818 Y51.989521 Z-1.000000 I-0.030978 J0.076659
G02 X70.699307 Y53.263491 Z-1.000000 I6.817079 J-2.638999
G02 X74.367216 Y58.565643 Z-1.000000 I67.515374 J-42.785850
G02 X74.910814 Y58.855185 Z-1.000000 I0.582652 J-0.438836
G02 X74.997595 Y58.799036 Z-1.000000 I0.004695 J-0.087880
G02 X75.347347 Y57.726055 Z-1.000000 I-9.794181 J-3.786032
G03 X75.754835 Y56.643798 Z-1.000000 I5.665172 J1.515191
G03 X76.274750 Y55.848822 Z-1.000000 I3.547515 J1.752576
G02 X76.704383 Y55.049196 Z-1.000000 I-1.694032 J-1.425424
G02 X76.786321 Y54.112794 Z-1.000000 I-2.277222 J-0.671048
G02 X76.083501 Y49.563914 Z-1.000000 I-55.412436 J6.232703
G02 X75.533219 Y47.754138 Z-1.000000 I-9.239495 J1.820820
G02 X75.000185 Y47.212985 Z-1.000000 I-0.939914 J0.392717
G02 X73.275815 Y46.770607 Z-1.000000 I-2.234870 J5.129478
G03 X70.147446 Y46.371720 Z-1.000000 I4.058879 J-44.299649
G03 X65.634403 Y45.519586 Z-1.000000 I15.242977 J-93.106335
G02 X65.070144 Y45.532966 Z-1.000000 I-0.254147 J1.186785
G02 X65.008389 Y45.685032 Z-1.000000 I0.026223 J0.099222
G01 X65.008389 Y45.685032 Z-1.000000
G00 Z5.000000

(Change tool to Cylindrical cutter)

G00 Z5.000000
G00 X79.208118 Y47.302583

G01 Z-1.000000 F1000.0(Penetrate)
G02 X79.205164 Y47.423438 Z-1.000000 I0.062007 J0.061979 F1100.000000
G02 X80.544658 Y48.777204 Z-1.000000 I16.114330 J-14.604876
G03 X81.928558 Y50.130104 Z-1.000000 I-24.191837 J26.130421
G03 X81.927966 Y50.205066 Z-1.000000 I-0.038378 J0.037180
G03 X81.837475 Y50.233552 Z-1.000000 I-0.072576 J-0.072576
G03 X79.671710 Y49.805140 Z-1.000000 I9.705184 J-54.751386
G02 X77.491300 Y49.334073 Z-1.000000 I-100.543364 J460.099568
G02 X77.441258 Y49.328789 Z-1.000000 I-0.050042 J0.234313
G01 X77.421006 Y49.352198 Z-1.000000
G02 X77.504819 Y49.765352 Z-1.000000 I3.743068 J-0.544239
G02 X77.796939 Y50.196511 Z-1.000000 I0.756061 J-0.197710
G02 X81.256084 Y52.532800 Z-1.000000 I29.803428 J-40.398439
G03 X82.563612 Y53.411013 Z-1.000000 I-10.595996 J17.188316
G03 X83.507149 Y54.175683 Z-1.000000 I-7.077190 J9.697103
G02 X84.491080 Y54.841408 Z-1.000000 I2.909379 J-3.240036
G02 X85.829420 Y55.320512 Z-1.000000 I2.756905 J-5.592366
G03 X87.220820 Y55.723238 Z-1.000000 I-3.157564 J13.514229
G03 X88.834020 Y56.362942 Z-1.000000 I-6.529367 J18.819626
G01 X90.422946 Y57.074605 Z-1.000000
G01 X89.257081 Y57.250780 Z-1.000000
G02 X88.280463 Y57.514582 Z-1.000000 I0.665362 J4.402905
G02 X88.233333 Y57.656904 Z-1.000000 I0.036063 J0.090907
G02 X88.410792 Y57.852991 Z-1.000000 I0.621426 J-0.384047
G02 X89.781345 Y58.841574 Z-1.000000 I18.127593 J-23.687407
G03 X91.093020 Y59.899321 Z-1.000000 I-5.772407 J8.500317
G03 X92.605094 Y61.529317 Z-1.000000 I-12.332984 J12.957092
G02 X94.055523 Y63.193586 Z-1.000000 I27.429218 J-22.440694
G02 X94.213114 Y63.262342 Z-1.000000 I0.157591 J-0.146224
G02 X94.349462 Y63.183449 Z-1.000000 I-0.000000 J-0.157269
G02 X94.810295 Y62.223434 Z-1.000000 I-6.230437 J-3.581393
G03 X95.281427 Y61.219107 Z-1.000000 I7.921575 J3.103358
G03 X95.968524 Y60.122673 Z-1.000000 I10.135340 J5.587961
G02 X96.472485 Y58.984943 Z-1.000000 I-2.572599 J-1.820019
G02 X96.676626 Y56.929756 Z-1.000000 I-8.475387 J-1.879589
G03 X96.730130 Y54.815422 Z-1.000000 I23.217695 J-0.470306
G03 X96.872359 Y54.170438 Z-1.000000 I2.261401 J0.160498
G02 X96.806610 Y53.637134 Z-1.000000 I-0.537654 J-0.204420
G02 X95.809876 Y52.645909 Z-1.000000 I-3.229592 J2.250791
G02 X91.739203 Y50.315782 Z-1.000000 I-16.001928 J23.234224
G02 X91.069898 Y50.433685 Z-1.000000 I-0.250492 J0.536713
G02 X91.058934 Y50.533304 Z-1.000000 I0.056672 J0.056650
G02 X91.758485 Y51.517531 Z-1.000000 I9.814309 J-6.234918
G03 X92.329716 Y52.404009 Z-1.000000 I-4.249007 J3.365267
G03 X92.267114 Y52.506597 Z-1.000000 I-0.062602 J0.032193
G03 X91.630078 Y52.347265 Z-1.000000 I-0.000002 J-1.353149
G03 X88.360662 Y50.422069 Z-1.000000 I21.266632 J-39.854211
G02 X81.044075 Y46.875692 Z-1.000000 I-18.019309 J27.855255
G02 X79.208127 Y47.302583 Z-1.000000 I-0.575200 J1.687627
G01 X79.208118 Y47.302583 Z-1.000000
G00 Z5.000000

(Change tool to Cylindrical cutter)

G00 Z5.000000
G00 X10.330492 Y48.760250

G01 Z-1.000000 F1000.0(Penetrate)
G02 X9.729113 Y50.387309 Z-1.000000 I2.008788 J1.667138 F1100.000000
G02 X10.230182 Y55.293288 Z-1.000000 I21.096193 J0.323934
G02 X10.716878 Y57.088066 Z-1.000000 I19.785800 J-4.401998
G02 X10.868824 Y57.282254 Z-1.000000 I0.339289 J-0.108943
G02 X11.091188 Y57.298214 Z-1.000000 I0.126440 J-0.204603
G02 X11.892122 Y56.837202 Z-1.000000 I-1.648119 J-3.789587
G03 X13.226326 Y56.085262 Z-1.000000 I3.756179 J5.105136
G03 X15.010288 Y55.547800 Z-1.000000 I3.584556 J8.668553
G02 X15.843395 Y55.315694 Z-1.000000 I-1.057753 J-5.407834
G02 X16.843658 Y54.878006 Z-1.000000 I-3.013511 J-8.248689
G03 X17.854588 Y54.476603 Z-1.000000 I2.574545 J5.010261
G03 X19.532601 Y54.101077 Z-1.000000 I3.907750 J13.524710
G01 X21.243746 Y53.826597 Z-1.000000
G01 X20.042571 Y53.105550 Z-1.000000
G03 X18.849832 Y52.371071 Z-1.000000 I31.837112 J-53.036782
G03 X17.331765 Y51.393627 Z-1.000000 I54.877727 J-86.898106
G02 X15.781925 Y50.711395 Z-1.000000 I-2.808808 J4.279312
G02 X14.786817 Y50.747858 Z-1.000000 I-0.435355 J1.715715
G03 X13.742607 Y50.921161 Z-1.000000 I-1.068480 J-3.205446
G03 X12.277151 Y50.765883 Z-1.000000 I-0.047041 J-6.548878
G01 X10.802802 Y50.438804 Z-1.000000
G01 X11.607877 Y49.766697 Z-1.000000
G02 X11.844205 Y49.107790 Z-1.000000 I-0.443099 J-0.530760
G02 X11.389472 Y48.608731 Z-1.000000 I-0.632050 J0.119212
G02 X10.687506 Y48.560509 Z-1.000000 I-0.463717 J1.616929
G02 X10.330495 Y48.760249 Z-1.000000 I0.080535 J0.562873
G01 X10.330492 Y48.760250 Z-1.000000
G00 Z5.000000

(Change tool to Cylindrical cutter)

G00 Z5.000000
G00 X31.806738 Y50.149339

G01 Z-1.000000 F1000.0(Penetrate)
G02 X30.733852 Y51.241343 Z-1.000000 I10.055452 J10.952452 F1100.000000
G02 X30.655042 Y51.449124 Z-1.000000 I0.234497 J0.207780
G02 X31.072214 Y52.237161 Z-1.000000 I0.952889 J-0.000002
G02 X34.203822 Y53.861627 Z-1.000000 I8.386435 J-12.336418
G02 X35.803150 Y54.443022 Z-1.000000 I26.473758 J-70.334793
G02 X35.916291 Y54.462289 Z-1.000000 I0.113140 J-0.322560
G02 X36.450036 Y53.613112 Z-1.000000 I-0.000001 J-0.592330
G02 X33.651574 Y49.756034 Z-1.000000 I-12.048470 J5.797904
G01 X32.958432 Y49.091966 Z-1.000000
G01 X31.806738 Y50.149339 Z-1.000000
G00 Z5.000000

(Change tool to Cylindrical cutter)

G00 Z5.000000
G00 X105.311643 Y50.256429

G01 Z-1.000000 F1000.0(Penetrate)
G02 X104.321909 Y51.415607 Z-1.000000 I62.288210 J54.185298 F1100.000000
G02 X103.166797 Y52.815941 Z-1.000000 I89.783256 J75.237238
G02 X102.431401 Y54.112849 Z-1.000000 I3.499166 J2.841114
G02 X102.578380 Y54.429511 Z-1.000000 I0.232187 J0.084671
G02 X109.030790 Y56.674893 Z-1.000000 I68.843044 J-187.436243
G02 X109.240324 Y56.620770 Z-1.000000 I0.062599 J-0.190315
G02 X109.271671 Y56.526322 Z-1.000000 I-0.088081 J-0.081659
G02 X108.969950 Y54.095485 Z-1.000000 I-72.462321 J7.760043
G03 X108.631555 Y51.650117 Z-1.000000 I436.008775 J-61.581771
G03 X108.545864 Y50.966384 Z-1.000000 I34.050945 J-4.614790
G02 X108.311155 Y50.376111 Z-1.000000 I-1.210209 J0.139413
G02 X107.585882 Y49.683028 Z-1.000000 I-2.432765 J1.819736
G02 X106.690332 Y49.136290 Z-1.000000 I-6.053360 J8.908506
G02 X106.508441 Y49.095295 Z-1.000000 I-0.162850 J0.298535
G02 X106.342391 Y49.168126 Z-1.000000 I0.014638 J0.259080
G02 X105.311643 Y50.256429 Z-1.000000 I12.336813 J12.716648
G01 X105.311643 Y50.256429 Z-1.000000
G00 Z5.000000

(Change tool to Cylindrical cutter)

G00 Z5.000000
G00 X109.509845 Y51.712107

G01 Z-1.000000 F1000.0(Penetrate)
G02 X109.662825 Y52.383961 Z-1.000000 I132.560069 J-29.830202 F1100.000000
G02 X109.861678 Y53.239911 Z-1.000000 I230.931861 J-53.198785
G03 X110.035912 Y54.100216 Z-1.000000 I-14.104631 J3.304348
G03 X110.222652 Y55.348872 Z-1.000000 I-29.533689 J5.055135
G01 X110.383194 Y56.602258 Z-1.000000
G01 X111.749605 Y56.876670 Z-1.000000
G02 X113.100874 Y57.101007 Z-1.000000 I4.006221 J-19.949270
G02 X113.199595 Y57.067490 Z-1.000000 I0.015378 J-0.116852
G02 X113.217871 Y56.973484 Z-1.000000 I-0.060503 J-0.060543
G02 X112.550662 Y55.539688 Z-1.000000 I-21.495658 J9.130753
G03 X111.889736 Y54.071006 Z-1.000000 I15.439646 J-7.831100
G03 X111.665548 Y53.299840 Z-1.000000 I4.003357 J-1.581995
G02 X111.365508 Y52.593637 Z-1.000000 I-1.788195 J0.342900
G02 X110.588515 Y51.772036 Z-1.000000 I-3.232608 J2.278890
G02 X109.733673 Y51.447656 Z-1.000000 I-0.938711 J1.185218
G02 X109.509845 Y51.712108 Z-1.000000 I-0.012042 J0.216756
G01 X109.509845 Y51.712107 Z-1.000000
G00 Z5.000000

(Change tool to Cylindrical cutter)

G00 Z5.000000
G00 X77.833784 Y52.346130

G01 Z-1.000000 F1000.0(Penetrate)
G02 X78.002749 Y53.247892 Z-1.000000 I2.490860 J-0.000004 F1100.000000
G02 X79.669016 Y57.071521 Z-1.000000 I47.986552 J-18.636783
G02 X81.245324 Y59.273966 Z-1.000000 I7.214824 J-3.498397
G02 X84.311712 Y61.663454 Z-1.000000 I11.616204 J-11.744605
G03 X85.840212 Y62.873976 Z-1.000000 I-4.021550 J6.648187
G03 X86.919278 Y64.324917 Z-1.000000 I-4.773242 J4.676587
G03 X87.697634 Y65.880937 Z-1.000000 I-19.088646 J10.521253
G01 X87.652629 Y65.950040 Z-1.000000
G03 X87.500215 Y65.911553 Z-1.000000 I0.002710 J-0.331767
G03 X86.511764 Y65.346549 Z-1.000000 I8.126303 J-15.363762
G02 X85.523830 Y64.776953 Z-1.000000 I-10.301064 J16.725085
G02 X85.379224 Y64.736681 Z-1.000000 I-0.161362 J0.299653
G02 X85.321585 Y64.802020 Z-1.000000 I-0.002748 J0.055669
G02 X85.539392 Y65.645734 Z-1.000000 I5.488365 J-0.966868
G03 X85.733801 Y66.583783 Z-1.000000 I-3.588998 J1.232980
G03 X85.938593 Y70.766778 Z-1.000000 I-72.304467 J5.636410
G02 X86.278313 Y74.803459 Z-1.000000 I31.703046 J-0.635443
G02 X86.604487 Y75.237121 Z-1.000000 I0.562851 J-0.083847
G02 X87.175342 Y75.453475 Z-1.000000 I1.905742 J-4.167066
G02 X87.247163 Y75.432838 Z-1.000000 I0.020002 J-0.065683
G02 X87.300991 Y75.357376 Z-1.000000 I-0.363064 J-0.315907
G02 X88.979588 Y72.429184 Z-1.000000 I-555.460064 J-320.364707
G01 X90.650923 Y69.495795 Z-1.000000
G01 X90.575528 Y66.684634 Z-1.000000
G03 X90.599251 Y64.102277 Z-1.000000 I35.852638 J-0.961923
G03 X90.694014 Y64.065200 Z-1.000000 I0.055619 J0.002515
G03 X90.854104 Y64.280658 Z-1.000000 I-0.623550 J0.630518
G03 X91.533244 Y65.649689 Z-1.000000 I-25.399607 J13.453038
G01 X92.178611 Y67.042452 Z-1.000000
G01 X92.836465 Y66.000343 Z-1.000000
G02 X93.337821 Y64.958062 Z-1.000000 I-4.270912 J-2.696108
G02 X93.303099 Y64.653796 Z-1.000000 I-0.334545 J-0.115936
G02 X90.951272 Y61.417645 Z-1.000000 I-25.064924 J15.742924
G02 X89.747108 Y60.398155 Z-1.000000 I-3.533246 J2.952382
G02 X88.604424 Y60.267342 Z-1.000000 I-0.719246 J1.226570
G02 X88.209604 Y60.877784 Z-1.000000 I0.169178 J0.542322
G01 X88.364748 Y62.162334 Z-1.000000
G01 X87.386490 Y61.102525 Z-1.000000
G03 X86.488214 Y59.985095 Z-1.000000 I7.716401 J-7.122807
G03 X85.512004 Y58.413591 Z-1.000000 I14.344372 J-9.999604
G02 X84.530971 Y56.846431 Z-1.000000 I-14.375294 J7.908210
G02 X83.608168 Y55.722347 Z-1.000000 I-8.287845 J5.862988
G02 X81.406957 Y53.796937 Z-1.000000 I-11.415546 J10.829770
G02 X79.227862 Y52.558005 Z-1.000000 I-6.769853 J9.371342
G02 X77.998065 Y52.204922 Z-1.000000 I-1.978419 J4.572625
G02 X77.833774 Y52.346130 Z-1.000000 I-0.021461 J0.141208
G01 X77.833784 Y52.346130 Z-1.000000
G00 Z5.000000

(Change tool to Cylindrical cutter)

G00 Z5.000000
G00 X27.966103 Y53.714158

G01 Z-1.000000 F1000.0(Penetrate)
G02 X27.367354 Y53.933854 Z-1.000000 I1.741179 J5.671075 F1100.000000
G02 X25.486286 Y54.778588 Z-1.000000 I24.457334 J56.978744
G02 X23.824830 Y55.847624 Z-1.000000 I3.163379 J6.742010
G02 X23.216674 Y56.708880 Z-1.000000 I1.374071 J1.615613
G02 X22.889996 Y58.266883 Z-1.000000 I4.759069 J1.811119
G02 X22.939169 Y62.284676 Z-1.000000 I32.401913 J1.612636
G03 X22.876676 Y64.548880 Z-1.000000 I-11.113884 J0.826213
G03 X22.512073 Y65.567030 Z-1.000000 I-2.519289 J-0.327806
G01 X21.912339 Y66.527120 Z-1.000000
G01 X21.516938 Y65.762508 Z-1.000000
G03 X21.243391 Y64.967600 Z-1.000000 I2.569491 J-1.328745
G03 X21.107161 Y63.580174 Z-1.000000 I7.818639 J-1.468105
G02 X20.956299 Y62.642897 Z-1.000000 I-3.187945 J0.032344
G02 X20.801597 Y62.623090 Z-1.000000 I-0.081970 J0.026170
G03 X20.509310 Y63.083022 Z-1.000000 I-95.887978 J-60.613991
G03 X19.396044 Y64.823131 Z-1.000000 I-1376.995006 J-879.731045
G02 X17.444969 Y68.111777 Z-1.000000 I46.915455 J30.056895
G02 X16.729656 Y69.690729 Z-1.000000 I10.042046 J5.500861
G02 X16.677555 Y70.362641 Z-1.000000 I1.177466 J0.429279
G02 X17.109590 Y71.616081 Z-1.000000 I4.758662 J-0.939039
G02 X18.666649 Y73.465116 Z-1.000000 I4.711821 J-2.387679
G02 X20.335570 Y74.018225 Z-1.000000 I1.668915 J-2.241284
G03 X21.743379 Y74.162158 Z-1.000000 I0.000013 J6.956759
G03 X23.218965 Y74.614049 Z-1.000000 I-1.674146 J8.101784
G01 X24.666075 Y75.209877 Z-1.000000
G01 X25.437146 Y74.381521 Z-1.000000
G03 X28.414279 Y71.837056 Z-1.000000 I12.600308 J11.728978
G03 X29.111511 Y71.904265 Z-1.000000 I0.307842 J0.456602
G03 X29.145300 Y72.048081 Z-1.000000 I-0.099179 J0.099179
G03 X28.602349 Y73.420973 Z-1.000000 I-13.277401 J-4.457128
G02 X28.007328 Y74.819617 Z-1.000000 I25.499575 J11.674103
G02 X27.966141 Y75.036625 Z-1.000000 I0.551089 J0.217006
G02 X28.173037 Y75.213287 Z-1.000000 I0.178872 J-0.000000
G02 X31.266208 Y74.513136 Z-1.000000 I-3.808166 J-24.006630
G03 X32.745273 Y74.131477 Z-1.000000 I6.135232 J20.719462
G03 X35.177397 Y73.650097 Z-1.000000 I12.265856 J55.587200
G02 X37.565962 Y73.104273 Z-1.000000 I-4.148385 J-23.652808
G02 X38.067388 Y72.832518 Z-1.000000 I-0.354197 J-1.252025
G02 X38.121647 Y72.522052 Z-1.000000 I-0.164767 J-0.188770
G02 X37.700713 Y72.172588 Z-1.000000 I-0.659967 J0.366696
G03 X36.509078 Y71.370677 Z-1.000000 I0.851835 J-2.552159
G03 X34.374901 Y68.289597 Z-1.000000 I13.914387 J-11.917783
G02 X33.658186 Y67.147361 Z-1.000000 I-10.357940 J5.703289
G02 X33.462900 Y67.005131 Z-1.000000 I-0.309475 J0.219736
G02 X33.285772 Y67.070695 Z-1.000000 I-0.046337 J0.146862
G02 X32.789045 Y68.089206 Z-1.000000 I4.708216 J2.926576
G03 X32.308250 Y69.221318 Z-1.000000 I-11.499767 J-4.215668
G03 X31.988276 Y69.739159 Z-1.000000 I-2.698675 J-1.309734
G03 X31.625528 Y69.965268 Z-1.000000 I-0.483291 J-0.371315
G03 X31.382515 Y69.861383 Z-1.000000 I-0.046081 J-0.228382
G03 X31.148892 Y68.922697 Z-1.000000 I1.300286 J-0.822034
G03 X31.645677 Y66.400956 Z-1.000000 I10.829179 J0.823551
G02 X32.006103 Y63.874039 Z-1.000000 I-7.117217 J-2.304326
G02 X31.512647 Y61.932001 Z-1.000000 I-4.608104 J0.137172
G03 X30.790880 Y60.202432 Z-1.000000 I11.537274 J-5.830008
G03 X30.654125 Y59.365290 Z-1.000000 I2.511286 J-0.839982
G02 X30.277822 Y55.156981 Z-1.000000 I-24.008826 J0.025869
G02 X29.663098 Y53.834128 Z-1.000000 I-2.816734 J0.504667
G02 X29.163266 Y53.577505 Z-1.000000 I-0.550259 J0.456677
G02 X27.966103 Y53.714158 Z-1.000000 I-0.231917 J3.280539
G01 X27.966103 Y53.714158 Z-1.000000
G00 Z5.000000

(Change tool to Cylindrical cutter)

G00 Z5.000000
G00 X31.761603 Y56.601224

G01 Z-1.000000 F1000.0(Penetrate)
G02 X32.614100 Y61.518754 Z-1.000000 I23.678983 J-1.572301 F1100.000000
G02 X34.479982 Y66.162501 Z-1.000000 I22.952136 J-6.525555
G02 X35.922383 Y68.708792 Z-1.000000 I45.727095 J-24.221403
G02 X36.236261 Y69.068107 Z-1.000000 I1.177078 J-0.711480
G02 X36.651794 Y69.270262 Z-1.000000 I0.648005 J-0.803837
G02 X37.558519 Y69.373665 Z-1.000000 I0.906718 J-3.923706
G03 X38.477008 Y69.475308 Z-1.000000 I0.000008 J4.200684
G03 X39.222945 Y69.746613 Z-1.000000 I-0.677659 J3.024287
G02 X39.727043 Y69.765367 Z-1.000000 I0.271964 J-0.525921
G02 X39.939909 Y69.441052 Z-1.000000 I-0.137285 J-0.322124
G02 X39.884824 Y68.768186 Z-1.000000 I-4.489897 J0.028883
G02 X39.561662 Y67.051399 Z-1.000000 I-29.626940 J4.688066
G03 X39.200508 Y65.337671 Z-1.000000 I114.283895 J-24.979326
G03 X38.925326 Y63.915781 Z-1.000000 I78.433416 J-15.916957
G01 X38.662999 Y62.491306 Z-1.000000
G01 X37.964193 Y63.714872 Z-1.000000
G03 X37.221943 Y64.896478 Z-1.000000 I-14.442556 J-8.248449
G03 X37.015844 Y65.092666 Z-1.000000 I-0.569702 J-0.392131
G03 X36.523433 Y64.800199 Z-1.000000 I-0.169840 J-0.274807
G03 X37.252041 Y60.778622 Z-1.000000 I16.427166 J0.899393
G02 X37.291130 Y57.845889 Z-1.000000 I-4.886524 J-1.531759
G02 X36.066157 Y56.609236 Z-1.000000 I-1.734850 J0.493437
G03 X34.737228 Y56.052889 Z-1.000000 I1.857062 J-6.301264
G03 X33.536231 Y55.206198 Z-1.000000 I3.314432 J-5.976518
G02 X32.250170 Y54.235560 Z-1.000000 I-7.079560 J8.042858
G02 X31.907975 Y54.251816 Z-1.000000 I-0.159682 J0.248432
G02 X31.728973 Y54.604990 Z-1.000000 I0.290026 J0.368946
G02 X31.761603 Y56.601224 Z-1.000000 I19.978605 J0.671821
G01 X31.761603 Y56.601224 Z-1.000000
G00 Z5.000000

(Change tool to Cylindrical cutter)

G00 Z5.000000
G00 X100.570562 Y55.396898

G01 Z-1.000000 F1000.0(Penetrate)
G02 X97.533860 Y59.955420 Z-1.000000 I56.504189 J40.931513 F1100.000000
G02 X97.534929 Y60.366085 Z-1.000000 I0.334697 J0.204463
G02 X97.687614 Y60.481470 Z-1.000000 I0.225083 J-0.139132
G02 X98.742934 Y60.709704 Z-1.000000 I2.304297 J-8.100773
G03 X99.794589 Y60.943512 Z-1.000000 I-1.143678 J7.626257
G03 X99.962372 Y61.071850 Z-1.000000 I-0.084391 J0.284173
G03 X99.846508 Y61.429209 Z-1.000000 I-0.209552 J0.129521
G03 X96.767964 Y62.385403 Z-1.000000 I-6.898552 J-16.776541
G02 X96.156011 Y62.699008 Z-1.000000 I0.280167 J1.300570
G02 X95.730467 Y63.323196 Z-1.000000 I1.076770 J1.191247
G02 X95.747199 Y64.028260 Z-1.000000 I0.879208 J0.331866
G02 X96.493716 Y65.087105 Z-1.000000 I2.910432 J-1.259360
G03 X99.101792 Y67.992001 Z-1.000000 I-15.121359 J16.199509
G03 X99.063366 Y68.513951 Z-1.000000 I-0.318634 J0.238931
G03 X98.963792 Y68.549504 Z-1.000000 I-0.087784 J-0.088640
G03 X97.939779 Y68.407374 Z-1.000000 I1.129295 J-11.896217
G02 X96.953967 Y68.280675 Z-1.000000 I-1.676989 J9.149746
G01 X96.900868 Y68.329966 Z-1.000000
G02 X96.935728 Y68.429809 Z-1.000000 I0.160413 J-0.000000
G02 X97.831425 Y69.500129 Z-1.000000 I21.865287 J-17.388019
G03 X98.665457 Y70.623386 Z-1.000000 I-6.326480 J5.568756
G03 X100.169094 Y73.265481 Z-1.000000 I-33.810168 J20.990546
G02 X102.076627 Y75.353485 Z-1.000000 I4.861318 J-2.525809
G02 X103.630658 Y75.481593 Z-1.000000 I0.897917 J-1.402546
G02 X104.557277 Y74.887827 Z-1.000000 I-1.320579 J-3.080782
G02 X104.645166 Y74.564908 Z-1.000000 I-0.207802 J-0.229978
G03 X103.845021 Y70.548036 Z-1.000000 I18.138032 J-5.701156
G03 X104.248668 Y70.106895 Z-1.000000 I0.403648 J-0.035899
G03 X105.900026 Y70.885742 Z-1.000000 I0.000004 J2.140068
G03 X106.678854 Y73.055012 Z-1.000000 I-2.631637 J2.169276
G02 X106.758803 Y73.153066 Z-1.000000 I0.100104 J-0.000000
G02 X107.042634 Y73.129781 Z-1.000000 I0.102114 J-0.496802
G02 X107.299347 Y72.890990 Z-1.000000 I-0.168136 J-0.438140
G02 X107.927970 Y71.242972 Z-1.000000 I-10.752970 J-5.045536
G01 X108.449537 Y69.495760 Z-1.000000
G01 X107.906574 Y67.662395 Z-1.000000
G03 X107.231135 Y64.275991 Z-1.000000 I18.207692 J-5.392200
G03 X107.292624 Y61.882481 Z-1.000000 I9.078396 J-0.964322
G01 X107.480741 Y60.695604 Z-1.000000
G01 X108.167774 Y62.162295 Z-1.000000
G03 X108.773300 Y63.648097 Z-1.000000 I-14.225118 J6.663617
G03 X108.866848 Y64.164570 Z-1.000000 I-1.587537 J0.554256
G02 X108.955069 Y64.656454 Z-1.000000 I1.596741 J-0.032526
G02 X109.099379 Y64.836425 Z-1.000000 I0.325485 J-0.113149
G02 X109.565349 Y64.605458 Z-1.000000 I0.161056 J-0.260599
G02 X109.489972 Y60.817556 Z-1.000000 I-16.182451 J-1.572677
G02 X109.098936 Y59.722831 Z-1.000000 I-2.809851 J0.386476
G02 X108.305318 Y58.883011 Z-1.000000 I-2.389783 J1.463423
G03 X107.320877 Y58.140995 Z-1.000000 I8.803550 J-12.703807
G03 X106.189935 Y57.152056 Z-1.000000 I14.537353 J-17.765931
G02 X104.544185 Y55.998022 Z-1.000000 I-4.926828 J5.275568
G02 X101.967151 Y54.997129 Z-1.000000 I-6.206826 J12.162898
G02 X101.135133 Y55.001179 Z-1.000000 I-0.408804 J1.482563
G02 X100.570562 Y55.396895 Z-1.000000 I0.290589 J1.015182
G01 X100.570562 Y55.396898 Z-1.000000
G00 Z5.000000

(Change tool to Cylindrical cutter)

G00 Z5.000000
G00 X19.349491 Y55.435534

G01 Z-1.000000 F1000.0(Penetrate)
G02 X18.830268 Y55.992065 Z-1.000000 I1.538368 J1.955715 F1100.000000
G02 X18.324391 Y56.943015 Z-1.000000 I4.120696 J2.802119
G03 X17.537735 Y58.339842 Z-1.000000 I-5.641874 J-2.257428
G03 X16.135091 Y59.851823 Z-1.000000 I-8.035796 J-6.048102
G01 X15.182071 Y60.687999 Z-1.000000
G01 X15.363913 Y59.475376 Z-1.000000
G03 X15.631749 Y58.290330 Z-1.000000 I8.188174 J1.227839
G03 X16.011370 Y57.350071 Z-1.000000 I5.517476 J1.680867
G02 X15.989194 Y56.532358 Z-1.000000 I-0.761535 J-0.388505
G02 X15.402012 Y56.300382 Z-1.000000 I-0.440421 J0.255670
G02 X13.485670 Y57.094036 Z-1.000000 I2.984465 J9.916638
G02 X11.982799 Y58.137159 Z-1.000000 I3.812367 J7.096824
G01 X11.148751 Y58.869461 Z-1.000000
G01 X11.632017 Y60.149292 Z-1.000000
G02 X12.152250 Y61.413282 Z-1.000000 I21.749597 J-8.212645
G02 X13.336987 Y63.968736 Z-1.000000 I90.155260 J-40.244661
G01 X14.558694 Y66.508349 Z-1.000000
G01 X15.001377 Y65.780417 Z-1.000000
G03 X16.133166 Y64.567010 Z-1.000000 I3.495147 J2.125519
G03 X17.871059 Y63.749199 Z-1.000000 I3.166611 J4.473753
G02 X19.233767 Y62.738156 Z-1.000000 I-0.604383 J-2.238469
G02 X21.988052 Y57.151247 Z-1.000000 I-26.508445 J-16.540745
G02 X22.280766 Y56.287603 Z-1.000000 I-13.599235 J-5.090596
G02 X22.452923 Y55.623442 Z-1.000000 I-7.864360 J-2.392917
G02 X22.271003 Y55.214964 Z-1.000000 I-0.370563 J-0.079714
G02 X21.281369 Y54.951210 Z-1.000000 I-0.989630 J1.724711
G02 X20.019144 Y55.107021 Z-1.000000 I0.000009 J5.190616
G02 X19.349491 Y55.435534 Z-1.000000 I0.434164 J1.731794
G01 X19.349491 Y55.435534 Z-1.000000
G00 Z5.000000

(Change tool to Cylindrical cutter)

G00 Z5.000000
G00 X114.527092 Y55.317715

G01 Z-1.000000 F1000.0(Penetrate)
G02 X114.979992 Y57.019193 Z-1.000000 I3.747042 J-0.086375 F1100.000000
G02 X115.802026 Y57.667030 Z-1.000000 I1.164291 J-0.631904
G02 X116.160822 Y57.335043 Z-1.000000 I0.074665 J-0.279185
G02 X115.479003 Y55.928836 Z-1.000000 I-2.904074 J0.539684
G02 X114.673973 Y55.235251 Z-1.000000 I-2.855593 J2.500447
G02 X114.527092 Y55.317715 Z-1.000000 I-0.051528 J0.080262
G01 X114.527092 Y55.317715 Z-1.000000
G00 Z5.000000

(Change tool to Cylindrical cutter)

G00 Z5.000000
G00 X59.500088 Y57.970339

G01 Z-1.000000 F1000.0(Penetrate)
G03 X59.490135 Y58.054928 Z-1.000000 I-0.364429 J0.000001 F1100.000000
G03 X58.902175 Y60.475941 Z-1.000000 I-303.232702 J-72.360234
G02 X58.234338 Y63.436871 Z-1.000000 I72.219901 J17.844974
G02 X57.122660 Y69.190294 Z-1.000000 I271.657817 J55.473897
G02 X57.313949 Y69.600736 Z-1.000000 I0.385288 J0.070231
G02 X58.301539 Y69.862526 Z-1.000000 I0.987586 J-1.731910
G03 X62.755883 Y70.514262 Z-1.000000 I0.000028 J15.547481
G03 X63.410667 Y71.390323 Z-1.000000 I-0.262922 J0.879242
G03 X63.322945 Y71.485820 Z-1.000000 I-0.095589 J0.000231
G03 X61.150145 Y71.576990 Z-1.000000 I-2.212425 J-26.790242
G01 X58.888987 Y71.580294 Z-1.000000
G01 X61.625479 Y72.801487 Z-1.000000
G01 X64.361969 Y74.022676 Z-1.000000
G01 X66.868257 Y73.646234 Z-1.000000
G02 X69.356364 Y73.247586 Z-1.000000 I-19.123200 J-127.318954
G01 X69.393985 Y73.216165 Z-1.000000
G02 X69.410732 Y73.161712 Z-1.000000 I-0.547004 J-0.198033
G02 X69.825679 Y71.521068 Z-1.000000 I-493.192983 J-125.609752
G01 X70.237931 Y69.879601 Z-1.000000
G01 X68.107968 Y66.150173 Z-1.000000
G02 X65.824211 Y62.555823 Z-1.000000 I-39.263128 J22.424082
G02 X64.920090 Y61.619315 Z-1.000000 I-3.455305 J2.431129
G02 X63.846210 Y60.865387 Z-1.000000 I-10.941326 J14.442824
G02 X63.685815 Y60.817881 Z-1.000000 I-0.160395 J0.247023
G02 X63.598517 Y60.897154 Z-1.000000 I0.000000 J0.087704
G02 X63.605956 Y61.644581 Z-1.000000 I3.508147 J0.338834
G03 X63.587979 Y62.415901 Z-1.000000 I-2.754802 J0.321662
G03 X63.443886 Y62.631094 Z-1.000000 I-0.308408 J-0.050671
G03 X62.851091 Y62.494015 Z-1.000000 I-0.227228 J-0.367662
G03 X61.683447 Y59.840090 Z-1.000000 I8.301617 J-5.236279
G02 X60.845209 Y58.283722 Z-1.000000 I-3.775927 J1.029745
G02 X59.961892 Y57.884502 Z-1.000000 I-0.883315 J0.777602
G02 X59.539024 Y57.923460 Z-1.000000 I0.000032 J2.314807
G01 X59.500076 Y57.970313 Z-1.000000
G01 X59.500088 Y57.970339 Z-1.000000
G00 Z5.000000

(Change tool to Cylindrical cutter)

G00 Z5.000000
G00 X111.553878 Y58.904145

G01 Z-1.000000 F1000.0(Penetrate)
G01 X112.608500 Y59.840025 Z-1.000000 F1100.000000
G01 X111.637370 Y59.840027 Z-1.000000
G01 X110.666250 Y59.840029 Z-1.000000
G01 X110.379416 Y62.956752 Z-1.000000
G03 X109.770463 Y68.167427 Z-1.000000 I-106.283407 J-9.780032
G03 X109.243770 Y70.962454 Z-1.000000 I-31.066527 J-4.407017
G02 X109.665681 Y71.149016 Z-1.000000 I0.228387 J0.053859
G02 X113.014080 Y65.464124 Z-1.000000 I-39.585582 J-27.144437
G03 X114.452726 Y62.669105 Z-1.000000 I118.597236 J59.276351
G03 X115.154853 Y61.423427 Z-1.000000 I24.250034 J12.847823
G02 X115.813871 Y60.166793 Z-1.000000 I-10.817790 J-6.474314
G02 X116.017809 Y59.525272 Z-1.000000 I-2.583015 J-1.174311
G02 X115.757051 Y59.056721 Z-1.000000 I-0.410381 J-0.078449
G02 X112.805807 Y58.293315 Z-1.000000 I-4.835554 J12.607434
G01 X110.499267 Y57.968263 Z-1.000000
G01 X111.553878 Y58.904145 Z-1.000000
G00 Z5.000000

(Change tool to Cylindrical cutter)

G00 Z5.000000
G00 X76.893650 Y59.059201

G01 Z-1.000000 F1000.0(Penetrate)
G01 X76.120723 Y60.035110 Z-1.000000 F1100.000000
G01 X76.991235 Y60.548720 Z-1.000000
G02 X77.852212 Y60.564242 Z-1.000000 I0.444201 J-0.752866
G02 X78.185037 Y59.901200 Z-1.000000 I-0.309354 J-0.570340
G02 X77.576443 Y58.947908 Z-1.000000 I-1.357966 J0.196029
G02 X76.893650 Y59.059201 Z-1.000000 I-0.280376 J0.430016
G01 X76.893650 Y59.059201 Z-1.000000
G00 Z5.000000

(Change tool to Cylindrical cutter)

G00 Z5.000000
G00 X79.440318 Y60.647148

G01 Z-1.000000 F1000.0(Penetrate)
G02 X79.518680 Y62.947104 Z-1.000000 I4.913459 J0.983908 F1100.000000
G02 X80.609526 Y64.942760 Z-1.000000 I4.722479 J-1.285395
G01 X81.133880 Y65.523132 Z-1.000000
G01 X80.522754 Y65.341263 Z-1.000000
G03 X79.917642 Y65.142314 Z-1.000000 I3.199655 J-10.751578
G03 X79.117164 Y64.834480 Z-1.000000 I6.898771 J-19.133937
G02 X78.351030 Y64.551742 Z-1.000000 I-4.457316 J10.898625
G01 X78.322708 Y64.572217 Z-1.000000
G02 X78.336427 Y64.631597 Z-1.000000 I0.135371 J-0.000000
G02 X79.181692 Y66.331994 Z-1.000000 I118.111182 J-57.652565
G03 X79.990216 Y68.236212 Z-1.000000 I-13.780149 J6.974763
G03 X81.358780 Y72.595755 Z-1.000000 I-71.175157 J24.738154
G02 X82.007874 Y73.727929 Z-1.000000 I2.572337 J-0.722607
G02 X83.067948 Y74.368006 Z-1.000000 I1.731618 J-1.669978
G02 X84.501315 Y74.078803 Z-1.000000 I0.440281 J-1.514522
G02 X85.070275 Y72.745175 Z-1.000000 I-0.976409 J-1.204742
G02 X84.856294 Y70.760540 Z-1.000000 I-41.100852 J3.427588
G02 X84.789719 Y70.625655 Z-1.000000 I-0.232204 J0.030737
G02 X84.674935 Y70.612179 Z-1.000000 I-0.065921 J0.065911
G02 X84.111676 Y71.043019 Z-1.000000 I1.839122 J2.987989
G03 X83.527802 Y71.525479 Z-1.000000 I-4.079194 J-4.342116
G03 X83.379289 Y71.573623 Z-1.000000 I-0.148513 J-0.204992
G03 X83.154422 Y71.311575 Z-1.000000 I-0.000000 J-0.227504
G03 X83.822823 Y68.686341 Z-1.000000 I13.840338 J2.126130
G02 X84.179263 Y66.656372 Z-1.000000 I-5.651580 J-2.038632
G02 X83.828316 Y64.872179 Z-1.000000 I-4.676561 J-0.006743
G02 X83.078337 Y63.538307 Z-1.000000 I-5.807387 J2.387470
G02 X81.939680 Y62.305469 Z-1.000000 I-6.082751 J4.475810
G03 X80.656444 Y61.172585 Z-1.000000 I58.981218 J-68.102164
G03 X80.096859 Y60.647147 Z-1.000000 I12.118002 J-13.466211
G01 X79.548288 Y60.109744 Z-1.000000
G01 X79.440672 Y60.647148 Z-1.000000
G01 X79.440318 Y60.647148 Z-1.000000
G00 Z5.000000

(Change tool to Cylindrical cutter)

G00 Z5.000000
G00 X15.943424 Y66.363236

G01 Z-1.000000 F1000.0(Penetrate)
G02 X15.126580 Y67.094069 Z-1.000000 I1.105783 J2.057827 F1100.000000
G02 X15.071855 Y67.626017 Z-1.000000 I0.457652 J0.315870
G02 X15.767428 Y67.991492 Z-1.000000 I0.570133 J-0.240433
G02 X16.666732 Y67.295832 Z-1.000000 I-0.262645 J-1.268641
G02 X17.322676 Y65.796678 Z-1.000000 I-16.068538 J-7.923750
G02 X17.269179 Y65.727548 Z-1.000000 I-0.047724 J-0.018333
G02 X17.097166 Y65.777038 Z-1.000000 I0.060830 J0.535098
G02 X15.943424 Y66.363236 Z-1.000000 I12.168665 J25.378595
G01 X15.943424 Y66.363236 Z-1.000000
G00 Z5.000000

(Change tool to Cylindrical cutter)

G00 Z5.000000
G00 X91.292891 Y70.938600

G01 Z-1.000000 F1000.0(Penetrate)
G02 X88.643570 Y75.451989 Z-1.000000 I217.529857 J130.722415 F1100.000000
G02 X88.589604 Y75.654653 Z-1.000000 I0.353557 J0.202662
G02 X89.150233 Y76.399797 Z-1.000000 I0.775510 J-0.000001
G02 X94.535498 Y77.369299 Z-1.000000 I7.399003 J-25.657587
G02 X98.948153 Y77.176324 Z-1.000000 I1.400633 J-18.519929
G02 X100.473900 Y76.393331 Z-1.000000 I-0.454072 J-2.762847
G02 X100.509662 Y76.262700 Z-1.000000 I-0.096699 J-0.096683
G02 X100.170568 Y75.209726 Z-1.000000 I-8.837591 J2.264922
G02 X98.208208 Y71.526160 Z-1.000000 I-16.613921 J6.486305
G02 X97.671853 Y71.609880 Z-1.000000 I-0.247857 J0.172042
G03 X97.559809 Y71.936371 Z-1.000000 I-4.919370 J-1.505738
G03 X97.219854 Y72.795842 Z-1.000000 I-34.493732 J-13.146681
G03 X96.818917 Y73.248735 Z-1.000000 I-0.850008 J-0.348578
G03 X96.524506 Y73.185451 Z-1.000000 I-0.111306 J-0.198652
G03 X95.962132 Y72.058361 Z-1.000000 I2.928656 J-2.165133
G03 X95.318371 Y69.129113 Z-1.000000 I19.791807 J-5.885010
G02 X94.653425 Y66.759007 Z-1.000000 I-9.404696 J1.360207
G02 X94.170684 Y66.440177 Z-1.000000 I-0.482740 J0.206044
G02 X94.037438 Y66.513115 Z-1.000000 I0.000000 J0.158180
G02 X91.292891 Y70.938600 Z-1.000000 I156.591332 J100.176817
G01 X91.292891 Y70.938600 Z-1.000000
G00 Z5.000000

(Change tool to Cylindrical cutter)

G00 Z5.000000
G00 X50.708521 Y72.368141

G01 Z-1.000000 F1000.0(Penetrate)
G02 X50.987059 Y73.661227 Z-1.000000 I3.611560 J-0.101408 F1100.000000
G02 X52.568332 Y76.813427 Z-1.000000 I23.695238 J-9.913788
G02 X52.909326 Y77.021926 Z-1.000000 I0.366726 J-0.216678
G02 X53.485018 Y76.868906 Z-1.000000 I0.057156 J-0.944408
G02 X53.905868 Y76.334479 Z-1.000000 I-0.586051 J-0.894421
G02 X54.122231 Y75.086622 Z-1.000000 I-3.490226 J-1.247851
G02 X53.694867 Y73.679333 Z-1.000000 I-2.530764 J0.000005
G02 X52.309211 Y72.376804 Z-1.000000 I-3.516809 J2.352944
G02 X51.039126 Y72.029913 Z-1.000000 I-1.283883 J2.202182
G02 X50.708521 Y72.368107 Z-1.000000 I-0.001781 J0.328950
G01 X50.708521 Y72.368141 Z-1.000000
G00 Z5.000000

(Change tool to Cylindrical cutter)

G00 Z5.000000
G00 X55.833371 Y72.259365

G01 Z-1.000000 F1000.0(Penetrate)
G02 X55.896167 Y72.487606 Z-1.000000 I0.446187 J-0.000001 F1100.000000
G02 X56.081314 Y72.675851 Z-1.000000 I0.476978 J-0.283955
G03 X56.283231 Y72.871497 Z-1.000000 I-0.344732 J0.557798
G03 X56.819632 Y73.790296 Z-1.000000 I-7.827920 J5.185973
G01 X57.310009 Y74.751506 Z-1.000000
G01 X56.449467 Y74.751507 Z-1.000000
G02 X55.825923 Y74.988501 Z-1.000000 I0.000002 J0.938792
G02 X55.588928 Y75.516098 Z-1.000000 I0.468767 J0.527596
G02 X55.852253 Y75.972640 Z-1.000000 I0.527431 J-0.000001
G02 X56.627839 Y76.117088 Z-1.000000 I0.591760 J-1.022938
G02 X62.523501 Y74.790136 Z-1.000000 I-7.214798 J-45.816126
G02 X62.920851 Y74.262597 Z-1.000000 I-0.156585 J-0.531357
G02 X62.865997 Y74.178499 Z-1.000000 I-0.090879 J-0.000661
G02 X60.516085 Y73.224297 Z-1.000000 I-22.991064 J53.249373
G02 X56.194513 Y71.965054 Z-1.000000 I-9.983147 J26.215784
G02 X55.833371 Y72.259365 Z-1.000000 I-0.060647 J0.294311
G01 X55.833371 Y72.259365 Z-1.000000
G00 Z5.000000

(Change tool to Cylindrical cutter)

G00 Z5.000000
G00 X42.999779 Y73.460090

G01 Z-1.000000 F1000.0(Penetrate)
G02 X41.788571 Y73.848355 Z-1.000000 I10.709686 J35.492546 F1100.000000
G02 X41.696580 Y73.902638 Z-1.000000 I0.084063 J0.247547
G02 X41.688250 Y73.981780 Z-1.000000 I0.040317 J0.044254
G02 X42.735493 Y75.351262 Z-1.000000 I22.831482 J-16.374091
G03 X43.809781 Y76.743948 Z-1.000000 I-25.747571 J20.971810
G03 X43.866003 Y76.899968 Z-1.000000 I-0.238459 J0.174068
G02 X43.886240 Y77.072563 Z-1.000000 I1.546103 J-0.093804
G02 X44.077633 Y78.112700 Z-1.000000 I57.088128 J-9.966947
G03 X44.229901 Y79.111416 Z-1.000000 I-12.466395 J2.411640
G01 X44.193958 Y79.151608 Z-1.000000
G03 X44.115679 Y79.129868 Z-1.000000 I-0.000000 J-0.151796
G03 X42.761312 Y78.289314 Z-1.000000 I30.124697 J-50.050687
G03 X41.212617 Y76.838899 Z-1.000000 I3.132232 J-4.896498
G03 X40.434116 Y75.128206 Z-1.000000 I3.672800 J-2.703903
G02 X39.596387 Y73.937064 Z-1.000000 I-1.853835 J0.413641
G02 X38.316176 Y73.787183 Z-1.000000 I-0.796076 J1.257279
G03 X36.946719 Y74.194661 Z-1.000000 I-5.514146 J-16.027021
G03 X34.972189 Y74.630521 Z-1.000000 I-8.301636 J-32.917603
G02 X30.644232 Y75.696395 Z-1.000000 I7.695540 J40.567291
G02 X30.537008 Y75.980505 Z-1.000000 I0.055808 J0.183350
G02 X30.683685 Y76.081728 Z-1.000000 I0.188773 J-0.116659
G02 X32.279398 Y76.317144 Z-1.000000 I3.448469 J-17.848831
G03 X33.865238 Y76.669065 Z-1.000000 I-0.713487 J6.964187
G03 X36.869699 Y77.913359 Z-1.000000 I-9.214861 J26.499546
G02 X42.799259 Y80.344698 Z-1.000000 I22.706321 J-46.930073
G02 X44.588712 Y80.536870 Z-1.000000 I1.323111 J-3.892922
G02 X45.653850 Y80.285302 Z-1.000000 I-0.526087 J-4.608140
G02 X48.783244 Y79.004827 Z-1.000000 I-15.187516 J-41.581507
G01 X51.877754 Y77.598364 Z-1.000000
G01 X51.277083 Y76.236052 Z-1.000000
G02 X50.229517 Y74.791253 Z-1.000000 I-3.878979 J1.710321
G02 X48.436207 Y73.686640 Z-1.000000 I-3.943861 J4.394750
G02 X45.722135 Y73.116069 Z-1.000000 I-3.064406 J7.836277
G02 X42.999779 Y73.460090 Z-1.000000 I-0.342948 J8.229627
G01 X42.999779 Y73.460090 Z-1.000000
G00 Z5.000000

(End cutting path id: path847)


(Pass at depth -2.0)

(Footer)
M5
G00 X0.0000 Y0.0000
M2
(Using default footer. To add your own footer create file "footer" in the output dir.)
(end)
%