%
(Header)
(Generated by gcodetools from Inkscape.)
(Using default header. To add your own header create file "header" in the output dir.)
M3
(Header end.)
G21 (All units in mm)

(Start cutting path id: path16912)
(Change tool to Cylindrical cutter)

G00 Z5.000000
G00 X31.607659 Y0.265010

G01 Z-0.125000 F1000.0(Penetrate)
G02 X31.421116 Y0.529659 Z-0.125000 I0.231135 J0.360989 F1100.000000
G02 X31.390212 Y1.207675 Z-0.125000 I1.835530 J0.423374
G02 X31.704892 Y1.721751 Z-0.125000 I0.742813 J-0.101345
G02 X32.588305 Y2.041159 Z-0.125000 I1.039929 J-1.494852
G03 X33.619792 Y2.258958 Z-0.125000 I-0.372095 J4.313673
G03 X33.996119 Y2.523584 Z-0.125000 I-0.267306 J0.780040
G03 X34.854257 Y3.881550 Z-0.125000 I-5.625686 J4.505153
G03 X37.697453 Y10.149082 Z-0.125000 I-119.006443 J57.764608
G03 X38.213686 Y11.557617 Z-0.125000 I-14.234366 J6.015814
G03 X41.129611 Y21.137449 Z-0.125000 I-657.205904 J205.275097
G02 X44.924657 Y33.483114 Z-0.125000 I617.252924 J-182.986859
G02 X45.958986 Y36.304489 Z-0.125000 I33.206148 J-10.573245
G03 X46.173744 Y36.937385 Z-0.125000 I-4.580803 J1.907266
G03 X46.863799 Y39.709339 Z-0.125000 I-87.622555 J23.284788
G02 X47.521207 Y42.492578 Z-0.125000 I373.894898 J-86.845682
G02 X47.792925 Y43.578482 Z-0.125000 I57.214355 J-13.739405
G03 X48.766534 Y50.100262 Z-0.125000 I-30.011885 J7.813911
G03 X49.090154 Y74.686393 Z-0.125000 I-430.829302 J17.966070
G03 X48.757165 Y87.017068 Z-0.125000 I-529.574408 J-8.131295
G03 X48.596497 Y87.454575 Z-0.125000 I-0.755556 J-0.029212
G03 X48.214818 Y87.680882 Z-0.125000 I-0.482262 J-0.378346
G03 X46.270754 Y87.841476 Z-0.125000 I-1.944064 J-11.686587
G02 X44.574315 Y88.440390 Z-0.125000 I-0.000000 J2.702062
G02 X44.167696 Y89.537843 Z-0.125000 I0.717939 J0.890059
G02 X44.635910 Y90.167414 Z-0.125000 I0.874144 J-0.161213
G02 X47.023977 Y91.004047 Z-0.125000 I4.222167 J-8.225118
G03 X49.708935 Y91.553435 Z-0.125000 I-127.767523 J631.258596
G03 X51.950180 Y92.022957 Z-0.125000 I-91.066155 J440.284945
G02 X61.093667 Y93.354837 Z-0.125000 I14.897077 J-70.218476
G02 X66.286530 Y93.175795 Z-0.125000 I1.819414 J-22.625825
G02 X71.055949 Y91.563277 Z-0.125000 I-2.126574 J-14.149490
G02 X74.468756 Y88.675124 Z-0.125000 I-5.437976 J-9.886284
G02 X75.577114 Y86.321708 Z-0.125000 I-4.496723 J-3.555467
G02 X77.667875 Y73.757797 Z-0.125000 I-134.365718 J-28.815718
G02 X77.972871 Y66.041970 Z-0.125000 I-48.560453 J-5.783469
G02 X77.196603 Y61.840845 Z-0.125000 I-14.957349 J0.591480
G02 X75.891849 Y58.860341 Z-0.125000 I-17.791129 J6.012462
G02 X74.630523 Y57.136548 Z-0.125000 I-7.105829 J3.876078
G02 X70.652013 Y54.449247 Z-0.125000 I-8.210550 J7.866888
G02 X63.598462 Y52.712895 Z-0.125000 I-9.688149 J24.161060
G03 X61.661135 Y52.485526 Z-0.125000 I6.417770 J-63.050798
G03 X60.014375 Y52.236154 Z-0.125000 I6.074986 J-45.678874
G02 X58.368204 Y51.981820 Z-0.125000 I-9.242224 J54.365637
G02 X56.706101 Y51.776038 Z-0.125000 I-7.688404 J55.284029
G01 X55.040536 Y51.595176 Z-0.125000
G01 X54.700695 Y49.676170 Z-0.125000
G03 X54.391155 Y47.752830 Z-0.125000 I61.076629 J-10.816175
G03 X54.176064 Y46.054739 Z-0.125000 I47.398172 J-6.866436
G02 X53.945094 Y44.360588 Z-0.125000 I-31.044658 J3.369611
G02 X53.718266 Y43.268955 Z-0.125000 I-13.103291 J2.153327
G03 X53.455728 Y42.183084 Z-0.125000 I56.207007 J-14.164163
G03 X52.702768 Y38.884184 Z-0.125000 I517.541171 J-119.862033
G02 X51.913572 Y35.597159 Z-0.125000 I-114.397666 J25.727984
G02 X51.675087 Y34.860270 Z-0.125000 I-5.964499 J1.523302
G03 X51.417190 Y34.128509 Z-0.125000 I9.721801 J-3.837613
G03 X50.727746 Y31.816281 Z-0.125000 I96.511257 J-30.035946
G02 X50.026305 Y29.510324 Z-0.125000 I-66.437159 J18.949613
G02 X49.826957 Y29.030496 Z-0.125000 I-3.054275 J0.987596
G03 X49.626353 Y28.550734 Z-0.125000 I2.939967 J-1.511119
G03 X48.353052 Y24.542288 Z-0.125000 I205.381561 J-67.446841
G02 X47.082828 Y20.532266 Z-0.125000 I-225.593180 J69.253249
G02 X46.883893 Y20.043925 Z-0.125000 I-3.524667 J1.151147
G03 X46.692923 Y19.554715 Z-0.125000 I2.747616 J-1.354449
G03 X46.428195 Y18.496275 Z-0.125000 I12.685532 J-3.735130
G02 X46.151219 Y17.447464 Z-0.125000 I-9.769795 J2.019085
G02 X45.981324 Y17.113544 Z-0.125000 I-1.132386 J0.365965
G03 X45.815262 Y16.777476 Z-0.125000 I0.897391 J-0.652492
G03 X45.382683 Y15.101579 Z-0.125000 I22.669682 J-6.745230
G02 X43.933005 Y9.723349 Z-0.125000 I-57.560235 J12.630614
G02 X41.949255 Y4.403960 Z-0.125000 I-58.289087 J18.708049
G03 X41.215657 Y2.639661 Z-0.125000 I94.619104 J-40.377396
G03 X41.197914 Y2.548575 Z-0.125000 I0.224932 J-0.091086
G03 X41.241088 Y2.491197 Z-0.125000 I0.059714 J-0.000000
G03 X41.869930 Y2.354934 Z-0.125000 I1.325825 J4.599386
G02 X42.761996 Y1.408350 Z-0.125000 I-0.152701 J-1.037541
G02 X42.038101 Y0.423235 Z-0.125000 I-0.922903 J-0.080349
G02 X34.240138 Y-0.484134 Z-0.125000 I-8.390242 J38.144346
G02 X31.607659 Y0.265010 Z-0.125000 I-0.071993 J4.746832
G01 X31.607659 Y0.265010 Z-0.125000
G00 Z5.000000

(End cutting path id: path16912)


(Start cutting path id: path16912)
(Change tool to Cylindrical cutter)

G00 Z5.000000
G00 X54.173761 Y1.226462

G01 Z-0.125000 F1000.0(Penetrate)
G02 X54.398502 Y2.215740 Z-0.125000 I0.975123 J0.298641 F1100.000000
G02 X55.548674 Y2.720321 Z-0.125000 I1.150172 J-1.058595
G03 X55.839625 Y2.941731 Z-0.125000 I0.000000 J0.301871
G03 X56.212074 Y5.119190 Z-0.125000 I-10.621924 J2.937439
G02 X56.776965 Y9.765030 Z-0.125000 I44.925539 J-3.105263
G02 X57.983332 Y15.256356 Z-0.125000 I64.021012 J-11.186343
G03 X58.555370 Y17.423909 Z-0.125000 I-726.524455 J192.895842
G03 X58.998265 Y19.125498 Z-0.125000 I-447.188843 J117.304328
G02 X60.349833 Y23.827867 Z-0.125000 I87.259600 J-22.534965
G02 X61.500761 Y27.018545 Z-0.125000 I41.291088 J-13.091432
G03 X61.737086 Y27.643122 Z-0.125000 I-13.089110 J5.309616
G03 X62.861089 Y30.887688 Z-0.125000 I-352.131577 J123.804582
G02 X64.252984 Y34.738595 Z-0.125000 I108.018969 J-36.866017
G02 X65.461465 Y37.697386 Z-0.125000 I64.956336 J-24.804415
G02 X70.072691 Y46.802449 Z-0.125000 I80.652358 J-35.125896
G02 X74.052995 Y52.467802 Z-0.125000 I34.995610 J-20.355949
G03 X74.598979 Y53.197013 Z-0.125000 I-6.305063 J5.289810
G03 X74.649409 Y53.363778 Z-0.125000 I-0.250519 J0.166765
G02 X74.699008 Y53.531654 Z-0.125000 I0.308903 J0.000000
G02 X75.321420 Y54.401724 Z-0.125000 I9.678464 J-6.265915
G03 X75.974614 Y55.267941 Z-0.125000 I-20.044250 J15.794296
G03 X76.441453 Y55.954615 Z-0.125000 I-12.126921 J8.746570
G02 X76.908026 Y56.640627 Z-0.125000 I12.497830 J-7.998395
G02 X77.198672 Y57.003649 Z-0.125000 I3.779495 J-2.728117
G03 X79.940327 Y61.493412 Z-0.125000 I-11.190957 J9.915682
G03 X81.665135 Y68.472537 Z-0.125000 I-26.019977 J10.133226
G03 X81.599119 Y70.191382 Z-0.125000 I-5.659072 J0.643341
G03 X81.213221 Y70.822737 Z-0.125000 I-1.035048 J-0.199032
G02 X80.780171 Y71.410568 Z-0.125000 I0.835757 J1.069122
G02 X80.760350 Y72.016627 Z-0.125000 I0.875174 J0.331976
G02 X81.186748 Y72.390099 Z-0.125000 I0.514863 J-0.157677
G02 X84.304805 Y72.606971 Z-0.125000 I2.689866 J-16.150074
G02 X87.356974 Y72.201930 Z-0.125000 I-0.380981 J-14.573133
G02 X87.743409 Y71.773828 Z-0.125000 I-0.120484 J-0.497220
G02 X87.672049 Y71.112596 Z-0.125000 I-1.369884 J-0.186630
G02 X87.370063 Y70.752458 Z-0.125000 I-0.648327 J0.236959
G03 X87.081610 Y70.369485 Z-0.125000 I0.309040 J-0.532884
G03 X86.895032 Y68.859181 Z-0.125000 I6.019493 J-1.510304
G02 X85.590132 Y60.301356 Z-0.125000 I-28.714510 J-0.000000
G02 X81.176332 Y50.542933 Z-0.125000 I-41.955463 J13.099329
G03 X80.097016 Y48.657490 Z-0.125000 I34.364775 J-20.923650
G03 X78.576800 Y45.703293 Z-0.125000 I82.893214 J-44.524717
G01 X77.108048 Y42.720842 Z-0.125000
G01 X81.926876 Y42.554328 Z-0.125000
G02 X88.983027 Y41.558615 Z-0.125000 I-1.166715 J-33.767618
G02 X94.611543 Y39.371593 Z-0.125000 I-5.904456 J-23.531974
G02 X98.649013 Y34.784106 Z-0.125000 I-4.193398 J-7.761073
G02 X99.785763 Y25.951963 Z-0.125000 I-17.476965 J-6.738615
G03 X99.484752 Y22.991815 Z-0.125000 I138.704437 J-15.599941
G03 X99.277622 Y20.363621 Z-0.125000 I109.102165 J-9.920682
G02 X98.733033 Y14.521643 Z-0.125000 I-111.174483 J7.417321
G02 X97.960641 Y9.375248 Z-0.125000 I-87.034297 J10.431302
G03 X97.729967 Y7.821327 Z-0.125000 I24.707751 J-4.461859
G03 X97.487588 Y5.318306 Z-0.125000 I63.895995 J-7.450573
G01 X97.294023 Y2.809026 Z-0.125000
G01 X98.217353 Y2.617643 Z-0.125000
G02 X98.935452 Y2.259230 Z-0.125000 I-0.318510 J-1.536736
G02 X99.140668 Y1.805371 Z-0.125000 I-0.399275 J-0.453860
G02 X98.651558 Y1.226781 Z-0.125000 I-0.586775 J-0.000000
G02 X92.719181 Y0.721437 Z-0.125000 I-6.031530 J35.732248
G01 X87.940391 Y0.708342 Z-0.125000
G01 X87.845906 Y1.559552 Z-0.125000
G02 X88.066697 Y2.128548 Z-0.125000 I0.655864 J0.072836
G02 X88.816601 Y2.410768 Z-0.125000 I0.749904 J-0.855195
G01 X89.881801 Y2.410768 Z-0.125000
G01 X89.881801 Y4.959895 Z-0.125000
G02 X90.132471 Y9.556436 Z-0.125000 I42.268807 J0.000000
G02 X91.075894 Y15.875385 Z-0.125000 I80.936609 J-8.853995
G03 X91.618396 Y19.365568 Z-0.125000 I-52.191938 J9.899784
G03 X92.170956 Y24.884753 Z-0.125000 I-130.071377 J15.809508
G03 X92.027569 Y29.920640 Z-0.125000 I-23.496310 J1.850974
G03 X90.909586 Y34.133571 Z-0.125000 I-17.480782 J-2.384059
G03 X89.343346 Y36.526142 Z-0.125000 I-6.796208 J-2.740042
G03 X86.499565 Y38.627229 Z-0.125000 I-7.995381 J-7.846549
G03 X82.694482 Y39.419413 Z-0.125000 I-3.319483 J-6.409873
G03 X77.183847 Y37.999118 Z-0.125000 I1.041020 J-15.439641
G03 X75.297164 Y36.638924 Z-0.125000 I2.641743 J-5.652856
G03 X73.497624 Y34.110440 Z-0.125000 I8.062548 J-7.642789
G03 X71.257552 Y29.386787 Z-0.125000 I65.220392 J-33.822081
G03 X71.063502 Y28.467195 Z-0.125000 I2.179843 J-0.940254
G02 X71.023326 Y28.265932 Z-0.125000 I-0.544123 J0.003978
G02 X70.623524 Y27.386106 Z-0.125000 I-11.258338 J4.585157
G03 X68.427098 Y21.925706 Z-0.125000 I31.392305 J-15.799391
G03 X65.555950 Y10.922881 Z-0.125000 I125.382250 J-38.594074
G02 X64.755929 Y7.208704 Z-0.125000 I-7296.876787 J1569.779504
G02 X64.487883 Y5.970384 Z-0.125000 I-813.471377 J175.435513
G03 X64.164114 Y3.028502 Z-0.125000 I13.886303 J-3.017013
G03 X64.470695 Y2.720296 Z-0.125000 I0.306581 J-0.001621
G02 X64.897051 Y2.525579 Z-0.125000 I-0.000000 J-0.564136
G02 X65.091773 Y2.003485 Z-0.125000 I-0.602561 J-0.522094
G02 X64.770721 Y1.578194 Z-0.125000 I-0.442214 J0.000000
G02 X61.283681 Y0.918592 Z-0.125000 I-5.374217 J18.864183
G02 X54.794343 Y0.746298 Z-0.125000 I-4.476599 J46.313669
G02 X54.173696 Y1.226437 Z-0.125000 I0.029409 J0.679221
G01 X54.173761 Y1.226462 Z-0.125000
G00 Z5.000000

(End cutting path id: path16912)


(Start cutting path id: path16912)
(Change tool to Cylindrical cutter)

G00 Z5.000000
G00 X107.343717 Y1.499797

G01 Z-0.125000 F1000.0(Penetrate)
G02 X107.247466 Y1.841837 Z-0.125000 I0.586545 J0.349618 F1100.000000
G02 X107.331751 Y2.583155 Z-0.125000 I3.008553 J0.033391
G02 X107.692045 Y3.114232 Z-0.125000 I0.888884 J-0.215285
G02 X108.399550 Y3.339392 Z-0.125000 I0.707504 J-0.998988
G03 X109.126262 Y4.003520 Z-0.125000 I0.000000 J0.729662
G03 X109.432342 Y14.792052 Z-0.125000 I-87.344374 J7.876639
G02 X110.461791 Y29.340737 Z-0.125000 I70.308816 J2.335786
G02 X114.588801 Y44.042771 Z-0.125000 I75.941948 J-13.387411
G03 X115.664310 Y47.506071 Z-0.125000 I-23.560292 J9.215165
G03 X116.178689 Y50.852475 Z-0.125000 I-21.472288 J5.013262
G02 X116.911449 Y58.773477 Z-0.125000 I239.275607 J-18.140623
G02 X117.363946 Y61.701125 Z-0.125000 I33.081105 J-3.614224
G03 X118.327907 Y67.956872 Z-0.125000 I-69.016529 J13.837036
G03 X118.269414 Y70.059224 Z-0.125000 I-7.726304 J0.837024
G03 X117.854732 Y71.899556 Z-0.125000 I-16.034249 J-2.646106
G03 X117.364000 Y73.211344 Z-0.125000 I-8.607668 J-2.472397
G03 X115.400898 Y76.221240 Z-0.125000 I-11.532125 J-5.376303
G03 X112.145942 Y79.165358 Z-0.125000 I-14.273656 J-12.509293
G03 X106.813407 Y82.544364 Z-0.125000 I-33.569808 J-47.080534
G03 X105.491899 Y82.888978 Z-0.125000 I-1.321508 J-2.361514
G02 X105.213603 Y82.988433 Z-0.125000 I0.000000 J0.439093
G02 X105.114141 Y83.198517 Z-0.125000 I0.172140 J0.210084
G03 X105.020841 Y83.414748 Z-0.125000 I-0.297217 J-0.000000
G03 X104.785928 Y83.508044 Z-0.125000 I-0.234913 J-0.249099
G02 X104.469685 Y83.561586 Z-0.125000 I0.000000 J0.960703
G02 X103.516566 Y83.950554 Z-0.125000 I3.257542 J9.344448
G03 X100.332096 Y85.064101 Z-0.125000 I-6.972468 J-14.829371
G03 X92.271153 Y86.622434 Z-0.125000 I-22.435651 J-94.427124
G02 X90.332454 Y86.929087 Z-0.125000 I17.696228 J118.159533
G02 X88.669083 Y87.222563 Z-0.125000 I14.536289 J87.249802
G03 X86.998555 Y87.425253 Z-0.125000 I-2.430508 J-13.046288
G03 X83.275374 Y87.531949 Z-0.125000 I-3.723181 J-64.907497
G02 X79.120489 Y88.207182 Z-0.125000 I0.000000 J13.120668
G02 X78.677593 Y89.066907 Z-0.125000 I0.219313 J0.656925
G02 X79.126699 Y89.451540 Z-0.125000 I0.527663 J-0.161602
G02 X82.372954 Y89.598349 Z-0.125000 I2.372511 J-16.497047
G02 X95.980277 Y88.117196 Z-0.125000 I-6.412289 J-122.155216
G02 X102.276730 Y86.296343 Z-0.125000 I-4.590552 J-27.670893
G03 X102.878920 Y86.057162 Z-0.125000 I6.130880 J14.558121
G03 X104.815460 Y85.347803 Z-0.125000 I56.007476 J149.901607
G02 X107.084618 Y84.476012 Z-0.125000 I-18.555966 J-51.687845
G02 X110.042258 Y83.205784 Z-0.125000 I-36.512365 J-89.094994
G02 X117.671984 Y79.424520 Z-0.125000 I-46.246259 J-102.902533
G02 X119.151813 Y78.254407 Z-0.125000 I-2.644367 J-4.865118
G03 X119.313329 Y78.100686 Z-0.125000 I1.045049 J0.936328
G03 X120.495851 Y77.164987 Z-0.125000 I40.441542 J49.894324
G02 X124.448741 Y73.550121 Z-0.125000 I-19.722426 J-25.535353
G02 X127.514692 Y69.584264 Z-0.125000 I-20.734305 J-19.197466
G03 X127.980011 Y68.897154 Z-0.125000 I13.449264 J8.606882
G03 X128.265612 Y68.535218 Z-0.125000 I4.006825 J2.868111
G02 X130.103712 Y65.526744 Z-0.125000 I-8.038153 J-6.976855
G02 X131.987090 Y59.273452 Z-0.125000 I-33.889688 J-13.617229
G03 X132.865272 Y55.971440 Z-0.125000 I29.413339 J6.054800
G03 X133.471895 Y54.745293 Z-0.125000 I4.574202 J1.499902
G03 X134.609901 Y54.025023 Z-0.125000 I1.410192 J0.968920
G03 X136.336919 Y54.283648 Z-0.125000 I0.457599 J2.839862
G02 X137.893145 Y54.456566 Z-0.125000 I1.017652 J-2.069335
G02 X138.506170 Y53.762603 Z-0.125000 I-0.188340 J-0.784118
G02 X137.863009 Y51.859173 Z-0.125000 I-2.354278 J-0.264875
G02 X135.867649 Y51.007237 Z-0.125000 I-1.995360 J1.910744
G02 X132.984117 Y52.184770 Z-0.125000 I-0.000000 J4.119348
G02 X130.815067 Y55.959737 Z-0.125000 I5.633978 J5.747854
G03 X130.457244 Y57.351142 Z-0.125000 I-171.458724 J-43.351672
G03 X130.207995 Y58.281230 Z-0.125000 I-76.879615 J-20.104105
G02 X129.975346 Y59.214878 Z-0.125000 I19.587526 J5.376679
G02 X129.756984 Y60.293181 Z-0.125000 I25.910225 J5.808219
G03 X128.481686 Y64.380948 Z-0.125000 I-17.128004 J-3.100763
G03 X125.994835 Y68.589758 Z-0.125000 I-20.661501 J-9.369115
G03 X125.502287 Y68.898815 Z-0.125000 I-0.646116 J-0.482703
G03 X125.196920 Y68.744520 Z-0.125000 I-0.053165 J-0.274106
G03 X123.728669 Y64.144014 Z-0.125000 I16.257653 J-7.723175
G03 X122.154036 Y51.471532 Z-0.125000 I123.951184 J-21.835759
G02 X121.503787 Y46.607746 Z-0.125000 I-40.783777 J2.977107
G02 X120.642220 Y43.733244 Z-0.125000 I-15.009676 J2.932442
G03 X120.410529 Y43.106367 Z-0.125000 I8.718171 J-3.578451
G03 X120.029727 Y41.876055 Z-0.125000 I33.249863 J-10.965472
G02 X119.624413 Y40.661081 Z-0.125000 I-15.303813 J4.430245
G02 X119.443303 Y40.328394 Z-0.125000 I-1.303179 J0.493790
G03 X118.657256 Y38.739879 Z-0.125000 I4.088434 J-3.011824
G03 X116.641471 Y30.732923 Z-0.125000 I105.801648 J-30.893222
G03 X115.817906 Y24.903393 Z-0.125000 I41.876378 J-8.889015
G03 X115.443404 Y14.012162 Z-0.125000 I146.304274 J-10.482818
G03 X115.557302 Y5.040429 Z-0.125000 I452.848359 J1.262425
G03 X115.664816 Y4.218766 Z-0.125000 I3.860422 J0.087266
G03 X116.015768 Y3.559828 Z-0.125000 I1.456193 J0.352644
G03 X116.577545 Y3.221522 Z-0.125000 I0.852790 J0.780524
G02 X117.392421 Y2.593398 Z-0.125000 I-0.330802 J-1.271792
G02 X117.467773 Y1.636966 Z-0.125000 I-0.996162 J-0.559667
G02 X117.144912 Y1.389516 Z-0.125000 I-0.357788 J0.132473
G02 X112.417327 Y1.172662 Z-0.125000 I-4.727585 J51.424220
G02 X107.626417 Y1.326955 Z-0.125000 I0.000000 J74.457866
G02 X107.343703 Y1.499797 Z-0.125000 I0.022895 J0.355084
G01 X107.343717 Y1.499797 Z-0.125000
G00 Z5.000000

(End cutting path id: path16912)


(Start cutting path id: path16912)
(Change tool to Cylindrical cutter)

G00 Z5.000000
G00 X103.538613 Y38.307118

G01 Z-0.125000 F1000.0(Penetrate)
G02 X102.154146 Y39.388118 Z-0.125000 I0.794997 J2.445238 F1100.000000
G02 X101.540000 Y41.500031 Z-0.125000 I3.417133 J2.138958
G02 X101.891796 Y43.560368 Z-0.125000 I5.963900 J0.041886
G02 X102.732197 Y44.816605 Z-0.125000 I2.939407 J-1.057188
G03 X103.251944 Y45.474727 Z-0.125000 I-1.710451 J1.885110
G03 X105.371768 Y49.614340 Z-0.125000 I-68.593819 J37.738268
G03 X106.398282 Y54.002615 Z-0.125000 I-9.594248 J4.558505
G03 X105.479458 Y56.336405 Z-0.125000 I-3.289384 J0.052722
G03 X104.687139 Y56.793240 Z-0.125000 I-1.185638 J-1.140828
G03 X102.178779 Y57.148982 Z-0.125000 I-3.018065 J-12.259392
G03 X99.637015 Y56.442155 Z-0.125000 I-0.173690 J-4.298938
G03 X98.372366 Y54.639654 Z-0.125000 I1.649603 J-2.502268
G02 X97.965299 Y53.023918 Z-0.125000 I-72.774880 J17.475705
G02 X97.495727 Y51.316767 Z-0.125000 I-81.613151 J21.530466
G03 X97.024450 Y49.610087 Z-0.125000 I89.747052 J-25.700870
G03 X96.713661 Y48.376217 Z-0.125000 I46.611365 J-12.396616
G02 X96.341227 Y47.170809 Z-0.125000 I-9.287834 J2.209415
G02 X95.960021 Y46.408556 Z-0.125000 I-4.069443 J1.558700
G03 X95.707405 Y45.700351 Z-0.125000 I1.464142 J-0.921415
G03 X95.827393 Y45.340677 Z-0.125000 I0.436548 J-0.054216
G02 X96.052020 Y44.961199 Z-0.125000 I-0.686969 J-0.662861
G02 X96.153879 Y44.290399 Z-0.125000 I-2.157854 J-0.670800
G02 X95.930607 Y43.802267 Z-0.125000 I-0.645228 J0.000000
G02 X95.332520 Y43.580390 Z-0.125000 I-0.595962 J0.689429
G02 X94.537992 Y43.687729 Z-0.125000 I0.005691 J3.036356
G02 X93.680329 Y44.031426 Z-0.125000 I1.066177 J3.902499
G03 X92.824147 Y44.418782 Z-0.125000 I-3.161988 J-5.849118
G03 X91.051310 Y45.003447 Z-0.125000 I-9.098533 J-24.608642
G02 X89.585666 Y45.747663 Z-0.125000 I1.235289 J4.248068
G02 X89.343422 Y46.319974 Z-0.125000 I0.386067 J0.500835
G02 X89.618670 Y46.949929 Z-0.125000 I1.160672 J-0.132026
G02 X90.180395 Y47.292543 Z-0.125000 I0.811085 J-0.698006
G03 X90.733013 Y47.667995 Z-0.125000 I-0.220080 J0.918350
G03 X91.276379 Y48.852445 Z-0.125000 I-2.939744 J2.065466
G03 X91.567501 Y50.241489 Z-0.125000 I-16.720583 J4.229399
G03 X91.649726 Y51.088531 Z-0.125000 I-6.116730 J1.021278
G02 X92.075467 Y53.898199 Z-0.125000 I11.647529 J-0.327829
G02 X93.416445 Y57.407139 Z-0.125000 I19.603128 J-5.480835
G01 X94.033315 Y58.660248 Z-0.125000
G01 X93.301552 Y59.005787 Z-0.125000
G02 X93.038821 Y60.065848 Z-0.125000 I0.300856 J0.637155
G02 X94.732140 Y60.912249 Z-0.125000 I1.693319 J-1.270636
G02 X97.667623 Y60.325557 Z-0.125000 I-0.000000 J-7.637121
G02 X98.615295 Y59.295480 Z-0.125000 I-0.641767 J-1.541394
G03 X98.874036 Y59.087536 Z-0.125000 I0.287238 J0.092459
G03 X101.704245 Y59.002488 Z-0.125000 I2.073115 J21.854688
G02 X104.641747 Y58.964643 Z-0.125000 I1.069760 J-30.988305
G02 X105.498875 Y58.773493 Z-0.125000 I-0.166897 J-2.765655
G02 X107.936071 Y56.662654 Z-0.125000 I-1.810699 J-4.553076
G02 X108.996853 Y52.689318 Z-0.125000 I-6.911005 J-3.973336
G02 X108.758693 Y50.896885 Z-0.125000 I-6.864149 J-0.000000
G02 X107.662625 Y47.757152 Z-0.125000 I-22.412551 J6.062945
G03 X106.472707 Y44.587377 Z-0.125000 I32.103280 J-13.859644
G03 X106.308791 Y43.540684 Z-0.125000 I3.259886 J-1.046693
G03 X106.535209 Y42.876306 Z-0.125000 I1.087951 J-0.000000
G03 X106.995740 Y42.649886 Z-0.125000 I0.460531 J0.355142
G02 X108.371984 Y41.482177 Z-0.125000 I0.000000 J-1.394865
G02 X107.581204 Y39.102804 Z-0.125000 I-2.655985 J-0.438382
G02 X106.725544 Y38.409239 Z-0.125000 I-4.529476 J4.713468
G02 X106.423842 Y38.316440 Z-0.125000 I-0.301703 J0.444039
G03 X106.086362 Y38.296874 Z-0.125000 I-0.000000 J-2.920248
G03 X105.226091 Y38.177050 Z-0.125000 I2.223777 J-19.113640
G02 X104.375376 Y38.141322 Z-0.125000 I-0.574928 J3.543501
G02 X103.538551 Y38.307118 Z-0.125000 I0.276733 J3.591513
G01 X103.538613 Y38.307118 Z-0.125000
G00 Z5.000000

(End cutting path id: path16912)


(Start cutting path id: path16912)
(Change tool to Cylindrical cutter)

G00 Z5.000000
G00 X93.913873 Y63.291255

G01 Z-0.125000 F1000.0(Penetrate)
G02 X90.560828 Y65.084157 Z-0.125000 I1.692438 J7.197008 F1100.000000
G02 X89.583100 Y67.334625 Z-0.125000 I2.101124 J2.250468
G02 X90.187647 Y70.522252 Z-0.125000 I8.706055 J0.000000
G02 X91.075152 Y71.126786 Z-0.125000 I0.887505 J-0.349199
G03 X91.241516 Y71.179843 Z-0.125000 I0.000000 J0.287353
G03 X91.841507 Y71.670924 Z-0.125000 I-3.280848 J4.620521
G02 X94.291809 Y73.248174 Z-0.125000 I5.499375 J-5.851504
G02 X98.356325 Y74.344901 Z-0.125000 I6.363982 J-15.505189
G03 X99.493176 Y74.544851 Z-0.125000 I-2.166504 J15.649911
G03 X99.619190 Y74.614830 Z-0.125000 I-0.051611 J0.241386
G03 X99.948834 Y75.828377 Z-0.125000 I-0.939799 J0.906830
G03 X98.488582 Y79.294305 Z-0.125000 I-11.355474 J-2.743668
G03 X96.366636 Y81.240496 Z-0.125000 I-4.602656 J-2.888429
G03 X94.238361 Y81.475152 Z-0.125000 I-1.371855 J-2.673589
G03 X93.047019 Y80.538871 Z-0.125000 I0.476700 J-1.832646
G03 X92.664546 Y78.546445 Z-0.125000 I2.990411 J-1.606974
G02 X92.394251 Y76.274845 Z-0.125000 I-4.938018 J-0.564313
G02 X91.450798 Y75.228070 Z-0.125000 I-1.771238 J0.647856
G02 X90.276504 Y75.050723 Z-0.125000 I-0.869319 J1.779706
G02 X89.336491 Y75.557556 Z-0.125000 I0.246608 J1.582506
G02 X88.513211 Y77.548221 Z-0.125000 I2.364568 J2.143491
G02 X89.106714 Y80.350720 Z-0.125000 I5.637275 J0.270251
G02 X92.510495 Y82.898265 Z-0.125000 I4.253536 J-2.135486
G02 X98.469764 Y82.049669 Z-0.125000 I1.703333 J-9.387133
G02 X101.856268 Y79.631008 Z-0.125000 I-5.906737 J-11.850507
G02 X103.275797 Y77.314263 Z-0.125000 I-3.961474 J-4.020558
G02 X103.477865 Y76.207210 Z-0.125000 I-4.264894 J-1.350432
G02 X103.545632 Y72.361765 Z-0.125000 I-52.176803 J-2.842815
G03 X103.753256 Y68.580415 Z-0.125000 I25.595616 J-0.490986
G03 X104.180178 Y67.465946 Z-0.125000 I2.521045 J0.326735
G03 X104.946069 Y67.323377 Z-0.125000 I0.454432 J0.312745
G03 X105.937409 Y68.667987 Z-0.125000 I-1.432167 J2.093640
G02 X107.116499 Y70.092997 Z-0.125000 I2.315607 J-0.715682
G02 X108.339055 Y69.943041 Z-0.125000 I0.504028 J-0.949364
G02 X108.913003 Y68.525391 Z-0.125000 I-1.165736 J-1.296968
G02 X108.094580 Y66.418983 Z-0.125000 I-3.797982 J0.263469
G02 X105.203640 Y64.406405 Z-0.125000 I-4.808569 J3.824588
G02 X102.692757 Y64.644373 Z-0.125000 I-0.983103 J2.992518
G03 X102.099086 Y64.720692 Z-0.125000 I-0.392779 J-0.708170
G03 X100.275283 Y64.025307 Z-0.125000 I2.136241 J-8.342130
G02 X98.390770 Y63.323220 Z-0.125000 I-3.824172 J7.384478
G02 X96.479572 Y63.114869 Z-0.125000 I-1.772586 J7.390028
G02 X94.517410 Y63.200137 Z-0.125000 I0.711565 J38.993470
G02 X93.913873 Y63.291255 Z-0.125000 I0.257854 J3.752304
G01 X93.913873 Y63.291255 Z-0.125000
G00 Z5.000000

(End cutting path id: path16912)


(Start cutting path id: path16912)
(Change tool to Cylindrical cutter)

G00 Z5.000000
G00 X99.597233 Y65.615672

G01 Z-0.125000 F1000.0(Penetrate)
G03 X99.674184 Y65.809896 Z-0.125000 I-0.197557 J0.190627 F1100.000000
G03 X99.556706 Y68.715064 Z-0.125000 I-53.229047 J-0.697494
G01 X99.357635 Y71.650110 Z-0.125000
G01 X98.102198 Y71.407047 Z-0.125000
G03 X94.498563 Y69.731421 Z-0.125000 I1.563525 J-8.075387
G03 X93.900950 Y68.014947 Z-0.125000 I1.080739 J-1.338544
G03 X95.253498 Y66.035846 Z-0.125000 I3.168102 J0.713403
G03 X97.870919 Y65.337996 Z-0.125000 I2.318455 J3.438317
G03 X99.407976 Y65.516831 Z-0.125000 I-1.279265 J17.689801
G03 X99.597196 Y65.615672 Z-0.125000 I-0.053574 J0.333107
G01 X99.597233 Y65.615672 Z-0.125000
G00 Z5.000000

(End cutting path id: path16912)


(Start cutting path id: path16912)
(Change tool to Cylindrical cutter)

G00 Z5.000000
G00 X60.582048 Y54.590683

G01 Z-0.125000 F1000.0(Penetrate)
G03 X67.077722 Y58.071102 Z-0.125000 I-4.155948 J15.558251 F1100.000000
G03 X69.862342 Y62.775111 Z-0.125000 I-5.860932 J6.645687
G02 X70.269652 Y64.464595 Z-0.125000 I54.212169 J-12.175904
G02 X70.499013 Y65.245681 Z-0.125000 I11.801420 J-3.041199
G03 X71.100936 Y68.069682 Z-0.125000 I-12.600599 J4.161909
G03 X71.471412 Y74.841166 Z-0.125000 I-72.832183 J7.380619
G03 X70.353465 Y82.325717 Z-0.125000 I-24.260720 J0.202009
G03 X67.856450 Y86.329183 Z-0.125000 I-8.997198 J-2.831228
G03 X64.189591 Y88.485874 Z-0.125000 I-6.467058 J-6.799860
G03 X57.624983 Y89.527980 Z-0.125000 I-6.836074 J-21.865467
G01 X56.280951 Y89.543897 Z-0.125000
G01 X56.063594 Y78.245999 Z-0.125000
G02 X55.750092 Y66.953914 Z-0.125000 I-662.894445 J12.753552
G02 X55.546862 Y64.007555 Z-0.125000 I-45.285520 J1.643451
G03 X55.297887 Y61.063431 Z-0.125000 I85.983929 J-8.753973
G03 X55.101344 Y57.394967 Z-0.125000 I133.322628 J-8.982467
G01 X54.955200 Y53.722929 Z-0.125000
G01 X56.962111 Y53.941355 Z-0.125000
G03 X58.956201 Y54.228376 Z-0.125000 I-3.157242 J29.005584
G03 X60.582048 Y54.590677 Z-0.125000 I-3.521326 J19.631316
G01 X60.582048 Y54.590683 Z-0.125000
G00 Z5.000000

(End cutting path id: path16912)


(Start cutting path id: path16912)
(Change tool to Cylindrical cutter)

G00 Z5.000000
G00 X40.165003 Y62.356798

G01 Z-0.125000 F1000.0(Penetrate)
G02 X38.849999 Y63.117662 Z-0.125000 I0.921457 J3.109354 F1100.000000
G02 X37.532223 Y64.863995 Z-0.125000 I4.637496 J4.869797
G02 X36.255104 Y68.231929 Z-0.125000 I13.257710 J6.953425
G02 X35.821784 Y71.797763 Z-0.125000 I14.455144 J3.565835
G02 X36.273489 Y75.313227 Z-0.125000 I13.905679 J0.000000
G02 X37.363191 Y77.696863 Z-0.125000 I7.356630 J-1.922255
G02 X40.709516 Y79.367285 Z-0.125000 I3.181156 J-2.185723
G02 X44.411056 Y77.394987 Z-0.125000 I-0.207715 J-4.849442
G02 X44.987500 Y76.202784 Z-0.125000 I-2.913053 J-2.143953
G02 X45.227672 Y74.400962 Z-0.125000 I-6.575106 J-1.793341
G02 X44.676607 Y71.499926 Z-0.125000 I-7.965954 J0.010314
G02 X43.294980 Y69.478997 Z-0.125000 I-5.094932 J2.000452
G02 X41.582687 Y68.401406 Z-0.125000 I-3.753135 J4.064520
G02 X39.647766 Y68.031468 Z-0.125000 I-1.934920 J4.875234
G03 X38.837799 Y67.698897 Z-0.125000 I0.000000 J-1.152611
G03 X38.629085 Y67.025496 Z-0.125000 I0.525334 J-0.531866
G03 X39.669465 Y65.060850 Z-0.125000 I3.734560 J0.719850
G03 X40.873548 Y64.772933 Z-0.125000 I0.835536 J0.832533
G03 X41.450662 Y65.092072 Z-0.125000 I-0.552970 J1.681345
G03 X43.142273 Y66.655040 Z-0.125000 I-13.785340 J16.616878
G02 X45.616693 Y68.402918 Z-0.125000 I5.926358 J-5.764351
G02 X46.844904 Y68.356425 Z-0.125000 I0.568179 J-1.236492
G02 X47.249041 Y67.879529 Z-0.125000 I-0.428739 J-0.773015
G02 X47.470069 Y66.598067 Z-0.125000 I-3.604284 J-1.281462
G02 X46.210482 Y63.765953 Z-0.125000 I-3.813722 J0.000000
G02 X42.702150 Y62.298130 Z-0.125000 I-3.844965 J4.263432
G02 X40.759113 Y62.263620 Z-0.125000 I-1.393135 J23.721322
G02 X40.165003 Y62.356739 Z-0.125000 I0.052738 J2.278275
G01 X40.165003 Y62.356798 Z-0.125000
G00 Z5.000000

(End cutting path id: path16912)


(Start cutting path id: path16912)
(Change tool to Cylindrical cutter)

G00 Z5.000000
G00 X41.145311 Y70.225568

G01 Z-0.125000 F1000.0(Penetrate)
G03 X43.644669 Y73.013321 Z-0.125000 I-1.343512 J3.718800 F1100.000000
G03 X42.674055 Y76.535436 Z-0.125000 I-3.658925 J0.886481
G03 X41.880146 Y77.167227 Z-0.125000 I-2.949921 J-2.892163
G03 X41.116075 Y77.488625 Z-0.125000 I-1.438931 J-2.351900
G03 X40.373525 Y77.412428 Z-0.125000 I-0.266754 J-1.056676
G03 X39.291353 Y76.603102 Z-0.125000 I1.559126 J-3.212912
G03 X38.442923 Y75.434379 Z-0.125000 I4.846890 J-4.410899
G03 X38.103822 Y74.517025 Z-0.125000 I2.611753 J-1.486793
G03 X37.765860 Y70.949086 Z-0.125000 I18.317751 J-3.535067
G03 X38.111611 Y70.095012 Z-0.125000 I1.233108 J0.002173
G03 X38.895897 Y69.781648 Z-0.125000 I0.740067 J0.714100
G03 X41.145305 Y70.225568 Z-0.125000 I-0.325888 J7.572320
G01 X41.145311 Y70.225568 Z-0.125000
G00 Z5.000000

(End cutting path id: path16912)


(Start cutting path id: path16912)
(Change tool to Cylindrical cutter)

G00 Z5.000000
G00 X17.453330 Y52.274361

G01 Z-0.125000 F1000.0(Penetrate)
G02 X12.998943 Y53.327989 Z-0.125000 I7.544607 J41.838741 F1100.000000
G02 X11.078486 Y54.149849 Z-0.125000 I2.498965 J8.494092
G02 X8.187845 Y56.324345 Z-0.125000 I7.397477 J12.842320
G02 X7.746425 Y57.363305 Z-0.125000 I1.001979 J1.038960
G03 X7.659305 Y57.729811 Z-0.125000 I-0.814488 J-0.000000
G03 X7.517856 Y57.816929 Z-0.125000 I-0.141449 J-0.071273
G02 X7.359730 Y57.915838 Z-0.125000 I0.000000 J0.175852
G02 X6.727122 Y59.441967 Z-0.125000 I12.405894 J6.036645
G02 X5.921611 Y63.670917 Z-0.125000 I14.094656 J4.875876
G02 X6.219799 Y71.126786 Z-0.125000 I44.764983 J1.943577
G02 X8.373334 Y84.869502 Z-0.125000 I215.035059 J-26.656701
G02 X9.626785 Y89.079613 Z-0.125000 I21.228830 J-4.028684
G03 X9.802775 Y89.549536 Z-0.125000 I-7.062982 J2.913072
G03 X10.305817 Y91.091564 Z-0.125000 I-75.632393 J25.525897
G02 X11.898764 Y95.185530 Z-0.125000 I31.813860 J-10.021772
G02 X13.550851 Y98.038983 Z-0.125000 I17.025097 J-7.952169
G03 X17.209141 Y105.089709 Z-0.125000 I-24.312441 J17.089001
G03 X17.241611 Y108.322969 Z-0.125000 I-4.634740 J1.663339
G03 X16.838082 Y109.047758 Z-0.125000 I-2.154169 J-0.724617
G03 X16.516192 Y109.199151 Z-0.125000 I-0.321890 J-0.266502
G03 X15.104128 Y108.782716 Z-0.125000 I-0.000000 J-2.602261
G03 X12.389576 Y106.533316 Z-0.125000 I8.097416 J-12.534524
G03 X11.252099 Y104.973275 Z-0.125000 I5.378119 J-5.116070
G03 X10.403440 Y102.894185 Z-0.125000 I8.814588 J-4.810753
G02 X8.822543 Y99.613449 Z-0.125000 I-10.147674 J2.868622
G02 X7.597088 Y98.984614 Z-0.125000 I-1.225455 J0.879650
G02 X7.203309 Y99.098948 Z-0.125000 I0.000000 J0.735277
G02 X6.205369 Y99.867194 Z-0.125000 I3.714640 J5.857540
G02 X5.516165 Y100.875131 Z-0.125000 I1.866939 J2.016171
G02 X5.137075 Y102.575604 Z-0.125000 I5.203924 J2.052612
G02 X5.546729 Y104.913050 Z-0.125000 I5.054412 J0.318800
G02 X7.419023 Y107.826188 Z-0.125000 I9.890630 J-4.298541
G02 X11.163885 Y111.039902 Z-0.125000 I14.249602 J-12.815952
G02 X14.754795 Y112.633564 Z-0.125000 I6.658102 J-10.159905
G02 X18.543665 Y112.381135 Z-0.125000 I1.515841 J-5.808789
G02 X21.245508 Y109.978304 Z-0.125000 I-2.060894 J-5.037803
G02 X21.690864 Y108.672228 Z-0.125000 I-3.434346 J-1.900038
G02 X21.933442 Y105.484776 Z-0.125000 I-20.820142 J-3.187451
G02 X21.463544 Y101.599375 Z-0.125000 I-16.298373 J0.000000
G02 X19.578051 Y95.889300 Z-0.125000 I-37.367295 J9.172515
G03 X17.576787 Y90.536597 Z-0.125000 I66.949818 J-28.081606
G03 X16.721125 Y87.222422 Z-0.125000 I24.736243 J-8.154008
G02 X16.390108 Y85.521793 Z-0.125000 I-159.665152 J30.195291
G02 X15.946589 Y83.353282 Z-0.125000 I-260.015308 J52.050539
G03 X14.423602 Y73.969499 Z-0.125000 I103.388109 J-21.595369
G03 X13.998281 Y66.615147 Z-0.125000 I62.995991 J-7.332694
G03 X14.190480 Y61.684489 Z-0.125000 I63.917583 J0.022464
G03 X14.455451 Y60.734051 Z-0.125000 I2.547242 J0.197987
G02 X14.851513 Y59.814619 Z-0.125000 I-7.526066 J-3.787010
G02 X14.912761 Y59.470650 Z-0.125000 I-0.964821 J-0.349237
G03 X15.739976 Y57.752545 Z-0.125000 I2.221884 J0.011578
G03 X19.218387 Y55.999068 Z-0.125000 I5.819456 J7.217340
G03 X25.480900 Y55.510106 Z-0.125000 I4.495349 J17.226518
G03 X29.877763 Y57.062374 Z-0.125000 I-0.973725 J9.761401
G03 X31.095233 Y58.602252 Z-0.125000 I-1.695658 J2.591856
G03 X31.476485 Y61.489540 Z-0.125000 I-6.412036 J2.315491
G02 X31.597715 Y63.736407 Z-0.125000 I8.157045 J0.686588
G02 X32.044200 Y64.413419 Z-0.125000 I1.043852 J-0.202680
G02 X33.514895 Y64.896092 Z-0.125000 I1.576523 J-2.321707
G02 X34.691151 Y64.513323 Z-0.125000 I0.067587 J-1.791015
G02 X35.927541 Y62.914255 Z-0.125000 I-2.570563 J-3.265064
G02 X36.419130 Y60.564749 Z-0.125000 I-5.368836 J-2.349506
G02 X35.753009 Y58.397341 Z-0.125000 I-3.859191 J0.000000
G02 X32.959342 Y55.467711 Z-0.125000 I-10.177459 J6.908304
G03 X32.184257 Y54.861438 Z-0.125000 I14.804503 J-19.725291
G03 X31.831258 Y54.548460 Z-0.125000 I3.580216 J-4.393583
G02 X27.055724 Y52.170948 Z-0.125000 I-6.162860 J6.393997
G02 X17.453330 Y52.274386 Z-0.125000 I-4.495570 J28.423682
G01 X17.453330 Y52.274361 Z-0.125000
G00 Z5.000000

(End cutting path id: path16912)


(Start cutting path id: path16912)
(Change tool to Cylindrical cutter)

G00 Z5.000000
G00 X3.078389 Y110.293400

G01 Z-0.125000 F1000.0(Penetrate)
G02 X2.241137 Y110.840365 Z-0.125000 I1.364482 J3.002925 F1100.000000
G02 X1.140927 Y112.030305 Z-0.125000 I5.781803 J6.449406
G02 X0.451019 Y113.447303 Z-0.125000 I3.160108 J2.415044
G02 X0.154257 Y115.836436 Z-0.125000 I8.983926 J2.328918
G02 X0.698489 Y119.101962 Z-0.125000 I10.476911 J-0.067966
G02 X1.939902 Y121.157073 Z-0.125000 I5.224386 J-1.753348
G02 X4.580598 Y122.509047 Z-0.125000 I3.264609 J-3.121574
G02 X7.746082 Y121.966842 Z-0.125000 I0.731180 J-5.242668
G02 X9.234072 Y120.551853 Z-0.125000 I-1.694324 J-3.271608
G02 X9.398459 Y119.134615 Z-0.125000 I-1.536396 J-0.896362
G02 X7.392947 Y116.935303 Z-0.125000 I-3.325565 J1.018471
G02 X2.780269 Y116.419583 Z-0.125000 I-3.210019 J7.824798
G03 X2.033442 Y116.281048 Z-0.125000 I-0.183673 J-1.092132
G03 X1.772945 Y115.824679 Z-0.125000 I0.269512 J-0.456369
G03 X2.942163 Y112.965449 Z-0.125000 I4.080620 J-0.000000
G03 X4.970233 Y112.569056 Z-0.125000 I1.302857 J1.279510
G03 X6.619475 Y113.859778 Z-0.125000 I-1.644497 J3.800321
G03 X7.149077 Y115.428707 Z-0.125000 I-2.059151 J1.568929
G02 X8.104209 Y116.609099 Z-0.125000 I1.206956 J0.000000
G02 X10.400658 Y116.122378 Z-0.125000 I0.601868 J-2.821179
G02 X10.848942 Y115.513753 Z-0.125000 I-0.732188 J-1.008699
G02 X10.931145 Y114.557109 Z-0.125000 I-1.904704 J-0.645524
G02 X10.209110 Y112.832616 Z-0.125000 I-3.866347 J0.605415
G02 X7.935732 Y110.514659 Z-0.125000 I-9.483010 J7.026828
G02 X5.865686 Y109.755935 Z-0.125000 I-2.236663 J2.899101
G02 X3.078389 Y110.293400 Z-0.125000 I-0.276210 J6.063778
G01 X3.078389 Y110.293400 Z-0.125000
G00 Z5.000000

(End cutting path id: path16912)


(Start cutting path id: path16912)
(Change tool to Cylindrical cutter)

G00 Z5.000000
G00 X6.712707 Y119.238371

G01 Z-0.125000 F1000.0(Penetrate)
G01 X7.543978 Y119.802841 Z-0.125000 F1100.000000
G01 X6.823849 Y120.216359 Z-0.125000
G03 X4.762633 Y120.458169 Z-0.125000 I-1.313043 J-2.286604
G03 X2.660126 Y118.984284 Z-0.125000 I1.145226 J-3.870234
G03 X2.754932 Y118.690779 Z-0.125000 I0.152765 J-0.112719
G03 X4.055263 Y118.537004 Z-0.125000 I1.044566 J3.258177
G03 X5.825448 Y118.834355 Z-0.125000 I-0.732911 J9.780946
G03 X6.712707 Y119.238371 Z-0.125000 I-0.738556 J2.798204
G01 X6.712707 Y119.238371 Z-0.125000
G00 Z5.000000

(End cutting path id: path16912)


(Footer)
M5
G00 X0.0000 Y0.0000
M2
(Using default footer. To add your own footer create file "footer" in the output dir.)
(end)
%