%
(Header)
(Generated by gcodetools from Inkscape.)
(Using default header. To add your own header create file "header" in the output dir.)
M3
(Header end.)
G21 (All units in mm)

(Start cutting path id: path4771)
(Change tool to Cylindrical cutter)

G00 Z5.000000
G00 X10.621586 Y23.049525

G01 Z-0.125000 F1000.0(Penetrate)
G02 X9.279431 Y23.523173 Z-0.125000 I0.000000 J2.138428 F1100.000000
G02 X5.190886 Y27.427794 Z-0.125000 I21.176526 J26.266904
G02 X2.704844 Y31.050623 Z-0.125000 I13.395741 J11.856761
G02 X1.010057 Y35.491851 Z-0.125000 I18.589821 J9.637918
G02 X1.136036 Y40.734147 Z-0.125000 I10.356778 J2.373776
G02 X1.523603 Y41.677862 Z-0.125000 I4.232036 J-1.186582
G00 Z5.000000

(End cutting path id: path4771)


(Start cutting path id: path4775)
(Change tool to Cylindrical cutter)

G00 Z5.000000
G00 X3.318737 Y44.705835

G01 Z-0.125000 F1000.0(Penetrate)
G02 X4.211448 Y45.438351 Z-0.125000 I7.635551 J-8.395159 F1100.000000
G02 X9.374952 Y48.281671 Z-0.125000 I13.216050 J-17.890356
G02 X11.707599 Y49.055388 Z-0.125000 I8.869982 J-22.838564
G02 X13.783397 Y49.502197 Z-0.125000 I4.879788 J-17.625365
G02 X16.926783 Y49.789665 Z-0.125000 I3.859988 J-24.878206
G03 X17.813614 Y49.826264 Z-0.125000 I-0.988565 J34.716464
G00 Z5.000000

(End cutting path id: path4775)


(Start cutting path id: path4777)
(Change tool to Cylindrical cutter)

G00 Z5.000000
G00 X31.561706 Y54.771550

G01 Z-0.125000 F1000.0(Penetrate)
G03 X30.879547 Y55.282925 Z-0.125000 I-17.751733 J-22.969616 F1100.000000
G02 X28.273561 Y57.414944 Z-0.125000 I17.343314 J23.857549
G03 X23.657357 Y61.100583 Z-0.125000 I-28.961214 J-31.539785
G03 X22.351176 Y61.508028 Z-0.125000 I-1.306181 J-1.889948
G00 Z5.000000

(End cutting path id: path4777)


(Start cutting path id: path4781)
(Change tool to Cylindrical cutter)

G00 Z5.000000
G00 X54.095973 Y76.749432

G01 Z-0.125000 F1000.0(Penetrate)
G02 X53.204406 Y76.536525 Z-0.125000 I-2.536699 J8.649465 F1100.000000
G02 X52.218123 Y76.393687 Z-0.125000 I-2.290405 J12.338473
G03 X45.989336 Y75.481496 Z-0.125000 I7.919394 J-75.798991
G03 X44.001673 Y74.841375 Z-0.125000 I1.556769 J-8.240033
G02 X42.612705 Y74.248112 Z-0.125000 I-9.758073 J20.923350
G02 X42.243298 Y74.111103 Z-0.125000 I-4.522561 J11.627313
G00 Z5.000000

(End cutting path id: path4781)


(Start cutting path id: path4787)
(Change tool to Cylindrical cutter)

G00 Z5.000000
G00 X56.649860 Y77.165590

G01 Z-0.125000 F1000.0(Penetrate)
G02 X70.768067 Y77.432541 Z-0.125000 I8.906047 J-97.545666 F1100.000000
G02 X85.395212 Y75.633832 Z-0.125000 I-5.677294 J-106.541434
G02 X88.479195 Y74.789733 Z-0.125000 I-4.023691 J-20.756716
G02 X88.993883 Y74.572718 Z-0.125000 I-1.672128 J-4.684577
G00 Z5.000000

(End cutting path id: path4787)


(Start cutting path id: path4793)
(Change tool to Cylindrical cutter)

G00 Z5.000000
G00 X99.968739 Y71.036788

G01 Z-0.125000 F1000.0(Penetrate)
G02 X100.775773 Y71.229235 Z-0.125000 I1.702547 J-5.351307 F1100.000000
G02 X103.540440 Y71.521706 Z-0.125000 I4.050364 J-25.074121
G03 X110.637983 Y72.381596 Z-0.125000 I-2.589684 J51.096852
G03 X117.770089 Y74.265622 Z-0.125000 I-10.312955 J53.481925
G02 X120.879396 Y75.227402 Z-0.125000 I20.014864 J-59.198524
G02 X121.041666 Y75.184969 Z-0.125000 I0.044901 J-0.159785
G00 Z5.000000

(End cutting path id: path4793)


(Start cutting path id: path4791)
(Change tool to Cylindrical cutter)

G00 Z5.000000
G00 X110.882354 Y47.594523

G01 Z-0.125000 F1000.0(Penetrate)
G02 X107.397334 Y47.790126 Z-0.125000 I43.540028 J806.887281 F1100.000000
G02 X104.242266 Y47.998299 Z-0.125000 I12.015698 J206.123420
G03 X101.550563 Y48.110029 Z-0.125000 I-3.087978 J-41.913924
G02 X101.201736 Y48.116123 Z-0.125000 I0.204616 J21.699965
G00 Z5.000000

(End cutting path id: path4791)


(Start cutting path id: path4791)
(Change tool to Cylindrical cutter)

G00 Z5.000000
G00 X101.201736 Y48.116123

G01 Z-0.125000 F1000.0(Penetrate)
G03 X98.670987 Y59.348836 Z-0.125000 I-56.189060 J-6.758038 F1100.000000
G03 X93.873177 Y69.319908 Z-0.125000 I-42.085470 J-14.110567
G01 X93.388066 Y70.071052 Z-0.125000
G00 Z5.000000

(End cutting path id: path4791)


(Start cutting path id: path4789)
(Change tool to Cylindrical cutter)

G00 Z5.000000
G00 X91.352654 Y21.786106

G01 Z-0.125000 F1000.0(Penetrate)
G02 X91.314930 Y21.700696 Z-0.125000 I-0.115549 J-0.000000 F1100.000000
G02 X88.423195 Y19.116771 Z-0.125000 I-134.275719 J147.361246
G01 X88.423195 Y19.116776 Z-0.125000
G02 X80.981931 Y13.396159 Z-0.125000 I-48.274412 J55.094352
G02 X77.982313 Y12.106434 Z-0.125000 I-4.941363 J7.359433
G03 X77.083890 Y11.892761 Z-0.125000 I7.996416 J-35.617949
G03 X76.555143 Y11.747869 Z-0.125000 I3.132883 J-12.469868
G00 Z5.000000

(End cutting path id: path4789)


(Start cutting path id: path4791)
(Change tool to Cylindrical cutter)

G00 Z5.000000
G00 X99.784718 Y20.838758

G01 Z-0.125000 F1000.0(Penetrate)
G03 X100.182551 Y22.355041 Z-0.125000 I-54.646984 J15.148289 F1100.000000
G03 X100.394732 Y23.377669 Z-0.125000 I-13.277598 J3.288235
G03 X101.308804 Y29.651200 Z-0.125000 I-143.991168 J24.183300
G03 X101.853823 Y38.372834 Z-0.125000 I-71.643547 J8.854886
G03 X101.399028 Y47.211273 Z-0.125000 I-83.247033 J0.147320
G03 X101.201736 Y48.116123 Z-0.125000 I-4.191748 J-0.440029
G03 X101.111636 Y48.137773 Z-0.125000 I-0.084188 J-0.152053
G03 X96.610676 Y47.959861 Z-0.125000 I13.955256 J-410.073598
G03 X92.133100 Y47.543532 Z-0.125000 I2.120394 J-47.090736
G03 X87.296512 Y46.643194 Z-0.125000 I7.896906 J-55.863151
G02 X80.072131 Y45.564433 Z-0.125000 I-10.388399 J44.840351
G02 X78.011884 Y46.003444 Z-0.125000 I-0.263139 J3.818908
G03 X75.371298 Y46.437619 Z-0.125000 I-1.963034 J-3.691963
G03 X72.042190 Y45.023160 Z-0.125000 I1.237899 J-7.538519
G02 X67.371280 Y42.122853 Z-0.125000 I-19.333694 J25.925305
G02 X65.493846 Y41.692207 Z-0.125000 I-1.799632 J3.537902
G00 Z5.000000

(End cutting path id: path4791)


(Start cutting path id: path4785)
(Change tool to Cylindrical cutter)

G00 Z5.000000
G00 X55.493254 Y38.861717

G01 Z-0.125000 F1000.0(Penetrate)
G02 X53.474052 Y39.028541 Z-0.125000 I-0.764753 J3.047006 F1100.000000
G02 X47.212711 Y42.468272 Z-0.125000 I15.596025 J35.808064
G02 X43.466534 Y45.072344 Z-0.125000 I94.452131 J139.873975
G02 X41.884657 Y46.279776 Z-0.125000 I18.684898 J26.119332
G03 X40.337392 Y47.534103 Z-0.125000 I-363.984362 J-447.408469
G03 X35.950631 Y51.073389 Z-0.125000 I-2909.008871 J-3601.077005
G02 X31.824288 Y54.552081 Z-0.125000 I76.366791 J94.771123
G03 X31.561706 Y54.771550 Z-0.125000 I-4.284052 J-4.858818
G00 Z5.000000

(End cutting path id: path4785)


(Start cutting path id: path4783)
(Change tool to Cylindrical cutter)

G00 Z5.000000
G00 X54.922237 Y28.402200

G01 Z-0.125000 F1000.0(Penetrate)
G02 X52.070283 Y28.571415 Z-0.125000 I-1.013425 J7.037787 F1100.000000
G02 X46.761952 Y30.586478 Z-0.125000 I7.261793 J27.129390
G02 X40.374398 Y34.870059 Z-0.125000 I13.624125 J27.220165
G02 X30.950114 Y44.381975 Z-0.125000 I60.658551 J69.524398
G02 X28.308721 Y47.522653 Z-0.125000 I175.459240 J150.246961
G03 X25.977509 Y50.163702 Z-0.125000 I-41.427261 J-34.217791
G00 Z5.000000

(End cutting path id: path4783)


(Start cutting path id: path4779)
(Change tool to Cylindrical cutter)

G00 Z5.000000
G00 X50.467152 Y5.738766

G01 Z-0.125000 F1000.0(Penetrate)
G02 X45.830348 Y1.961495 Z-0.125000 I-13.631815 J11.999189 F1100.000000
G02 X39.151041 Y0.150996 Z-0.125000 I-6.834062 J11.986344
G02 X32.466575 Y1.830225 Z-0.125000 I-0.151876 J13.539386
G02 X27.989029 Y6.299044 Z-0.125000 I5.503497 J9.991800
G02 X27.521419 Y7.331798 Z-0.125000 I6.187626 J3.423869
G02 X27.585783 Y7.421428 Z-0.125000 I0.063046 J0.022651
G00 Z5.000000

(End cutting path id: path4779)


(Start cutting path id: path4795)
(Change tool to Cylindrical cutter)

G00 Z5.000000
G00 X142.580569 Y4.141101

G01 Z-0.125000 F1000.0(Penetrate)
G01 X140.894247 Y4.278914 Z-0.125000 F1100.000000
G02 X133.622828 Y5.939319 Z-0.125000 I2.132140 J26.089375
G02 X126.383541 Y9.864594 Z-0.125000 I11.463141 J29.779442
G02 X120.639363 Y14.348556 Z-0.125000 I58.426631 J80.768693
G02 X115.978601 Y18.617248 Z-0.125000 I48.270294 J57.382578
G03 X110.709736 Y23.122166 Z-0.125000 I-32.106093 J-32.217025
G03 X109.091580 Y23.650439 Z-0.125000 I-1.618155 J-2.214156
G00 Z5.000000

(End cutting path id: path4795)


(Start cutting path id: path4797)
(Change tool to Cylindrical cutter)

G00 Z5.000000
G00 X143.406833 Y4.027386

G01 Z-0.125000 F1000.0(Penetrate)
G02 X143.932632 Y4.094955 Z-0.125000 I0.525799 J-2.012020 F1100.000000
G02 X144.458431 Y4.027386 Z-0.125000 I0.000000 J-2.079589
G00 Z5.000000

(End cutting path id: path4797)


(Footer)
M5
G00 X0.0000 Y0.0000
M2
(Using default footer. To add your own footer create file "footer" in the output dir.)
(end)
%