%
(Header)
(Generated by gcodetools from Inkscape.)
(Using default header. To add your own header create file "header" in the output dir.)
M3
(Header end.)
G21 (All units in mm)

(Start cutting path id: path5275)
(Change tool to Cylindrical cutter)

G00 Z5.000000
G00 X55.568791 Y58.568904

G01 Z-0.125000 F1000.0(Penetrate)
G01 X51.134055 Y43.997638 Z-0.125000 F1100.000000
G00 Z5.000000

(End cutting path id: path5275)


(Start cutting path id: path5275)
(Change tool to Cylindrical cutter)

G00 Z5.000000
G00 X51.204453 Y52.585533

G01 Z-0.125000 F1000.0(Penetrate)
G01 X51.134053 Y43.997638 Z-0.125000 F1100.000000
G01 X50.570912 Y41.745067 Z-0.125000
G00 Z5.000000

(End cutting path id: path5275)


(Start cutting path id: path5275)
(Change tool to Cylindrical cutter)

G00 Z5.000000
G00 X60.496273 Y49.277070

G01 Z-0.125000 F1000.0(Penetrate)
G01 X64.156689 Y46.742949 Z-0.125000 F1100.000000
G01 X67.042787 Y54.063776 Z-0.125000
G01 X67.042787 Y54.063776 Z-0.125000
G01 X70.914379 Y61.666177 Z-0.125000
G01 X83.092299 Y59.976758 Z-0.125000
G01 X65.142184 Y73.069784 Z-0.125000
G01 X83.092299 Y81.939241 Z-0.125000
G01 X79.643061 Y74.125662 Z-0.125000
G01 X65.142184 Y73.069784 Z-0.125000
G00 Z5.000000

(End cutting path id: path5275)


(Start cutting path id: path5275)
(Change tool to Cylindrical cutter)

G00 Z5.000000
G00 X65.142184 Y73.069784

G01 Z-0.125000 F1000.0(Penetrate)
G01 X67.042787 Y54.063776 Z-0.125000 F1100.000000
G01 X61.904124 Y55.612417 Z-0.125000
G00 Z5.000000

(End cutting path id: path5275)


(Start cutting path id: path5275)
(Change tool to Cylindrical cutter)

G00 Z5.000000
G00 X60.777843 Y50.896114

G01 Z-0.125000 F1000.0(Penetrate)
G01 X57.539783 Y34.283453 Z-0.125000 F1100.000000
G00 Z5.000000

(End cutting path id: path5275)


(Start cutting path id: path5275)
(Change tool to Cylindrical cutter)

G00 Z5.000000
G00 X47.614428 Y26.469874

G01 Z-0.125000 F1000.0(Penetrate)
G01 X55.568791 Y25.906744 Z-0.125000 F1100.000000
G01 X57.539783 Y34.283453 Z-0.125000
G01 X51.134055 Y43.997638 Z-0.125000
G01 X60.777843 Y50.896114 Z-0.125000
G01 X65.423757 Y67.297586 Z-0.125000
G01 X55.568791 Y58.568904 Z-0.125000
G01 X56.835859 Y62.229318 Z-0.125000
G01 X55.639183 Y81.235314 Z-0.125000
G01 X65.142184 Y73.069784 Z-0.125000
G01 X69.717706 Y90.949498 Z-0.125000
G00 Z5.000000

(End cutting path id: path5275)


(Start cutting path id: path5275)
(Change tool to Cylindrical cutter)

G00 Z5.000000
G00 X59.299600 Y97.636799

G01 Z-0.125000 F1000.0(Penetrate)
G01 X55.498399 Y87.500263 Z-0.125000 F1100.000000
G00 Z5.000000

(End cutting path id: path5275)


(Start cutting path id: path5275)
(Change tool to Cylindrical cutter)

G00 Z5.000000
G00 X55.301527 Y101.045657

G01 Z-0.125000 F1000.0(Penetrate)
G01 X55.639183 Y81.235314 Z-0.125000 F1100.000000
G01 X31.987270 Y87.711439 Z-0.125000
G00 Z5.000000

(End cutting path id: path5275)


(Start cutting path id: path5275)
(Change tool to Cylindrical cutter)

G00 Z5.000000
G00 X31.987267 Y87.711439

G01 Z-0.125000 F1000.0(Penetrate)
G01 X35.225327 Y70.535648 Z-0.125000 F1100.000000
G01 X51.134055 Y59.132044 Z-0.125000
G01 X51.204453 Y52.585533 Z-0.125000
G01 X47.684820 Y54.063776 Z-0.125000
G00 Z5.000000

(End cutting path id: path5275)


(Start cutting path id: path5275)
(Change tool to Cylindrical cutter)

G00 Z5.000000
G00 X45.080287 Y55.330852

G01 Z-0.125000 F1000.0(Penetrate)
G01 X44.305968 Y26.892236 Z-0.125000 F1100.000000
G01 X47.614428 Y26.469874 Z-0.125000
G01 X50.570915 Y41.745067 Z-0.125000
G01 X47.684820 Y54.063776 Z-0.125000
G01 X45.080287 Y55.330852 Z-0.125000
G00 Z5.000000

(End cutting path id: path5275)


(Start cutting path id: path5275)
(Change tool to Cylindrical cutter)

G00 Z5.000000
G00 X64.156689 Y46.742949

G01 Z-0.125000 F1000.0(Penetrate)
G01 X63.171192 Y44.912740 Z-0.125000 F1100.000000
G01 X69.576919 Y27.314587 Z-0.125000
G00 Z5.000000

(End cutting path id: path5275)


(Start cutting path id: path5275)
(Change tool to Cylindrical cutter)

G00 Z5.000000
G00 X90.905878 Y19.641798

G01 Z-0.125000 F1000.0(Penetrate)
G01 X63.663940 Y24.921230 Z-0.125000 F1100.000000
G01 X76.756966 Y16.403735 Z-0.125000
G01 X65.282970 Y14.151164 Z-0.125000
G01 X63.663940 Y24.921230 Z-0.125000
G01 X63.663940 Y24.921230 Z-0.125000
G00 Z5.000000

(End cutting path id: path5275)


(Start cutting path id: path5275)
(Change tool to Cylindrical cutter)

G00 Z5.000000
G00 X43.813225 Y9.223686

G01 Z-0.125000 F1000.0(Penetrate)
G01 X65.282970 Y14.151164 Z-0.125000 F1100.000000
G01 X74.082044 Y4.155415 Z-0.125000
G00 Z5.000000

(End cutting path id: path5275)


(Start cutting path id: path5275)
(Change tool to Cylindrical cutter)

G00 Z5.000000
G00 X40.082417 Y2.395610

G01 Z-0.125000 F1000.0(Penetrate)
G01 X43.813225 Y9.223686 Z-0.125000 F1100.000000
G01 X61.059413 Y0.143039 Z-0.125000
G00 Z5.000000

(End cutting path id: path5275)


(Start cutting path id: path5275)
(Change tool to Cylindrical cutter)

G00 Z5.000000
G00 X26.989394 Y28.300090

G01 Z-0.125000 F1000.0(Penetrate)
G01 X18.894246 Y21.612793 Z-0.125000 F1100.000000
G01 X9.250457 Y18.867470 Z-0.125000
G00 Z5.000000

(End cutting path id: path5275)


(Start cutting path id: path5275)
(Change tool to Cylindrical cutter)

G00 Z5.000000
G00 X18.894246 Y21.612793

G01 Z-0.125000 F1000.0(Penetrate)
G01 X43.813225 Y9.223686 Z-0.125000 F1100.000000
G01 X26.989394 Y28.300090 Z-0.125000
G00 Z5.000000

(End cutting path id: path5275)


(Start cutting path id: path5275)
(Change tool to Cylindrical cutter)

G00 Z5.000000
G00 X79.643061 Y74.125662

G01 Z-0.125000 F1000.0(Penetrate)
G01 X83.092299 Y59.976758 Z-0.125000 F1100.000000
G01 X93.440011 Y57.935366 Z-0.125000
G00 Z5.000000

(End cutting path id: path5275)


(Start cutting path id: path5275)
(Change tool to Cylindrical cutter)

G00 Z5.000000
G00 X93.440011 Y57.935366

G01 Z-0.125000 F1000.0(Penetrate)
G01 X69.576919 Y27.314587 Z-0.125000 F1100.000000
G01 X63.663940 Y24.921230 Z-0.125000
G01 X55.568791 Y25.906744 Z-0.125000
G00 Z5.000000

(End cutting path id: path5275)


(Start cutting path id: path5275)
(Change tool to Cylindrical cutter)

G00 Z5.000000
G00 X103.154196 Y36.606410

G01 Z-0.125000 F1000.0(Penetrate)
G01 X74.856363 Y34.213052 Z-0.125000 F1100.000000
G01 X92.313729 Y22.035144 Z-0.125000
G00 Z5.000000

(End cutting path id: path5275)


(Start cutting path id: path5275)
(Change tool to Cylindrical cutter)

G00 Z5.000000
G00 X91.117056 Y63.848350

G01 Z-0.125000 F1000.0(Penetrate)
G01 X79.643061 Y74.125662 Z-0.125000 F1100.000000
G00 Z5.000000

(End cutting path id: path5275)


(Start cutting path id: path5275)
(Change tool to Cylindrical cutter)

G00 Z5.000000
G00 X58.102924 Y102.353105

G01 Z-0.125000 F1000.0(Penetrate)
G01 X59.299600 Y97.636799 Z-0.125000 F1100.000000
G01 X69.858490 Y90.879112 Z-0.125000
G01 X83.092299 Y81.939241 Z-0.125000
G01 X91.328235 Y63.285210 Z-0.125000
G01 X93.580797 Y57.864988 Z-0.125000
G01 X103.154196 Y36.606410 Z-0.125000
G01 X92.595300 Y21.894357 Z-0.125000
G01 X91.117056 Y19.712187 Z-0.125000
G01 X82.036410 Y6.619161 Z-0.125000
G01 X73.941260 Y4.085029 Z-0.125000
G01 X61.059413 Y0.143039 Z-0.125000
G01 X40.012025 Y2.395610 Z-0.125000
G01 X18.471889 Y4.507380 Z-0.125000
G01 X9.320850 Y18.867470 Z-0.125000
G01 X0.380990 Y32.171680 Z-0.125000
G01 X11.995770 Y27.244201 Z-0.125000
G01 X26.989394 Y28.300090 Z-0.125000
G01 X38.392989 Y27.384976 Z-0.125000
G00 Z5.000000

(End cutting path id: path5275)


(Start cutting path id: path5275)
(Change tool to Cylindrical cutter)

G00 Z5.000000
G00 X36.844360 Y98.833467

G01 Z-0.125000 F1000.0(Penetrate)
G01 X31.987270 Y87.711439 Z-0.125000 F1100.000000
G01 X43.711044 Y97.276980 Z-0.125000
G00 Z5.000000

(End cutting path id: path5275)


(Start cutting path id: path5275)
(Change tool to Cylindrical cutter)

G00 Z5.000000
G00 X39.508602 Y102.986920

G01 Z-0.125000 F1000.0(Penetrate)
G01 X37.617149 Y103.982419 Z-0.125000 F1100.000000
G01 X38.599141 Y114.918186 Z-0.125000
G00 Z5.000000

(End cutting path id: path5275)


(Start cutting path id: path5275)
(Change tool to Cylindrical cutter)

G00 Z5.000000
G00 X38.599141 Y114.918231

G01 Z-0.125000 F1000.0(Penetrate)
G01 X44.983860 Y114.833401 Z-0.125000 F1100.000000
G00 Z5.000000

(End cutting path id: path5275)


(Start cutting path id: path5275)
(Change tool to Cylindrical cutter)

G00 Z5.000000
G00 X45.929590 Y114.982758

G01 Z-0.125000 F1000.0(Penetrate)
G01 X51.404848 Y115.132082 Z-0.125000 F1100.000000
G01 X57.925383 Y117.521282 Z-0.125000
G01 X60.705679 Y116.404882 Z-0.125000
G00 Z5.000000

(End cutting path id: path5275)


(Start cutting path id: path5275)
(Change tool to Cylindrical cutter)

G00 Z5.000000
G00 X57.925383 Y117.521240

G01 Z-0.125000 F1000.0(Penetrate)
G01 X50.608448 Y108.910143 Z-0.125000 F1100.000000
G01 X44.983860 Y114.833370 Z-0.125000
G01 X46.676214 Y103.833084 Z-0.125000
G01 X50.608448 Y108.910143 Z-0.125000
G00 Z5.000000

(End cutting path id: path5275)


(Start cutting path id: path5275)
(Change tool to Cylindrical cutter)

G00 Z5.000000
G00 X46.676214 Y103.833084

G01 Z-0.125000 F1000.0(Penetrate)
G01 X44.287011 Y102.738039 Z-0.125000 F1100.000000
G01 X43.839037 Y104.131743 Z-0.125000
G01 X39.956577 Y104.131743 Z-0.125000
G01 X39.209949 Y101.991409 Z-0.125000
G01 X41.997356 Y100.398606 Z-0.125000
G01 X44.585662 Y102.041187 Z-0.125000
G01 X44.386560 Y102.787818 Z-0.125000
G00 Z5.000000

(End cutting path id: path5275)


(Start cutting path id: path5275)
(Change tool to Cylindrical cutter)

G00 Z5.000000
G00 X33.187166 Y108.959922

G01 Z-0.125000 F1000.0(Penetrate)
G01 X37.617149 Y103.982419 Z-0.125000 F1100.000000
G00 Z5.000000

(End cutting path id: path5275)


(Start cutting path id: path5275)
(Change tool to Cylindrical cutter)

G00 Z5.000000
G00 X28.920734 Y101.116791

G01 Z-0.125000 F1000.0(Penetrate)
G01 X31.987270 Y87.711439 Z-0.125000 F1100.000000
G01 X29.875491 Y73.492135 Z-0.125000
G01 X33.465513 Y72.013891 Z-0.125000
G01 X37.829854 Y58.639293 Z-0.125000
G01 X37.759457 Y52.867098 Z-0.125000
G01 X38.392989 Y27.384976 Z-0.125000
G01 X44.305968 Y26.892236 Z-0.125000
G01 X38.252203 Y35.409731 Z-0.125000
G01 X44.657930 Y41.181929 Z-0.125000
G01 X37.759457 Y53.078284 Z-0.125000
G01 X45.080287 Y55.330852 Z-0.125000
G01 X37.759457 Y58.568904 Z-0.125000
G00 Z5.000000

(End cutting path id: path5275)


(Start cutting path id: path5275)
(Change tool to Cylindrical cutter)

G00 Z5.000000
G00 X23.445470 Y109.223018

G01 Z-0.125000 F1000.0(Penetrate)
G01 X33.187166 Y108.959922 Z-0.125000 F1100.000000
G01 X35.725696 Y100.946134 Z-0.125000
G01 X38.591318 Y98.414717 Z-0.125000
G01 X41.997356 Y100.398606 Z-0.125000
G01 X45.204296 Y98.699126 Z-0.125000
G01 X48.617443 Y100.547930 Z-0.125000
G01 X50.608448 Y108.910143 Z-0.125000
G01 X60.492358 Y108.867517 Z-0.125000
G00 Z5.000000

(End cutting path id: path5275)


(Start cutting path id: path5275)
(Change tool to Cylindrical cutter)

G00 Z5.000000
G00 X59.816839 Y124.987553

G01 Z-0.125000 F1000.0(Penetrate)
G01 X58.821334 Y120.905993 Z-0.125000 F1100.000000
G01 X60.705679 Y116.404882 Z-0.125000
G00 Z5.000000

(End cutting path id: path5275)


(Start cutting path id: path5275)
(Change tool to Cylindrical cutter)

G00 Z5.000000
G00 X57.377861 Y134.096346

G01 Z-0.125000 F1000.0(Penetrate)
G01 X53.644724 Y124.091560 Z-0.125000 F1100.000000
G00 Z5.000000

(End cutting path id: path5275)


(Start cutting path id: path5275)
(Change tool to Cylindrical cutter)

G00 Z5.000000
G00 X43.790148 Y130.764089

G01 Z-0.125000 F1000.0(Penetrate)
G01 X41.947581 Y121.553056 Z-0.125000 F1100.000000
G01 X49.712496 Y130.114371 Z-0.125000
G01 X43.790148 Y130.764089 Z-0.125000
G00 Z5.000000

(End cutting path id: path5275)


(Start cutting path id: path5275)
(Change tool to Cylindrical cutter)

G00 Z5.000000
G00 X41.947581 Y121.553056

G01 Z-0.125000 F1000.0(Penetrate)
G01 X53.644724 Y124.091591 Z-0.125000 F1100.000000
G01 X52.002148 Y128.422011 Z-0.125000
G01 X55.208534 Y135.978387 Z-0.125000
G01 X49.712496 Y130.114371 Z-0.125000
G00 Z5.000000

(End cutting path id: path5275)


(Start cutting path id: path5275)
(Change tool to Cylindrical cutter)

G00 Z5.000000
G00 X41.947581 Y121.553056

G01 Z-0.125000 F1000.0(Penetrate)
G01 X44.983860 Y114.833412 Z-0.125000 F1100.000000
G01 X45.929590 Y114.982747 Z-0.125000
G01 X49.961368 Y119.810926 Z-0.125000
G01 X41.947581 Y121.553056 Z-0.125000
G00 Z5.000000

(End cutting path id: path5275)


(Start cutting path id: path5275)
(Change tool to Cylindrical cutter)

G00 Z5.000000
G00 X25.685350 Y117.560382

G01 Z-0.125000 F1000.0(Penetrate)
G01 X33.187166 Y108.959956 Z-0.125000 F1100.000000
G01 X38.599141 Y114.918220 Z-0.125000
G01 X41.947581 Y121.553056 Z-0.125000
G01 X33.884018 Y120.109574 Z-0.125000
G00 Z5.000000

(End cutting path id: path5275)


(Start cutting path id: path5275)
(Change tool to Cylindrical cutter)

G00 Z5.000000
G00 X18.041318 Y125.364402

G01 Z-0.125000 F1000.0(Penetrate)
G01 X16.858031 Y141.413251 Z-0.125000 F1100.000000
G00 Z5.000000

(End cutting path id: path5275)


(Start cutting path id: path5275)
(Change tool to Cylindrical cutter)

G00 Z5.000000
G00 X18.497415 Y143.684939

G01 Z-0.125000 F1000.0(Penetrate)
G01 X27.996337 Y137.097111 Z-0.125000 F1100.000000
G01 X40.511214 Y130.910768 Z-0.125000
G01 X43.790148 Y130.764089 Z-0.125000
G01 X55.208534 Y135.978387 Z-0.125000
G01 X63.078358 Y142.226796 Z-0.125000
G01 X64.917176 Y143.657979 Z-0.125000
G01 X66.820904 Y142.216811 Z-0.125000
G01 X68.171941 Y141.150197 Z-0.125000
G01 X65.825401 Y127.142060 Z-0.125000
G01 X65.114331 Y123.728915 Z-0.125000
G01 X60.705679 Y116.404871 Z-0.125000
G01 X60.492358 Y108.867497 Z-0.125000
G01 X61.772287 Y104.529947 Z-0.125000
G01 X58.074710 Y102.538948 Z-0.125000
G01 X55.301527 Y101.045691 Z-0.125000
G01 X45.204296 Y98.699160 Z-0.125000
G01 X43.711044 Y97.277014 Z-0.125000
G01 X40.226787 Y97.134796 Z-0.125000
G01 X38.591318 Y98.414748 Z-0.125000
G01 X28.920731 Y101.116825 Z-0.125000
G01 X22.734398 Y104.316649 Z-0.125000
G01 X23.445470 Y109.223052 Z-0.125000
G01 X22.876612 Y115.836029 Z-0.125000
G01 X22.734398 Y116.831529 Z-0.125000
G01 X18.041318 Y125.364402 Z-0.125000
G01 X15.536791 Y140.806888 Z-0.125000
G01 X16.629255 Y141.826811 Z-0.125000
G01 X18.497415 Y143.684939 Z-0.125000
G00 Z5.000000

(End cutting path id: path5275)


(Start cutting path id: path5275)
(Change tool to Cylindrical cutter)

G00 Z5.000000
G00 X19.889796 Y142.733348

G01 Z-0.125000 F1000.0(Penetrate)
G01 X26.627374 Y134.286239 Z-0.125000 F1100.000000
G01 X28.114552 Y136.866902 Z-0.125000
G01 X32.263808 Y127.614029 Z-0.125000
G01 X30.503995 Y123.641873 Z-0.125000
G01 X33.872785 Y120.021675 Z-0.125000
G01 X38.599141 Y114.918220 Z-0.125000
G01 X33.382709 Y115.142739 Z-0.125000
G01 X25.685350 Y117.560382 Z-0.125000
G01 X22.929942 Y115.853806 Z-0.125000
G01 X22.734398 Y116.831529 Z-0.125000
G01 X24.938723 Y120.457999 Z-0.125000
G01 X24.298758 Y124.724437 Z-0.125000
G01 X30.556197 Y123.586723 Z-0.125000
G01 X26.574191 Y134.252810 Z-0.125000
G01 X16.858031 Y141.413251 Z-0.125000
G01 X24.279277 Y124.667584 Z-0.125000
G00 Z5.000000

(End cutting path id: path5275)


(Start cutting path id: path5275)
(Change tool to Cylindrical cutter)

G00 Z5.000000
G00 X27.996337 Y137.097111

G01 Z-0.125000 F1000.0(Penetrate)
G01 X34.481319 Y130.014814 Z-0.125000 F1100.000000
G01 X34.481319 Y130.014814 Z-0.125000
G01 X40.511214 Y130.910768 Z-0.125000
G01 X41.947581 Y121.553056 Z-0.125000
G01 X34.431543 Y129.915269 Z-0.125000
G00 Z5.000000

(End cutting path id: path5275)


(Start cutting path id: path5275)
(Change tool to Cylindrical cutter)

G00 Z5.000000
G00 X63.078358 Y142.226796

G01 Z-0.125000 F1000.0(Penetrate)
G01 X57.377861 Y134.096377 Z-0.125000 F1100.000000
G01 X66.711940 Y141.928157 Z-0.125000
G01 X66.038722 Y129.367741 Z-0.125000
G00 Z5.000000

(End cutting path id: path5275)


(Start cutting path id: path5275)
(Change tool to Cylindrical cutter)

G00 Z5.000000
G00 X66.711940 Y141.928157

G01 Z-0.125000 F1000.0(Penetrate)
G01 X59.816839 Y124.987545 Z-0.125000 F1100.000000
G01 X53.644724 Y124.091591 Z-0.125000
G01 X49.961368 Y119.810926 Z-0.125000
G00 Z5.000000

(End cutting path id: path5275)


(Footer)
M5
G00 X0.0000 Y0.0000
M2
(Using default footer. To add your own footer create file "footer" in the output dir.)
(end)
%