%
(Header)
(Generated by gcodetools from Inkscape.)
(Using default header. To add your own header create file "header" in the output dir.)
M3
(Header end.)
G21 (All units in mm)

(Start cutting path id: path4758)
(Change tool to Cylindrical cutter)

G00 Z5.000000
G00 X32.972796 Y4.122122

G01 Z-0.125000 F1000.0(Penetrate)
G03 X32.929103 Y7.321230 Z-0.125000 I-1194.281890 J-14.711396 F1100.000000
G03 X32.917633 Y7.799376 Z-0.125000 I-26.602727 J-0.398973
G02 X33.205223 Y8.117605 Z-0.125000 I0.308608 J0.010170
G02 X33.685407 Y7.851745 Z-0.125000 I0.034414 J-0.504415
G03 X35.356812 Y5.509507 Z-0.125000 I9.906693 J5.301880
G03 X39.245139 Y1.862027 Z-0.125000 I28.271591 J26.242116
G02 X39.782591 Y1.334147 Z-0.125000 I-2.587947 J-3.172415
G02 X39.851892 Y1.144959 Z-0.125000 I-0.223589 J-0.189188
G02 X39.744443 Y1.030306 Z-0.125000 I-0.114894 J-0.000000
G02 X36.432044 Y0.922867 Z-0.125000 I-3.312399 J51.007711
G01 X33.012191 Y0.922867 Z-0.125000
G01 X32.972796 Y4.122122 Z-0.125000
G00 Z5.000000

(End cutting path id: path4758)


(Start cutting path id: path4758)
(Change tool to Cylindrical cutter)

G00 Z5.000000
G00 X36.773302 Y9.573667

G01 Z-0.125000 F1000.0(Penetrate)
G03 X35.959741 Y11.123796 Z-0.125000 I-23.325320 J-11.253370 F1100.000000
G03 X34.953062 Y12.774124 Z-0.125000 I-27.453450 J-15.614071
G02 X34.018835 Y14.433068 Z-0.125000 I12.183924 J7.953840
G02 X33.887235 Y14.995235 Z-0.125000 I1.206372 J0.578892
G02 X33.989188 Y15.492779 Z-0.125000 I1.192676 J0.014823
G02 X35.886297 Y19.636024 Z-0.125000 I163.678864 J-72.439309
G02 X37.903577 Y23.756088 Z-0.125000 I157.123823 J-74.377631
G02 X38.086806 Y23.866843 Z-0.125000 I0.180219 J-0.091207
G02 X38.172115 Y23.821211 Z-0.125000 I-0.001469 J-0.105304
G02 X39.110855 Y22.377804 Z-0.125000 I-27.544471 J-18.940909
G02 X42.361276 Y15.051645 Z-0.125000 I-25.691497 J-15.782772
G02 X42.299413 Y11.465307 Z-0.125000 I-5.796569 J-1.693714
G02 X40.464436 Y8.865513 Z-0.125000 I-5.182436 J1.710374
G02 X37.823118 Y7.988820 Z-0.125000 I-2.560393 J3.296746
G02 X37.607618 Y8.107480 Z-0.125000 I0.005576 J0.265144
G02 X36.773302 Y9.573667 Z-0.125000 I10.372975 J6.873085
G01 X36.773302 Y9.573667 Z-0.125000
G00 Z5.000000

(End cutting path id: path4758)


(Start cutting path id: path4758)
(Change tool to Cylindrical cutter)

G00 Z5.000000
G00 X31.854225 Y16.146747

G01 Z-0.125000 F1000.0(Penetrate)
G02 X30.293284 Y22.481314 Z-0.125000 I26.772550 J9.956799 F1100.000000
G02 X30.239327 Y28.778675 Z-0.125000 I26.400525 J3.375116
G02 X30.660066 Y30.972635 Z-0.125000 I13.987706 J-1.545125
G02 X30.892855 Y31.149946 Z-0.125000 I0.232788 J-0.064157
G02 X31.118371 Y31.066708 Z-0.125000 I-0.000000 J-0.347116
G02 X32.764555 Y29.550338 Z-0.125000 I-19.548390 J-22.873641
G01 X34.376448 Y27.950731 Z-0.125000
G01 X34.238193 Y26.556404 Z-0.125000
G02 X33.628473 Y22.114763 Z-0.125000 I-59.362006 J5.886161
G02 X33.242188 Y20.890406 Z-0.125000 I-4.817783 J0.846897
G03 X32.914054 Y19.971063 Z-0.125000 I4.691204 J-2.192627
G03 X32.066817 Y16.257062 Z-0.125000 I76.445538 J-19.392368
G02 X31.954473 Y16.108090 Z-0.125000 I-0.211958 J0.042996
G02 X31.854225 Y16.146747 Z-0.125000 I-0.033031 J0.063655
G01 X31.854225 Y16.146747 Z-0.125000
G00 Z5.000000

(End cutting path id: path4758)


(Start cutting path id: path4758)
(Change tool to Cylindrical cutter)

G00 Z5.000000
G00 X46.360518 Y19.587050

G01 Z-0.125000 F1000.0(Penetrate)
G02 X43.742451 Y26.298708 Z-0.125000 I46.583753 J22.037729 F1100.000000
G02 X43.690278 Y28.159355 Z-0.125000 I3.284681 J1.023159
G02 X44.011321 Y28.802029 Z-0.125000 I1.615399 J-0.405438
G02 X46.343002 Y31.545225 Z-0.125000 I58.723818 J-47.551913
G02 X48.805186 Y34.163789 Z-0.125000 I50.969103 J-45.458405
G02 X49.046000 Y34.164325 Z-0.125000 I0.120674 J-0.119604
G02 X49.370093 Y33.513588 Z-0.125000 I-0.808960 J-0.808968
G02 X49.974379 Y27.516388 Z-0.125000 I-77.888302 J-10.877172
G02 X49.998935 Y24.448852 Z-0.125000 I-28.316735 J-1.760547
G02 X49.752380 Y22.702639 Z-0.125000 I-9.366113 J0.431928
G02 X49.289040 Y20.989674 Z-0.125000 I-29.047525 J6.937918
G02 X49.082543 Y20.489360 Z-0.125000 I-2.659395 J0.804855
G02 X47.794654 Y18.629342 Z-0.125000 I-8.583805 J4.567602
G02 X47.204038 Y18.357075 Z-0.125000 I-0.602929 J0.531174
G02 X47.009374 Y18.457445 Z-0.125000 I-0.004106 J0.230992
G02 X46.360518 Y19.587050 Z-0.125000 I6.763129 J4.635963
G01 X46.360518 Y19.587050 Z-0.125000
G00 Z5.000000

(End cutting path id: path4758)


(Start cutting path id: path4758)
(Change tool to Cylindrical cutter)

G00 Z5.000000
G00 X37.196813 Y31.605836

G01 Z-0.125000 F1000.0(Penetrate)
G02 X36.676704 Y33.431841 Z-0.125000 I4.380600 J2.234821 F1100.000000
G02 X36.769599 Y36.727250 Z-0.125000 I14.774911 J1.232520
G02 X37.431999 Y38.705122 Z-0.125000 I5.657576 J-0.794894
G02 X38.191635 Y39.289057 Z-0.125000 I1.053991 J-0.585059
G02 X39.375804 Y39.096287 Z-0.125000 I0.369131 J-1.465970
G02 X39.851892 Y38.226239 Z-0.125000 I-0.556960 J-0.870048
G02 X39.620202 Y35.087058 Z-0.125000 I-21.382350 J0.000000
G02 X38.945002 Y32.115922 Z-0.125000 I-19.817629 J2.941332
G02 X38.051857 Y31.236668 Z-0.125000 I-1.263571 J0.390280
G02 X37.196813 Y31.605836 Z-0.125000 I-0.204546 J0.701026
G01 X37.196813 Y31.605836 Z-0.125000
G00 Z5.000000

(End cutting path id: path4758)


(Start cutting path id: path4758)
(Change tool to Cylindrical cutter)

G00 Z5.000000
G00 X44.060020 Y36.605784

G01 Z-0.125000 F1000.0(Penetrate)
G02 X43.567018 Y37.494685 Z-0.125000 I2.155174 J1.776466 F1100.000000
G02 X43.382054 Y38.628586 Z-0.125000 I3.383153 J1.133902
G03 X43.325971 Y39.824049 Z-0.125000 I-12.769123 J0.000000
G03 X43.136679 Y41.237968 Z-0.125000 I-18.061664 J-1.698417
G02 X42.954711 Y42.626973 Z-0.125000 I16.372352 J2.851298
G02 X43.002381 Y42.758130 Z-0.125000 I0.164327 J0.014515
G02 X43.131811 Y42.795612 Z-0.125000 I0.098735 J-0.098735
G02 X44.769459 Y42.359993 Z-0.125000 I-4.858269 J-21.560066
G01 X46.425446 Y41.850757 Z-0.125000
G01 X46.532634 Y40.902250 Z-0.125000
G02 X46.164776 Y36.628687 Z-0.125000 I-10.812711 J-1.221884
G02 X45.037031 Y35.783287 Z-0.125000 I-1.127746 J0.329494
G02 X44.781904 Y35.876378 Z-0.125000 I-0.000000 J0.396147
G02 X44.060020 Y36.605784 Z-0.125000 I3.642940 J4.327296
G01 X44.060020 Y36.605784 Z-0.125000
G00 Z5.000000

(End cutting path id: path4758)


(Start cutting path id: path4758)
(Change tool to Cylindrical cutter)

G00 Z5.000000
G00 X50.310057 Y37.447204

G01 Z-0.125000 F1000.0(Penetrate)
G02 X50.146709 Y40.063867 Z-0.125000 I6.965498 J1.748258 F1100.000000
G02 X50.917334 Y42.432335 Z-0.125000 I6.433721 J-0.783728
G02 X51.494606 Y43.290754 Z-0.125000 I5.379520 J-2.994321
G02 X51.744869 Y43.463823 Z-0.125000 I0.415502 J-0.333349
G02 X51.898878 Y43.360451 Z-0.125000 I0.036537 J-0.111976
G02 X51.932078 Y40.907788 Z-0.125000 I-20.544217 J-1.504655
G02 X51.379950 Y37.433500 Z-0.125000 I-15.782855 J0.727170
G02 X50.834702 Y36.929662 Z-0.125000 I-0.678316 J0.187116
G02 X50.557812 Y37.013552 Z-0.125000 I-0.058730 J0.305054
G02 X50.310057 Y37.447204 Z-0.125000 I0.650021 J0.658972
G01 X50.310057 Y37.447204 Z-0.125000
G00 Z5.000000

(End cutting path id: path4758)


(Start cutting path id: path4758)
(Change tool to Cylindrical cutter)

G00 Z5.000000
G00 X45.042944 Y46.649579

G01 Z-0.125000 F1000.0(Penetrate)
G02 X45.851091 Y48.707458 Z-0.125000 I6.546340 J-1.383185 F1100.000000
G02 X46.904628 Y49.754052 Z-0.125000 I2.588877 J-1.552491
G02 X49.363895 Y50.210432 Z-0.125000 I1.854614 J-3.139601
G02 X50.221747 Y49.196293 Z-0.125000 I-0.170524 J-1.014139
G02 X49.617931 Y47.895020 Z-0.125000 I-1.704084 J0.000000
G02 X46.787808 Y46.292796 Z-0.125000 I-5.654833 J6.687905
G02 X45.337261 Y46.200783 Z-0.125000 I-0.894770 J2.626019
G02 X45.042944 Y46.649579 Z-0.125000 I0.075779 J0.370599
G01 X45.042944 Y46.649579 Z-0.125000
G00 Z5.000000

(End cutting path id: path4758)


(Start cutting path id: path4758)
(Change tool to Cylindrical cutter)

G00 Z5.000000
G00 X41.837610 Y54.096024

G01 Z-0.125000 F1000.0(Penetrate)
G01 X41.837610 Y55.861109 Z-0.125000 F1100.000000
G01 X42.678937 Y55.861109 Z-0.125000
G03 X43.503094 Y55.965258 Z-0.125000 I-0.000000 J3.312950
G03 X46.153945 Y56.753628 Z-0.125000 I-9.135469 J35.568362
G02 X50.083700 Y57.731369 Z-0.125000 I7.849081 J-23.161048
G02 X50.340918 Y57.433448 Z-0.125000 I0.037025 J-0.228032
G02 X49.763531 Y56.579681 Z-0.125000 I-1.733416 J0.550155
G02 X46.298008 Y54.104403 Z-0.125000 I-19.737306 J23.969692
G02 X43.342589 Y52.589460 Z-0.125000 I-11.178835 J18.167920
G02 X42.053205 Y52.330938 Z-0.125000 I-1.289384 J3.086159
G02 X41.938847 Y52.432178 Z-0.125000 I0.000000 J0.115208
G02 X41.837610 Y54.096024 Z-0.125000 I13.622144 J1.663846
G01 X41.837610 Y54.096024 Z-0.125000
G00 Z5.000000

(End cutting path id: path4758)


(Start cutting path id: path4758)
(Change tool to Cylindrical cutter)

G00 Z5.000000
G00 X37.278968 Y53.193454

G01 Z-0.125000 F1000.0(Penetrate)
G02 X33.684651 Y55.089580 Z-0.125000 I8.585564 J20.629662 F1100.000000
G02 X32.642266 Y56.208076 Z-0.125000 I1.724043 J2.651703
G02 X32.555240 Y57.733726 Z-0.125000 I1.539305 J0.853112
G02 X33.378722 Y57.988972 Z-0.125000 I0.517650 J-0.214064
G03 X34.585149 Y57.414732 Z-0.125000 I2.744505 J4.211546
G03 X37.976488 Y56.511324 Z-0.125000 I10.611964 J33.019521
G02 X39.506739 Y55.607138 Z-0.125000 I-0.581246 J-2.730703
G02 X40.072525 Y54.088260 Z-0.125000 I-1.755859 J-1.518878
G02 X39.355575 Y53.105782 Z-0.125000 I-1.031648 J-0.000000
G02 X37.278968 Y53.193454 Z-0.125000 I-0.919021 J2.869153
G01 X37.278968 Y53.193454 Z-0.125000
G00 Z5.000000

(End cutting path id: path4758)


(Start cutting path id: path4758)
(Change tool to Cylindrical cutter)

G00 Z5.000000
G00 X37.976488 Y58.160848

G01 Z-0.125000 F1000.0(Penetrate)
G02 X34.600100 Y59.239239 Z-0.125000 I6.782266 J27.059786 F1100.000000
G02 X32.568549 Y60.275336 Z-0.125000 I4.205425 J10.755638
G02 X30.489711 Y62.020161 Z-0.125000 I5.752552 J8.964573
G02 X30.143936 Y62.905365 Z-0.125000 I0.960196 J0.885203
G02 X30.468312 Y64.141231 Z-0.125000 I2.516499 J0.000000
G02 X31.721702 Y65.703925 Z-0.125000 I5.388312 J-3.037802
G02 X36.768884 Y69.231328 Z-0.125000 I16.887600 J-18.789034
G02 X39.784446 Y69.981768 Z-0.125000 I3.015563 J-5.683635
G02 X39.932285 Y69.841452 Z-0.125000 I0.000000 J-0.148040
G02 X40.075533 Y64.410724 Z-0.125000 I-105.022800 J-5.487480
G03 X40.139400 Y58.847715 Z-0.125000 I254.564388 J0.140683
G03 X40.211593 Y58.343254 Z-0.125000 I2.132580 J0.047794
G02 X40.121949 Y58.022996 Z-0.125000 I-0.315161 J-0.084458
G02 X39.712147 Y57.865590 Z-0.125000 I-0.392944 J0.410860
G02 X39.085683 Y57.927869 Z-0.125000 I0.134719 J4.537040
G02 X37.976488 Y58.160848 Z-0.125000 I2.466426 J14.499358
G01 X37.976488 Y58.160848 Z-0.125000
G00 Z5.000000

(End cutting path id: path4758)


(Start cutting path id: path4758)
(Change tool to Cylindrical cutter)

G00 Z5.000000
G00 X41.837610 Y64.134931

G01 Z-0.125000 F1000.0(Penetrate)
G02 X41.980381 Y69.838959 Z-0.125000 I114.015887 J-0.000000 F1100.000000
G02 X42.130523 Y69.981768 Z-0.125000 I0.150142 J-0.007521
G02 X43.235082 Y69.751134 Z-0.125000 I-0.000000 J-2.760309
G02 X46.691584 Y67.990230 Z-0.125000 I-13.054932 J-29.898562
G02 X49.598539 Y65.921585 Z-0.125000 I-10.294279 J-17.542803
G02 X51.175249 Y64.165159 Z-0.125000 I-5.777556 J-6.772307
G02 X51.478934 Y62.696648 Z-0.125000 I-1.611100 J-1.098829
G02 X50.552229 Y60.938202 Z-0.125000 I-3.364161 J0.649510
G02 X47.630384 Y59.107566 Z-0.125000 I-5.338910 J5.274268
G02 X42.775311 Y58.292527 Z-0.125000 I-4.927456 J14.484141
G01 X41.837610 Y58.288350 Z-0.125000
G01 X41.837610 Y64.134931 Z-0.125000
G00 Z5.000000

(End cutting path id: path4758)


(Start cutting path id: path4758)
(Change tool to Cylindrical cutter)

G00 Z5.000000
G00 X50.548760 Y66.812841

G01 Z-0.125000 F1000.0(Penetrate)
G02 X48.584182 Y69.058051 Z-0.125000 I3.121725 J4.713653 F1100.000000
G02 X48.914530 Y70.180235 Z-0.125000 I0.781996 J0.379512
G03 X49.874622 Y71.238129 Z-0.125000 I-1.309175 J2.152755
G03 X50.010388 Y72.451588 Z-0.125000 I-1.657693 J0.799793
G02 X49.802408 Y73.880523 Z-0.125000 I8.573421 J1.977453
G02 X49.899003 Y73.984901 Z-0.125000 I0.098072 J0.006126
G02 X50.064880 Y73.894499 Z-0.125000 I0.002887 J-0.192087
G02 X50.830551 Y72.463921 Z-0.125000 I-10.378878 J-6.475144
G02 X51.351038 Y70.935591 Z-0.125000 I-7.608440 J-3.443918
G02 X51.649438 Y68.988921 Z-0.125000 I-12.095297 J-2.850267
G03 X51.828360 Y67.009296 Z-0.125000 I57.142881 J4.166762
G03 X51.905386 Y66.617092 Z-0.125000 I2.301500 J0.248331
G02 X51.695190 Y66.375916 Z-0.125000 I-0.182998 J-0.052694
G02 X50.548760 Y66.812850 Z-0.125000 I0.399997 J2.771983
G01 X50.548760 Y66.812841 Z-0.125000
G00 Z5.000000

(End cutting path id: path4758)


(Start cutting path id: path4758)
(Change tool to Cylindrical cutter)

G00 Z5.000000
G00 X53.477632 Y65.167204

G01 Z-0.125000 F1000.0(Penetrate)
G02 X53.616693 Y67.788691 Z-0.125000 I8.813894 J0.846885 F1100.000000
G02 X54.586765 Y70.588969 Z-0.125000 I11.055022 J-2.261516
G02 X56.382960 Y73.224085 Z-0.125000 I10.737217 J-5.389157
G02 X56.965825 Y73.239820 Z-0.125000 I0.298886 J-0.268241
G02 X57.028170 Y73.080440 Z-0.125000 I-0.150910 J-0.150916
G02 X56.804399 Y69.172403 Z-0.125000 I-111.599177 J4.429645
G01 X56.509858 Y65.238109 Z-0.125000
G01 X55.296362 Y64.638446 Z-0.125000
G02 X54.072002 Y64.082443 Z-0.125000 I-9.108771 J18.432114
G02 X53.835148 Y64.031694 Z-0.125000 I-0.255924 J0.616344
G02 X53.686840 Y64.137096 Z-0.125000 I-0.004539 J0.150653
G02 X53.477632 Y65.167204 Z-0.125000 I4.803112 J1.511782
G01 X53.477632 Y65.167204 Z-0.125000
G00 Z5.000000

(End cutting path id: path4758)


(Start cutting path id: path4758)
(Change tool to Cylindrical cutter)

G00 Z5.000000
G00 X52.737456 Y72.085328

G01 Z-0.125000 F1000.0(Penetrate)
G02 X52.579297 Y75.127583 Z-0.125000 I7.664534 J1.923698 F1100.000000
G02 X53.338248 Y76.286945 Z-0.125000 I1.618517 J-0.231430
G03 X53.466175 Y76.442553 Z-0.125000 I-0.163882 J0.265120
G03 X53.531276 Y76.801310 Z-0.125000 I-0.955957 J0.358756
G02 X54.239235 Y81.455768 Z-0.125000 I15.654291 J-0.000000
G02 X55.768949 Y83.986662 Z-0.125000 I5.896623 J-1.836276
G02 X55.900784 Y83.942162 Z-0.125000 I0.054898 J-0.054898
G02 X56.754215 Y76.695990 Z-0.125000 I-211.529825 J-28.586650
G01 X56.888756 Y75.357001 Z-0.125000
G01 X55.075687 Y73.441612 Z-0.125000
G02 X53.234296 Y71.592008 Z-0.125000 I-37.604367 J35.595958
G02 X53.070199 Y71.526235 Z-0.125000 I-0.164098 J0.171818
G02 X52.936898 Y71.602024 Z-0.125000 I0.000000 J0.155121
G02 X52.737456 Y72.085337 Z-0.125000 I1.549814 J0.922349
G01 X52.737456 Y72.085328 Z-0.125000
G00 Z5.000000

(End cutting path id: path4758)


(Start cutting path id: path4758)
(Change tool to Cylindrical cutter)

G00 Z5.000000
G00 X47.022540 Y78.450585

G01 Z-0.125000 F1000.0(Penetrate)
G02 X43.416822 Y81.822488 Z-0.125000 I30.741757 J36.487294 F1100.000000
G02 X43.161422 Y82.455361 Z-0.125000 I0.656420 J0.632873
G02 X43.312652 Y82.626058 Z-0.125000 I0.171950 J0.000000
G02 X45.643566 Y82.756647 Z-0.125000 I2.171250 J-17.887307
G02 X48.117241 Y82.674597 Z-0.125000 I-0.450452 J-50.910180
G02 X48.672073 Y82.582454 Z-0.125000 I-0.151089 J-2.626270
G02 X49.000794 Y82.239703 Z-0.125000 I-0.125061 J-0.448950
G02 X49.878330 Y77.428235 Z-0.125000 I-48.129685 J-11.263860
G02 X49.874346 Y76.510449 Z-0.125000 I-3.374343 J-0.444253
G02 X49.732915 Y76.392985 Z-0.125000 I-0.135281 J0.019007
G02 X49.480276 Y76.484090 Z-0.125000 I0.019189 J0.449056
G02 X47.022540 Y78.450585 Z-0.125000 I37.585899 J49.494138
G01 X47.022540 Y78.450585 Z-0.125000
G00 Z5.000000

(End cutting path id: path4758)


(Start cutting path id: path4758)
(Change tool to Cylindrical cutter)

G00 Z5.000000
G00 X51.073290 Y83.365917

G01 Z-0.125000 F1000.0(Penetrate)
G03 X51.040195 Y88.183956 Z-0.125000 I-516.483621 J-1.138577 F1100.000000
G03 X50.953992 Y93.672413 Z-0.125000 I-657.854118 J-7.587530
G02 X50.921159 Y99.073915 Z-0.125000 I195.620726 J3.889929
G02 X51.036131 Y100.136804 Z-0.125000 I5.352885 J-0.041355
G02 X51.305965 Y100.183288 Z-0.125000 I0.144157 J-0.030391
G02 X52.006337 Y98.664382 Z-0.125000 I-6.115632 J-3.740857
G03 X52.480542 Y97.232494 Z-0.125000 I153.645323 J50.089044
G03 X53.193741 Y95.134220 Z-0.125000 I330.980842 J111.329353
G02 X55.163866 Y88.795936 Z-0.125000 I-106.560766 J-36.597542
G02 X55.244854 Y87.777510 Z-0.125000 I-2.571349 J-0.716912
G02 X53.487749 Y81.214447 Z-0.125000 I-22.830638 J2.595620
G02 X51.288586 Y78.674418 Z-0.125000 I-5.153185 J2.239605
G02 X51.184507 Y78.729373 Z-0.125000 I-0.035879 J0.058084
G02 X51.073290 Y83.365917 Z-0.125000 I105.894444 J4.859693
G01 X51.073290 Y83.365917 Z-0.125000
G00 Z5.000000

(End cutting path id: path4758)


(Start cutting path id: path4758)
(Change tool to Cylindrical cutter)

G00 Z5.000000
G00 X47.236445 Y87.553787

G01 Z-0.125000 F1000.0(Penetrate)
G02 X43.465566 Y91.951410 Z-0.125000 I82.032286 J74.156676 F1100.000000
G02 X42.599283 Y93.257462 Z-0.125000 I6.280195 J5.105878
G02 X42.102132 Y94.285964 Z-0.125000 I13.127798 J6.980039
G02 X42.058243 Y94.496081 Z-0.125000 I0.481024 J0.210117
G02 X42.241210 Y95.068819 Z-0.125000 I0.987897 J0.000000
G02 X46.130188 Y100.218837 Z-0.125000 I92.734116 J-65.983747
G03 X48.327276 Y103.000750 Z-0.125000 I-207.630839 J166.240392
G03 X48.708347 Y103.528358 Z-0.125000 I-7.073499 J5.510341
G02 X49.087713 Y103.906601 Z-0.125000 I1.133879 J-0.757878
G02 X49.254769 Y103.891237 Z-0.125000 I0.073988 J-0.111409
G02 X49.373229 Y103.615851 Z-0.125000 I-0.271071 J-0.279776
G02 X49.404472 Y95.391494 Z-0.125000 I-550.365899 J-6.202998
G02 X49.316098 Y87.281334 Z-0.125000 I-561.380181 J2.061694
G02 X49.190306 Y86.340291 Z-0.125000 I-4.144784 J0.075113
G01 X49.003032 Y85.599565 Z-0.125000
G01 X47.236445 Y87.553787 Z-0.125000
G00 Z5.000000

(End cutting path id: path4758)


(Start cutting path id: path4758)
(Change tool to Cylindrical cutter)

G00 Z5.000000
G00 X42.462724 Y85.371103

G01 Z-0.125000 F1000.0(Penetrate)
G03 X42.268824 Y88.788861 Z-0.125000 I-139.736083 J-6.213270 F1100.000000
G03 X42.150555 Y89.894121 Z-0.125000 I-14.714446 J-1.015573
G02 X42.164333 Y90.798457 Z-0.125000 I2.817033 J0.409353
G02 X42.335605 Y90.942136 Z-0.125000 I0.171272 J-0.030242
G02 X42.617187 Y90.861026 Z-0.125000 I0.000000 J-0.529323
G02 X42.780097 Y90.662897 Z-0.125000 I-0.215769 J-0.343455
G03 X42.919605 Y90.401439 Z-0.125000 I1.121795 J0.430619
G03 X44.568782 Y88.124215 Z-0.125000 I88.343775 J62.243184
G02 X46.143442 Y85.829371 Z-0.125000 I-29.074508 J-21.637820
G02 X46.250310 Y85.459803 Z-0.125000 I-0.585586 J-0.369569
G02 X45.867110 Y84.926915 Z-0.125000 I-0.562123 J0.000000
G02 X43.521932 Y84.543718 Z-0.125000 I-2.345177 J6.984669
G01 X42.499514 Y84.543718 Z-0.125000
G01 X42.462724 Y85.371103 Z-0.125000
G00 Z5.000000

(End cutting path id: path4758)


(Start cutting path id: path4758)
(Change tool to Cylindrical cutter)

G00 Z5.000000
G00 X36.045933 Y84.481107

G01 Z-0.125000 F1000.0(Penetrate)
G02 X35.555133 Y84.672732 Z-0.125000 I0.179121 J1.183115 F1100.000000
G02 X35.439181 Y84.891018 Z-0.125000 I0.147489 J0.218285
G02 X35.534409 Y85.173679 Z-0.125000 I0.467118 J-0.000000
G02 X37.504370 Y87.608132 Z-0.125000 I40.997076 J-31.160587
G03 X39.549110 Y90.023149 Z-0.125000 I-146.631737 J126.222877
G03 X39.926291 Y90.516539 Z-0.125000 I-5.725717 J4.767995
G02 X40.295976 Y90.877517 Z-0.125000 I1.142292 J-0.800056
G02 X40.446277 Y90.862566 Z-0.125000 I0.066025 J-0.099219
G02 X41.500203 Y88.312351 Z-0.125000 I-2.544413 J-2.544413
G02 X40.438770 Y84.598872 Z-0.125000 I-7.066482 J0.011395
G02 X39.826024 Y84.247338 Z-0.125000 I-0.632708 J0.393054
G02 X36.046258 Y84.481107 Z-0.125000 I-0.573677 J21.398372
G01 X36.045933 Y84.481107 Z-0.125000
G00 Z5.000000

(End cutting path id: path4758)


(Start cutting path id: path4758)
(Change tool to Cylindrical cutter)

G00 Z5.000000
G00 X33.816897 Y89.121896

G01 Z-0.125000 F1000.0(Penetrate)
G02 X33.309815 Y100.857027 Z-0.125000 I189.276015 J14.057256 F1100.000000
G02 X33.650651 Y102.708903 Z-0.125000 I4.877113 J0.059675
G02 X34.135839 Y102.889131 Z-0.125000 I0.323551 J-0.127828
G02 X34.876077 Y102.065919 Z-0.125000 I-0.739510 J-1.409392
G03 X35.398143 Y101.031420 Z-0.125000 I5.980342 J2.369033
G03 X37.203490 Y98.333429 Z-0.125000 I42.838041 J26.711844
G02 X39.606276 Y94.528056 Z-0.125000 I-31.191214 J-22.356006
G02 X39.692374 Y93.826213 Z-0.125000 I-0.829291 J-0.457935
G02 X39.453170 Y93.350638 Z-0.125000 I-1.259622 J0.335619
G02 X36.973563 Y90.327716 Z-0.125000 I-99.916269 J79.429691
G02 X34.383183 Y87.362402 Z-0.125000 I-95.604444 J80.902159
G02 X34.092984 Y87.209245 Z-0.125000 I-0.353947 J0.319142
G02 X34.019667 Y87.264595 Z-0.125000 I-0.008727 J0.064673
G02 X33.816897 Y89.121896 Z-0.125000 I26.720970 J3.856966
G01 X33.816897 Y89.121896 Z-0.125000
G00 Z5.000000

(End cutting path id: path4758)


(Start cutting path id: path4758)
(Change tool to Cylindrical cutter)

G00 Z5.000000
G00 X23.524876 Y90.070865

G01 Z-0.125000 F1000.0(Penetrate)
G03 X22.527119 Y90.194912 Z-0.125000 I-1.681513 J-9.450346 F1100.000000
G03 X20.822093 Y90.263877 Z-0.125000 I-1.969239 J-27.574551
G01 X19.112170 Y90.280218 Z-0.125000
G01 X19.112170 Y91.047360 Z-0.125000
G02 X19.525416 Y91.877228 Z-0.125000 I1.039881 J0.000000
G02 X21.428840 Y92.796677 Z-0.125000 I3.257939 J-4.314574
G03 X22.746567 Y93.160324 Z-0.125000 I-10.679914 J41.269551
G03 X24.493256 Y93.695459 Z-0.125000 I-21.433550 J73.077594
G02 X26.237950 Y94.225411 Z-0.125000 I19.282634 J-60.344867
G02 X26.423815 Y94.251651 Z-0.125000 I0.185865 J-0.645144
G02 X26.700296 Y93.977804 Z-0.125000 I0.000000 J-0.276494
G02 X26.433414 Y93.247764 Z-0.125000 I-1.103049 J-0.010557
G03 X26.287398 Y93.017494 Z-0.125000 I0.713161 J-0.613649
G03 X25.626111 Y91.438559 Z-0.125000 I33.869946 J-15.113301
G02 X24.929492 Y89.954772 Z-0.125000 I-11.675754 J4.576195
G02 X24.758443 Y89.866570 Z-0.125000 I-0.151339 J0.083532
G02 X24.518600 Y89.900162 Z-0.125000 I0.552672 J4.819084
G02 X23.524869 Y90.070851 Z-0.125000 I13.756083 J83.064230
G01 X23.524876 Y90.070865 Z-0.125000
G00 Z5.000000

(End cutting path id: path4758)


(Start cutting path id: path4758)
(Change tool to Cylindrical cutter)

G00 Z5.000000
G00 X20.775912 Y84.926877

G01 Z-0.125000 F1000.0(Penetrate)
G02 X20.020912 Y86.877355 Z-0.125000 I23.741317 J10.311254 F1100.000000
G02 X19.822644 Y87.719875 Z-0.125000 I4.195059 J1.431805
G01 X19.706570 Y88.585284 Z-0.125000
G01 X21.119293 Y88.451418 Z-0.125000
G02 X24.547946 Y87.824443 Z-0.125000 I-1.905300 J-20.107672
G02 X24.848688 Y87.430287 Z-0.125000 I-0.107923 J-0.394157
G02 X24.758768 Y87.072235 Z-0.125000 I-0.757824 J0.000000
G02 X23.966147 Y85.784005 Z-0.125000 I-11.211983 J6.010548
G03 X23.116141 Y84.513879 Z-0.125000 I29.399607 J-20.594573
G03 X23.083605 Y84.402514 Z-0.125000 I0.174326 J-0.111365
G02 X22.706663 Y83.376237 Z-0.125000 I-1.585561 J-0.000000
G02 X21.892060 Y82.999282 Z-0.125000 I-0.814603 J0.691705
G02 X21.689647 Y83.115975 Z-0.125000 I0.000000 J0.233898
G02 X20.775912 Y84.926877 Z-0.125000 I15.255689 J8.833605
G01 X20.775912 Y84.926877 Z-0.125000
G00 Z5.000000

(End cutting path id: path4758)


(Start cutting path id: path4758)
(Change tool to Cylindrical cutter)

G00 Z5.000000
G00 X16.331187 Y84.413896

G01 Z-0.125000 F1000.0(Penetrate)
G02 X16.437547 Y86.974483 Z-0.125000 I3.015739 J1.157237 F1100.000000
G02 X17.855256 Y87.573557 Z-0.125000 I1.049303 J-0.506135
G02 X18.225092 Y87.071303 Z-0.125000 I-0.171096 J-0.513279
G02 X17.898235 Y85.464857 Z-0.125000 I-3.736808 J-0.076162
G02 X17.184951 Y84.259845 Z-0.125000 I-5.683288 J2.550502
G02 X16.868762 Y84.102461 Z-0.125000 I-0.316189 J0.238924
G02 X16.515883 Y84.197295 Z-0.125000 I0.000000 J0.703944
G02 X16.331189 Y84.413896 Z-0.125000 I0.214151 J0.369651
G01 X16.331187 Y84.413896 Z-0.125000
G00 Z5.000000

(End cutting path id: path4758)


(Start cutting path id: path4758)
(Change tool to Cylindrical cutter)

G00 Z5.000000
G00 X14.699463 Y89.458550

G01 Z-0.125000 F1000.0(Penetrate)
G02 X13.293933 Y90.011545 Z-0.125000 I5.416551 J15.829779 F1100.000000
G02 X12.205417 Y90.572303 Z-0.125000 I4.483643 J10.040285
G02 X9.216767 Y92.668442 Z-0.125000 I11.539225 J19.631154
G02 X6.564143 Y95.246132 Z-0.125000 I14.915094 J18.002387
G01 X5.874049 Y96.032104 Z-0.125000
G01 X5.874049 Y98.969114 Z-0.125000
G02 X6.077347 Y105.742213 Z-0.125000 I112.928246 J-0.000000
G02 X6.293199 Y105.945066 Z-0.125000 I0.215408 J-0.012943
G02 X6.571360 Y105.846149 Z-0.125000 I-0.000606 J-0.442264
G02 X11.216712 Y101.947815 Z-0.125000 I-117.828527 J-145.124359
G03 X12.858267 Y100.561601 Z-0.125000 I53.530440 J61.725688
G03 X14.539431 Y99.215966 Z-0.125000 I52.122165 J63.395637
G02 X15.923798 Y97.390722 Z-0.125000 I-2.738103 J-3.514343
G02 X15.883003 Y95.936798 Z-0.125000 I-1.661840 J-0.680906
G03 X15.770735 Y95.171890 Z-0.125000 I1.183582 J-0.564411
G03 X16.302341 Y93.226533 Z-0.125000 I8.817710 J1.364294
G02 X17.177182 Y90.500052 Z-0.125000 I-19.140824 J-7.645277
G02 X17.197112 Y89.585519 Z-0.125000 I-2.042747 J-0.502000
G02 X16.721252 Y89.174766 Z-0.125000 I-0.501843 J0.100369
G02 X14.699463 Y89.458550 Z-0.125000 I-0.274072 J5.391314
G01 X14.699463 Y89.458550 Z-0.125000
G00 Z5.000000

(End cutting path id: path4758)


(Start cutting path id: path4758)
(Change tool to Cylindrical cutter)

G00 Z5.000000
G00 X18.363552 Y94.600670

G01 Z-0.125000 F1000.0(Penetrate)
G02 X18.574108 Y95.573984 Z-0.125000 I0.848962 J0.325777 F1100.000000
G02 X23.966147 Y100.124264 Z-0.125000 I32.046326 J-32.504700
G02 X30.395001 Y104.242556 Z-0.125000 I41.425390 J-57.590024
G02 X30.805840 Y104.003245 Z-0.125000 I0.135720 J-0.239311
G02 X30.768940 Y103.834841 Z-0.125000 I-0.402730 J-0.000000
G02 X29.561646 Y101.300468 Z-0.125000 I-96.976356 J44.641658
G03 X28.362746 Y98.755638 Z-0.125000 I72.358445 J-35.643767
G03 X27.928707 Y97.671522 Z-0.125000 I12.677103 J-5.704375
G02 X26.911899 Y96.543992 Z-0.125000 I-1.860608 J0.655656
G02 X21.870111 Y94.804607 Z-0.125000 I-10.411953 J22.003351
G02 X18.733704 Y94.361766 Z-0.125000 I-4.256737 J18.820063
G02 X18.363552 Y94.600670 Z-0.125000 I-0.021672 J0.372626
G01 X18.363552 Y94.600670 Z-0.125000
G00 Z5.000000

(End cutting path id: path4758)


(Start cutting path id: path4758)
(Change tool to Cylindrical cutter)

G00 Z5.000000
G00 X16.223353 Y99.364132

G01 Z-0.125000 F1000.0(Penetrate)
G02 X14.069331 Y100.960626 Z-0.125000 I27.123283 J38.846677 F1100.000000
G02 X9.845485 Y104.376899 Z-0.125000 I120.204873 J152.939400
G02 X6.565372 Y107.233782 Z-0.125000 I61.863336 J74.339484
G02 X6.562240 Y107.368979 Z-0.125000 I0.062967 J0.069094
G02 X6.688878 Y107.403318 Z-0.125000 I0.093249 J-0.093209
G02 X7.850203 Y107.031853 Z-0.125000 I-2.884762 J-11.019827
G03 X10.175118 Y106.280981 Z-0.125000 I8.557160 J22.520669
G03 X17.173703 Y104.534971 Z-0.125000 I54.322285 J202.842400
G02 X17.593336 Y104.173764 Z-0.125000 I-0.134222 J-0.580290
G02 X18.563573 Y101.021288 Z-0.125000 I-19.655559 J-7.774932
G02 X18.790002 Y99.318263 Z-0.125000 I-9.506864 J-2.130567
G02 X18.662912 Y98.759773 Z-0.125000 I-1.081845 J-0.047521
G02 X18.324713 Y98.308214 Z-0.125000 I-1.648631 J0.882326
G02 X18.116630 Y98.223102 Z-0.125000 I-0.208084 J0.211808
G02 X17.878396 Y98.289342 Z-0.125000 I0.000000 J0.461532
G02 X16.223353 Y99.364132 Z-0.125000 I15.174280 J25.178148
G01 X16.223353 Y99.364132 Z-0.125000
G00 Z5.000000

(End cutting path id: path4758)


(Start cutting path id: path4758)
(Change tool to Cylindrical cutter)

G00 Z5.000000
G00 X22.168194 Y103.021907

G01 Z-0.125000 F1000.0(Penetrate)
G02 X20.742808 Y104.952026 Z-0.125000 I4.036870 J4.472597 F1100.000000
G02 X19.743337 Y108.231456 Z-0.125000 I11.151805 J5.190753
G02 X19.403523 Y112.111517 Z-0.125000 I28.041718 J4.410791
G02 X19.604548 Y115.653277 Z-0.125000 I23.543901 J0.440267
G03 X19.761754 Y116.867291 Z-0.125000 I-182.944828 J24.307188
G03 X20.140218 Y119.900507 Z-0.125000 I-1141.938281 J144.023408
G02 X20.569296 Y122.872441 Z-0.125000 I72.396412 J-8.935413
G02 X20.642160 Y122.934240 Z-0.125000 I0.072865 J-0.012056
G02 X20.727144 Y122.874947 Z-0.125000 I0.000000 J-0.090549
G02 X22.244779 Y118.576695 Z-0.125000 I-164.440779 J-60.478104
G01 X25.277146 Y109.619696 Z-0.125000
G02 X26.775031 Y105.010459 Z-0.125000 I-187.338379 J-63.428204
G02 X26.834406 Y104.620180 Z-0.125000 I-1.252979 J-0.390280
G02 X26.008747 Y103.020184 Z-0.125000 I-1.963098 J-0.000000
G02 X23.422312 Y102.194522 Z-0.125000 I-2.586435 J3.638249
G02 X23.119793 Y102.285324 Z-0.125000 I-0.000000 J0.549342
G02 X22.168194 Y103.021907 Z-0.125000 I4.391529 J6.656438
G01 X22.168194 Y103.021907 Z-0.125000
G00 Z5.000000

(End cutting path id: path4758)


(Start cutting path id: path4758)
(Change tool to Cylindrical cutter)

G00 Z5.000000
G00 X28.482855 Y106.552070

G01 Z-0.125000 F1000.0(Penetrate)
G03 X28.279522 Y107.749940 Z-0.125000 I-18.866529 J-2.586308 F1100.000000
G03 X25.921700 Y119.183448 Z-0.125000 I-1723.076118 J-349.373536
G02 X23.162890 Y132.726747 Z-0.125000 I1179.088449 J247.236434
G02 X23.083605 Y133.536438 Z-0.125000 I4.094818 J0.809691
G01 X23.083605 Y134.186644 Z-0.125000
G01 X24.813272 Y134.186644 Z-0.125000
G02 X26.403212 Y133.969418 Z-0.125000 I0.000000 J-5.927228
G02 X26.794261 Y133.635054 Z-0.125000 I-0.163455 J-0.587021
G03 X27.092258 Y133.156031 Z-0.125000 I1.995709 J0.909311
G03 X27.245322 Y133.083474 Z-0.125000 I0.153064 J0.125171
G02 X27.388194 Y132.999513 Z-0.125000 I0.000000 J-0.163540
G02 X27.951968 Y131.814814 Z-0.125000 I-8.955452 J-4.988208
G03 X28.786113 Y129.867564 Z-0.125000 I40.002403 J15.983579
G03 X31.310371 Y124.478696 Z-0.125000 I309.061488 J141.485202
G03 X32.688237 Y122.040545 Z-0.125000 I18.704776 J8.962171
G03 X35.858041 Y117.566862 Z-0.125000 I66.412800 J43.696614
G02 X39.103788 Y113.163242 Z-0.125000 I-138.121219 J-105.202078
G02 X39.189985 Y112.893883 Z-0.125000 I-0.377769 J-0.269359
G02 X38.828615 Y112.087911 Z-0.125000 I-1.079473 J0.000000
G02 X33.533351 Y107.853916 Z-0.125000 I-42.311294 J47.488526
G02 X30.150891 Y105.812449 Z-0.125000 I-14.727839 J20.579328
G02 X28.848101 Y105.504052 Z-0.125000 I-1.302790 J2.597547
G02 X28.711305 Y105.601242 Z-0.125000 I-0.000000 J0.144866
G02 X28.482855 Y106.552070 Z-0.125000 I4.645367 J1.618977
G01 X28.482855 Y106.552070 Z-0.125000
G00 Z5.000000

(End cutting path id: path4758)


(Start cutting path id: path4758)
(Change tool to Cylindrical cutter)

G00 Z5.000000
G00 X38.436401 Y98.829855

G01 Z-0.125000 F1000.0(Penetrate)
G02 X34.558042 Y104.571375 Z-0.125000 I42.901734 J33.160497 F1100.000000
G02 X34.115372 Y106.202041 Z-0.125000 I2.782114 J1.630666
G02 X34.258695 Y106.520835 Z-0.125000 I0.426209 J-0.000000
G02 X36.780573 Y108.653070 Z-0.125000 I45.827783 J-51.644843
G02 X39.395091 Y110.659232 Z-0.125000 I44.049668 J-54.700678
G02 X39.824248 Y110.799317 Z-0.125000 I0.429157 J-0.587331
G02 X40.076758 Y110.566830 Z-0.125000 I0.000000 J-0.253372
G02 X40.449263 Y103.242557 Z-0.125000 I-115.276105 J-9.534436
G02 X40.455710 Y96.795442 Z-0.125000 I-178.015744 J-3.401562
G02 X40.336911 Y96.678658 Z-0.125000 I-0.118799 J0.002032
G02 X40.142239 Y96.766434 Z-0.125000 I0.000000 J0.259762
G02 X38.436401 Y98.829855 Z-0.125000 I30.594666 J27.029552
G01 X38.436401 Y98.829855 Z-0.125000
G00 Z5.000000

(End cutting path id: path4758)


(Start cutting path id: path4758)
(Change tool to Cylindrical cutter)

G00 Z5.000000
G00 X41.728153 Y98.498898

G01 Z-0.125000 F1000.0(Penetrate)
G02 X41.318513 Y109.524627 Z-0.125000 I81.548952 J8.550268 F1100.000000
G02 X42.116931 Y111.372821 Z-0.125000 I2.729139 J-0.082430
G02 X42.284648 Y111.380680 Z-0.125000 I0.088174 J-0.088171
G02 X44.432356 Y109.454926 Z-0.125000 I-23.477518 J-28.343936
G03 X46.596372 Y107.386898 Z-0.125000 I140.063799 J144.398694
G03 X47.536665 Y106.532207 Z-0.125000 I24.837320 J26.380323
G02 X48.358002 Y105.660791 Z-0.125000 I-4.174312 J-4.757195
G02 X48.391843 Y105.432746 Z-0.125000 I-0.185140 J-0.144008
G02 X44.403211 Y98.281891 Z-0.125000 I-26.933410 J10.335201
G02 X42.056767 Y97.119932 Z-0.125000 I-2.346444 J1.788208
G02 X41.949222 Y97.204861 Z-0.125000 I-0.000000 J0.110557
G02 X41.728153 Y98.498898 Z-0.125000 I9.869961 J2.352050
G01 X41.728153 Y98.498898 Z-0.125000
G00 Z5.000000

(End cutting path id: path4758)


(Start cutting path id: path4758)
(Change tool to Cylindrical cutter)

G00 Z5.000000
G00 X51.154477 Y106.050129

G01 Z-0.125000 F1000.0(Penetrate)
G02 X45.709161 Y109.641685 Z-0.125000 I17.102279 J31.853242 F1100.000000
G02 X42.836660 Y112.686201 Z-0.125000 I9.284096 J11.636905
G02 X42.803897 Y112.976066 Z-0.125000 I0.247197 J0.174724
G02 X43.216658 Y113.610070 Z-0.125000 I1.882548 J-0.774249
G03 X43.779766 Y114.256622 Z-0.125000 I-6.526433 J6.252627
G03 X44.865231 Y115.694896 Z-0.125000 I-31.307179 J24.756242
G02 X45.931621 Y117.150177 Z-0.125000 I86.660238 J-62.383917
G02 X47.823050 Y119.660635 Z-0.125000 I259.559889 J-193.589789
G03 X50.341637 Y123.502836 Z-0.125000 I-26.023400 J19.805076
G03 X52.862207 Y128.670763 Z-0.125000 I-44.709037 J25.004733
G02 X53.557515 Y130.325406 Z-0.125000 I4454.776682 J-1870.996247
G02 X53.743429 Y130.766799 Z-0.125000 I340.521612 J-143.167170
G03 X53.927461 Y131.208971 Z-0.125000 I-44.726878 J18.874800
G03 X54.535782 Y132.697363 Z-0.125000 I-505.890313 J207.630789
G02 X55.239194 Y134.042044 Z-0.125000 I7.375485 J-3.001851
G02 X55.505971 Y134.186644 Z-0.125000 I0.266777 J-0.173792
G03 X55.848353 Y134.242396 Z-0.125000 I0.000000 J1.079189
G03 X56.079616 Y134.378549 Z-0.125000 I-0.204926 J0.612558
G02 X57.346952 Y134.959137 Z-0.125000 I1.534528 J-1.676148
G02 X58.063283 Y134.613392 Z-0.125000 I0.086988 J-0.734711
G03 X58.229611 Y134.477161 Z-0.125000 I0.281345 J0.173848
G03 X58.618919 Y134.407285 Z-0.125000 I0.389308 J1.049562
G02 X58.938652 Y134.076955 Z-0.125000 I0.000000 J-0.319903
G02 X58.485812 Y130.325525 Z-0.125000 I-21.600777 J0.704414
G03 X56.260176 Y119.218221 Z-0.125000 I559.463778 J-117.879662
G03 X54.354634 Y108.592949 Z-0.125000 I510.049826 J-96.956114
G02 X53.560926 Y105.296537 Z-0.125000 I-24.169637 J4.075792
G02 X53.242464 Y105.066464 Z-0.125000 I-0.313848 J0.098980
G02 X52.993636 Y105.123705 Z-0.125000 I0.007030 J0.600010
G02 X51.154477 Y106.050129 Z-0.125000 I16.812264 J35.664870
G01 X51.154477 Y106.050129 Z-0.125000
G00 Z5.000000

(End cutting path id: path4758)


(Start cutting path id: path4758)
(Change tool to Cylindrical cutter)

G00 Z5.000000
G00 X56.558824 Y103.368891

G01 Z-0.125000 F1000.0(Penetrate)
G02 X55.514747 Y104.383289 Z-0.125000 I2.951222 J4.082078 F1100.000000
G02 X55.392969 Y104.887286 Z-0.125000 I0.506864 J0.389181
G02 X55.801364 Y106.430079 Z-0.125000 I10.059444 J-1.837399
G02 X57.502253 Y110.909618 Z-0.125000 I86.985549 J-30.465887
G03 X57.995507 Y112.218092 Z-0.125000 I-22.802904 J9.343188
G03 X59.594886 Y116.977088 Z-0.125000 I-300.271509 J103.561955
G02 X60.015635 Y118.181654 Z-0.125000 I30.723853 J-10.055937
G02 X60.373763 Y119.073121 Z-0.125000 I17.179829 J-6.383951
G02 X62.005291 Y122.626835 Z-0.125000 I80.863968 J-34.973684
G02 X62.143976 Y122.713610 Z-0.125000 I0.138685 J-0.067437
G02 X62.392954 Y122.477399 Z-0.125000 I0.000000 J-0.249323
G02 X62.635310 Y115.382679 Z-0.125000 I-191.978592 J-10.109497
G02 X62.628320 Y108.372681 Z-0.125000 I-210.117986 J-3.295473
G02 X62.392696 Y106.855357 Z-0.125000 I-5.646070 J0.099816
G02 X61.154071 Y104.053447 Z-0.125000 I-11.697234 J3.496201
G02 X60.046142 Y102.958673 Z-0.125000 I-2.703635 J1.628113
G02 X58.462909 Y102.627009 Z-0.125000 I-1.286074 J2.194516
G02 X56.558824 Y103.368891 Z-0.125000 I0.474243 J4.031590
G01 X56.558824 Y103.368891 Z-0.125000
G00 Z5.000000

(End cutting path id: path4758)


(Start cutting path id: path4758)
(Change tool to Cylindrical cutter)

G00 Z5.000000
G00 X63.363952 Y99.457779

G01 Z-0.125000 F1000.0(Penetrate)
G02 X63.533567 Y102.614993 Z-0.125000 I5.195734 J1.304032 F1100.000000
G02 X65.183241 Y104.392009 Z-0.125000 I2.955952 J-1.089889
G02 X68.636732 Y105.623120 Z-0.125000 I8.943702 J-19.629321
G02 X75.649972 Y107.146704 Z-0.125000 I21.035582 J-79.926128
G02 X75.912612 Y106.823799 Z-0.125000 I0.040511 J-0.235313
G02 X75.206087 Y106.021027 Z-0.125000 I-1.466297 J0.578201
G03 X73.985379 Y105.255400 Z-0.125000 I6.073761 J-11.039898
G03 X70.746462 Y102.854809 Z-0.125000 I57.102212 J-80.428564
G02 X65.478619 Y99.278682 Z-0.125000 I-31.497804 J40.730112
G02 X64.040885 Y98.885009 Z-0.125000 I-1.437734 J2.428543
G02 X63.626194 Y99.036912 Z-0.125000 I-0.000000 J0.642000
G02 X63.363952 Y99.457779 Z-0.125000 I0.522846 J0.617920
G01 X63.363952 Y99.457779 Z-0.125000
G00 Z5.000000

(End cutting path id: path4758)


(Start cutting path id: path4758)
(Change tool to Cylindrical cutter)

G00 Z5.000000
G00 X59.048267 Y94.932177

G01 Z-0.125000 F1000.0(Penetrate)
G02 X57.184939 Y95.394248 Z-0.125000 I9.922641 J44.001620 F1100.000000
G02 X55.809775 Y95.808821 Z-0.125000 I6.597386 J24.371963
G01 X54.445586 Y96.262792 Z-0.125000
G01 X53.326530 Y99.760251 Z-0.125000
G02 X52.226656 Y103.260701 Z-0.125000 I334.209264 J106.934647
G02 X52.207465 Y103.388020 Z-0.125000 I0.412739 J0.127319
G02 X52.399157 Y103.500648 Z-0.125000 I0.128933 J0.000000
G02 X56.378520 Y101.063799 Z-0.125000 I-27.643892 J-49.609915
G02 X63.392715 Y95.604053 Z-0.125000 I-34.952581 J-52.139440
G02 X63.415746 Y94.737071 Z-0.125000 I-0.399541 J-0.444410
G02 X62.668683 Y94.446987 Z-0.125000 I-0.702712 J0.702707
G02 X59.048267 Y94.932177 Z-0.125000 I0.921398 J20.625438
G01 X59.048267 Y94.932177 Z-0.125000
G00 Z5.000000

(End cutting path id: path4758)


(Start cutting path id: path4758)
(Change tool to Cylindrical cutter)

G00 Z5.000000
G00 X55.996510 Y91.000900

G01 Z-0.125000 F1000.0(Penetrate)
G02 X55.083244 Y93.889995 Z-0.125000 I27.374705 J10.242257 F1100.000000
G02 X55.166215 Y94.195063 Z-0.125000 I0.307975 J0.080055
G02 X55.289922 Y94.227536 Z-0.125000 I0.089649 J-0.089653
G02 X55.566830 Y94.083329 Z-0.125000 I-0.202904 J-0.727582
G03 X56.473930 Y93.625350 Z-0.125000 I1.473948 J1.792075
G03 X60.150336 Y92.928630 Z-0.125000 I7.686031 J30.509070
G02 X63.117735 Y92.202405 Z-0.125000 I-1.738177 J-13.527895
G02 X63.459868 Y91.712131 Z-0.125000 I-0.180213 J-0.490274
G02 X63.001523 Y90.960222 Z-0.125000 I-0.845922 J0.000000
G02 X61.102548 Y90.497035 Z-0.125000 I-1.909600 J3.704681
G03 X59.607125 Y90.413978 Z-0.125000 I0.043898 J-14.294384
G03 X58.054387 Y90.166087 Z-0.125000 I1.679999 J-15.510099
G02 X56.509603 Y89.842949 Z-0.125000 I-64.871419 J306.268113
G02 X56.470632 Y89.838966 Z-0.125000 I-0.038971 J0.188674
G01 X56.443752 Y89.857029 Z-0.125000
G02 X55.996510 Y91.000900 Z-0.125000 I38.701784 J15.791388
G01 X55.996510 Y91.000900 Z-0.125000
G00 Z5.000000

(End cutting path id: path4758)


(Start cutting path id: path4758)
(Change tool to Cylindrical cutter)

G00 Z5.000000
G00 X60.019498 Y83.168136

G01 Z-0.125000 F1000.0(Penetrate)
G02 X57.934724 Y85.355835 Z-0.125000 I3.902971 J5.806541 F1100.000000
G02 X57.282080 Y87.697466 Z-0.125000 I3.874469 J2.341632
G02 X57.983304 Y88.505735 Z-0.125000 I0.816439 J0.000000
G02 X62.289625 Y88.411291 Z-0.125000 I1.866956 J-13.097175
G02 X62.696659 Y87.851546 Z-0.125000 I-0.092947 J-0.495455
G02 X61.879113 Y85.218833 Z-0.125000 I-7.932486 J1.020009
G02 X60.500268 Y83.226701 Z-0.125000 I-8.241576 J4.231124
G02 X60.019498 Y83.168136 Z-0.125000 I-0.274247 J0.248692
G01 X60.019498 Y83.168136 Z-0.125000
G00 Z5.000000

(End cutting path id: path4758)


(Start cutting path id: path4758)
(Change tool to Cylindrical cutter)

G00 Z5.000000
G00 X65.062577 Y83.826665

G01 Z-0.125000 F1000.0(Penetrate)
G02 X64.019181 Y85.794537 Z-0.125000 I8.371478 J5.699236 F1100.000000
G02 X63.937465 Y86.665462 Z-0.125000 I1.452221 J0.575554
G02 X64.100870 Y86.991606 Z-0.125000 I0.661107 J-0.127222
G02 X64.374085 Y87.144836 Z-0.125000 I0.367141 J-0.334436
G02 X65.412792 Y86.637406 Z-0.125000 I0.181889 J-0.944503
G02 X66.107491 Y83.746736 Z-0.125000 I-5.666740 J-2.890669
G02 X65.758772 Y83.423665 Z-0.125000 I-0.324014 J0.000000
G02 X65.062577 Y83.826625 Z-0.125000 I0.070743 J0.925110
G01 X65.062577 Y83.826665 Z-0.125000
G00 Z5.000000

(End cutting path id: path4758)


(Start cutting path id: path4758)
(Change tool to Cylindrical cutter)

G00 Z5.000000
G00 X65.013660 Y89.316804

G01 Z-0.125000 F1000.0(Penetrate)
G02 X65.502521 Y92.221796 Z-0.125000 I9.728561 J-0.143525 F1100.000000
G02 X66.513784 Y93.863672 Z-0.125000 I3.959569 J-1.306407
G03 X66.760814 Y94.611505 Z-0.125000 I-0.619278 J0.619282
G03 X66.187896 Y96.059923 Z-0.125000 I-3.388578 J-0.502827
G01 X65.606386 Y96.899040 Z-0.125000
G01 X66.236563 Y97.395593 Z-0.125000
G02 X66.874610 Y97.881757 Z-0.125000 I15.264495 J-19.371528
G02 X71.065294 Y100.952256 Z-0.125000 I613.368450 J-832.743688
G03 X75.248412 Y104.031610 Z-0.125000 I-322.203810 J442.075418
G03 X75.705132 Y104.401898 Z-0.125000 I-4.183010 J5.626221
G02 X76.174968 Y104.740221 Z-0.125000 I1.935368 J-2.192289
G02 X76.631552 Y104.938411 Z-0.125000 I1.083206 J-1.870429
G02 X76.834814 Y104.841958 Z-0.125000 I0.048516 J-0.160158
G02 X76.825481 Y104.467342 Z-0.125000 I-0.429290 J-0.176730
G03 X76.634235 Y103.822881 Z-0.125000 I2.010045 J-0.947096
G03 X76.273951 Y100.455570 Z-0.125000 I55.858833 J-7.679513
G02 X75.508979 Y95.262394 Z-0.125000 I-37.575846 J2.882117
G02 X74.874321 Y94.075381 Z-0.125000 I-2.420495 J0.530990
G02 X71.128892 Y91.075103 Z-0.125000 I-13.403306 J12.894195
G02 X66.938921 Y89.253629 Z-0.125000 I-8.753688 J14.406401
G03 X65.777840 Y88.922375 Z-0.125000 I43.361201 J-154.186320
G03 X65.390432 Y88.805533 Z-0.125000 I5.003782 J-17.291503
G02 X65.152699 Y88.883167 Z-0.125000 I-0.064475 J0.205377
G02 X65.013660 Y89.316804 Z-0.125000 I0.573864 J0.423109
G01 X65.013660 Y89.316804 Z-0.125000
G00 Z5.000000

(End cutting path id: path4758)


(Start cutting path id: path4758)
(Change tool to Cylindrical cutter)

G00 Z5.000000
G00 X77.869339 Y99.793948

G01 Z-0.125000 F1000.0(Penetrate)
G03 X77.958973 Y100.325356 Z-0.125000 I-3.432780 J0.852275 F1100.000000
G03 X78.153932 Y102.918862 Z-0.125000 I-81.909469 J7.461396
G02 X78.389885 Y105.469739 Z-0.125000 I38.733653 J-2.296466
G02 X78.495887 Y105.634667 Z-0.125000 I0.225479 J-0.028391
G03 X78.607181 Y105.793450 Z-0.125000 I-0.129201 J0.208955
G03 X78.683708 Y106.534998 Z-0.125000 I-3.554511 J0.741549
G01 X78.683708 Y107.319254 Z-0.125000
G01 X79.731724 Y107.165452 Z-0.125000
G02 X81.674256 Y106.402300 Z-0.125000 I-0.668576 J-4.555645
G02 X81.584403 Y105.889889 Z-0.125000 I-0.162233 J-0.235635
G03 X81.261984 Y105.676493 Z-0.125000 I0.151403 J-0.579022
G03 X81.009397 Y105.144735 Z-0.125000 I1.098496 J-0.847657
G02 X79.273911 Y100.430387 Z-0.125000 I-19.926178 J4.658781
G02 X78.032074 Y99.366475 Z-0.125000 I-1.927579 J0.993225
G02 X77.891060 Y99.433323 Z-0.125000 I-0.035646 J0.106963
G02 X77.869339 Y99.793948 Z-0.125000 I0.564670 J0.214977
G01 X77.869339 Y99.793948 Z-0.125000
G00 Z5.000000

(End cutting path id: path4758)


(Start cutting path id: path4758)
(Change tool to Cylindrical cutter)

G00 Z5.000000
G00 X38.848287 Y75.099419

G01 Z-0.125000 F1000.0(Penetrate)
G02 X37.370174 Y77.394880 Z-0.125000 I15.638321 J11.693591 F1100.000000
G02 X37.285640 Y77.945410 Z-0.125000 I0.712368 J0.391140
G02 X38.837373 Y80.967087 Z-0.125000 I6.089381 J-1.217831
G02 X40.976737 Y81.896098 Z-0.125000 I2.139364 J-1.998800
G02 X41.472540 Y81.697016 Z-0.125000 I-0.000000 J-0.716927
G02 X43.353886 Y79.620134 Z-0.125000 I-13.639994 J-14.246354
G02 X44.587309 Y77.854815 Z-0.125000 I-15.392377 J-12.068164
G02 X44.705866 Y77.438426 Z-0.125000 I-0.671931 J-0.416389
G02 X43.456188 Y74.115115 Z-0.125000 I-5.043738 J-0.000000
G02 X40.687498 Y72.850873 Z-0.125000 I-2.788149 J2.442208
G02 X40.560430 Y72.910595 Z-0.125000 I-0.001062 J0.162779
G02 X38.848287 Y75.099419 Z-0.125000 I49.466283 J40.457588
G01 X38.848287 Y75.099419 Z-0.125000
G00 Z5.000000

(End cutting path id: path4758)


(Start cutting path id: path4758)
(Change tool to Cylindrical cutter)

G00 Z5.000000
G00 X31.723658 Y76.514459

G01 Z-0.125000 F1000.0(Penetrate)
G03 X31.603190 Y76.978603 Z-0.125000 I-0.656736 J0.077251 F1100.000000
G03 X31.263421 Y77.152439 Z-0.125000 I-0.339769 J-0.245127
G02 X30.854171 Y77.426057 Z-0.125000 I-0.000000 J0.442867
G02 X28.024214 Y84.984986 Z-0.125000 I110.008963 J45.495020
G02 X27.287748 Y88.578013 Z-0.125000 I14.265495 J4.796000
G02 X27.591874 Y90.376585 Z-0.125000 I3.710675 J0.297551
G03 X27.856321 Y91.064092 Z-0.125000 I-7.048931 J3.105967
G03 X28.168407 Y92.119996 Z-0.125000 I-16.342442 J5.404281
G02 X28.525246 Y93.152105 Z-0.125000 I6.824864 J-1.781872
G02 X28.964580 Y93.950035 Z-0.125000 I4.500167 J-1.957844
G03 X29.404035 Y94.736515 Z-0.125000 I-4.305436 J2.921728
G03 X29.482029 Y95.099887 Z-0.125000 I-0.807476 J0.363372
G02 X29.540862 Y95.463826 Z-0.125000 I1.155054 J0.000000
G02 X29.680211 Y95.696841 Z-0.125000 I0.594578 J-0.197396
G03 X29.843385 Y95.949043 Z-0.125000 I-0.599262 J0.566609
G03 X31.290624 Y99.602082 Z-0.125000 I-130.459483 J53.797857
G02 X31.567758 Y100.141433 Z-0.125000 I2.550097 J-0.969439
G02 X31.693384 Y100.208826 Z-0.125000 I0.125625 J-0.083390
G02 X31.787098 Y100.125903 Z-0.125000 I0.000000 J-0.094416
G02 X32.011315 Y97.616364 Z-0.125000 I-37.991452 J-4.659178
G03 X32.180013 Y95.025628 Z-0.125000 I146.732118 J8.253725
G03 X32.364034 Y92.849332 Z-0.125000 I103.730498 J7.675185
G02 X32.748084 Y84.432004 Z-0.125000 I-85.174464 J-8.103604
G02 X32.320038 Y80.851241 Z-0.125000 I-15.671968 J0.057465
G02 X32.062428 Y79.801754 Z-0.125000 I-81.904012 J19.548038
G02 X31.777133 Y78.699237 Z-0.125000 I-90.627967 J22.863369
G03 X31.594940 Y77.627980 Z-0.125000 I5.788801 J-1.535649
G03 X31.676622 Y77.406896 Z-0.125000 I0.280904 J-0.021847
G03 X31.946344 Y77.454732 Z-0.125000 I0.118149 J0.118149
G03 X32.582087 Y79.358790 Z-0.125000 I-8.139584 J3.775878
G02 X32.911736 Y80.661041 Z-0.125000 I17.393459 J-3.710089
G02 X33.038968 Y80.914185 Z-0.125000 I0.759067 J-0.222969
G03 X33.163718 Y81.166930 Z-0.125000 I-0.604551 J0.455554
G03 X33.362449 Y82.077412 Z-0.125000 I-7.973310 J2.217261
G02 X33.575766 Y82.966170 Z-0.125000 I5.866700 J-0.938130
G02 X33.701460 Y83.126505 Z-0.125000 I0.280898 J-0.090772
G02 X33.905221 Y83.173204 Z-0.125000 I0.170384 J-0.275554
G02 X35.878937 Y82.900978 Z-0.125000 I-3.031982 J-29.273915
G03 X37.870008 Y82.600431 Z-0.125000 I8.125620 J47.085196
G03 X38.528171 Y82.558005 Z-0.125000 I0.658163 J5.083916
G02 X39.077368 Y82.445388 Z-0.125000 I0.000000 J-1.395433
G02 X39.189985 Y82.274671 Z-0.125000 I-0.073087 J-0.170717
G02 X38.947010 Y81.711912 Z-0.125000 I-0.773195 J0.000000
G02 X34.591961 Y77.942515 Z-0.125000 I-46.813466 J49.686324
G02 X32.019788 Y76.306174 Z-0.125000 I-9.075905 J11.426692
G02 X31.723655 Y76.514459 Z-0.125000 I-0.091729 J0.184242
G01 X31.723658 Y76.514459 Z-0.125000
G00 Z5.000000

(End cutting path id: path4758)


(Start cutting path id: path4758)
(Change tool to Cylindrical cutter)

G00 Z5.000000
G00 X28.489171 Y72.945045

G01 Z-0.125000 F1000.0(Penetrate)
G02 X27.883021 Y73.323120 Z-0.125000 I1.096925 J2.433590 F1100.000000
G02 X26.546713 Y74.554434 Z-0.125000 I11.019557 J13.299975
G01 X25.266161 Y75.865469 Z-0.125000
G01 X25.599513 Y77.832767 Z-0.125000
G02 X26.733464 Y83.939568 Z-0.125000 I194.499323 J-32.957253
G02 X26.842793 Y83.986947 Z-0.125000 I0.071160 J-0.014376
G02 X26.952164 Y83.849796 Z-0.125000 I-0.136538 J-0.221067
G02 X27.122686 Y83.166801 Z-0.125000 I-3.961385 J-1.351818
G03 X27.274278 Y82.455734 Z-0.125000 I7.241305 J1.172072
G03 X27.929034 Y80.131012 Z-0.125000 I78.244757 J20.783033
G02 X29.647716 Y73.008249 Z-0.125000 I-66.675242 J-19.857091
G02 X29.324151 Y72.638043 Z-0.125000 I-0.307962 J-0.057340
G02 X29.157193 Y72.672262 Z-0.125000 I0.029937 J0.570487
G02 X28.489171 Y72.945045 Z-0.125000 I3.474037 J9.461980
G01 X28.489171 Y72.945045 Z-0.125000
G00 Z5.000000

(End cutting path id: path4758)


(Start cutting path id: path4758)
(Change tool to Cylindrical cutter)

G00 Z5.000000
G00 X30.440777 Y66.791900

G01 Z-0.125000 F1000.0(Penetrate)
G02 X30.252480 Y69.441159 Z-0.125000 I4.258041 J1.633963 F1100.000000
G02 X31.806532 Y72.773019 Z-0.125000 I8.519712 J-1.945427
G02 X31.974825 Y72.757287 Z-0.125000 I0.079268 J-0.060055
G02 X32.122638 Y72.138107 Z-0.125000 I-1.262716 J-0.628673
G03 X32.379555 Y71.217588 Z-0.125000 I1.821347 J0.012226
G03 X33.287987 Y70.183509 Z-0.125000 I3.245305 J1.934915
G02 X34.404629 Y69.241380 Z-0.125000 I-13.282840 J-16.876066
G02 X34.522232 Y69.068121 Z-0.125000 I-0.295804 J-0.327325
G02 X34.437323 Y68.756187 Z-0.125000 I-0.259779 J-0.096811
G02 X32.185554 Y67.168678 Z-0.125000 I-12.700754 J15.624383
G02 X30.779711 Y66.608560 Z-0.125000 I-2.369785 J3.903610
G02 X30.440777 Y66.791900 Z-0.125000 I-0.062499 J0.289417
G01 X30.440777 Y66.791900 Z-0.125000
G00 Z5.000000

(End cutting path id: path4758)


(Start cutting path id: path4758)
(Change tool to Cylindrical cutter)

G00 Z5.000000
G00 X26.834406 Y64.642349

G01 Z-0.125000 F1000.0(Penetrate)
G01 X25.620912 Y65.252694 Z-0.125000 F1100.000000
G01 X25.373337 Y67.644228 Z-0.125000
G02 X25.100770 Y73.003290 Z-0.125000 I51.014330 J5.281104
G02 X25.382492 Y73.675851 Z-0.125000 I0.947105 J-0.001440
G02 X25.879606 Y73.646372 Z-0.125000 I0.235296 J-0.238354
G02 X27.713544 Y70.753990 Z-0.125000 I-12.383387 J-9.879387
G02 X28.260637 Y69.396834 Z-0.125000 I-8.930740 J-4.388987
G02 X28.616382 Y67.931624 Z-0.125000 I-10.063236 J-3.219093
G02 X28.769513 Y64.448908 Z-0.125000 I-14.029017 J-2.361562
G02 X28.307806 Y64.028307 Z-0.125000 I-0.455213 J0.035986
G02 X28.059600 Y64.079534 Z-0.125000 I0.007878 J0.665095
G02 X26.834396 Y64.642349 Z-0.125000 I7.333846 J17.580188
G01 X26.834406 Y64.642349 Z-0.125000
G00 Z5.000000

(End cutting path id: path4758)


(Start cutting path id: path4758)
(Change tool to Cylindrical cutter)

G00 Z5.000000
G00 X36.014296 Y47.947098

G01 Z-0.125000 F1000.0(Penetrate)
G02 X35.118719 Y49.772885 Z-0.125000 I14.892856 J8.437719 F1100.000000
G02 X34.997915 Y50.374088 Z-0.125000 I1.435595 J0.601203
G02 X35.217815 Y50.786090 Z-0.125000 I0.495911 J0.000000
G02 X35.935610 Y51.002281 Z-0.125000 I0.711196 J-1.061603
G02 X38.004033 Y50.523348 Z-0.125000 I-0.024885 J-4.813508
G02 X39.065034 Y49.490975 Z-0.125000 I-1.017687 J-2.107305
G02 X39.298652 Y48.795454 Z-0.125000 I-2.135339 J-1.104232
G02 X39.410618 Y47.487920 Z-0.125000 I-7.578680 J-1.307534
G01 X39.410618 Y46.153150 Z-0.125000
G01 X38.220656 Y46.153150 Z-0.125000
G01 X37.030683 Y46.153150 Z-0.125000
G01 X36.014296 Y47.947098 Z-0.125000
G00 Z5.000000

(End cutting path id: path4758)


(Start cutting path id: path4758)
(Change tool to Cylindrical cutter)

G00 Z5.000000
G00 X31.853858 Y38.970434

G01 Z-0.125000 F1000.0(Penetrate)
G01 X29.702664 Y41.045021 Z-0.125000 F1100.000000
G01 X29.705204 Y45.860596 Z-0.125000
G02 X29.917976 Y52.121331 Z-0.125000 I93.693760 J-0.050216
G02 X30.142211 Y52.330938 Z-0.125000 I0.224235 J-0.015138
G02 X30.448911 Y52.135497 Z-0.125000 I0.000000 J-0.338369
G02 X32.440392 Y47.399410 Z-0.125000 I-61.209431 J-28.524737
G02 X35.017912 Y37.830683 Z-0.125000 I-47.944497 J-18.046288
G02 X34.203680 Y36.891153 Z-0.125000 I-0.795202 J-0.133434
G02 X34.031429 Y36.958726 Z-0.125000 I0.006265 J0.269299
G02 X31.853971 Y38.970434 Z-0.125000 I45.857953 J51.820607
G01 X31.853858 Y38.970434 Z-0.125000
G00 Z5.000000

(End cutting path id: path4758)


(Start cutting path id: path4758)
(Change tool to Cylindrical cutter)

G00 Z5.000000
G00 X44.309132 Y3.184421

G01 Z-0.125000 F1000.0(Penetrate)
G02 X44.972687 Y6.359812 Z-0.125000 I10.122250 J-0.458201 F1100.000000
G02 X46.337429 Y8.464342 Z-0.125000 I5.655044 J-2.172405
G01 X47.366908 Y9.497041 Z-0.125000
G01 X49.732032 Y9.457180 Z-0.125000
G02 X52.044400 Y9.238301 Z-0.125000 I-0.252847 J-14.995278
G02 X52.924533 Y8.902915 Z-0.125000 I-0.421718 J-2.429223
G01 X53.751918 Y8.388492 Z-0.125000
G01 X53.751918 Y4.655682 Z-0.125000
G01 X53.751918 Y0.922884 Z-0.125000
G01 X48.979331 Y0.922884 Z-0.125000
G01 X44.206753 Y0.922884 Z-0.125000
G01 X44.309132 Y3.184421 Z-0.125000
G00 Z5.000000

(End cutting path id: path4758)


(Start cutting path id: path4758)
(Change tool to Cylindrical cutter)

G00 Z5.000000
G00 X3.749902 Y101.367162

G01 Z-0.125000 F1000.0(Penetrate)
G02 X1.891887 Y105.497059 Z-0.125000 I43.573047 J22.086154 F1100.000000
G02 X1.681978 Y106.599218 Z-0.125000 I2.788568 J1.102159
G02 X1.863226 Y107.065403 Z-0.125000 I0.690155 J0.000000
G02 X2.371463 Y107.351893 Z-0.125000 I0.692404 J-0.634277
G02 X3.064155 Y107.457463 Z-0.125000 I1.486624 J-7.429145
G02 X3.679398 Y107.489787 Z-0.125000 I0.615243 J-5.838889
G02 X4.094246 Y107.263077 Z-0.125000 I0.000000 J-0.492913
G02 X4.422670 Y106.331454 Z-0.125000 I-1.811115 J-1.162170
G02 X4.773167 Y100.485883 Z-0.125000 I-61.367266 J-6.612834
G02 X4.498797 Y100.208555 Z-0.125000 I-0.273902 J-0.003405
G02 X4.377563 Y100.274680 Z-0.125000 I0.000243 J0.144645
G02 X3.749902 Y101.367162 Z-0.125000 I10.111885 J6.536091
G01 X3.749902 Y101.367162 Z-0.125000
G00 Z5.000000

(End cutting path id: path4758)


(Footer)
M5
G00 X0.0000 Y0.0000
M2
(Using default footer. To add your own footer create file "footer" in the output dir.)
(end)
%