%
(Header)
(Generated by gcodetools from Inkscape.)
(Using default header. To add your own header create file "header" in the output dir.)
M3
(Header end.)
G21 (All units in mm)

(Start cutting path id: path846)
(Change tool to Cylindrical cutter)

G00 Z5.000000
G00 X51.490694 Y64.842424

G01 Z-0.125000 F1000.0(Penetrate)
G02 X45.725766 Y72.329397 Z-0.125000 I7.422186 J11.678011 F1100.000000
G02 X45.993536 Y81.889922 Z-0.125000 I13.833781 J4.396558
G02 X51.205453 Y88.092419 Z-0.125000 I11.510964 J-4.381569
G02 X59.358440 Y87.776550 Z-0.125000 I3.833086 J-6.440599
G02 X64.682146 Y78.821951 Z-0.125000 I-7.359718 J-10.435343
G02 X62.875141 Y68.776467 Z-0.125000 I-17.480660 J-2.040805
G02 X60.014432 Y65.838204 Z-0.125000 I-6.182033 J3.157129
G02 X51.490694 Y64.842424 Z-0.125000 I-5.499021 J10.091965
G00 Z5.000000

(End cutting path id: path846)


(Start cutting path id: path846)
(Change tool to Cylindrical cutter)

G00 Z5.000000
G00 X51.490694 Y64.842424

G01 Z-0.125000 F1000.0(Penetrate)
G02 X58.241577 Y58.513599 Z-0.125000 I-40.899564 J-50.392036 F1100.000000
G02 X61.411212 Y49.703418 Z-0.125000 I-8.806577 J-8.143597
G03 X61.773014 Y46.349946 Z-0.125000 I10.371475 J-0.577286
G02 X59.682671 Y43.600938 Z-0.125000 I-2.090343 J-0.579757
G02 X58.156922 Y44.573006 Z-0.125000 I0.000000 J1.683436
G03 X57.346509 Y46.155752 Z-0.125000 I-21.814591 J-10.170865
G02 X55.512345 Y50.160425 Z-0.125000 I23.803341 J13.324435
G03 X52.556162 Y53.414479 Z-0.125000 I-5.449794 J-1.981113
G03 X46.215955 Y52.493410 Z-0.125000 I-2.480568 J-5.206971
G02 X40.344260 Y49.822287 Z-0.125000 I-7.160677 J7.951511
G02 X30.685653 Y53.213761 Z-0.125000 I-1.392248 J11.484154
G03 X23.712420 Y54.755605 Z-0.125000 I-4.667394 J-4.569331
G03 X23.574159 Y53.854211 Z-0.125000 I0.184745 J-0.489637
G03 X29.104812 Y49.854450 Z-0.125000 I53.933627 J68.752859
G03 X35.446272 Y45.690539 Z-0.125000 I347.335236 J522.066019
G02 X39.032914 Y42.877393 Z-0.125000 I-13.766087 J-21.244162
G00 Z5.000000

(End cutting path id: path846)


(Start cutting path id: path846)
(Change tool to Cylindrical cutter)

G00 Z5.000000
G00 X42.821770 Y43.477271

G01 Z-0.125000 F1000.0(Penetrate)
G02 X49.468168 Y43.868619 Z-0.125000 I3.822883 J-8.290614 F1100.000000
G02 X50.644688 Y42.590955 Z-0.125000 I-0.548050 J-1.685187
G01 X42.821770 Y43.477271 Z-0.125000
G01 X39.032914 Y42.877393 Z-0.125000
G03 X39.045732 Y39.323027 Z-0.125000 I6.502276 J-1.753758
G02 X40.016425 Y35.665001 Z-0.125000 I-161.709644 J-44.869033
G02 X35.943953 Y36.625465 Z-0.125000 I1.276229 J14.525447
G03 X31.492678 Y38.022796 Z-0.125000 I-11.992936 J-30.415604
G02 X21.900505 Y41.755958 Z-0.125000 I199.867150 J527.738444
G02 X12.478170 Y45.912504 Z-0.125000 I54.326299 J135.908335
G03 X8.025051 Y47.965166 Z-0.125000 I-56.866857 J-117.512320
G02 X6.542364 Y52.712479 Z-0.125000 I1.323202 J3.018458
G02 X9.824910 Y56.265590 Z-0.125000 I10.699947 J-6.592311
G02 X13.789516 Y59.049562 Z-0.125000 I74.871021 J-102.407572
G02 X24.904805 Y65.962087 Z-0.125000 I99.545304 J-147.675196
G02 X39.003645 Y70.151981 Z-0.125000 I15.967068 J-27.912611
G02 X44.203317 Y69.226668 Z-0.125000 I0.660977 J-11.357819
G02 X48.382107 Y67.266078 Z-0.125000 I-32.502541 J-74.709335
G00 Z5.000000

(End cutting path id: path846)


(Start cutting path id: path846)
(Change tool to Cylindrical cutter)

G00 Z5.000000
G00 X50.644688 Y42.591020

G01 Z-0.125000 F1000.0(Penetrate)
G03 X53.846587 Y42.403407 Z-0.125000 I2.405707 J13.640597 F1100.000000
G03 X57.341387 Y42.929915 Z-0.125000 I-1.105471 J19.199733
G01 X60.670113 Y43.533131 Z-0.125000
G01 X68.538186 Y44.882836 Z-0.125000
G01 X82.635147 Y47.467173 Z-0.125000
G00 Z5.000000

(End cutting path id: path846)


(Start cutting path id: path846)
(Change tool to Cylindrical cutter)

G00 Z5.000000
G00 X84.880326 Y43.809006

G01 Z-0.125000 F1000.0(Penetrate)
G02 X89.498698 Y46.213603 Z-0.125000 I5.506509 J-4.938616 F1100.000000
G02 X93.161042 Y44.422983 Z-0.125000 I0.449958 J-3.720300
G02 X93.216840 Y41.656736 Z-0.125000 I-2.383416 J-1.431761
G02 X89.868539 Y37.739196 Z-0.125000 I-11.019766 J6.028877
G02 X83.920809 Y34.678692 Z-0.125000 I-11.300786 J14.652139
G02 X79.198727 Y35.050389 Z-0.125000 I-1.884767 J6.236478
G00 Z5.000000

(End cutting path id: path846)


(Start cutting path id: path846)
(Change tool to Cylindrical cutter)

G00 Z5.000000
G00 X79.198727 Y35.050389

G01 Z-0.125000 F1000.0(Penetrate)
G02 X78.095294 Y39.480120 Z-0.125000 I4.352853 J3.436579 F1100.000000
G02 X79.027749 Y41.643430 Z-0.125000 I5.150820 J-0.937551
G02 X79.536016 Y41.863928 Z-0.125000 I0.611307 J-0.713068
G03 X80.575963 Y42.154089 Z-0.125000 I-0.366799 J3.323307
G02 X81.961901 Y42.411439 Z-0.125000 I1.195503 J-2.577677
G03 X83.558474 Y42.687218 Z-0.125000 I0.230186 J3.426810
G03 X84.411601 Y43.179185 Z-0.125000 I-1.723833 J3.975015
G03 X84.880326 Y43.809006 Z-0.125000 I-0.805624 J1.088890
G02 X86.357662 Y45.634225 Z-0.125000 I3.362918 J-1.211463
G02 X87.933229 Y46.073873 Z-0.125000 I1.542146 J-2.483588
G02 X90.528470 Y45.935785 Z-0.125000 I0.673992 J-11.789595
G02 X93.101764 Y45.493489 Z-0.125000 I-31.263131 J-189.596764
G02 X93.991856 Y44.508274 Z-0.125000 I-0.184989 J-1.061812
G03 X94.470390 Y43.944453 Z-0.125000 I0.623785 J0.044443
G03 X94.873417 Y43.935159 Z-0.125000 I0.223166 J0.934272
G03 X96.321483 Y44.230192 Z-0.125000 I-10.952589 J57.458117
G01 X96.321483 Y44.230192 Z-0.125000
G03 X96.197715 Y43.225522 Z-0.125000 I2.159518 J-0.775995
G03 X97.261302 Y42.560466 Z-0.125000 I0.789141 J0.079033
G03 X96.920057 Y44.789558 Z-0.125000 I-0.398242 J1.079701
G03 X96.876995 Y44.499268 Z-0.125000 I-0.007302 J-0.147256
G02 X98.738266 Y44.829419 Z-0.125000 I3.182386 J-12.529474
G02 X99.997774 Y44.927752 Z-0.125000 I2.639435 J-25.692061
G02 X102.509093 Y45.527870 Z-0.125000 I3.240982 J-8.007935
G03 X104.920641 Y45.876041 Z-0.125000 I-1.750312 J20.648929
G02 X106.278937 Y46.148848 Z-0.125000 I1.345772 J-3.182692
G03 X106.883164 Y46.561279 Z-0.125000 I0.002339 J0.645395
G03 X106.632428 Y50.386299 Z-0.125000 I-15.356207 J0.914104
G02 X106.434648 Y52.455905 Z-0.125000 I10.749772 J2.071546
G02 X104.342628 Y52.072112 Z-0.125000 I-6.510588 J29.595003
G03 X102.305328 Y51.729031 Z-0.125000 I7.348590 J-49.858216
G00 Z5.000000

(End cutting path id: path846)


(Start cutting path id: path846)
(Change tool to Cylindrical cutter)

G00 Z5.000000
G00 X102.305328 Y51.728969

G01 Z-0.125000 F1000.0(Penetrate)
G03 X102.907588 Y52.447397 Z-0.125000 I-2.431599 J2.650070 F1100.000000
G03 X102.814408 Y53.097320 Z-0.125000 I-0.425146 J0.270688
G03 X101.824842 Y53.290319 Z-0.125000 I-0.660841 J-0.754936
G03 X101.611597 Y52.981841 Z-0.125000 I0.103971 J-0.299818
G03 X102.279150 Y52.108297 Z-0.125000 I0.938836 J0.025608
G02 X102.318499 Y51.696372 Z-0.125000 I-0.064569 J-0.214010
G02 X99.745378 Y51.137058 Z-0.125000 I-2.299161 J4.378806
G03 X98.043453 Y51.200894 Z-0.125000 I-2.630791 J-47.419879
G03 X95.941472 Y51.373947 Z-0.125000 I-2.465461 J-17.094326
G03 X93.157684 Y51.350960 Z-0.125000 I-0.999800 J-47.496274
G02 X92.472224 Y49.734348 Z-0.125000 I-4.536798 J0.970023
G02 X91.124470 Y48.742451 Z-0.125000 I-2.054285 J1.379698
G03 X86.810015 Y47.997858 Z-0.125000 I7.365604 J-55.551235
G02 X82.635147 Y47.467173 Z-0.125000 I-5.256402 J24.664747
G02 X82.735372 Y48.890453 Z-0.125000 I0.804872 J0.658491
G02 X84.964207 Y50.173888 Z-0.125000 I3.956957 J-4.294686
G02 X86.950200 Y50.120687 Z-0.125000 I0.914624 J-2.952270
G02 X87.880529 Y48.450673 Z-0.125000 I-0.509170 J-1.377788
G00 Z5.000000

(End cutting path id: path846)


(Start cutting path id: path846)
(Change tool to Cylindrical cutter)

G00 Z5.000000
G00 X84.880326 Y43.808995

G01 Z-0.125000 F1000.0(Penetrate)
G03 X85.447425 Y42.632707 Z-0.125000 I1.610779 J0.051725 F1100.000000
G02 X86.200367 Y40.518210 Z-0.125000 I-1.451868 J-1.708294
G02 X85.391903 Y40.313546 Z-0.125000 I-0.451180 J0.083122
G02 X83.558462 Y42.687207 Z-0.125000 I57.293667 J46.149148
G00 Z5.000000

(End cutting path id: path846)


(Start cutting path id: path846)
(Change tool to Cylindrical cutter)

G00 Z5.000000
G00 X77.922487 Y37.256791

G01 Z-0.125000 F1000.0(Penetrate)
G03 X74.753546 Y38.369084 Z-0.125000 I-1.957252 J-0.505914 F1100.000000
G02 X66.998506 Y33.945274 Z-0.125000 I-21.577725 J28.816964
G03 X65.335150 Y33.084461 Z-0.125000 I20.776551 J-42.184130
G02 X63.435084 Y33.253201 Z-0.125000 I-0.822942 J1.515457
G02 X62.488484 Y35.659687 Z-0.125000 I1.621325 J2.027171
G03 X62.440140 Y38.784542 Z-0.125000 I-9.576940 J1.414638
G02 X70.669394 Y40.625038 Z-0.125000 I10.156199 J-26.092917
G03 X78.980761 Y41.684502 Z-0.125000 I-4.981043 J72.206258
G00 Z5.000000

(End cutting path id: path846)


(Start cutting path id: path846)
(Change tool to Cylindrical cutter)

G00 Z5.000000
G00 X79.754883 Y34.757668

G01 Z-0.125000 F1000.0(Penetrate)
G03 X84.035813 Y33.904915 Z-0.125000 I2.632201 J2.042202 F1100.000000
G02 X91.397614 Y35.058438 Z-0.125000 I5.202674 J-9.135224
G02 X95.568156 Y29.688254 Z-0.125000 I-1.078696 J-5.142263
G03 X95.420768 Y22.879445 Z-0.125000 I156.432198 J-6.792247
G00 Z5.000000

(End cutting path id: path846)


(Start cutting path id: path846)
(Change tool to Cylindrical cutter)

G00 Z5.000000
G00 X94.765089 Y11.733011

G01 Z-0.125000 F1000.0(Penetrate)
G02 X99.246957 Y10.864511 Z-0.125000 I-1.693558 J-20.738083 F1100.000000
G02 X103.288838 Y8.782479 Z-0.125000 I-3.889879 J-12.515783
G00 Z5.000000

(End cutting path id: path846)


(Start cutting path id: path846)
(Change tool to Cylindrical cutter)

G00 Z5.000000
G00 X77.389762 Y17.306228

G01 Z-0.125000 F1000.0(Penetrate)
G01 X77.387235 Y17.306587 Z-0.125000 F1100.000000
G02 X77.639670 Y19.045671 Z-0.125000 I0.296394 J0.844840
G02 X78.126704 Y18.470807 Z-0.125000 I0.023295 J-0.474008
G02 X77.389762 Y17.306228 Z-0.125000 I-1.963466 J0.427019
G00 Z5.000000

(End cutting path id: path846)


(Start cutting path id: path846)
(Change tool to Cylindrical cutter)

G00 Z5.000000
G00 X57.229497 Y29.201116

G01 Z-0.125000 F1000.0(Penetrate)
G02 X57.013722 Y26.945334 Z-0.125000 I-83.229813 J6.823074 F1100.000000
G02 X55.911285 Y25.709976 Z-0.125000 I-1.417030 J0.154974
G02 X50.875847 Y25.545383 Z-0.125000 I-2.945982 J13.019619
G02 X49.482282 Y25.912756 Z-0.125000 I1.123284 J7.087785
G01 X57.229497 Y29.201116 Z-0.125000
G00 Z5.000000

(End cutting path id: path846)


(Start cutting path id: path846)
(Change tool to Cylindrical cutter)

G00 Z5.000000
G00 X51.490694 Y35.665066

G01 Z-0.125000 F1000.0(Penetrate)
G01 X50.179351 Y34.353729 Z-0.125000 F1100.000000
G00 Z5.000000

(End cutting path id: path846)


(Start cutting path id: path846)
(Change tool to Cylindrical cutter)

G00 Z5.000000
G00 X50.644688 Y42.591020

G01 Z-0.125000 F1000.0(Penetrate)
G02 X50.173048 Y41.623934 Z-0.125000 I-1.416841 J0.092432 F1100.000000
G02 X48.700465 Y40.893653 Z-0.125000 I-2.065673 J2.315505
G03 X48.567357 Y40.305075 Z-0.125000 I0.062997 J-0.323587
G03 X49.960976 Y39.434412 Z-0.125000 I6.218675 J8.403194
G02 X51.312899 Y37.900583 Z-0.125000 I-1.309364 J-2.516787
G02 X51.490694 Y35.665055 Z-0.125000 I-3.881108 J-1.433506
G02 X53.116882 Y36.670290 Z-0.125000 I6.126555 J-8.093067
G02 X54.199505 Y36.565778 Z-0.125000 I0.457139 J-0.924189
G02 X54.388022 Y35.388813 Z-0.125000 I-0.524738 J-0.687629
G03 X54.025476 Y33.338796 Z-0.125000 I2.075890 J-1.424189
G03 X54.897288 Y31.659555 Z-0.125000 I4.060309 J1.042063
G03 X57.229497 Y29.201105 Z-0.125000 I24.538512 J20.943008
G02 X60.408416 Y30.148997 Z-0.125000 I11.166893 J-31.645603
G02 X62.964966 Y30.747499 Z-0.125000 I30.112965 J-122.870562
G02 X68.901003 Y32.408286 Z-0.125000 I22.266642 J-68.147339
G02 X75.094909 Y32.607654 Z-0.125000 I3.594774 J-15.366512
G02 X86.519001 Y27.292692 Z-0.125000 I-3.889980 J-23.296280
G03 X97.387789 Y20.358047 Z-0.125000 I30.484085 J35.793486
G03 X104.169140 Y17.695336 Z-0.125000 I27.037191 J58.891234
G03 X111.156909 Y15.629004 Z-0.125000 I37.470031 J113.864854
G03 X115.742440 Y14.569865 Z-0.125000 I19.878973 J75.609699
G02 X120.003582 Y12.587334 Z-0.125000 I-1.945151 J-9.751400
G02 X122.779315 Y8.533227 Z-0.125000 I-5.250458 J-6.572127
G03 X124.926040 Y4.192761 Z-0.125000 I14.934874 J4.685449
G03 X125.127926 Y7.031875 Z-0.125000 I-6.353075 J1.878495
G03 X124.347084 Y9.765978 Z-0.125000 I-10.633608 J-1.558338
G02 X123.813123 Y11.005237 Z-0.125000 I157.791574 J68.722511
G02 X124.145470 Y12.379500 Z-0.125000 I1.088690 J0.464033
G02 X126.942792 Y13.048013 Z-0.125000 I2.075124 J-2.496332
G03 X129.843584 Y12.527684 Z-0.125000 I6.997662 J30.665411
G03 X134.472551 Y12.578994 Z-0.125000 I2.134481 J16.264700
G03 X139.023006 Y13.371858 Z-0.125000 I-17.693253 J115.000708
G03 X140.919145 Y13.749589 Z-0.125000 I-42.699519 J219.291927
G02 X142.651492 Y12.641764 Z-0.125000 I0.294840 J-1.447328
G02 X141.915357 Y9.843688 Z-0.125000 I-2.997042 J-0.707391
G02 X139.993391 Y7.799296 Z-0.125000 I-124.994207 J115.583475
G02 X133.261323 Y2.441552 Z-0.125000 I-22.963519 J21.945596
G02 X124.598202 Y3.864935 Z-0.125000 I-3.485244 J5.862618
G02 X116.370496 Y3.842679 Z-0.125000 I-4.135690 J8.061901
G03 X108.206388 Y7.151483 Z-0.125000 I-23.844039 J-47.106112
G02 X105.989947 Y8.125328 Z-0.125000 I3.207850 J10.310168
G03 X103.685524 Y8.476931 Z-0.125000 I-1.598947 J-2.752118
G03 X101.602850 Y6.826837 Z-0.125000 I0.682433 J-3.000712
G02 X99.682306 Y4.487813 Z-0.125000 I-5.886227 J2.875129
G02 X94.584617 Y1.616421 Z-0.125000 I-12.924443 J16.984490
G02 X88.864040 Y0.319061 Z-0.125000 I-7.081987 J17.966464
G02 X85.645846 Y1.181952 Z-0.125000 I-0.359072 J5.093477
G03 X82.510966 Y2.281377 Z-0.125000 I-3.659021 J-5.414180
G03 X79.129595 Y1.926426 Z-0.125000 I-0.740922 J-9.225211
G02 X75.113927 Y1.628764 Z-0.125000 I-2.688289 J9.030970
G02 X73.077727 Y5.975016 Z-0.125000 I1.930161 J3.554374
G02 X75.755506 Y9.736478 Z-0.125000 I5.532228 J-1.104501
G02 X79.203265 Y10.420702 Z-0.125000 I2.707801 J-4.615804
G03 X82.635147 Y10.106604 Z-0.125000 I5.023362 J35.980360
G03 X88.392312 Y10.612152 Z-0.125000 I0.964374 J22.051695
G02 X94.765089 Y11.733000 Z-0.125000 I15.693211 J-70.549343
G03 X85.856989 Y13.600318 Z-0.125000 I-12.211123 J-36.071703
G02 X77.389762 Y17.306217 Z-0.125000 I1.252630 J14.387902
G02 X52.418361 Y6.237038 Z-0.125000 I-26.893076 J26.967582
G02 X25.591624 Y6.146998 Z-0.125000 I-14.368050 J284.394568
G03 X13.120370 Y6.374304 Z-0.125000 I-10.686898 J-244.107161
G02 X0.642015 Y6.328740 Z-0.125000 I-12.478355 J1708.679024
G00 Z5.000000

(End cutting path id: path846)


(Start cutting path id: path846)
(Change tool to Cylindrical cutter)

G00 Z5.000000
G00 X0.314179 Y6.328707

G01 Z-0.125000 F1000.0(Penetrate)
G01 X0.642015 Y6.328707 Z-0.125000 F1100.000000
G00 Z5.000000

(End cutting path id: path846)


(Start cutting path id: path846)
(Change tool to Cylindrical cutter)

G00 Z5.000000
G00 X44.308257 Y22.954130

G01 Z-0.125000 F1000.0(Penetrate)
G02 X46.673952 Y24.720297 Z-0.125000 I7.095198 J-7.036222 F1100.000000
G02 X49.482282 Y25.912756 Z-0.125000 I7.902546 J-14.707947
G00 Z5.000000

(End cutting path id: path846)


(Start cutting path id: path846)
(Change tool to Cylindrical cutter)

G00 Z5.000000
G00 X44.308257 Y22.954130

G01 Z-0.125000 F1000.0(Penetrate)
G02 X41.838532 Y19.852574 Z-0.125000 I-87.584708 J67.208378 F1100.000000
G02 X40.057818 Y17.903139 Z-0.125000 I-20.459416 J16.900670
G02 X37.792169 Y15.882694 Z-0.125000 I-20.327485 J20.513921
G02 X35.426715 Y14.077702 Z-0.125000 I-39.000194 J48.657549
G02 X31.619767 Y11.635547 Z-0.125000 I-23.091169 J31.807319
G02 X27.230806 Y10.439366 Z-0.125000 I-4.569182 J8.115032
G02 X22.751345 Y11.634447 Z-0.125000 I-0.162542 J8.383363
G02 X19.034897 Y14.313089 Z-0.125000 I14.106671 J23.489608
G02 X12.344247 Y22.069494 Z-0.125000 I22.180487 J25.896690
G02 X8.124832 Y31.403194 Z-0.125000 I31.888556 J20.036187
G02 X7.193531 Y36.618546 Z-0.125000 I22.818916 J6.765579
G02 X7.814369 Y41.893956 Z-0.125000 I14.616719 J0.954064
G03 X8.488617 Y44.325996 Z-0.125000 I-41.557546 J12.830702
G02 X10.185331 Y46.135169 Z-0.125000 I2.458331 J-0.605311
G02 X11.086604 Y45.658372 Z-0.125000 I0.215450 J-0.682963
G02 X11.724990 Y42.519961 Z-0.125000 I-16.812047 J-5.053880
G02 X11.972698 Y38.693690 Z-0.125000 I-42.666181 J-4.683308
G03 X12.069686 Y37.632087 Z-0.125000 I7.497405 J0.149731
G03 X13.998938 Y29.605158 Z-0.125000 I55.414574 J9.073441
G03 X16.933466 Y21.895935 Z-0.125000 I72.428471 J23.156888
G03 X19.087013 Y18.061553 Z-0.125000 I21.467754 J9.535224
G03 X22.641097 Y15.412969 Z-0.125000 I5.708901 J3.951793
G03 X29.612502 Y14.821925 Z-0.125000 I4.741818 J14.520462
G03 X36.420208 Y16.681868 Z-0.125000 I-4.294614 J29.107668
G03 X39.141117 Y18.340805 Z-0.125000 I-3.756825 J9.222583
G03 X44.308257 Y22.954130 Z-0.125000 I-109.272852 J127.591104
G00 Z5.000000

(End cutting path id: path846)


(Start cutting path id: path846)
(Change tool to Cylindrical cutter)

G00 Z5.000000
G00 X40.016425 Y35.992901

G01 Z-0.125000 F1000.0(Penetrate)
G03 X45.653804 Y34.080733 Z-0.125000 I4.633251 J4.393533 F1100.000000
G02 X50.179351 Y34.353729 Z-0.125000 I3.655942 J-22.958497
G02 X46.078616 Y32.694996 Z-0.125000 I-3.496761 J2.746420
G02 X40.016425 Y35.665066 Z-0.125000 I1.460594 J10.652994
G00 Z5.000000

(End cutting path id: path846)


(Start cutting path id: path846)
(Change tool to Cylindrical cutter)

G00 Z5.000000
G00 X62.440140 Y38.784542

G01 Z-0.125000 F1000.0(Penetrate)
G03 X56.479751 Y38.173074 Z-0.125000 I20.312003 J-227.350567 F1100.000000
G03 X55.459924 Y37.538240 Z-0.125000 I0.161815 J-1.396513
G03 X55.948407 Y36.923610 Z-0.125000 I0.348371 J-0.224557
G02 X58.314847 Y37.476690 Z-0.125000 I3.572175 J-9.944985
G03 X59.927376 Y37.839142 Z-0.125000 I-0.885323 J7.706998
G03 X62.440140 Y38.784511 Z-0.125000 I-13.500354 J39.695703
G00 Z5.000000

(End cutting path id: path846)


(Start cutting path id: path846)
(Change tool to Cylindrical cutter)

G00 Z5.000000
G00 X96.208156 Y51.465593

G01 Z-0.125000 F1000.0(Penetrate)
G03 X96.086945 Y51.947426 Z-0.125000 I-0.526461 J0.123724 F1100.000000
G02 X95.938462 Y52.347586 Z-0.125000 I0.444051 J0.392397
G02 X95.953368 Y52.883040 Z-0.125000 I17.152448 J-0.209555
G02 X96.226633 Y53.208530 Z-0.125000 I0.348527 J-0.015151
G02 X96.690123 Y53.054234 Z-0.125000 I0.102673 J-0.464869
G02 X96.996589 Y52.395247 Z-0.125000 I-1.012792 J-0.871760
G02 X96.419104 Y51.775213 Z-0.125000 I-0.529800 J-0.085502
G03 X96.208156 Y51.465593 Z-0.125000 I-0.019062 J-0.213683
G00 Z5.000000

(End cutting path id: path846)


(Start cutting path id: path846)
(Change tool to Cylindrical cutter)

G00 Z5.000000
G00 X98.725474 Y53.101864

G01 Z-0.125000 F1000.0(Penetrate)
G02 X99.275077 Y53.263776 Z-0.125000 I0.400476 J-0.345641 F1100.000000
G02 X99.779227 Y52.876456 Z-0.125000 I-0.248241 J-0.844889
G02 X99.970066 Y51.916303 Z-0.125000 I-1.218067 J-0.741143
G02 X99.369443 Y51.377783 Z-0.125000 I-0.629461 J0.097848
G02 X98.501765 Y51.974866 Z-0.125000 I-0.039458 J0.871653
G02 X98.725474 Y53.101864 Z-0.125000 I1.105062 J0.366347
G01 X98.725474 Y53.101864 Z-0.125000
G00 Z5.000000

(End cutting path id: path846)


(Start cutting path id: path846)
(Change tool to Cylindrical cutter)

G00 Z5.000000
G00 X99.997774 Y44.927752

G01 Z-0.125000 F1000.0(Penetrate)
G02 X100.803089 Y44.215620 Z-0.125000 I-2.128234 J-3.218123 F1100.000000
G02 X100.465831 Y43.250020 Z-0.125000 I-0.450092 J-0.384492
G02 X99.667308 Y44.019914 Z-0.125000 I-0.129148 J0.665105
G02 X99.997774 Y44.927752 Z-0.125000 I2.477827 J-0.387899
G00 Z5.000000

(End cutting path id: path846)


(Start cutting path id: path846)
(Change tool to Cylindrical cutter)

G00 Z5.000000
G00 X103.202721 Y45.606976

G01 Z-0.125000 F1000.0(Penetrate)
G01 X103.202721 Y45.606976 Z-0.125000 F1100.000000
G01 X103.202721 Y45.606976 Z-0.125000
G02 X103.745105 Y44.377325 Z-0.125000 I-1.268186 J-1.293826
G02 X103.116733 Y43.623216 Z-0.125000 I-0.735407 J-0.026066
G02 X102.468251 Y44.173677 Z-0.125000 I-0.082388 J0.560151
G02 X103.202721 Y45.606976 Z-0.125000 I1.708681 J0.029248
G01 X103.202721 Y45.606976 Z-0.125000
G00 Z5.000000

(End cutting path id: path846)


(Footer)
M5
G00 X0.0000 Y0.0000
M2
(Using default footer. To add your own footer create file "footer" in the output dir.)
(end)
%