%
(Header)
(Generated by gcodetools from Inkscape.)
(Using default header. To add your own header create file "header" in the output dir.)
M3
(Header end.)
G21 (All units in mm)

(Pass at depth -1.0)
(Start cutting path id: path849)
(Change tool to Cylindrical cutter)

G00 Z5.000000
G00 X27.072597 Y34.919213

G01 Z-1.000000 F1000.0(Penetrate)
G02 X26.113281 Y36.553379 Z-1.000000 I1.890240 J2.208302 F1000.000000
G02 X26.366053 Y38.425945 Z-1.000000 I2.833373 J0.570875
G01 X26.818138 Y39.322201 Z-1.000000
G01 X26.443228 Y39.784949 Z-1.000000
G02 X25.817082 Y40.918443 Z-1.000000 I2.869470 J2.324794
G02 X25.590057 Y42.288392 Z-1.000000 I4.019785 J1.369936
G02 X25.732638 Y43.353820 Z-1.000000 I4.052051 J-0.000012
G02 X26.223443 Y44.612498 Z-1.000000 I6.175271 J-1.682934
G03 X26.266299 Y45.556561 Z-1.000000 I-1.001948 J0.518488
G03 X25.632529 Y46.063214 Z-1.000000 I-0.770199 J-0.313722
G03 X25.216769 Y45.989322 Z-1.000000 I-0.103663 J-0.623331
G03 X25.009795 Y45.709473 Z-1.000000 I0.212036 J-0.373283
G02 X23.561482 Y43.732768 Z-1.000000 I-2.980054 J0.664522
G02 X21.593150 Y43.728038 Z-1.000000 I-0.988266 J1.704098
G02 X21.105562 Y44.267852 Z-1.000000 I0.583236 J1.016926
G02 X21.261364 Y44.472694 Z-1.000000 I0.134040 J0.059722
G03 X22.670605 Y44.614010 Z-1.000000 I0.426511 J2.844051
G03 X23.332608 Y45.225809 Z-1.000000 I-0.398078 J1.094807
G03 X23.386601 Y45.610988 Z-1.000000 I-0.622516 J0.283636
G03 X23.090031 Y46.841911 Z-1.000000 I-7.169062 J-1.076073
G02 X22.719370 Y49.224459 Z-1.000000 I6.774176 J2.273990
G02 X23.152004 Y50.920740 Z-1.000000 I3.766082 J-0.057221
G01 X23.629242 Y51.827978 Z-1.000000
G01 X22.691010 Y51.827981 Z-1.000000
G01 X21.752778 Y51.827984 Z-1.000000
G01 X22.046524 Y50.977679 Z-1.000000
G02 X22.083428 Y48.586840 Z-1.000000 I-3.623057 J-1.251628
G02 X20.893180 Y47.272313 Z-1.000000 I-2.013017 J0.626578
G02 X19.793754 Y47.091464 Z-1.000000 I-0.922658 J2.176792
G02 X18.742125 Y47.433594 Z-1.000000 I0.174138 J2.322556
G02 X17.343915 Y48.534914 Z-1.000000 I4.155565 J6.714034
G02 X17.343169 Y48.817852 Z-1.000000 I0.140351 J0.141840
G02 X17.425975 Y48.845048 Z-1.000000 I0.068328 J-0.068383
G02 X18.384113 Y48.660107 Z-1.000000 I-1.811890 J-11.961378
G03 X20.174394 Y48.424713 Z-1.000000 I2.064922 J8.779047
G03 X20.492682 Y48.595869 Z-1.000000 I0.011001 J0.361070
G03 X20.496405 Y48.901695 Z-1.000000 I-0.252426 J0.156009
G03 X19.645844 Y50.043739 Z-1.000000 I-5.552500 J-3.247578
G02 X19.324117 Y50.485140 Z-1.000000 I1.650907 J1.541262
G02 X19.084057 Y51.051328 Z-1.000000 I2.500518 J1.394188
G02 X19.022927 Y51.634006 Z-1.000000 I1.493541 J0.451235
G02 X19.169158 Y52.057892 Z-1.000000 I0.910673 J-0.076995
G03 X19.423905 Y52.467913 Z-1.000000 I-8.376459 J5.488465
G03 X19.435540 Y52.510630 Z-1.000000 I-0.072600 J0.042717
G01 X19.412822 Y52.534099 Z-1.000000
G03 X18.018374 Y52.556789 Z-1.000000 I-1.394576 J-42.845583
G02 X16.635315 Y52.681535 Z-1.000000 I0.000023 J7.729642
G02 X15.971213 Y52.929104 Z-1.000000 I0.360262 J1.980905
G03 X14.614884 Y52.988341 Z-1.000000 I-0.733678 J-1.241468
G03 X14.185419 Y52.074239 Z-1.000000 I0.344585 J-0.719830
G02 X13.755353 Y51.720977 Z-1.000000 I-0.298568 J-0.074934
G02 X12.697172 Y52.777371 Z-1.000000 I0.949127 J2.008915
G02 X12.550497 Y53.946634 Z-1.000000 I1.701105 J0.807222
G02 X13.550430 Y57.132223 Z-1.000000 I14.833231 J-2.906315
G03 X13.502639 Y57.245346 Z-1.000000 I-0.077251 J0.034020
G03 X13.006831 Y57.334678 Z-1.000000 I-0.495813 J-1.331278
G02 X11.678283 Y57.736543 Z-1.000000 I0.000007 J2.397016
G02 X10.698287 Y58.871919 Z-1.000000 I1.551255 J2.329589
G02 X10.439160 Y59.536766 Z-1.000000 I4.667856 J2.202239
G02 X10.205985 Y60.449623 Z-1.000000 I8.590016 J2.680387
G03 X9.969584 Y61.343044 Z-1.000000 I-7.436466 J-1.489721
G03 X9.867476 Y61.472343 Z-1.000000 I-0.228829 J-0.075740
G03 X9.452813 Y61.460761 Z-1.000000 I-0.198521 J-0.321219
G03 X8.656388 Y60.626946 Z-1.000000 I1.669982 J-2.392361
G02 X8.357109 Y60.629398 Z-1.000000 I-0.148879 J0.094077
G02 X8.249016 Y61.295641 Z-1.000000 I0.764922 J0.465993
G02 X9.269193 Y62.402989 Z-1.000000 I1.479412 J-0.339344
G02 X10.710781 Y62.077103 Z-1.000000 I0.442504 J-1.393986
G03 X11.493702 Y61.532465 Z-1.000000 I2.266450 J2.422992
G03 X11.683461 Y61.590853 Z-1.000000 I0.064291 J0.128606
G02 X11.894775 Y61.796161 Z-1.000000 I0.450150 J-0.251916
G02 X12.566314 Y62.052018 Z-1.000000 I1.420850 J-2.720052
G03 X13.052470 Y62.310455 Z-1.000000 I-0.280597 J1.114327
G03 X13.063882 Y62.497770 Z-1.000000 I-0.089077 J0.099432
G02 X12.376245 Y64.025180 Z-1.000000 I2.164387 J1.892894
G02 X12.651725 Y65.714011 Z-1.000000 I2.976247 J0.381402
G03 X12.951172 Y66.410781 Z-1.000000 I-7.596395 J3.677399
G01 X12.935160 Y66.464841 Z-1.000000
G03 X12.872833 Y66.502753 Z-1.000000 I-0.247143 J-0.336113
G03 X11.944635 Y66.954292 Z-1.000000 I-37.030640 J-74.941602
G02 X10.483449 Y68.683635 Z-1.000000 I1.191916 J2.489070
G02 X10.640154 Y71.509773 Z-1.000000 I4.146880 J1.187476
G02 X12.195295 Y74.277427 Z-1.000000 I12.039776 J-4.944392
G02 X12.960697 Y74.664590 Z-1.000000 I0.765399 J-0.562995
G02 X13.087674 Y74.500179 Z-1.000000 I-0.000000 J-0.131239
G02 X12.687461 Y73.618690 Z-1.000000 I-2.757614 J0.720413
G03 X12.346339 Y72.950819 Z-1.000000 I2.494976 J-1.695383
G03 X12.183091 Y72.226547 Z-1.000000 I2.779636 J-1.007056
G03 X12.250744 Y71.534334 Z-1.000000 I1.802711 J-0.173224
G03 X12.488797 Y71.204537 Z-1.000000 I0.593368 J0.177488
G03 X13.715658 Y70.803282 Z-1.000000 I1.273861 J1.818678
G03 X14.090857 Y71.170619 Z-1.000000 I0.007777 J0.367339
G02 X14.402846 Y71.786261 Z-1.000000 I0.763416 J-0.000002
G02 X16.110252 Y72.651359 Z-1.000000 I3.471936 J-4.734944
G03 X16.925150 Y72.908271 Z-1.000000 I-816.310079 J2590.690549
G03 X17.139746 Y72.976114 Z-1.000000 I-53.029227 J168.110748
G03 X17.203925 Y73.090399 Z-1.000000 I-0.028972 J0.091433
G03 X17.018276 Y73.471268 Z-1.000000 I-0.973443 J-0.238809
G02 X16.689199 Y74.421637 Z-1.000000 I1.208557 J0.950637
G02 X17.017958 Y75.371568 Z-1.000000 I1.535992 J0.000268
G02 X17.986146 Y75.777455 Z-1.000000 I0.849214 J-0.667998
G02 X21.581094 Y74.866019 Z-1.000000 I-1.484758 J-13.401713
G02 X22.621632 Y74.386349 Z-1.000000 I-4.725233 J-11.618805
G02 X22.674334 Y74.300148 Z-1.000000 I-0.044837 J-0.086623
G02 X22.620037 Y74.233288 Z-1.000000 I-0.067909 J-0.000329
G02 X22.080771 Y74.178683 Z-1.000000 I-0.539259 J2.635493
G03 X19.667720 Y73.946569 Z-1.000000 I-0.000038 J-12.658678
G03 X19.435603 Y73.665045 Z-1.000000 I0.054667 J-0.281525
G03 X19.509104 Y73.588767 Z-1.000000 I0.076330 J-0.000000
G03 X20.694193 Y73.618335 Z-1.000000 I0.354494 J9.555825
G02 X22.513336 Y73.344902 Z-1.000000 I0.341552 J-3.915730
G02 X23.767612 Y72.371521 Z-1.000000 I-1.100607 J-2.713022
G03 X26.182239 Y69.932114 Z-1.000000 I9.616618 J7.104173
G03 X29.197482 Y68.273914 Z-1.000000 I7.238755 J9.592298
G03 X30.295557 Y67.868394 Z-1.000000 I38.375272 J102.223807
G03 X30.331213 Y67.862119 Z-1.000000 I0.035656 J0.098167
G01 X30.349923 Y67.880276 Z-1.000000
G03 X30.373639 Y69.279281 Z-1.000000 I-53.869909 J1.612911
G02 X30.666931 Y71.343646 Z-1.000000 I7.625064 J-0.030304
G02 X31.524478 Y73.307477 Z-1.000000 I7.744073 J-2.212462
G01 X32.101886 Y74.259602 Z-1.000000
G01 X31.994923 Y76.284124 Z-1.000000
G03 X31.068969 Y86.852426 Z-1.000000 I-153.086061 J-8.088088
G03 X29.691374 Y95.071697 Z-1.000000 I-93.900521 J-11.513167
G03 X28.702734 Y98.772732 Z-1.000000 I-36.812905 J-7.851089
G03 X27.707048 Y101.225290 Z-1.000000 I-17.104005 J-5.515468
G03 X26.684213 Y102.816741 Z-1.000000 I-7.594718 J-3.756754
G03 X25.642265 Y103.762497 Z-1.000000 I-3.636023 J-2.959000
G02 X24.841421 Y104.363720 Z-1.000000 I4.813926 J7.246256
G02 X24.225103 Y104.959940 Z-1.000000 I4.117058 J4.872502
G02 X23.784439 Y105.653168 Z-1.000000 I1.817542 J1.642028
G02 X23.646704 Y106.336568 Z-1.000000 I1.626524 J0.683394
G02 X23.717445 Y107.055765 Z-1.000000 I3.691371 J-0.000011
G02 X23.884220 Y107.532270 Z-1.000000 I1.766970 J-0.350994
G02 X26.280541 Y109.788108 Z-1.000000 I4.403723 J-2.277270
G02 X34.671798 Y112.309348 Z-1.000000 I14.228216 J-32.130099
G02 X39.540265 Y112.860538 Z-1.000000 I7.519157 J-44.637775
G02 X46.510044 Y113.003755 Z-1.000000 I5.366171 J-91.482510
G02 X54.173177 Y112.595774 Z-1.000000 I-1.881708 J-107.516732
G02 X61.626757 Y111.656652 Z-1.000000 I-9.147432 J-102.649167
G02 X73.364677 Y108.587711 Z-1.000000 I-10.417843 J-63.827353
G02 X74.502701 Y106.961395 Z-1.000000 I-0.593040 J-1.626311
G02 X74.049699 Y105.602420 Z-1.000000 I-2.264938 J0.000007
G02 X71.719576 Y103.250641 Z-1.000000 I-9.677992 J7.258651
G03 X70.030227 Y100.870323 Z-1.000000 I2.991670 J-3.912871
G03 X66.655597 Y87.783308 Z-1.000000 I100.359034 J-32.857279
G03 X66.437331 Y86.401038 Z-1.000000 I21.678904 J-4.131561
G03 X66.299746 Y84.948977 Z-1.000000 I23.781447 J-2.985870
G03 X66.356189 Y83.511963 Z-1.000000 I6.958827 J-0.446288
G03 X66.718165 Y82.033664 Z-1.000000 I7.732132 J1.109822
G02 X67.487812 Y79.203393 Z-1.000000 I-19.176705 J-6.734580
G02 X67.700939 Y77.012842 Z-1.000000 I-11.230896 J-2.198341
G03 X67.806399 Y75.899863 Z-1.000000 I5.971727 J0.004363
G03 X68.102024 Y74.907340 Z-1.000000 I5.031386 J0.958323
G02 X68.583462 Y72.690209 Z-1.000000 I-5.959421 J-2.454892
G02 X68.253951 Y70.791769 Z-1.000000 I-4.645560 J-0.171488
G03 X68.168278 Y70.173710 Z-1.000000 I1.204439 J-0.481923
G03 X68.375421 Y69.640629 Z-1.000000 I1.083841 J0.114370
G02 X68.632375 Y69.089941 Z-1.000000 I-1.233102 J-0.910666
G02 X68.749831 Y68.090815 Z-1.000000 I-4.083476 J-0.986513
G03 X68.792581 Y67.097931 Z-1.000000 I10.748050 J-0.034585
G03 X68.842597 Y67.052192 Z-1.000000 I0.050016 J0.004477
G03 X68.934257 Y67.071146 Z-1.000000 I0.000001 J0.231102
G03 X69.898465 Y67.508355 Z-1.000000 I-11.742063 J27.177442
G02 X70.860834 Y67.959392 Z-1.000000 I42.940140 J-90.368295
G02 X74.701682 Y69.728452 Z-1.000000 I663.865072 J-1436.278794
G01 X78.544916 Y71.492393 Z-1.000000
G01 X78.224358 Y71.833612 Z-1.000000
G02 X78.149007 Y73.066943 Z-1.000000 I0.704692 J0.662021
G02 X80.738135 Y75.265721 Z-1.000000 I5.894505 J-4.317182
G01 X81.871868 Y75.840853 Z-1.000000
G01 X81.109146 Y75.023656 Z-1.000000
G03 X80.518514 Y73.313943 Z-1.000000 I1.627661 J-1.519162
G03 X81.359502 Y72.109133 Z-1.000000 I1.463623 J0.125725
G02 X82.674563 Y70.941359 Z-1.000000 I-1.310205 J-2.799805
G02 X83.143989 Y69.238630 Z-1.000000 I-2.647816 J-1.646050
G02 X83.101319 Y67.944480 Z-1.000000 I-43.894066 J0.799467
G02 X83.063004 Y67.543091 Z-1.000000 I-4.244624 J0.202653
G03 X83.117499 Y67.222200 Z-1.000000 I0.526757 J-0.075617
G03 X83.301816 Y67.083349 Z-1.000000 I0.237301 J0.123245
G03 X83.961374 Y67.201071 Z-1.000000 I0.180723 J0.893976
G03 X85.989375 Y68.741179 Z-1.000000 I-6.917563 J11.214265
G02 X88.420471 Y70.601749 Z-1.000000 I11.183776 J-12.094604
G02 X88.874055 Y70.550451 Z-1.000000 I0.194602 J-0.310272
G01 X88.875518 Y70.492936 Z-1.000000
G02 X88.786384 Y70.453330 Z-1.000000 I-0.089134 J0.080495
G03 X88.463815 Y70.232908 Z-1.000000 I-0.000001 J-0.346236
G03 X87.867801 Y68.098226 Z-1.000000 I10.380604 J-4.048862
G03 X87.631606 Y66.684900 Z-1.000000 I99.904343 J-17.422382
G03 X87.621484 Y66.557460 Z-1.000000 I0.797180 J-0.127442
G02 X87.586211 Y66.442010 Z-1.000000 I-0.206578 J0.000001
G02 X87.187022 Y65.912818 Z-1.000000 I-5.164289 J3.480456
G02 X86.675171 Y65.586634 Z-1.000000 I-0.775935 J0.652911
G02 X85.668708 Y65.503295 Z-1.000000 I-0.731136 J2.710701
G03 X84.658926 Y65.490115 Z-1.000000 I-0.445910 J-4.525319
G03 X84.487212 Y65.355645 Z-1.000000 I0.026300 J-0.210456
G03 X84.486113 Y64.352736 Z-1.000000 I1.310515 J-0.502892
G03 X85.352758 Y63.085213 Z-1.000000 I3.074417 J1.172037
G03 X86.219293 Y62.684041 Z-1.000000 I1.077163 J1.190238
G03 X87.717529 Y62.772225 Z-1.000000 I0.520323 J3.931319
G02 X88.503134 Y62.940725 Z-1.000000 I2.615523 J-10.278832
G02 X88.566597 Y62.920942 Z-1.000000 I0.012525 J-0.071506
G02 X88.616233 Y62.471354 Z-1.000000 I-0.251437 J-0.255293
G02 X87.490115 Y61.252860 Z-1.000000 I-4.051046 J2.614309
G02 X86.874726 Y60.946228 Z-1.000000 I-1.106641 J1.450117
G02 X85.933781 Y60.817652 Z-1.000000 I-0.937248 J3.351661
G02 X84.956046 Y60.863701 Z-1.000000 I0.012080 J10.659417
G02 X84.539084 Y60.947809 Z-1.000000 I0.186568 J2.000484
G03 X84.301455 Y60.863927 Z-1.000000 I-0.062998 J-0.200063
G03 X84.191247 Y60.424970 Z-1.000000 I0.563259 J-0.374730
G03 X84.404646 Y59.868787 Z-1.000000 I1.106693 J0.105590
G03 X85.006159 Y59.324997 Z-1.000000 I1.654894 J1.225985
G03 X85.801617 Y59.031917 Z-1.000000 I1.185647 J1.991976
G03 X87.641386 Y58.875012 Z-1.000000 I1.851129 J10.840705
G02 X89.383423 Y58.776653 Z-1.000000 I-0.013501 J-15.715014
G02 X89.446804 Y58.672364 Z-1.000000 I-0.008615 J-0.076640
G02 X88.762095 Y58.169722 Z-1.000000 I-0.733671 J0.281738
G02 X85.207795 Y58.407755 Z-1.000000 I-0.861182 J13.796221
G03 X84.850445 Y58.350102 Z-1.000000 I-0.101159 J-0.509292
G03 X84.502824 Y58.007883 Z-1.000000 I0.465340 J-0.820350
G02 X84.151532 Y57.597075 Z-1.000000 I-1.331785 J0.783237
G02 X83.476901 Y57.165442 Z-1.000000 I-2.152623 J2.621467
G01 X82.735288 Y56.806437 Z-1.000000
G01 X83.460352 Y56.058175 Z-1.000000
G02 X84.052040 Y53.641893 Z-1.000000 I-1.768455 J-1.713637
G02 X82.199425 Y51.822801 Z-1.000000 I-2.570949 J0.765404
G03 X81.391843 Y51.376617 Z-1.000000 I0.533548 J-1.919649
G03 X80.865184 Y50.608395 Z-1.000000 I1.366768 J-1.501633
G02 X79.933358 Y49.134963 Z-1.000000 I-4.208443 J1.630132
G02 X79.006167 Y48.645711 Z-1.000000 I-1.184888 J1.122309
G01 X78.394261 Y48.547863 Z-1.000000
G01 X79.211249 Y47.653941 Z-1.000000
G02 X80.906393 Y43.801972 Z-1.000000 I-4.851509 J-4.433990
G02 X79.813427 Y40.880591 Z-1.000000 I-3.596191 J-0.319714
G02 X77.957615 Y39.394575 Z-1.000000 I-9.076721 J9.433645
G02 X77.741736 Y39.510630 Z-1.000000 I-0.076744 J0.116055
G02 X77.777174 Y39.630086 Z-1.000000 I0.219053 J-0.000001
G02 X77.869919 Y39.707616 Z-1.000000 I0.172705 J-0.112358
G03 X77.979246 Y39.785786 Z-1.000000 I-0.118392 J0.281117
G03 X78.436351 Y40.343186 Z-1.000000 I-6.551486 J5.838790
G03 X78.944268 Y41.592750 Z-1.000000 I-2.097527 J1.580603
G03 X78.811014 Y43.291920 Z-1.000000 I-4.160063 J0.528564
G03 X78.538116 Y43.550529 Z-1.000000 I-0.357458 J-0.103915
G03 X78.358839 Y43.397393 Z-1.000000 I-0.033256 J-0.142575
G02 X78.064761 Y42.167530 Z-1.000000 I-2.087351 J-0.150974
G02 X77.066240 Y41.248911 Z-1.000000 I-2.064483 J1.242057
G03 X75.908281 Y40.327008 Z-1.000000 I1.541263 J-3.124087
G03 X75.307736 Y39.093507 Z-1.000000 I2.319001 J-1.891977
G03 X75.434209 Y38.085371 Z-1.000000 I1.458756 J-0.328996
G03 X76.246519 Y37.251891 Z-1.000000 I1.748072 J0.891092
G01 X76.850938 Y36.923929 Z-1.000000
G01 X75.960147 Y37.015294 Z-1.000000
G02 X73.866296 Y37.412995 Z-1.000000 I1.273414 J12.415160
G02 X72.075969 Y38.103627 Z-1.000000 I2.729708 J9.742077
G02 X69.890615 Y39.661485 Z-1.000000 I3.854647 J7.719010
G02 X68.572243 Y41.538466 Z-1.000000 I4.411817 J4.500310
G03 X68.069946 Y42.285404 Z-1.000000 I-2.526550 J-1.156681
G03 X67.803258 Y42.356188 Z-1.000000 I-0.190216 J-0.178880
G02 X65.107974 Y42.133856 Z-1.000000 I-1.856857 J6.061929
G02 X63.452500 Y42.936656 Z-1.000000 I0.388042 J2.908486
G01 X62.789458 Y43.580120 Z-1.000000
G01 X63.137115 Y45.396005 Z-1.000000
G03 X63.774568 Y50.115846 Z-1.000000 I-42.609351 J8.157707
G03 X63.930820 Y55.380497 Z-1.000000 I-52.888935 J4.204359
G03 X63.748152 Y59.348817 Z-1.000000 I-76.352163 J-1.526241
G03 X63.503889 Y61.298848 Z-1.000000 I-18.641160 J-1.344698
G03 X63.108938 Y63.213848 Z-1.000000 I-36.771430 J-6.585540
G03 X63.018292 Y63.376866 Z-1.000000 I-0.331019 J-0.077353
G03 X62.860455 Y63.430818 Z-1.000000 I-0.133914 J-0.133914
G03 X62.145583 Y63.265686 Z-1.000000 I0.462525 J-3.632240
G02 X55.996527 Y62.249861 Z-1.000000 I-6.151901 J18.120245
G02 X36.998894 Y63.262088 Z-1.000000 I-0.026504 J178.283954
G01 X36.017597 Y63.367085 Z-1.000000
G01 X35.736194 Y61.525178 Z-1.000000
G03 X35.193284 Y52.817625 Z-1.000000 I48.333141 J-7.384243
G03 X36.187846 Y44.843544 Z-1.000000 I41.465251 J1.122664
G01 X36.564266 Y43.168872 Z-1.000000
G01 X36.050962 Y42.569197 Z-1.000000
G03 X35.670271 Y41.909642 Z-1.000000 I1.577084 J-1.349926
G03 X35.336050 Y40.541826 Z-1.000000 I6.692973 J-2.360144
G02 X35.089826 Y39.124381 Z-1.000000 I-22.466497 J3.172546
G02 X34.873855 Y38.304318 Z-1.000000 I-7.720667 J1.594841
G02 X34.049968 Y36.634447 Z-1.000000 I-6.050129 J1.946851
G02 X33.262540 Y35.975924 Z-1.000000 I-1.588280 J1.099139
G02 X32.283438 Y35.740712 Z-1.000000 I-1.095330 J2.404036
G02 X31.353854 Y35.891871 Z-1.000000 I-0.101671 J2.308677
G02 X31.297189 Y36.102999 Z-1.000000 I0.048416 J0.126163
G02 X31.667525 Y36.279807 Z-1.000000 I0.370335 J-0.299442
G03 X32.653359 Y36.662868 Z-1.000000 I0.000004 J1.460076
G03 X33.258689 Y37.736252 Z-1.000000 I-1.338335 J1.462125
G03 X33.306474 Y38.223347 Z-1.000000 I-2.413050 J0.482618
G03 X33.256916 Y38.719409 Z-1.000000 I-2.554038 J-0.004647
G01 X33.157706 Y39.215468 Z-1.000000
G01 X32.653609 Y38.737542 Z-1.000000
G02 X31.433113 Y37.990965 Z-1.000000 I-2.363516 J2.492936
G02 X29.448697 Y37.606735 Z-1.000000 I-2.281298 J6.465583
G01 X27.881616 Y37.538811 Z-1.000000
G01 X27.668584 Y37.030785 Z-1.000000
G03 X27.445499 Y35.777850 Z-1.000000 I2.678619 J-1.123256
G03 X27.769406 Y34.774795 Z-1.000000 I1.990530 J0.088958
G02 X27.668679 Y34.626833 Z-1.000000 I-0.081039 J-0.053098
G02 X27.072613 Y34.919403 Z-1.000000 I0.270921 J1.305441
G01 X27.072597 Y34.919213 Z-1.000000
G00 Z5.000000

(Change tool to Cylindrical cutter)

G00 Z5.000000
G00 X89.798451 Y70.381333

G01 Z-1.000000 F1000.0(Penetrate)
G01 X89.789245 Y70.440448 Z-1.000000 F1000.000000
G01 X89.848463 Y70.456620 Z-1.000000
G02 X90.183166 Y70.261403 Z-1.000000 I-1.101632 J-2.273301
G02 X90.212881 Y70.204742 Z-1.000000 I-0.039163 J-0.056661
G01 X90.156220 Y70.167295 Z-1.000000
G02 X89.798439 Y70.381333 Z-1.000000 I0.601271 J1.411115
G01 X89.798451 Y70.381333 Z-1.000000
G00 Z5.000000

(End cutting path id: path849)

(Start cutting path id: path853)
(Change tool to Cylindrical cutter)

G00 Z5.000000
G00 X36.580250 Y14.801371

G01 Z-1.000000 F1000.0(Penetrate)
G02 X34.323180 Y15.792989 Z-1.000000 I5.504067 J15.592593 F1000.000000
G02 X34.108227 Y16.115372 Z-1.000000 I0.191723 J0.360687
G02 X34.181508 Y16.196971 Z-1.000000 I0.074286 J0.006992
G02 X49.195911 Y16.318612 Z-1.000000 I18.837149 J-1398.423153
G02 X64.223328 Y16.284194 Z-1.000000 I4.086675 J-1496.332563
G02 X64.298843 Y16.208124 Z-1.000000 I-0.000556 J-0.076070
G02 X64.092217 Y15.852511 Z-1.000000 I-0.409328 J0.000001
G02 X61.989728 Y14.891916 Z-1.000000 I-6.402853 J11.232955
G01 X60.654701 Y14.421081 Z-1.000000
G01 X49.155413 Y14.421281 Z-1.000000
G01 X37.656126 Y14.421474 Z-1.000000
G01 X36.580250 Y14.801255 Z-1.000000
G01 X36.580250 Y14.801371 Z-1.000000
G00 Z5.000000

(Change tool to Cylindrical cutter)

G00 Z5.000000
G00 X45.535310 Y17.075165

G01 Z-1.000000 F1000.0(Penetrate)
G03 X45.503749 Y17.807212 Z-1.000000 I-0.735252 J0.335004 F1000.000000
G03 X44.436177 Y19.023197 Z-1.000000 I-3.431816 J-1.936327
G02 X41.401302 Y22.426756 Z-1.000000 I6.916718 J9.222321
G02 X38.939203 Y28.424450 Z-1.000000 I20.116095 J11.762013
G02 X38.539095 Y30.046593 Z-1.000000 I99.449213 J25.389947
G02 X38.495845 Y30.287013 Z-1.000000 I2.134440 J0.508075
G02 X38.601900 Y30.410204 Z-1.000000 I0.109012 J0.013398
G02 X49.074481 Y30.571883 Z-1.000000 I12.274691 J-455.823723
G02 X59.675254 Y30.572316 Z-1.000000 I5.355762 J-1355.113556
G02 X59.903667 Y30.529429 Z-1.000000 I-0.002489 J-0.642952
G02 X60.004824 Y30.412056 Z-1.000000 I-0.058318 J-0.152538
G02 X59.966490 Y30.244533 Z-1.000000 I-0.196174 J-0.043257
G03 X59.519394 Y29.353241 Z-1.000000 I1.952967 J-1.537444
G03 X59.672696 Y29.153207 Z-1.000000 I0.153303 J-0.041273
G03 X59.743575 Y29.172813 Z-1.000000 I0.000000 J0.137917
G03 X60.328403 Y29.546008 Z-1.000000 I-6.314235 J10.539766
G02 X61.718001 Y30.109666 Z-1.000000 I2.011360 J-2.963922
G02 X63.193949 Y30.051088 Z-1.000000 I0.603291 J-3.422789
G02 X64.324129 Y29.447783 Z-1.000000 I-0.686397 J-2.646080
G02 X65.043039 Y28.406754 Z-1.000000 I-1.771537 J-1.992127
G02 X65.181839 Y27.088329 Z-1.000000 I-2.409479 J-0.920182
G02 X64.575729 Y25.416530 Z-1.000000 I-4.585105 J0.716556
G02 X63.261210 Y24.107098 Z-1.000000 I-3.256643 J1.954764
G02 X59.008866 Y22.104367 Z-1.000000 I-12.464043 J20.948755
G03 X57.416318 Y21.423625 Z-1.000000 I4.836764 J-13.518480
G03 X56.700168 Y20.948141 Z-1.000000 I1.583879 J-3.162613
G02 X56.021001 Y20.469285 Z-1.000000 I-2.883888 J3.369186
G02 X55.835618 Y20.452807 Z-1.000000 I-0.110579 J0.193000
G03 X55.652749 Y20.429719 Z-1.000000 I-0.068622 J-0.192225
G03 X54.716319 Y19.696745 Z-1.000000 I4.754934 J-7.039462
G02 X53.795776 Y18.872004 Z-1.000000 I-114.218962 J126.560543
G02 X53.198180 Y18.346481 Z-1.000000 I-47.029110 J52.876436
G03 X52.818111 Y17.713808 Z-1.000000 I0.783587 J-0.901226
G03 X52.879496 Y16.965601 Z-1.000000 I1.203930 J-0.277847
G02 X52.789998 Y16.820258 Z-1.000000 I-0.097548 J-0.040159
G02 X49.176220 Y16.682179 Z-1.000000 I-3.613636 J47.216799
G01 X45.356264 Y16.682191 Z-1.000000
G01 X45.535310 Y17.075165 Z-1.000000
G00 Z5.000000

(Change tool to Cylindrical cutter)

G00 Z5.000000
G00 X61.700184 Y24.338960

G01 Z-1.000000 F1000.0(Penetrate)
G03 X62.975555 Y25.133173 Z-1.000000 I-3.592906 J7.190713 F1000.000000
G03 X63.628537 Y25.806606 Z-1.000000 I-1.897539 J2.493205
G03 X63.306935 Y28.168782 Z-1.000000 I-1.415882 J1.010213
G03 X60.584891 Y28.270138 Z-1.000000 I-1.428631 J-1.765046
G03 X59.880710 Y27.518704 Z-1.000000 I1.394846 J-2.012798
G03 X59.279670 Y26.098138 Z-1.000000 I4.709224 J-2.829903
G02 X59.004468 Y25.479487 Z-1.000000 I-2.064937 J0.548034
G02 X58.762912 Y25.305414 Z-1.000000 I-0.346071 J0.225596
G03 X58.507766 Y25.130307 Z-1.000000 I0.115417 J-0.441610
G03 X57.931562 Y24.149490 Z-1.000000 I5.008367 J-3.601942
G02 X57.427563 Y23.080573 Z-1.000000 I-304.654950 J142.993039
G02 X57.371274 Y22.966588 Z-1.000000 I-3.514242 J1.664530
G03 X57.612085 Y22.681477 Z-1.000000 I0.179732 J-0.092447
G03 X61.700184 Y24.338960 Z-1.000000 I-8.533807 J26.918508
G01 X61.700184 Y24.338960 Z-1.000000
G00 Z5.000000

(End cutting path id: path853)

(Start cutting path id: rect855)
(Change tool to Cylindrical cutter)

G00 Z5.000000
G00 X0.000357 Y129.569700

G01 Z-1.000000 F1000.0(Penetrate)
G01 X98.473116 Y129.569404 Z-1.000000 F1000.000000
G01 X98.472727 Y-0.000011 Z-1.000000
G01 X-0.000031 Y0.000284 Z-1.000000
G01 X0.000357 Y129.569700 Z-1.000000
G00 Z5.000000

(End cutting path id: rect855)


(Pass at depth -2.0)

(Footer)
M5
G00 X0.0000 Y0.0000
M2
(Using default footer. To add your own footer create file "footer" in the output dir.)
(end)
%