%
(Header)
(Generated by gcodetools from Inkscape.)
(Using default header. To add your own header create file "header" in the output dir.)
M3
(Header end.)
G21 (All units in mm)

(Start cutting path id: rect4831)
(Change tool to Cylindrical cutter)

G00 Z5.000000
G00 X0.052460 Y0.406369

G01 Z-0.125000 F1000.0(Penetrate)
G01 X0.052460 Y143.523855 Z-0.125000 F1100.000000
G01 X102.714152 Y143.523855 Z-0.125000
G01 X102.714152 Y0.406369 Z-0.125000
G01 X0.052460 Y0.406369 Z-0.125000
G00 Z5.000000

(End cutting path id: rect4831)


(Start cutting path id: rect4831)
(Change tool to Cylindrical cutter)

G00 Z5.000000
G00 X13.919150 Y13.208175

G01 Z-0.125000 F1000.0(Penetrate)
G02 X12.195154 Y12.208365 Z-0.125000 I-1.540821 J0.670606 F1100.000000
G02 X11.013379 Y13.526815 Z-0.125000 I0.144579 J1.318450
G03 X10.822436 Y14.043097 Z-0.125000 I-0.793444 J0.000000
G03 X10.500706 Y14.125079 Z-0.125000 I-0.219165 J-0.187802
G02 X8.962305 Y14.667233 Z-0.125000 I-0.448763 J1.180341
G02 X9.117099 Y16.487431 Z-0.125000 I1.366693 J0.800455
G02 X10.249016 Y17.306974 Z-0.125000 I2.207562 J-1.857539
G02 X12.533771 Y17.860242 Z-0.125000 I3.043821 J-7.575506
G02 X13.656102 Y17.754857 Z-0.125000 I0.282277 J-3.022819
G02 X14.000498 Y17.437907 Z-0.125000 I-0.144819 J-0.502943
G02 X14.373614 Y15.290656 Z-0.125000 I-5.357617 J-2.037007
G02 X13.919150 Y13.208175 Z-0.125000 I-5.481709 J0.105454
G01 X13.919150 Y13.208175 Z-0.125000
G00 Z5.000000

(End cutting path id: rect4831)


(Start cutting path id: rect4831)
(Change tool to Cylindrical cutter)

G00 Z5.000000
G00 X12.784579 Y21.163771

G01 Z-0.125000 F1000.0(Penetrate)
G02 X12.426292 Y20.517334 Z-0.125000 I-1.319401 J0.308768 F1100.000000
G02 X11.941793 Y20.315773 Z-0.125000 I-0.484499 J0.481519
G02 X10.217417 Y20.749958 Z-0.125000 I-0.000000 J3.641288
G02 X9.258430 Y21.758549 Z-0.125000 I1.056283 J1.964541
G02 X9.312619 Y22.693469 Z-0.125000 I0.881111 J0.417961
G02 X10.078863 Y23.070961 Z-0.125000 I0.688005 J-0.430114
G03 X10.615938 Y23.186847 Z-0.125000 I0.087081 J0.898907
G03 X11.013379 Y23.608016 Z-0.125000 I-0.499879 J0.869827
G02 X11.386047 Y24.104824 Z-0.125000 I1.551962 J-0.775986
G02 X11.722744 Y24.265269 Z-0.125000 I0.425324 J-0.459046
G02 X12.658068 Y23.692562 Z-0.125000 I0.121781 J-0.851234
G02 X12.784579 Y21.163771 Z-0.125000 I-4.336009 J-1.484481
G01 X12.784579 Y21.163771 Z-0.125000
G00 Z5.000000

(End cutting path id: rect4831)


(Start cutting path id: rect4831)
(Change tool to Cylindrical cutter)

G00 Z5.000000
G00 X7.315764 Y24.353580

G01 Z-0.125000 F1000.0(Penetrate)
G02 X6.288139 Y23.394471 Z-0.125000 I-2.827503 J1.999422 F1100.000000
G02 X5.270327 Y23.109191 Z-0.125000 I-1.017812 J1.673018
G02 X4.642901 Y23.522728 Z-0.125000 I0.000000 J0.682740
G02 X4.229357 Y25.535379 Z-0.125000 I4.690851 J2.012651
G02 X4.533936 Y26.396155 Z-0.125000 I1.368614 J0.000000
G02 X5.172085 Y26.700729 Z-0.125000 I0.638149 J-0.516245
G02 X5.546553 Y26.571105 Z-0.125000 I-0.000000 J-0.605709
G02 X5.833842 Y26.180218 Z-0.125000 I-0.561182 J-0.713467
G03 X6.089164 Y25.877866 Z-0.125000 I0.557856 J0.212103
G03 X6.316749 Y25.896240 Z-0.125000 I0.100708 J0.171252
G02 X6.625483 Y26.048971 Z-0.125000 I0.475692 J-0.573171
G02 X7.061677 Y26.067574 Z-0.125000 I0.268233 J-1.166225
G02 X7.597594 Y25.535047 Z-0.125000 I-0.088616 J-0.625109
G02 X7.315764 Y24.353580 Z-0.125000 I-1.614203 J-0.239292
G01 X7.315764 Y24.353580 Z-0.125000
G00 Z5.000000

(End cutting path id: rect4831)


(Start cutting path id: rect4831)
(Change tool to Cylindrical cutter)

G00 Z5.000000
G00 X3.697281 Y35.413533

G01 Z-0.125000 F1000.0(Penetrate)
G02 X3.267278 Y35.265287 Z-0.125000 I-0.367125 J0.367130 F1100.000000
G02 X2.532695 Y35.555617 Z-0.125000 I0.189624 J1.554253
G02 X2.365419 Y35.868685 Z-0.125000 I0.241483 J0.330251
G02 X2.499136 Y36.353739 Z-0.125000 I0.821361 J0.034529
G02 X3.125979 Y36.753478 Z-0.125000 I0.757310 J-0.496205
G02 X3.431219 Y36.489468 Z-0.125000 I0.038445 J-0.264010
G03 X3.497262 Y36.139006 Z-0.125000 I0.962905 J0.000000
G03 X3.630744 Y35.978869 Z-0.125000 I0.306471 J0.119758
G02 X3.800825 Y35.711858 Z-0.125000 I-0.191302 J-0.309530
G02 X3.697258 Y35.413533 Z-0.125000 I-0.359581 J-0.042308
G01 X3.697281 Y35.413533 Z-0.125000
G00 Z5.000000

(End cutting path id: rect4831)


(Start cutting path id: rect4831)
(Change tool to Cylindrical cutter)

G00 Z5.000000
G00 X4.877832 Y41.615730

G01 Z-0.125000 F1000.0(Penetrate)
G02 X3.804596 Y40.866596 Z-0.125000 I-2.974335 J3.117797 F1100.000000
G02 X2.949729 Y40.667819 Z-0.125000 I-0.854867 J1.738842
G02 X2.377480 Y41.050669 Z-0.125000 I0.000000 J0.619097
G02 X1.994625 Y42.981324 Z-0.125000 I4.676513 J1.930656
G02 X2.720512 Y44.112137 Z-0.125000 I1.243753 J0.000000
G02 X3.640458 Y43.735050 Z-0.125000 I0.283504 J-0.619060
G03 X3.905405 Y43.475119 Z-0.125000 I0.414637 J0.157644
G03 X4.317622 Y43.492302 Z-0.125000 I0.184960 J0.515960
G02 X5.261963 Y43.063109 Z-0.125000 I0.285209 J-0.625963
G02 X4.877832 Y41.615730 Z-0.125000 I-1.373694 J-0.410088
G01 X4.877832 Y41.615730 Z-0.125000
G00 Z5.000000

(End cutting path id: rect4831)


(Start cutting path id: rect4831)
(Change tool to Cylindrical cutter)

G00 Z5.000000
G00 X6.896523 Y50.250158

G01 Z-0.125000 F1000.0(Penetrate)
G02 X5.959373 Y49.811831 Z-0.125000 I-0.941708 J0.792402 F1100.000000
G02 X5.512620 Y50.244881 Z-0.125000 I-0.001649 J0.445269
G03 X5.457003 Y50.734087 Z-0.125000 I-2.873555 J-0.078926
G03 X5.341622 Y51.092882 Z-0.125000 I-1.650047 J-0.332671
G02 X5.607914 Y51.779146 Z-0.125000 I0.470811 J0.212107
G02 X6.833162 Y51.736228 Z-0.125000 I0.567304 J-1.315239
G02 X7.204706 Y51.154099 Z-0.125000 I-0.316181 J-0.611437
G02 X6.896506 Y50.249783 Z-0.125000 I-1.316230 J-0.056093
G01 X6.896523 Y50.250158 Z-0.125000
G00 Z5.000000

(End cutting path id: rect4831)


(Start cutting path id: rect4831)
(Change tool to Cylindrical cutter)

G00 Z5.000000
G00 X18.191042 Y53.962628

G01 Z-0.125000 F1000.0(Penetrate)
G02 X17.338106 Y53.711320 Z-0.125000 I-0.713237 J0.847637 F1100.000000
G02 X17.018001 Y54.111748 Z-0.125000 I0.046435 J0.365282
G03 X17.009016 Y54.527332 Z-0.125000 I-1.769523 J0.169635
G03 X16.911487 Y54.874770 Z-0.125000 I-1.329053 J-0.185670
G02 X17.199477 Y55.501931 Z-0.125000 I0.425503 J0.184313
G02 X18.351581 Y55.321954 Z-0.125000 I0.392601 J-1.264330
G02 X18.611276 Y54.742161 Z-0.125000 I-0.355235 J-0.507169
G02 X18.191042 Y53.962628 Z-0.125000 I-1.194910 J0.141119
G01 X18.191042 Y53.962628 Z-0.125000
G00 Z5.000000

(End cutting path id: rect4831)


(Start cutting path id: rect4831)
(Change tool to Cylindrical cutter)

G00 Z5.000000
G00 X24.499834 Y51.165148

G01 Z-0.125000 F1000.0(Penetrate)
G02 X23.816020 Y50.937860 Z-0.125000 I-1.267534 J2.671175 F1100.000000
G02 X23.502182 Y50.964234 Z-0.125000 I-0.111500 J0.553652
G02 X23.074867 Y51.497098 Z-0.125000 I0.242656 J0.632359
G02 X23.371897 Y51.841496 Z-0.125000 I0.297030 J0.044111
G03 X23.474886 Y51.920152 Z-0.125000 I-0.000000 J0.106753
G03 X23.521540 Y52.389998 Z-0.125000 I-1.367211 J0.372997
G02 X23.926593 Y52.873549 Z-0.125000 I0.454018 J0.031110
G02 X24.757903 Y52.523805 Z-0.125000 I0.100098 J-0.924923
G02 X24.947935 Y51.745247 Z-0.125000 I-0.760300 J-0.598047
G02 X24.499834 Y51.165148 Z-0.125000 I-0.795038 J0.151014
G01 X24.499834 Y51.165148 Z-0.125000
G00 Z5.000000

(End cutting path id: rect4831)


(Start cutting path id: rect4831)
(Change tool to Cylindrical cutter)

G00 Z5.000000
G00 X26.998043 Y52.351839

G01 Z-0.125000 F1000.0(Penetrate)
G02 X26.069801 Y52.177721 Z-0.125000 I-0.753927 J1.457928 F1100.000000
G02 X25.704817 Y52.489967 Z-0.125000 I0.045088 J0.422141
G02 X25.630810 Y53.562869 Z-0.125000 I2.708390 J0.725824
G02 X25.899942 Y54.054240 Z-0.125000 I0.755099 J-0.094191
G02 X26.197074 Y54.128913 Z-0.125000 I0.226554 J-0.272989
G02 X26.505455 Y53.931315 Z-0.125000 I-0.100864 J-0.496851
G03 X26.833314 Y53.626578 Z-0.125000 I0.953727 J0.697353
G03 X27.132332 Y53.539788 Z-0.125000 I0.302841 J0.484884
G02 X27.380553 Y53.429828 Z-0.125000 I-0.002411 J-0.340585
G02 X27.536847 Y53.100078 Z-0.125000 I-0.452521 J-0.416398
G02 X27.448311 Y52.740408 Z-0.125000 I-0.490974 J-0.069875
G02 X26.998043 Y52.351839 Z-0.125000 I-1.037564 J0.747147
G01 X26.998043 Y52.351839 Z-0.125000
G00 Z5.000000

(End cutting path id: rect4831)


(Start cutting path id: rect4831)
(Change tool to Cylindrical cutter)

G00 Z5.000000
G00 X33.299550 Y55.129501

G01 Z-0.125000 F1000.0(Penetrate)
G02 X32.158225 Y54.231082 Z-0.125000 I-3.890447 J3.768149 F1100.000000
G02 X31.443919 Y54.036322 Z-0.125000 I-0.714306 J1.212517
G02 X30.683053 Y54.123085 Z-0.125000 I-0.000000 J3.379564
G02 X30.407689 Y54.275756 Z-0.125000 I0.128628 J0.556663
G02 X30.167548 Y54.974120 Z-0.125000 I0.595103 J0.595103
G02 X30.604720 Y55.869502 Z-0.125000 I1.520522 J-0.187982
G03 X30.859148 Y56.263000 Z-0.125000 I-0.789464 J0.789456
G03 X30.800684 Y56.386141 Z-0.125000 I-0.088339 J0.033508
G02 X30.196758 Y56.827824 Z-0.125000 I0.388164 J1.164470
G02 X29.968718 Y57.528096 Z-0.125000 I0.961187 J0.700272
G02 X30.641984 Y58.447028 Z-0.125000 I0.963751 J0.000000
G02 X32.422869 Y58.303877 Z-0.125000 I0.714509 J-2.260302
G02 X34.070659 Y57.151761 Z-0.125000 I-3.160228 J-6.274266
G02 X34.358380 Y56.487066 Z-0.125000 I-0.623930 J-0.664695
G02 X34.278578 Y56.254992 Z-0.125000 I-0.377350 J-0.000000
G02 X33.299550 Y55.129501 Z-0.125000 I-10.994579 J8.575267
G01 X33.299550 Y55.129501 Z-0.125000
G00 Z5.000000

(End cutting path id: rect4831)


(Start cutting path id: rect4831)
(Change tool to Cylindrical cutter)

G00 Z5.000000
G00 X38.169083 Y55.457977

G01 Z-0.125000 F1000.0(Penetrate)
G02 X37.196499 Y55.117309 Z-0.125000 I-0.701625 J0.444429 F1100.000000
G02 X35.636161 Y56.332152 Z-0.125000 I0.997756 J2.890980
G02 X35.598059 Y57.030040 Z-0.125000 I0.582703 J0.381797
G02 X36.453739 Y57.937883 Z-0.125000 I1.977900 J-1.007074
G02 X37.385270 Y58.306095 Z-0.125000 I1.654437 J-2.823086
G02 X37.862696 Y58.257045 Z-0.125000 I0.165962 J-0.732647
G02 X38.299097 Y57.681612 Z-0.125000 I-0.315519 J-0.692481
G02 X38.053346 Y57.032317 Z-0.125000 I-0.694846 J-0.108164
G03 X37.927426 Y56.764171 Z-0.125000 I0.222547 J-0.268145
G03 X38.053346 Y56.364898 Z-0.125000 I0.695980 J-0.000000
G02 X38.254876 Y55.843717 Z-0.125000 I-0.954786 J-0.668751
G02 X38.169083 Y55.457977 Z-0.125000 I-0.578260 J-0.073798
G01 X38.169083 Y55.457977 Z-0.125000
G00 Z5.000000

(End cutting path id: rect4831)


(Start cutting path id: rect4831)
(Change tool to Cylindrical cutter)

G00 Z5.000000
G00 X33.828045 Y47.501720

G01 Z-0.125000 F1000.0(Penetrate)
G02 X33.324224 Y47.073785 Z-0.125000 I-0.529908 J0.113327 F1100.000000
G02 X31.764484 Y47.402265 Z-0.125000 I-0.151683 J3.147094
G02 X31.229663 Y47.852239 Z-0.125000 I0.667519 J1.336205
G02 X31.066131 Y48.349722 Z-0.125000 I0.674929 J0.497482
G02 X31.226470 Y48.805456 Z-0.125000 I0.727839 J-0.000000
G02 X31.596079 Y49.009636 Z-0.125000 I0.433524 J-0.348145
G03 X32.022118 Y49.189427 Z-0.125000 I-0.094820 J0.819366
G03 X32.242828 Y49.536336 Z-0.125000 I-0.411800 J0.505659
G02 X33.054446 Y49.913153 Z-0.125000 I0.558347 J-0.140140
G02 X33.854492 Y48.746741 Z-0.125000 I-0.632800 J-1.291623
G02 X33.880659 Y47.953350 Z-0.125000 I-7.307568 J-0.638144
G02 X33.828019 Y47.501720 Z-0.125000 I-2.399526 J0.050795
G01 X33.828045 Y47.501720 Z-0.125000
G00 Z5.000000

(End cutting path id: rect4831)


(Start cutting path id: rect4831)
(Change tool to Cylindrical cutter)

G00 Z5.000000
G00 X32.166255 Y41.513938

G01 Z-0.125000 F1000.0(Penetrate)
G02 X31.753043 Y41.325236 Z-0.125000 I-0.929092 J1.487714 F1100.000000
G02 X31.361871 Y41.266410 Z-0.125000 I-0.391172 J1.271163
G02 X30.773172 Y41.607426 Z-0.125000 I0.000000 J0.678647
G02 X30.930122 Y42.019195 Z-0.125000 I0.246990 J0.141654
G03 X31.055539 Y42.157697 Z-0.125000 I-0.060171 J0.180521
G03 X31.050941 Y42.552821 Z-0.125000 I-0.830049 J0.187931
G02 X31.325174 Y42.992207 Z-0.125000 I0.348839 J0.087552
G02 X32.074863 Y42.769943 Z-0.125000 I0.170045 J-0.801915
G02 X32.420460 Y42.014427 Z-0.125000 I-0.841917 J-0.841921
G02 X32.166255 Y41.513938 Z-0.125000 I-0.542131 J-0.039446
G01 X32.166255 Y41.513938 Z-0.125000
G00 Z5.000000

(End cutting path id: rect4831)


(Start cutting path id: rect4831)
(Change tool to Cylindrical cutter)

G00 Z5.000000
G00 X36.298178 Y40.692135

G01 Z-0.125000 F1000.0(Penetrate)
G02 X36.052186 Y40.521759 Z-0.125000 I-0.592103 J0.592117 F1100.000000
G02 X35.805034 Y40.468291 Z-0.125000 I-0.247152 J0.544482
G02 X34.674125 Y40.784040 Z-0.125000 I-0.000000 J2.183146
G02 X34.358380 Y41.344390 Z-0.125000 I0.339352 J0.560351
G02 X34.747190 Y42.274313 Z-0.125000 I1.306458 J-0.000000
G02 X35.694742 Y42.663119 Z-0.125000 I0.947551 J-0.960226
G02 X36.001259 Y42.496889 Z-0.125000 I0.000000 J-0.365713
G02 X36.084307 Y42.064531 Z-0.125000 I-0.488649 J-0.318016
G03 X36.055921 Y41.540809 Z-0.125000 I1.801622 J-0.360278
G03 X36.137774 Y41.465941 Z-0.125000 I0.081853 J0.007311
G02 X36.452838 Y41.209487 Z-0.125000 I0.000000 J-0.321761
G02 X36.298169 Y40.692135 Z-0.125000 I-0.556638 J-0.115382
G01 X36.298178 Y40.692135 Z-0.125000
G00 Z5.000000

(End cutting path id: rect4831)


(Start cutting path id: rect4831)
(Change tool to Cylindrical cutter)

G00 Z5.000000
G00 X32.845801 Y36.840014

G01 Z-0.125000 F1000.0(Penetrate)
G02 X31.367629 Y34.950386 Z-0.125000 I-3.209395 J0.987600 F1100.000000
G02 X29.795922 Y35.004903 Z-0.125000 I-0.743914 J1.236358
G02 X29.503476 Y35.408375 Z-0.125000 I0.437799 J0.625049
G02 X29.402352 Y36.301971 Z-0.125000 I2.378395 J0.721672
G01 X29.469921 Y37.276058 Z-0.125000
G01 X28.721688 Y37.275934 Z-0.125000
G02 X27.615063 Y37.715487 Z-0.125000 I-0.000267 J1.612130
G02 X27.175331 Y38.734955 Z-0.125000 I0.961895 J1.019468
G02 X28.265673 Y40.319654 Z-0.125000 I1.696768 J0.000000
G02 X32.412991 Y40.739281 Z-0.125000 I2.847871 J-7.441992
G01 X33.161230 Y40.615608 Z-0.125000
G01 X33.147288 Y39.195121 Z-0.125000
G02 X33.050647 Y37.787494 Z-0.125000 I-12.005299 J0.117092
G02 X32.845796 Y36.840014 Z-0.125000 I-5.624050 J0.720073
G01 X32.845801 Y36.840014 Z-0.125000
G00 Z5.000000

(End cutting path id: rect4831)


(Start cutting path id: rect4831)
(Change tool to Cylindrical cutter)

G00 Z5.000000
G00 X38.600662 Y33.883804

G01 Z-0.125000 F1000.0(Penetrate)
G02 X38.088212 Y33.429854 Z-0.125000 I-0.683850 J0.255758 F1100.000000
G02 X37.456649 Y33.607514 Z-0.125000 I-0.157415 J0.651804
G03 X37.129425 Y33.732211 Z-0.125000 I-0.302738 J-0.302738
G03 X36.732360 Y33.566021 Z-0.125000 I0.036997 J-0.645827
G02 X35.812508 Y33.771028 Z-0.125000 I-0.387374 J0.428040
G02 X35.976332 Y35.370996 Z-0.125000 I1.550828 J0.649579
G02 X36.967478 Y36.297954 Z-0.125000 I2.586649 J-1.772396
G02 X37.476097 Y36.257459 Z-0.125000 I0.225541 J-0.381582
G02 X38.559256 Y34.862564 Z-0.125000 I-2.609636 J-3.144418
G02 X38.600662 Y33.883806 Z-0.125000 I-1.136264 J-0.538324
G01 X38.600662 Y33.883804 Z-0.125000
G00 Z5.000000

(End cutting path id: rect4831)


(Start cutting path id: rect4831)
(Change tool to Cylindrical cutter)

G00 Z5.000000
G00 X43.496845 Y34.322772

G01 Z-0.125000 F1000.0(Penetrate)
G02 X42.901901 Y34.116189 Z-0.125000 I-0.510654 J0.510658 F1100.000000
G02 X41.828446 Y34.518843 Z-0.125000 I0.279332 J2.376899
G02 X40.954053 Y35.471644 Z-0.125000 I1.620126 J2.364421
G02 X40.966404 Y36.042180 Z-0.125000 I0.485759 J0.274886
G02 X41.895698 Y36.989288 Z-0.125000 I2.605871 J-1.627396
G02 X42.860719 Y37.275810 Z-0.125000 I0.965021 J-1.481859
G02 X43.673566 Y36.714910 Z-0.125000 I0.000000 J-0.869431
G02 X43.387103 Y35.889018 Z-0.125000 I-0.636857 J-0.241731
G03 X43.268500 Y35.679574 Z-0.125000 I0.125629 J-0.209444
G03 X43.387103 Y35.470129 Z-0.125000 I0.244232 J0.000000
G02 X43.719750 Y34.942991 Z-0.125000 I-0.355685 J-0.592978
G02 X43.496845 Y34.322772 Z-0.125000 I-0.769514 J-0.073604
G01 X43.496845 Y34.322772 Z-0.125000
G00 Z5.000000

(End cutting path id: rect4831)


(Start cutting path id: rect4831)
(Change tool to Cylindrical cutter)

G00 Z5.000000
G00 X44.338192 Y39.533568

G01 Z-0.125000 F1000.0(Penetrate)
G02 X43.386746 Y38.929187 Z-0.125000 I-0.905712 J0.374718 F1100.000000
G02 X42.738627 Y39.608286 Z-0.125000 I0.031721 J0.679100
G03 X42.609476 Y39.919631 Z-0.125000 I-0.439855 J-0.000000
G03 X42.367739 Y39.978409 Z-0.125000 I-0.169253 J-0.169603
G02 X41.781642 Y40.159653 Z-0.125000 I-0.162626 J0.512378
G02 X41.616399 Y40.939269 Z-0.125000 I0.714599 J0.558782
G02 X42.159404 Y41.579818 Z-0.125000 I0.922413 J-0.231515
G02 X43.660732 Y41.828695 Z-0.125000 I1.246076 J-2.864086
G02 X44.208816 Y41.547212 Z-0.125000 I-0.065802 J-0.802461
G02 X44.476583 Y40.867353 Z-0.125000 I-0.863371 J-0.732705
G02 X44.451450 Y39.981171 Z-0.125000 I-5.904067 J-0.276001
G02 X44.338192 Y39.533571 Z-0.125000 I-1.595595 J0.165609
G01 X44.338192 Y39.533568 Z-0.125000
G00 Z5.000000

(End cutting path id: rect4831)


(Start cutting path id: rect4831)
(Change tool to Cylindrical cutter)

G00 Z5.000000
G00 X44.694021 Y45.496444

G01 Z-0.125000 F1000.0(Penetrate)
G02 X43.952602 Y45.270854 Z-0.125000 I-0.582165 J0.582169 F1100.000000
G02 X43.458799 Y45.739979 Z-0.125000 I0.123012 J0.623935
G02 X43.451014 Y46.641377 Z-0.125000 I1.859807 J0.466796
G02 X43.717848 Y46.853247 Z-0.125000 I0.266834 J-0.062094
G02 X43.850997 Y46.829449 Z-0.125000 I-0.000000 J-0.384386
G02 X44.393299 Y46.603836 Z-0.125000 I-2.511021 J-6.800253
G02 X44.845907 Y46.067125 Z-0.125000 I-0.350547 J-0.754814
G02 X44.694021 Y45.496444 Z-0.125000 I-0.568251 J-0.154313
G01 X44.694021 Y45.496444 Z-0.125000
G00 Z5.000000

(End cutting path id: rect4831)


(Start cutting path id: rect4831)
(Change tool to Cylindrical cutter)

G00 Z5.000000
G00 X40.252817 Y45.188206

G01 Z-0.125000 F1000.0(Penetrate)
G02 X39.400223 Y43.797131 Z-0.125000 I-3.732437 J1.330804 F1100.000000
G02 X38.620573 Y43.461238 Z-0.125000 I-0.779650 J0.736885
G02 X37.950762 Y43.845509 Z-0.125000 I0.000000 J0.775900
G02 X37.935936 Y44.632186 Z-0.125000 I0.695389 J0.406584
G03 X37.917176 Y45.045460 Z-0.125000 I-0.356651 J0.190874
G03 X37.524679 Y45.257006 Z-0.125000 I-0.392497 J-0.258342
G02 X36.989832 Y45.553778 Z-0.125000 I-0.000000 J0.630342
G02 X36.902478 Y46.254656 Z-0.125000 I0.713137 J0.444765
G02 X37.734686 Y46.992722 Z-0.125000 I1.037872 J-0.332043
G02 X39.915502 Y46.833728 Z-0.125000 I0.794729 J-4.135137
G02 X40.334774 Y46.354509 Z-0.125000 I-0.212179 J-0.608658
G02 X40.252817 Y45.188206 Z-0.125000 I-2.129025 J-0.436423
G01 X40.252817 Y45.188206 Z-0.125000
G00 Z5.000000

(End cutting path id: rect4831)


(Start cutting path id: rect4831)
(Change tool to Cylindrical cutter)

G00 Z5.000000
G00 X26.685631 Y33.572168

G01 Z-0.125000 F1000.0(Penetrate)
G02 X26.142990 Y33.315642 Z-0.125000 I-1.191946 J1.819178 F1100.000000
G02 X25.292716 Y33.136454 Z-0.125000 I-1.360777 J4.350148
G01 X24.413561 Y33.037357 Z-0.125000
G01 X24.278098 Y33.940705 Z-0.125000
G02 X24.252883 Y34.827564 Z-0.125000 I3.651858 J0.547615
G02 X24.413764 Y35.411458 Z-0.125000 I1.713903 J-0.158123
G02 X25.146119 Y35.984832 Z-0.125000 I0.943663 J-0.450921
G02 X25.772093 Y35.691680 Z-0.125000 I0.116703 J-0.565705
G02 X25.890945 Y35.330214 Z-0.125000 I-0.970344 J-0.519327
G02 X25.835517 Y35.254246 Z-0.125000 I-0.066553 J-0.009646
G01 X25.834122 Y35.227298 Z-0.125000
G03 X26.377199 Y35.104598 Z-0.125000 I1.566748 J5.671330
G02 X26.927897 Y34.842148 Z-0.125000 I-0.199052 J-1.126658
G02 X27.137488 Y34.445005 Z-0.125000 I-0.406259 J-0.468279
G02 X27.051848 Y33.977885 Z-0.125000 I-0.807653 J-0.093338
G02 X26.685668 Y33.572168 Z-0.125000 I-0.956477 J0.495162
G01 X26.685631 Y33.572168 Z-0.125000
G00 Z5.000000

(End cutting path id: rect4831)


(Start cutting path id: rect4831)
(Change tool to Cylindrical cutter)

G00 Z5.000000
G00 X22.405679 Y38.017188

G01 Z-0.125000 F1000.0(Penetrate)
G02 X21.023939 Y37.910268 Z-0.125000 I-0.799772 J1.353903 F1100.000000
G02 X20.855815 Y38.634628 Z-0.125000 I0.167552 J0.420579
G03 X21.042212 Y38.992520 Z-0.125000 I-0.592133 J0.535879
G03 X20.998241 Y39.257577 Z-0.125000 I-0.345178 J0.078914
G02 X20.996444 Y39.790575 Z-0.125000 I0.433564 J0.267964
G02 X21.492307 Y40.069229 Z-0.125000 I0.495863 J-0.301866
G02 X22.551488 Y39.635544 Z-0.125000 I-0.000000 J-1.510250
G02 X22.985174 Y38.600468 Z-0.125000 I-1.018361 J-1.035076
G02 X22.904746 Y38.405401 Z-0.125000 I-0.276767 J0.000000
G02 X22.405679 Y38.017188 Z-0.125000 I-1.763181 J1.751759
G01 X22.405679 Y38.017188 Z-0.125000
G00 Z5.000000

(End cutting path id: rect4831)


(Start cutting path id: rect4831)
(Change tool to Cylindrical cutter)

G00 Z5.000000
G00 X17.082714 Y36.000216

G01 Z-0.125000 F1000.0(Penetrate)
G02 X15.902247 Y35.820499 Z-0.125000 I-1.001083 J2.608787 F1100.000000
G02 X15.243401 Y36.118541 Z-0.125000 I0.065788 J1.022668
G02 X15.038447 Y36.746513 Z-0.125000 I0.515758 J0.515762
G02 X15.408306 Y37.177721 Z-0.125000 I0.533055 J-0.082993
G03 X15.721522 Y37.364492 Z-0.125000 I-0.241567 J0.761127
G03 X15.783720 Y37.540342 Z-0.125000 I-0.145141 J0.150262
G02 X15.919957 Y38.073010 Z-0.125000 I0.748260 J0.092378
G02 X16.311097 Y38.273463 Z-0.125000 I0.391140 J-0.281386
G02 X16.718791 Y38.121338 Z-0.125000 I0.000000 J-0.622371
G02 X17.109212 Y37.581516 Z-0.125000 I-0.955617 J-1.102237
G02 X17.341581 Y36.370122 Z-0.125000 I-2.778553 J-1.160964
G02 X17.082740 Y36.000216 Z-0.125000 I-0.403388 J0.006756
G01 X17.082714 Y36.000216 Z-0.125000
G00 Z5.000000

(End cutting path id: rect4831)


(Start cutting path id: rect4831)
(Change tool to Cylindrical cutter)

G00 Z5.000000
G00 X12.318498 Y35.686354

G01 Z-0.125000 F1000.0(Penetrate)
G02 X11.526523 Y35.496907 Z-0.125000 I-0.588182 J0.708738 F1100.000000
G02 X10.495164 Y36.100055 Z-0.125000 I0.438710 J1.933543
G02 X10.324528 Y36.516756 Z-0.125000 I0.491008 J0.444352
G02 X10.456025 Y37.036516 Z-0.125000 I0.938012 J0.039201
G02 X10.831571 Y37.519900 Z-0.125000 I2.141469 J-1.276155
G02 X11.288992 Y37.872501 Z-0.125000 I1.571998 J-1.566314
G02 X11.778344 Y37.995991 Z-0.125000 I0.460201 J-0.792309
G02 X12.125009 Y37.845887 Z-0.125000 I-0.016332 J-0.513083
G02 X12.299503 Y37.499749 Z-0.125000 I-0.437706 J-0.437706
G02 X12.233659 Y37.119493 Z-0.125000 I-0.606791 J-0.090759
G03 X12.175142 Y36.775510 Z-0.125000 I0.484733 J-0.259429
G03 X12.313943 Y36.603655 Z-0.125000 I0.217754 J0.033892
G02 X12.572132 Y36.230007 Z-0.125000 I-0.144142 J-0.375630
G02 X12.318458 Y35.686343 Z-0.125000 I-0.702009 J-0.003456
G01 X12.318498 Y35.686354 Z-0.125000
G00 Z5.000000

(End cutting path id: rect4831)


(Start cutting path id: rect4831)
(Change tool to Cylindrical cutter)

G00 Z5.000000
G00 X23.141006 Y27.610418

G01 Z-0.125000 F1000.0(Penetrate)
G02 X22.677763 Y27.359853 Z-0.125000 I-1.314431 J1.876608 F1100.000000
G02 X22.363529 Y27.299316 Z-0.125000 I-0.314233 J0.785289
G02 X21.890263 Y27.592689 Z-0.125000 I0.000000 J0.528421
G02 X22.009835 Y28.011467 Z-0.125000 I0.289525 J0.143793
G03 X22.127033 Y28.167235 Z-0.125000 I-0.140896 J0.227983
G03 X22.116484 Y28.392603 Z-0.125000 I-0.345766 J0.096745
G02 X22.101874 Y28.629658 Z-0.125000 I0.369433 J0.141747
G02 X22.233208 Y28.861905 Z-0.125000 I0.482969 J-0.119859
G02 X22.716183 Y28.943041 Z-0.125000 I0.298439 J-0.298442
G02 X23.380358 Y28.304202 Z-0.125000 I-0.653393 J-1.343984
G02 X23.407501 Y27.963904 Z-0.125000 I-0.375987 J-0.201220
G02 X23.141006 Y27.610418 Z-0.125000 I-0.677897 J0.233871
G01 X23.141006 Y27.610418 Z-0.125000
G00 Z5.000000

(End cutting path id: rect4831)


(Start cutting path id: rect4831)
(Change tool to Cylindrical cutter)

G00 Z5.000000
G00 X24.433396 Y25.703880

G01 Z-0.125000 F1000.0(Penetrate)
G02 X24.290548 Y25.031587 Z-0.125000 I-3.827633 J0.461965 F1100.000000
G02 X24.141601 Y24.756113 Z-0.125000 I-0.764382 J0.235294
G02 X23.537477 Y24.522400 Z-0.125000 I-0.511495 J0.424506
G02 X23.084968 Y24.904810 Z-0.125000 I0.077487 J0.550625
G03 X22.880682 Y25.112598 Z-0.125000 I-0.306892 J-0.097404
G03 X22.549423 Y25.084862 Z-0.125000 I-0.133535 J-0.397184
G02 X21.864898 Y25.207966 Z-0.125000 I-0.264464 J0.494158
G02 X21.701677 Y26.044570 Z-0.125000 I0.630926 J0.557318
G02 X22.465162 Y27.093116 Z-0.125000 I2.130994 J-0.749422
G02 X23.609418 Y27.495565 Z-0.125000 I1.195923 J-1.572371
G02 X24.284824 Y26.475604 Z-0.125000 I-5.933018 J-4.662378
G02 X24.433396 Y25.703877 Z-0.125000 I-1.115726 J-0.614963
G01 X24.433396 Y25.703880 Z-0.125000
G00 Z5.000000

(End cutting path id: rect4831)


(Start cutting path id: rect4831)
(Change tool to Cylindrical cutter)

G00 Z5.000000
G00 X27.494321 Y16.248143

G01 Z-0.125000 F1000.0(Penetrate)
G02 X25.358716 Y16.125174 Z-0.125000 I-1.219294 J2.569480 F1100.000000
G02 X24.971587 Y17.106694 Z-0.125000 I0.222924 J0.655030
G02 X25.246088 Y17.435463 Z-0.125000 I0.930681 J-0.498079
G02 X25.495357 Y17.522354 Z-0.125000 I0.249269 J-0.314102
G03 X25.650950 Y17.643280 Z-0.125000 I0.000000 J0.160562
G03 X25.668885 Y18.203528 Z-0.125000 I-1.258952 J0.320712
G02 X25.709738 Y18.803854 Z-0.125000 I1.179531 J0.221283
G02 X25.972519 Y19.115592 Z-0.125000 I0.522718 J-0.174002
G02 X26.740668 Y19.079955 Z-0.125000 I0.354198 J-0.661813
G02 X27.771319 Y17.926445 Z-0.125000 I-1.675091 J-2.533874
G02 X27.940088 Y16.839844 Z-0.125000 I-1.568039 J-0.799951
G02 X27.494321 Y16.248143 Z-0.125000 I-0.788283 J0.130101
G01 X27.494321 Y16.248143 Z-0.125000
G00 Z5.000000

(End cutting path id: rect4831)


(Start cutting path id: rect4831)
(Change tool to Cylindrical cutter)

G00 Z5.000000
G00 X30.716954 Y13.907798

G01 Z-0.125000 F1000.0(Penetrate)
G03 X30.467667 Y13.883604 Z-0.125000 I2.375820 J-25.776060 F1100.000000
G03 X30.227397 Y13.857913 Z-0.125000 I2.482423 J-24.352155
G03 X30.020988 Y13.772779 Z-0.125000 I0.044999 J-0.401889
G03 X29.700285 Y13.439518 Z-0.125000 I1.078399 J-1.358704
G02 X29.389607 Y13.240068 Z-0.125000 I-0.414323 J0.303688
G02 X29.092426 Y13.314302 Z-0.125000 I-0.071347 J0.346347
G02 X28.701479 Y14.089202 Z-0.125000 I0.693975 J0.836188
G02 X28.977980 Y15.340429 Z-0.125000 I2.364779 J0.133588
G02 X29.256508 Y15.523528 Z-0.125000 I0.307699 J-0.164671
G02 X29.918756 Y15.419341 Z-0.125000 I0.118001 J-1.406777
G02 X30.611674 Y15.063368 Z-0.125000 I-1.907979 J-4.566354
G02 X30.806672 Y14.870839 Z-0.125000 I-0.321809 J-0.520951
G02 X30.976388 Y14.167005 Z-0.125000 I-0.944239 J-0.600063
G02 X30.716954 Y13.907796 Z-0.125000 I-0.285812 J0.026625
G01 X30.716954 Y13.907798 Z-0.125000
G00 Z5.000000

(End cutting path id: rect4831)


(Start cutting path id: rect4831)
(Change tool to Cylindrical cutter)

G00 Z5.000000
G00 X40.656070 Y11.467135

G01 Z-0.125000 F1000.0(Penetrate)
G02 X39.779203 Y9.919936 Z-0.125000 I-3.429667 J0.921668 F1100.000000
G02 X38.729090 Y9.474649 Z-0.125000 I-1.050112 J1.015585
G02 X37.749722 Y9.949885 Z-0.125000 I0.000000 J1.246761
G02 X37.389215 Y11.175475 Z-0.125000 I1.348821 J1.062571
G01 X37.460781 Y11.925817 Z-0.125000
G01 X36.710860 Y11.805900 Z-0.125000
G02 X35.160585 Y12.862145 Z-0.125000 I-0.215740 J1.349164
G02 X36.028946 Y14.912707 Z-0.125000 I1.880574 J0.412770
G02 X37.941330 Y15.648668 Z-0.125000 I2.909517 J-4.707711
G02 X40.022481 Y15.644219 Z-0.125000 I1.028576 J-5.615328
G02 X40.492805 Y15.335794 Z-0.125000 I-0.134756 J-0.718309
G02 X40.814100 Y14.475607 Z-0.125000 I-1.612770 J-1.092497
G02 X40.869870 Y12.813266 Z-0.125000 I-9.611656 J-1.154565
G02 X40.656078 Y11.467135 Z-0.125000 I-6.491791 J0.340977
G01 X40.656070 Y11.467135 Z-0.125000
G00 Z5.000000

(End cutting path id: rect4831)


(Start cutting path id: rect4831)
(Change tool to Cylindrical cutter)

G00 Z5.000000
G00 X48.084472 Y12.633873

G01 Z-0.125000 F1000.0(Penetrate)
G02 X47.388213 Y12.004381 Z-0.125000 I-1.314007 J0.753578 F1100.000000
G02 X46.204618 Y11.794236 Z-0.125000 I-1.013218 J2.268482
G01 X45.181190 Y11.864583 Z-0.125000
G01 X45.356360 Y11.253792 Z-0.125000
G02 X45.350690 Y9.901265 Z-0.125000 I-2.323995 J-0.666534
G02 X44.731065 Y9.140563 Z-0.125000 I-1.219927 J0.360977
G02 X43.553284 Y8.965778 Z-0.125000 I-0.832782 J1.556066
G02 X42.368019 Y9.611572 Z-0.125000 I0.443358 J2.224317
G02 X41.533063 Y11.037355 Z-0.125000 I2.495532 J2.418785
G02 X41.145116 Y13.713110 Z-0.125000 I8.918262 J2.659025
G02 X41.610480 Y15.636836 Z-0.125000 I4.238132 J-0.007086
G02 X42.406517 Y16.178347 Z-0.125000 I0.893139 J-0.457087
G02 X46.371324 Y15.712371 Z-0.125000 I0.909955 J-9.358037
G02 X48.000206 Y14.256639 Z-0.125000 I-0.914795 J-2.662784
G02 X48.242749 Y13.296659 Z-0.125000 I-2.301397 J-1.092087
G02 X48.084472 Y12.633870 Z-0.125000 I-1.204857 J-0.062568
G01 X48.084472 Y12.633873 Z-0.125000
G00 Z5.000000

(End cutting path id: rect4831)


(Start cutting path id: rect4831)
(Change tool to Cylindrical cutter)

G00 Z5.000000
G00 X48.774161 Y23.638694

G01 Z-0.125000 F1000.0(Penetrate)
G02 X47.539804 Y23.165323 Z-0.125000 I-1.865485 J3.018389 F1100.000000
G02 X44.757083 Y22.912609 Z-0.125000 I-2.819448 J15.598798
G02 X42.500702 Y23.258807 Z-0.125000 I-0.017034 J7.415180
G02 X41.233751 Y24.028787 Z-0.125000 I0.944453 J2.981367
G02 X40.555888 Y25.241456 Z-0.125000 I1.804422 J1.804435
G02 X40.654532 Y26.458444 Z-0.125000 I1.917321 J0.457081
G02 X41.562721 Y27.408640 Z-0.125000 I1.689908 J-0.706081
G02 X43.081033 Y27.603690 Z-0.125000 I1.060278 J-2.246476
G01 X43.757983 Y27.476693 Z-0.125000
G01 X43.447840 Y28.076452 Z-0.125000
G02 X43.089142 Y29.527623 Z-0.125000 I2.852078 J1.474889
G02 X43.429073 Y30.619429 Z-0.125000 I1.878752 J0.013878
G02 X43.771697 Y30.971495 Z-0.125000 I1.256642 J-0.880190
G02 X44.330601 Y31.288135 Z-0.125000 I1.562799 J-2.106927
G02 X44.942863 Y31.391750 Z-0.125000 I0.532433 J-1.285412
G02 X45.827894 Y31.202086 Z-0.125000 I-0.169609 J-2.951187
G02 X47.155791 Y30.213397 Z-0.125000 I-1.086793 J-2.845747
G02 X48.323531 Y27.957078 Z-0.125000 I-5.686662 J-4.373424
G02 X49.079697 Y24.260570 Z-0.125000 I-18.461124 J-5.702044
G02 X48.774201 Y23.638694 Z-0.125000 I-0.648034 J-0.067630
G01 X48.774161 Y23.638694 Z-0.125000
G00 Z5.000000

(End cutting path id: rect4831)


(Start cutting path id: rect4831)
(Change tool to Cylindrical cutter)

G00 Z5.000000
G00 X52.257768 Y31.257822

G01 Z-0.125000 F1000.0(Penetrate)
G02 X49.899352 Y29.536237 Z-0.125000 I-4.078152 J3.110501 F1100.000000
G02 X48.624837 Y29.964857 Z-0.125000 I-0.364707 J1.024747
G02 X48.493724 Y30.673086 Z-0.125000 I0.779094 J0.510483
G02 X48.988577 Y31.639093 Z-0.125000 I2.066868 J-0.449035
G03 X49.153496 Y31.981523 Z-0.125000 I-0.504002 J0.453664
G03 X49.063236 Y32.088032 Z-0.125000 I-0.090260 J0.015009
G02 X48.784446 Y32.181843 Z-0.125000 I0.000000 J0.461161
G02 X48.407865 Y32.585404 Z-0.125000 I0.981719 J1.293571
G02 X48.576568 Y33.918829 Z-0.125000 I0.866511 J0.567755
G02 X50.302335 Y34.311969 Z-0.125000 I1.210153 J-1.327840
G02 X52.468345 Y33.197074 Z-0.125000 I-1.907960 J-6.368276
G02 X52.914683 Y32.286118 Z-0.125000 I-0.706442 J-0.910956
G02 X52.870262 Y32.134065 Z-0.125000 I-0.282448 J0.000000
G02 X52.257797 Y31.257822 Z-0.125000 I-10.840308 J6.924849
G01 X52.257768 Y31.257822 Z-0.125000
G00 Z5.000000

(End cutting path id: rect4831)


(Start cutting path id: rect4831)
(Change tool to Cylindrical cutter)

G00 Z5.000000
G00 X54.569611 Y62.865525

G01 Z-0.125000 F1000.0(Penetrate)
G02 X54.365407 Y62.559168 Z-0.125000 I-0.466708 J0.089852 F1100.000000
G02 X53.892019 Y62.416578 Z-0.125000 I-0.473388 J0.714508
G02 X51.938446 Y63.065413 Z-0.125000 I-0.000000 J3.265414
G02 X51.639775 Y64.098125 Z-0.125000 I0.532814 J0.713641
G02 X51.891581 Y64.342597 Z-0.125000 I0.389807 J-0.149585
G02 X52.565475 Y64.422311 Z-0.125000 I0.515925 J-1.473203
G03 X52.805072 Y64.508090 Z-0.125000 I0.029898 J0.293999
G03 X52.914652 Y64.773969 Z-0.125000 I-0.267767 J0.265879
G02 X53.224829 Y65.402062 Z-0.125000 I0.791018 J0.000000
G02 X53.886052 Y65.517624 Z-0.125000 I0.441501 J-0.576706
G02 X54.507767 Y64.860685 Z-0.125000 I-0.282469 J-0.889983
G02 X54.569611 Y62.865525 Z-0.125000 I-4.403853 J-1.135045
G01 X54.569611 Y62.865525 Z-0.125000
G00 Z5.000000

(End cutting path id: rect4831)


(Start cutting path id: rect4831)
(Change tool to Cylindrical cutter)

G00 Z5.000000
G00 X46.380053 Y66.958377

G01 Z-0.125000 F1000.0(Penetrate)
G02 X44.855237 Y66.007063 Z-0.125000 I-2.959726 J3.046319 F1100.000000
G02 X44.008639 Y66.107178 Z-0.125000 I-0.322853 J0.899462
G02 X43.611873 Y66.796653 Z-0.125000 I0.482684 J0.736664
G02 X43.935944 Y67.462257 Z-0.125000 I0.761635 J0.040867
G01 X44.335102 Y67.741843 Z-0.125000
G01 X43.935944 Y68.103084 Z-0.125000
G02 X43.760229 Y69.030171 Z-0.125000 I0.524542 J0.579614
G02 X44.678547 Y69.599652 Z-0.125000 I0.918318 J-0.455676
G02 X45.282862 Y69.449622 Z-0.125000 I-0.000000 J-1.292093
G02 X46.234881 Y68.776122 Z-0.125000 I-2.119671 J-4.005847
G02 X47.083396 Y67.932912 Z-0.125000 I-10.797617 J-11.714081
G02 X47.128312 Y67.818969 Z-0.125000 I-0.122070 J-0.113944
G02 X47.085143 Y67.703531 Z-0.125000 I-0.175929 J0.000000
G02 X46.380076 Y66.958377 Z-0.125000 I-9.208682 J8.007135
G01 X46.380053 Y66.958377 Z-0.125000
G00 Z5.000000

(End cutting path id: rect4831)


(Start cutting path id: rect4831)
(Change tool to Cylindrical cutter)

G00 Z5.000000
G00 X40.593705 Y64.561667

G01 Z-0.125000 F1000.0(Penetrate)
G02 X39.264276 Y63.789535 Z-0.125000 I-2.272403 J2.381992 F1100.000000
G02 X38.421830 Y63.912353 Z-0.125000 I-0.289167 J0.967225
G02 X38.122206 Y64.417894 Z-0.125000 I0.365893 J0.558418
G02 X38.335647 Y64.997116 Z-0.125000 I0.734320 J0.058342
G03 X38.528011 Y65.373861 Z-0.125000 I-0.485244 J0.485244
G03 X38.435410 Y65.620139 Z-0.125000 I-0.262156 J0.041977
G02 X38.315977 Y66.556895 Z-0.125000 I0.441785 J0.532318
G02 X39.359171 Y66.902020 Z-0.125000 I0.759845 J-0.547577
G02 X40.775757 Y66.067741 Z-0.125000 I-1.114909 J-3.512891
G02 X41.142418 Y65.216719 Z-0.125000 I-0.804282 J-0.851022
G02 X41.101013 Y65.102816 Z-0.125000 I-0.177374 J-0.000000
G02 X40.593705 Y64.561667 Z-0.125000 I-5.096157 J4.269105
G01 X40.593705 Y64.561667 Z-0.125000
G00 Z5.000000

(End cutting path id: rect4831)


(Start cutting path id: rect4831)
(Change tool to Cylindrical cutter)

G00 Z5.000000
G00 X34.919133 Y65.343036

G01 Z-0.125000 F1000.0(Penetrate)
G02 X33.811158 Y65.019509 Z-0.125000 I-1.118658 J1.772053 F1100.000000
G02 X33.351117 Y65.335049 Z-0.125000 I-0.002495 J0.489490
G02 X33.204732 Y66.727299 Z-0.125000 I2.558902 J0.972872
G02 X33.636111 Y67.173433 Z-0.125000 I0.531617 J-0.082412
G02 X33.968199 Y67.146422 Z-0.125000 I0.116981 J-0.616699
G02 X34.178638 Y66.975542 Z-0.125000 I-0.142409 J-0.390396
G03 X34.392930 Y66.790934 Z-0.125000 I0.402245 J0.250245
G03 X34.801136 Y66.706491 Z-0.125000 I0.408206 J0.944435
G02 X35.347223 Y66.205621 Z-0.125000 I0.000000 J-0.548128
G02 X34.919133 Y65.343058 Z-0.125000 I-0.922229 J-0.079809
G01 X34.919133 Y65.343036 Z-0.125000
G00 Z5.000000

(End cutting path id: rect4831)


(Start cutting path id: rect4831)
(Change tool to Cylindrical cutter)

G00 Z5.000000
G00 X30.049417 Y60.773423

G01 Z-0.125000 F1000.0(Penetrate)
G02 X29.654313 Y59.889781 Z-0.125000 I-3.798073 J1.168081 F1100.000000
G02 X28.996787 Y59.027529 Z-0.125000 I-4.270864 J2.574995
G02 X28.158861 Y58.403348 Z-0.125000 I-2.235793 J2.126898
G02 X27.420204 Y58.226450 Z-0.125000 I-0.738657 J1.453716
G02 X26.680771 Y58.381708 Z-0.125000 I-0.000000 J1.838437
G02 X26.171172 Y58.775160 Z-0.125000 I0.536885 J1.222117
G02 X25.893442 Y59.369676 Z-0.125000 I1.115170 J0.883084
G02 X25.842146 Y60.363366 Z-0.125000 I3.202646 J0.663494
G01 X25.947624 Y61.402855 Z-0.125000
G01 X25.365476 Y61.286424 Z-0.125000
G02 X23.544648 Y61.897107 Z-0.125000 I-0.378348 J1.891763
G02 X23.254247 Y63.663644 Z-0.125000 I1.253438 J1.113190
G02 X23.943872 Y64.625237 Z-0.125000 I2.476751 J-1.048164
G02 X25.116906 Y65.319973 Z-0.125000 I2.372243 J-2.667763
G02 X26.876569 Y65.656871 Z-0.125000 I1.969160 J-5.521258
G02 X29.619538 Y65.480989 Z-0.125000 I0.493061 J-13.787431
G01 X30.367780 Y65.357319 Z-0.125000
G01 X30.353895 Y63.537773 Z-0.125000
G02 X30.247863 Y61.732427 Z-0.125000 I-17.719609 J0.134922
G02 X30.049422 Y60.773423 Z-0.125000 I-5.167409 J0.569229
G01 X30.049417 Y60.773423 Z-0.125000
G00 Z5.000000

(End cutting path id: rect4831)


(Start cutting path id: rect4831)
(Change tool to Cylindrical cutter)

G00 Z5.000000
G00 X21.854494 Y59.955713

G01 Z-0.125000 F1000.0(Penetrate)
G02 X20.647307 Y59.674948 Z-0.125000 I-0.829065 J0.829064 F1100.000000
G02 X19.992216 Y60.590208 Z-0.125000 I0.311832 J0.915260
G02 X20.351883 Y61.458311 Z-0.125000 I1.227473 J0.000000
G02 X21.220429 Y61.817987 Z-0.125000 I0.868546 J-0.868843
G02 X21.471291 Y61.682631 Z-0.125000 I0.000000 J-0.300145
G02 X21.541530 Y61.329161 Z-0.125000 I-0.400964 J-0.263390
G03 X21.562887 Y60.904187 Z-0.125000 I0.882333 J-0.168683
G03 X21.717800 Y60.736839 Z-0.125000 I0.247404 J0.073646
G02 X21.994962 Y60.400209 Z-0.125000 I-0.158433 J-0.412860
G02 X21.854494 Y59.955713 Z-0.125000 I-0.497830 J-0.087121
G01 X21.854494 Y59.955713 Z-0.125000
G00 Z5.000000

(End cutting path id: rect4831)


(Start cutting path id: rect4831)
(Change tool to Cylindrical cutter)

G00 Z5.000000
G00 X18.748893 Y64.948746

G01 Z-0.125000 F1000.0(Penetrate)
G02 X16.813170 Y64.063970 Z-0.125000 I-3.018731 J4.044526 F1100.000000
G02 X15.916105 Y64.326361 Z-0.125000 I-0.208855 J0.950604
G02 X15.746341 Y64.834255 Z-0.125000 I0.424066 J0.424062
G02 X16.083079 Y65.509124 Z-0.125000 I1.177891 J-0.166284
G03 X16.358413 Y65.980129 Z-0.125000 I-0.760618 J0.760611
G03 X16.282604 Y66.222841 Z-0.125000 I-0.225031 J0.062909
G02 X15.988761 Y66.976464 Z-0.125000 I0.532629 J0.641773
G02 X16.472782 Y67.628059 Z-0.125000 I0.832226 J-0.112629
G02 X17.386943 Y67.614969 Z-0.125000 I0.443244 J-0.972821
G02 X18.655517 Y66.557029 Z-0.125000 I-1.537180 J-3.132772
G02 X19.023952 Y65.539409 Z-0.125000 I-1.524706 J-1.127534
G02 X18.748893 Y64.948746 Z-0.125000 I-0.686176 J-0.039839
G01 X18.748893 Y64.948746 Z-0.125000
G00 Z5.000000

(End cutting path id: rect4831)


(Start cutting path id: rect4831)
(Change tool to Cylindrical cutter)

G00 Z5.000000
G00 X22.338711 Y70.640381

G01 Z-0.125000 F1000.0(Penetrate)
G02 X22.056294 Y70.451573 Z-0.125000 I-1.050747 J1.266076 F1100.000000
G02 X21.534373 Y70.215611 Z-0.125000 I-2.183962 J4.135477
G02 X21.111877 Y70.236432 Z-0.125000 I-0.187462 J0.493079
G02 X20.855951 Y70.553250 Z-0.125000 I0.217873 J0.437776
G02 X20.753545 Y71.099404 Z-0.125000 I4.169479 J1.064469
G02 X20.743849 Y71.477240 Z-0.125000 I1.975980 J0.239749
G02 X21.068905 Y71.999760 Z-0.125000 I0.655875 J-0.045647
G02 X21.493665 Y71.913801 Z-0.125000 I0.164058 J-0.281761
G03 X21.734418 Y71.699523 Z-0.125000 I0.650718 J0.488728
G03 X22.089963 Y71.566061 Z-0.125000 I0.569225 J0.976106
G02 X22.509044 Y71.176221 Z-0.125000 I-0.102039 J-0.529870
G02 X22.338711 Y70.640381 Z-0.125000 I-0.502894 J-0.135133
G01 X22.338711 Y70.640381 Z-0.125000
G00 Z5.000000

(End cutting path id: rect4831)


(Start cutting path id: rect4831)
(Change tool to Cylindrical cutter)

G00 Z5.000000
G00 X25.167893 Y69.388037

G01 Z-0.125000 F1000.0(Penetrate)
G02 X24.304282 Y68.732253 Z-0.125000 I-2.828886 J2.828857 F1100.000000
G02 X23.841193 Y68.639801 Z-0.125000 I-0.372707 J0.660849
G02 X23.140009 Y69.098915 Z-0.125000 I0.112377 J0.936627
G02 X23.149882 Y69.817613 Z-0.125000 I0.598351 J0.351197
G03 X23.246692 Y70.221830 Z-0.125000 I-0.555027 J0.346631
G03 X23.080579 Y70.602117 Z-0.125000 I-0.649773 J-0.057403
G02 X23.136129 Y71.625904 Z-0.125000 I0.535213 J0.484360
G02 X24.413177 Y71.787069 Z-0.125000 I0.755988 J-0.850179
G02 X25.762308 Y70.849213 Z-0.125000 I-2.864513 J-5.559981
G02 X25.978121 Y70.360442 Z-0.125000 I-0.445576 J-0.488771
G02 X25.927061 Y70.219395 Z-0.125000 I-0.220341 J-0.000000
G02 X25.167910 Y69.388037 Z-0.125000 I-9.535818 J7.945297
G01 X25.167893 Y69.388037 Z-0.125000
G00 Z5.000000

(End cutting path id: rect4831)


(Start cutting path id: rect4831)
(Change tool to Cylindrical cutter)

G00 Z5.000000
G00 X27.090651 Y73.203757

G01 Z-0.125000 F1000.0(Penetrate)
G02 X26.758298 Y73.026692 Z-0.125000 I-0.595795 J0.717864 F1100.000000
G02 X26.133252 Y72.921916 Z-0.125000 I-0.746258 J2.535077
G01 X25.479282 Y72.891902 Z-0.125000
G01 X25.479282 Y73.889546 Z-0.125000
G02 X25.651311 Y74.737874 Z-0.125000 I2.177699 J0.000000
G02 X25.928221 Y74.950958 Z-0.125000 I0.326808 J-0.138228
G02 X26.270502 Y74.891823 Z-0.125000 I0.079484 J-0.560081
G02 X26.377163 Y74.715421 Z-0.125000 I-0.092540 J-0.176401
G03 X26.478180 Y74.503814 Z-0.125000 I0.272142 J-0.000000
G03 X26.826110 Y74.352371 Z-0.125000 I0.448122 J0.554134
G02 X27.324229 Y73.895021 Z-0.125000 I-0.083994 J-0.591418
G02 X27.090651 Y73.203757 Z-0.125000 I-0.677729 J-0.156090
G01 X27.090651 Y73.203757 Z-0.125000
G00 Z5.000000

(End cutting path id: rect4831)


(Start cutting path id: rect4831)
(Change tool to Cylindrical cutter)

G00 Z5.000000
G00 X24.286770 Y79.297412

G01 Z-0.125000 F1000.0(Penetrate)
G02 X23.511674 Y78.381096 Z-0.125000 I-1.605658 J0.572221 F1100.000000
G02 X22.614639 Y78.364411 Z-0.125000 I-0.464146 J0.831845
G02 X21.473903 Y79.347483 Z-0.125000 I1.442104 J2.826765
G02 X21.224772 Y80.311487 Z-0.125000 I1.129128 J0.805999
G02 X21.695033 Y80.911743 Z-0.125000 I0.724166 J-0.082999
G02 X22.480533 Y80.778145 Z-0.125000 I0.277228 J-0.746018
G03 X22.694840 Y80.747853 Z-0.125000 I0.131729 J0.158720
G03 X22.878819 Y80.952152 Z-0.125000 I-0.133243 J0.304980
G02 X23.466222 Y81.461450 Z-0.125000 I0.709823 J-0.225287
G02 X24.219833 Y81.175638 Z-0.125000 I0.131574 J-0.789516
G02 X24.472680 Y80.500094 Z-0.125000 I-0.884341 J-0.716087
G02 X24.286799 Y79.297412 Z-0.125000 I-3.237015 J-0.115408
G01 X24.286770 Y79.297412 Z-0.125000
G00 Z5.000000

(End cutting path id: rect4831)


(Start cutting path id: rect4831)
(Change tool to Cylindrical cutter)

G00 Z5.000000
G00 X26.925873 Y86.743741

G01 Z-0.125000 F1000.0(Penetrate)
G02 X25.747863 Y85.938372 Z-0.125000 I-1.819178 J1.396684 F1100.000000
G02 X24.890525 Y86.151108 Z-0.125000 I-0.245687 J0.843796
G02 X23.872181 Y88.098581 Z-0.125000 I2.436881 J2.514244
G02 X24.396713 Y89.161536 Z-0.125000 I1.005168 J0.164881
G02 X24.757976 Y89.195587 Z-0.125000 I0.221193 J-0.413305
G02 X25.261376 Y88.890803 Z-0.125000 I-0.368395 J-1.176578
G03 X25.729657 Y88.658841 Z-0.125000 I0.577804 J0.577804
G03 X26.056211 Y88.783302 Z-0.125000 I0.048978 J0.362124
G02 X26.653006 Y89.075186 Z-0.125000 I0.636187 J-0.544713
G02 X27.260797 Y88.840014 Z-0.125000 I0.037906 J-0.805025
G02 X27.504636 Y88.087820 Z-0.125000 I-0.614984 J-0.614980
G02 X26.925873 Y86.743718 Z-0.125000 I-2.941595 J0.469979
G01 X26.925873 Y86.743741 Z-0.125000
G00 Z5.000000

(End cutting path id: rect4831)


(Start cutting path id: rect4831)
(Change tool to Cylindrical cutter)

G00 Z5.000000
G00 X28.834769 Y86.921346

G01 Z-0.125000 F1000.0(Penetrate)
G02 X28.792090 Y87.170485 Z-0.125000 I0.560675 J0.224272 F1100.000000
G02 X28.850545 Y87.303780 Z-0.125000 I0.199999 J-0.008243
G01 X28.912626 Y87.291045 Z-0.125000
G02 X28.955345 Y87.041900 Z-0.125000 I-0.560396 J-0.224322
G02 X28.896892 Y86.908605 Z-0.125000 I-0.199980 J0.008231
G01 X28.834800 Y86.921346 Z-0.125000
G01 X28.834769 Y86.921346 Z-0.125000
G00 Z5.000000

(End cutting path id: rect4831)


(Start cutting path id: rect4831)
(Change tool to Cylindrical cutter)

G00 Z5.000000
G00 X31.119013 Y89.503677

G01 Z-0.125000 F1000.0(Penetrate)
G02 X30.216207 Y88.800371 Z-0.125000 I-1.774935 J1.347314 F1100.000000
G02 X29.578994 Y88.848715 Z-0.125000 I-0.271931 J0.639387
G02 X29.173773 Y89.485795 Z-0.125000 I0.455613 J0.737210
G02 X29.379178 Y90.566627 Z-0.125000 I1.827698 J0.212592
G02 X29.864758 Y90.896216 Z-0.125000 I0.556969 J-0.298083
G02 X30.308291 Y90.672305 Z-0.125000 I0.051168 J-0.449884
G03 X30.512308 Y90.457883 Z-0.125000 I0.543902 J0.313237
G03 X30.850372 Y90.323129 Z-0.125000 I0.513902 J0.797817
G02 X31.204389 Y90.012517 Z-0.125000 I-0.085744 J-0.454777
G02 X31.119013 Y89.503677 Z-0.125000 I-0.527799 J-0.173026
G01 X31.119013 Y89.503677 Z-0.125000
G00 Z5.000000

(End cutting path id: rect4831)


(Start cutting path id: rect4831)
(Change tool to Cylindrical cutter)

G00 Z5.000000
G00 X32.425381 Y96.207375

G01 Z-0.125000 F1000.0(Penetrate)
G02 X31.845238 Y95.570266 Z-0.125000 I-0.750910 J0.101079 F1100.000000
G02 X29.593069 Y95.552168 Z-0.125000 I-1.166685 J5.043300
G02 X28.023075 Y96.347788 Z-0.125000 I0.723820 J3.375153
G02 X27.574356 Y97.347273 Z-0.125000 I0.888779 J0.999485
G02 X27.967424 Y98.203405 Z-0.125000 I1.128896 J-0.000000
G02 X28.903727 Y98.489836 Z-0.125000 I0.794890 J-0.924850
G03 X29.383492 Y98.607830 Z-0.125000 I0.081863 J0.701506
G03 X29.535606 Y98.920724 Z-0.125000 I-0.197305 J0.289342
G02 X30.486427 Y100.142344 Z-0.125000 I1.159741 J0.078176
G02 X32.036236 Y99.377614 Z-0.125000 I0.260381 J-1.425102
G02 X32.436266 Y98.073934 Z-0.125000 I-3.474075 J-1.779224
G02 X32.425381 Y96.207375 Z-0.125000 I-7.258538 J-0.890982
G01 X32.425381 Y96.207375 Z-0.125000
G00 Z5.000000

(End cutting path id: rect4831)


(Start cutting path id: rect4831)
(Change tool to Cylindrical cutter)

G00 Z5.000000
G00 X42.106743 Y99.429376

G01 Z-0.125000 F1000.0(Penetrate)
G02 X41.264796 Y98.343806 Z-0.125000 I-3.906760 J2.160725 F1100.000000
G02 X40.733007 Y98.132435 Z-0.125000 I-0.531789 J0.563279
G02 X40.151353 Y98.456212 Z-0.125000 I-0.000000 J0.684349
G02 X40.130767 Y99.103931 Z-0.125000 I0.551220 J0.341706
G03 X40.152317 Y99.424445 Z-0.125000 I-0.344003 J0.184110
G03 X39.933488 Y99.632638 Z-0.125000 I-0.323184 J-0.120593
G02 X39.666582 Y99.855821 Z-0.125000 I0.138730 J0.437098
G02 X39.584452 Y100.294506 Z-0.125000 I0.667463 J0.351991
G02 X39.799638 Y100.667355 Z-0.125000 I0.538539 J-0.062291
G02 X40.382179 Y100.887296 Z-0.125000 I0.676514 J-0.910393
G02 X41.967263 Y100.637602 Z-0.125000 I0.280653 J-3.374363
G02 X42.333523 Y100.072724 Z-0.125000 I-0.229633 J-0.550069
G02 X42.290639 Y99.838486 Z-0.125000 I-0.753698 J0.016940
G02 X42.106743 Y99.429376 Z-0.125000 I-2.557679 J0.903797
G01 X42.106743 Y99.429376 Z-0.125000
G00 Z5.000000

(End cutting path id: rect4831)


(Start cutting path id: rect4831)
(Change tool to Cylindrical cutter)

G00 Z5.000000
G00 X42.505215 Y91.574378

G01 Z-0.125000 F1000.0(Penetrate)
G02 X42.128440 Y90.967616 Z-0.125000 I-1.068775 J0.243305 F1100.000000
G02 X41.579659 Y90.820929 Z-0.125000 I-0.437721 J0.537705
G02 X39.853216 Y92.079071 Z-0.125000 I0.378619 J2.333146
G02 X40.444175 Y93.044417 Z-0.125000 I0.590959 J0.301788
G03 X40.903653 Y93.176241 Z-0.125000 I0.000000 J0.866677
G03 X41.162182 Y93.493365 Z-0.125000 I-0.336622 J0.538367
G02 X41.404903 Y93.833228 Z-0.125000 I0.749475 J-0.278651
G02 X41.710145 Y93.942304 Z-0.125000 I0.305241 J-0.372560
G02 X42.411869 Y93.437695 Z-0.125000 I0.000000 J-0.740225
G02 X42.505215 Y91.574378 Z-0.125000 I-3.269499 J-1.097788
G01 X42.505215 Y91.574378 Z-0.125000
G00 Z5.000000

(End cutting path id: rect4831)


(Start cutting path id: rect4831)
(Change tool to Cylindrical cutter)

G00 Z5.000000
G00 X42.597536 Y88.307907

G01 Z-0.125000 F1000.0(Penetrate)
G02 X42.555803 Y88.757717 Z-0.125000 I2.278760 J0.438262 F1100.000000
G02 X42.601318 Y89.106034 Z-0.125000 I1.409238 J-0.007013
G01 X42.646379 Y89.104547 Z-0.125000
G02 X42.688095 Y88.654761 Z-0.125000 I-2.278056 J-0.438108
G02 X42.642359 Y88.306421 Z-0.125000 I-1.404411 J0.007223
G01 X42.597293 Y88.307907 Z-0.125000
G01 X42.597536 Y88.307907 Z-0.125000
G00 Z5.000000

(End cutting path id: rect4831)


(Start cutting path id: rect4831)
(Change tool to Cylindrical cutter)

G00 Z5.000000
G00 X44.135339 Y87.856645

G01 Z-0.125000 F1000.0(Penetrate)
G02 X43.236451 Y88.172633 Z-0.125000 I-0.239603 J0.754928 F1100.000000
G02 X43.287341 Y89.130331 Z-0.125000 I0.667949 J0.444708
G02 X43.733616 Y89.259611 Z-0.125000 I0.318586 J-0.264848
G02 X44.284991 Y88.807118 Z-0.125000 I-0.300939 J-0.928882
G02 X44.399785 Y88.164424 Z-0.125000 I-0.871926 J-0.487337
G02 X44.135339 Y87.856645 Z-0.125000 I-0.381180 J0.060016
G01 X44.135339 Y87.856645 Z-0.125000
G00 Z5.000000

(End cutting path id: rect4831)


(Start cutting path id: rect4831)
(Change tool to Cylindrical cutter)

G00 Z5.000000
G00 X40.368477 Y85.467586

G01 Z-0.125000 F1000.0(Penetrate)
G02 X38.878498 Y85.515271 Z-0.125000 I-0.650906 J2.963605 F1100.000000
G02 X38.273175 Y86.070528 Z-0.125000 I0.254751 J0.885301
G02 X38.344205 Y86.675650 Z-0.125000 I0.612086 J0.234882
G02 X38.880980 Y86.958758 Z-0.125000 I0.536775 J-0.367310
G03 X39.215623 Y87.044960 Z-0.125000 I0.000000 J0.692654
G03 X39.245811 Y87.160072 Z-0.125000 I-0.039687 J0.071922
G02 X39.218668 Y87.827924 Z-0.125000 I0.579307 J0.358023
G02 X39.754584 Y88.155936 Z-0.125000 I0.535917 J-0.273795
G02 X40.358356 Y87.825356 Z-0.125000 I-0.000000 J-0.716654
G02 X40.884580 Y86.388779 Z-0.125000 I-2.982665 J-1.907229
G02 X40.764809 Y85.761540 Z-0.125000 I-0.999942 J-0.134117
G02 X40.368477 Y85.467586 Z-0.125000 I-0.525570 J0.294454
G01 X40.368477 Y85.467586 Z-0.125000
G00 Z5.000000

(End cutting path id: rect4831)


(Start cutting path id: rect4831)
(Change tool to Cylindrical cutter)

G00 Z5.000000
G00 X43.445261 Y74.319574

G01 Z-0.125000 F1000.0(Penetrate)
G02 X42.580139 Y72.946262 Z-0.125000 I-3.508253 J1.250885 F1100.000000
G02 X41.730651 Y72.592602 Z-0.125000 I-0.849488 J0.843403
G02 X41.014192 Y72.957277 Z-0.125000 I0.000000 J0.886133
G02 X40.691613 Y74.020192 Z-0.125000 I1.367782 J0.995508
G03 X40.556229 Y74.589214 Z-0.125000 I-1.081954 J0.043193
G03 X40.324360 Y74.681343 Z-0.125000 I-0.172258 J-0.095691
G02 X39.200724 Y75.105735 Z-0.125000 I-0.293132 J0.923579
G02 X39.163174 Y76.613213 Z-0.125000 I1.309032 J0.786814
G02 X40.259554 Y77.437780 Z-0.125000 I1.436435 J-0.768766
G02 X43.112775 Y77.456146 Z-0.125000 I1.471037 J-6.892565
G02 X43.512267 Y77.149228 Z-0.125000 I-0.111800 J-0.558976
G02 X43.727548 Y76.209088 Z-0.125000 I-1.873981 J-0.923838
G02 X43.640963 Y75.100518 Z-0.125000 I-7.877706 J0.057625
G02 X43.445261 Y74.319574 Z-0.125000 I-4.112357 J0.615549
G01 X43.445261 Y74.319574 Z-0.125000
G00 Z5.000000

(End cutting path id: rect4831)


(Start cutting path id: rect4831)
(Change tool to Cylindrical cutter)

G00 Z5.000000
G00 X34.360838 Y72.887694

G01 Z-0.125000 F1000.0(Penetrate)
G02 X33.714948 Y70.778743 Z-0.125000 I-7.242416 J1.064692 F1100.000000
G02 X32.974131 Y70.005389 Z-0.125000 I-1.555099 J0.748171
G02 X31.485409 Y70.122388 Z-0.125000 I-0.653060 J1.220239
G02 X31.112418 Y71.415566 Z-0.125000 I0.678814 J0.896171
G03 X31.072423 Y71.815397 Z-0.125000 I-0.422869 J0.159617
G03 X30.749503 Y71.994012 Z-0.125000 I-0.322921 J-0.202599
G02 X29.729646 Y72.353536 Z-0.125000 I0.000000 J1.626266
G02 X29.370127 Y73.104542 Z-0.125000 I0.604636 J0.751006
G02 X29.966212 Y74.192387 Z-0.125000 I1.290692 J0.000000
G02 X32.003989 Y74.786316 Z-0.125000 I2.033790 J-3.185177
G02 X34.279805 Y74.494419 Z-0.125000 I-0.009942 J-9.095344
G02 X34.533013 Y74.129584 Z-0.125000 I-0.085604 J-0.329697
G02 X34.503981 Y73.890065 Z-0.125000 I-7.017255 J0.729058
G02 X34.360838 Y72.887694 Z-0.125000 I-121.684830 J16.865675
G01 X34.360838 Y72.887694 Z-0.125000
G00 Z5.000000

(End cutting path id: rect4831)


(Start cutting path id: rect4831)
(Change tool to Cylindrical cutter)

G00 Z5.000000
G00 X52.170717 Y78.338884

G01 Z-0.125000 F1000.0(Penetrate)
G02 X51.135569 Y77.392246 Z-0.125000 I-2.195996 J1.362035 F1100.000000
G02 X48.663313 Y76.575271 Z-0.125000 I-3.999838 J7.954803
G02 X47.323639 Y76.394471 Z-0.125000 I-3.031515 J17.408834
G02 X47.209532 Y76.435447 Z-0.125000 I-0.013607 J0.141471
G02 X47.145078 Y76.549221 Z-0.125000 I0.173349 J0.173349
G02 X46.796404 Y78.084472 Z-0.125000 I34.484220 J8.638995
G02 X46.949487 Y81.349034 Z-0.125000 I6.522114 J1.330033
G02 X48.178187 Y82.633775 Z-0.125000 I1.884537 J-0.572409
G02 X49.486841 Y82.299549 Z-0.125000 I0.404481 J-1.145380
G02 X49.860135 Y80.758959 Z-0.125000 I-1.245420 J-1.117294
G03 X49.911385 Y80.529868 Z-0.125000 I0.247877 J-0.064825
G03 X50.085913 Y80.488678 Z-0.125000 I0.114749 J0.095864
G02 X51.348122 Y80.708554 Z-0.125000 I1.082749 J-2.482747
G02 X52.091181 Y80.355514 Z-0.125000 I-0.073987 J-1.114217
G02 X52.465570 Y79.456813 Z-0.125000 I-1.023838 J-0.953853
G02 X52.170717 Y78.338884 Z-0.125000 I-1.971836 J-0.077778
G01 X52.170717 Y78.338884 Z-0.125000
G00 Z5.000000

(End cutting path id: rect4831)


(Start cutting path id: rect4831)
(Change tool to Cylindrical cutter)

G00 Z5.000000
G00 X59.122799 Y73.427469

G01 Z-0.125000 F1000.0(Penetrate)
G02 X57.752806 Y73.026024 Z-0.125000 I-1.554028 J2.764976 F1100.000000
G02 X57.019269 Y73.305208 Z-0.125000 I-0.055627 J0.957093
G02 X56.830551 Y73.807865 Z-0.125000 I0.459147 J0.459138
G02 X57.087443 Y74.320065 Z-0.125000 I0.737895 J-0.049567
G03 X57.329468 Y74.698049 Z-0.125000 I-0.505089 J0.589888
G03 X57.363981 Y75.295089 Z-0.125000 I-1.326348 J0.376190
G02 X57.423443 Y75.842045 Z-0.125000 I1.021111 J0.165701
G02 X57.673077 Y76.074762 Z-0.125000 I0.370062 J-0.146715
G02 X58.079071 Y76.116474 Z-0.125000 I0.303321 J-0.955617
G02 X58.490138 Y75.990685 Z-0.125000 I-0.113961 J-1.106971
G02 X59.580368 Y75.046732 Z-0.125000 I-1.543710 J-2.884490
G02 X59.898196 Y74.079504 Z-0.125000 I-1.312843 J-0.967228
G02 X59.819066 Y73.909572 Z-0.125000 I-0.222031 J-0.000000
G02 X59.122790 Y73.427469 Z-0.125000 I-2.916108 J3.467735
G01 X59.122799 Y73.427469 Z-0.125000
G00 Z5.000000

(End cutting path id: rect4831)


(Start cutting path id: rect4831)
(Change tool to Cylindrical cutter)

G00 Z5.000000
G00 X54.879683 Y87.239346

G01 Z-0.125000 F1000.0(Penetrate)
G02 X54.672941 Y87.216468 Z-0.125000 I-0.127458 J0.206232 F1100.000000
G02 X54.430747 Y87.394735 Z-0.125000 I0.165666 J0.478732
G03 X54.182943 Y87.601199 Z-0.125000 I-0.543765 J-0.400698
G03 X53.980470 Y87.614210 Z-0.125000 I-0.117091 J-0.240212
G02 X53.665007 Y87.730453 Z-0.125000 I-0.085599 J0.253875
G02 X53.623337 Y88.210670 Z-0.125000 I0.472506 J0.282918
G02 X54.236331 Y88.879529 Z-0.125000 I1.155033 J-0.443234
G02 X54.924910 Y88.845052 Z-0.125000 I0.312999 J-0.642174
G02 X55.350280 Y88.056192 Z-0.125000 I-0.471957 J-0.763604
G02 X54.879661 Y87.239346 Z-0.125000 I-0.992697 J0.027940
G01 X54.879683 Y87.239346 Z-0.125000
G00 Z5.000000

(End cutting path id: rect4831)


(Start cutting path id: rect4831)
(Change tool to Cylindrical cutter)

G00 Z5.000000
G00 X54.976463 Y89.286608

G01 Z-0.125000 F1000.0(Penetrate)
G02 X54.254207 Y89.018597 Z-0.125000 I-0.653255 J0.653240 F1100.000000
G02 X52.708110 Y89.456515 Z-0.125000 I0.300206 J4.008156
G02 X51.976538 Y90.341231 Z-0.125000 I0.672905 J1.301253
G02 X52.226289 Y91.081101 Z-0.125000 I0.649839 J0.192728
G02 X52.609994 Y91.255054 Z-0.125000 I0.608657 J-0.832411
G02 X52.939953 Y91.240625 Z-0.125000 I0.138249 J-0.618482
G03 X53.173939 Y91.303236 Z-0.125000 I0.068024 J0.214308
G03 X53.349475 Y91.688630 Z-0.125000 I-0.507384 J0.463770
G02 X53.921145 Y92.284130 Z-0.125000 I0.676929 J-0.077693
G02 X54.790893 Y91.914001 Z-0.125000 I0.138008 J-0.882655
G02 X55.359191 Y90.311341 Z-0.125000 I-2.608480 J-1.827045
G02 X54.976463 Y89.286608 Z-0.125000 I-1.314588 J-0.092853
G01 X54.976463 Y89.286608 Z-0.125000
G00 Z5.000000

(End cutting path id: rect4831)


(Start cutting path id: rect4831)
(Change tool to Cylindrical cutter)

G00 Z5.000000
G00 X53.263837 Y102.074972

G01 Z-0.125000 F1000.0(Penetrate)
G02 X52.122685 Y101.603699 Z-0.125000 I-1.813614 J2.774288 F1100.000000
G02 X51.608141 Y101.731920 Z-0.125000 I-0.124051 J0.598719
G02 X51.325105 Y102.359363 Z-0.125000 I0.500833 J0.603482
G02 X51.643359 Y102.883626 Z-0.125000 I0.622275 J-0.019022
G03 X51.793757 Y103.069241 Z-0.125000 I-0.157420 J0.281291
G03 X51.743122 Y103.204606 Z-0.125000 I-0.112651 J0.035014
G02 X51.480027 Y103.730282 Z-0.125000 I0.294115 J0.475878
G02 X51.831717 Y104.196036 Z-0.125000 I0.549258 J-0.049087
G02 X53.068144 Y104.003885 Z-0.125000 I0.450637 J-1.174376
G02 X53.708357 Y102.694687 Z-0.125000 I-1.065918 J-1.332381
G02 X53.621106 Y102.417210 Z-0.125000 I-0.466188 J-0.005866
G02 X53.263860 Y102.074972 Z-0.125000 I-1.093222 J0.783588
G01 X53.263837 Y102.074972 Z-0.125000
G00 Z5.000000

(End cutting path id: rect4831)


(Start cutting path id: rect4831)
(Change tool to Cylindrical cutter)

G00 Z5.000000
G00 X37.180201 Y115.808383

G01 Z-0.125000 F1000.0(Penetrate)
G02 X36.546325 Y115.720434 Z-0.125000 I-0.416561 J0.674037 F1100.000000
G02 X35.436452 Y116.305701 Z-0.125000 I0.835400 J2.929202
G02 X35.281407 Y116.966657 Z-0.125000 I0.359326 J0.432952
G02 X35.880619 Y117.307733 Z-0.125000 I0.530539 J-0.235171
G03 X36.044835 Y117.370503 Z-0.125000 I0.022391 J0.187616
G03 X36.211112 Y117.683154 Z-0.125000 I-0.575529 J0.506625
G02 X36.704898 Y118.098994 Z-0.125000 I0.541181 J-0.141530
G02 X37.230214 Y117.769810 Z-0.125000 I0.043707 J-0.513997
G02 X37.478442 Y116.327637 Z-0.125000 I-3.508562 J-1.346346
G02 X37.180215 Y115.808383 Z-0.125000 I-0.629100 J0.016047
G01 X37.180201 Y115.808383 Z-0.125000
G00 Z5.000000

(End cutting path id: rect4831)


(Start cutting path id: rect4831)
(Change tool to Cylindrical cutter)

G00 Z5.000000
G00 X32.429896 Y109.439124

G01 Z-0.125000 F1000.0(Penetrate)
G02 X31.939855 Y109.279817 Z-0.125000 I-0.401414 J0.401429 F1100.000000
G02 X31.363895 Y109.607610 Z-0.125000 I0.146592 J0.927476
G03 X31.119575 Y109.716574 Z-0.125000 I-0.232520 J-0.192969
G03 X30.879345 Y109.588673 Z-0.125000 I0.012213 J-0.312496
G02 X30.597745 Y109.380149 Z-0.125000 I-0.475436 J0.347644
G02 X30.157372 Y109.337050 Z-0.125000 I-0.309094 J0.886869
G02 X29.478235 Y110.332553 Z-0.125000 I0.113926 J0.807128
G02 X30.832801 Y112.180577 Z-0.125000 I2.866980 J-0.680994
G02 X32.722244 Y111.693772 Z-0.125000 I0.704093 J-1.177357
G02 X32.429896 Y109.439138 Z-0.125000 I-1.609394 J-0.937588
G01 X32.429896 Y109.439124 Z-0.125000
G00 Z5.000000

(End cutting path id: rect4831)


(Start cutting path id: rect4831)
(Change tool to Cylindrical cutter)

G00 Z5.000000
G00 X25.751454 Y116.298281

G01 Z-0.125000 F1000.0(Penetrate)
G02 X25.057310 Y115.936053 Z-0.125000 I-2.937205 J4.782402 F1100.000000
G02 X24.063231 Y115.562211 Z-0.125000 I-4.127268 J9.466199
G02 X22.509246 Y115.490599 Z-0.125000 I-0.910399 J2.859095
G02 X21.538595 Y116.116626 Z-0.125000 I0.354788 J1.615605
G02 X21.328342 Y116.634299 Z-0.125000 I0.885665 J0.661246
G02 X21.404308 Y117.141643 Z-0.125000 I0.923844 J0.121029
G02 X21.725932 Y117.576051 Z-0.125000 I1.180917 J-0.538053
G02 X22.229477 Y117.870789 Z-0.125000 I1.001320 J-1.133194
G03 X22.540383 Y118.163864 Z-0.125000 I-0.172279 J0.494209
G03 X22.501265 Y118.523705 Z-0.125000 I-0.346771 J0.144350
G02 X22.155240 Y119.542977 Z-0.125000 I1.574696 J1.102952
G02 X22.426454 Y120.240344 Z-0.125000 I0.928192 J0.040439
G02 X23.238840 Y120.559370 Z-0.125000 I0.772001 J-0.772001
G02 X24.478153 Y120.164404 Z-0.125000 I-0.089699 J-2.423276
G02 X25.618166 Y119.014510 Z-0.125000 I-2.131704 J-3.253441
G02 X26.297971 Y117.334005 Z-0.125000 I-4.100877 J-2.636657
G02 X26.220327 Y116.798798 Z-0.125000 I-0.791809 J-0.158366
G02 X25.751437 Y116.298281 Z-0.125000 I-1.148470 J0.606011
G01 X25.751454 Y116.298281 Z-0.125000
G00 Z5.000000

(End cutting path id: rect4831)


(Start cutting path id: rect4831)
(Change tool to Cylindrical cutter)

G00 Z5.000000
G00 X23.083390 Y103.340101

G01 Z-0.125000 F1000.0(Penetrate)
G02 X21.534439 Y102.329864 Z-0.125000 I-3.774855 J4.095227 F1100.000000
G02 X20.544172 Y102.233039 Z-0.125000 I-0.644379 J1.477985
G02 X19.742811 Y103.136449 Z-0.125000 I0.220160 J1.002415
G02 X20.343831 Y104.300052 Z-0.125000 I1.201461 J0.116446
G03 X20.440107 Y104.511200 Z-0.125000 I-0.099008 J0.172668
G03 X20.241621 Y104.818734 Z-0.125000 I-0.485810 J-0.095728
G02 X19.748398 Y105.643686 Z-0.125000 I0.695010 J0.975453
G02 X20.032111 Y106.472779 Z-0.125000 I0.987700 J0.125102
G02 X20.926961 Y106.775920 Z-0.125000 I0.754298 J-0.754297
G02 X22.514038 Y106.142890 Z-0.125000 I-0.459698 J-3.458519
G02 X23.762591 Y104.966520 Z-0.125000 I-3.919536 J-5.410811
G02 X23.982803 Y104.350293 Z-0.125000 I-0.752099 J-0.616227
G02 X23.923708 Y104.195052 Z-0.125000 I-0.233457 J0.000000
G02 X23.083390 Y103.340101 Z-0.125000 I-9.081460 J8.085592
G01 X23.083390 Y103.340101 Z-0.125000
G00 Z5.000000

(End cutting path id: rect4831)


(Start cutting path id: rect4831)
(Change tool to Cylindrical cutter)

G00 Z5.000000
G00 X16.951247 Y93.336280

G01 Z-0.125000 F1000.0(Penetrate)
G02 X15.759804 Y92.685009 Z-0.125000 I-1.223289 J0.822443 F1100.000000
G02 X15.380885 Y93.302343 Z-0.125000 I-0.009063 J0.419394
G03 X15.438673 Y93.644566 Z-0.125000 I-0.480416 J0.257114
G03 X15.299605 Y93.816320 Z-0.125000 I-0.218213 J-0.034507
G02 X15.038432 Y94.189471 Z-0.125000 I0.145851 J0.380057
G02 X15.284224 Y94.724579 Z-0.125000 I0.680253 J0.011543
G02 X15.869308 Y94.869665 Z-0.125000 I0.442849 J-0.533599
G02 X16.958150 Y94.373766 Z-0.125000 I-0.560322 J-2.673626
G01 X17.415815 Y94.027191 Z-0.125000
G01 X16.951295 Y93.336272 Z-0.125000
G01 X16.951247 Y93.336280 Z-0.125000
G00 Z5.000000

(End cutting path id: rect4831)


(Start cutting path id: rect4831)
(Change tool to Cylindrical cutter)

G00 Z5.000000
G00 X8.628342 Y63.376599

G01 Z-0.125000 F1000.0(Penetrate)
G02 X7.785026 Y62.745177 Z-0.125000 I-2.618931 J2.618929 F1100.000000
G02 X7.301642 Y62.651835 Z-0.125000 I-0.387775 J0.709841
G02 X6.626137 Y63.124807 Z-0.125000 I0.103112 J0.866136
G02 X6.718142 Y63.807386 Z-0.125000 I0.543172 J0.274276
G03 X6.850264 Y64.196332 Z-0.125000 I-0.383716 J0.347259
G03 X6.659846 Y64.528734 Z-0.125000 I-0.448628 J-0.036256
G02 X6.330839 Y65.096495 Z-0.125000 I0.447058 J0.638270
G02 X6.552616 Y65.709007 Z-0.125000 I0.764807 J0.069486
G02 X6.915707 Y65.911826 Z-0.125000 I0.539623 J-0.539630
G02 X7.400620 Y65.910638 Z-0.125000 I0.239985 J-1.009317
G02 X9.072906 Y65.150140 Z-0.125000 I-1.157374 J-4.763864
G02 X9.417115 Y64.485334 Z-0.125000 I-0.469898 J-0.664806
G02 X9.326862 Y64.202785 Z-0.125000 I-0.487404 J0.000000
G02 X8.628319 Y63.376599 Z-0.125000 I-5.284185 J3.759390
G01 X8.628342 Y63.376599 Z-0.125000
G00 Z5.000000

(End cutting path id: rect4831)


(Start cutting path id: rect4831)
(Change tool to Cylindrical cutter)

G00 Z5.000000
G00 X21.238596 Y46.048959

G01 Z-0.125000 F1000.0(Penetrate)
G02 X19.332026 Y44.117594 Z-0.125000 I-6.608315 J4.616749 F1100.000000
G02 X17.912565 Y43.660769 Z-0.125000 I-1.419461 J1.976881
G02 X16.895337 Y43.978567 Z-0.125000 I0.000000 J1.786902
G02 X16.326684 Y44.758853 Z-0.125000 I0.834936 J1.205834
G02 X16.437459 Y45.990742 Z-0.125000 I1.579516 J0.478890
G02 X17.195862 Y46.454187 Z-0.125000 I0.758403 J-0.388821
G03 X17.285298 Y46.622165 Z-0.125000 I0.000000 J0.107798
G03 X16.820894 Y47.011430 Z-0.125000 I-0.906795 J-0.610178
G02 X15.975127 Y47.866317 Z-0.125000 I0.666086 J1.504795
G02 X16.017499 Y48.880325 Z-0.125000 I1.076809 J0.462894
G02 X16.303488 Y49.315902 Z-0.125000 I2.517838 J-1.341476
G02 X16.582913 Y49.590438 Z-0.125000 I1.261235 J-1.004226
G02 X17.551976 Y49.876211 Z-0.125000 I0.855109 J-1.113751
G02 X19.350379 Y49.365101 Z-0.125000 I-0.390224 J-4.792551
G02 X21.709395 Y47.846852 Z-0.125000 I-6.440255 J-12.598517
G02 X21.987514 Y47.270837 Z-0.125000 I-0.457436 J-0.576015
G02 X21.948678 Y47.133158 Z-0.125000 I-0.263462 J0.000000
G02 X21.238596 Y46.048959 Z-0.125000 I-18.437318 J11.300647
G01 X21.238596 Y46.048959 Z-0.125000
G00 Z5.000000

(End cutting path id: rect4831)


(Start cutting path id: rect4831)
(Change tool to Cylindrical cutter)

G00 Z5.000000
G00 X26.507950 Y2.856905

G01 Z-0.125000 F1000.0(Penetrate)
G02 X25.749120 Y1.799104 Z-0.125000 I-3.197390 J1.492618 F1100.000000
G02 X24.857163 Y1.278518 Z-0.125000 I-1.534715 J1.605113
G02 X23.371355 Y1.646642 Z-0.125000 I-0.433393 J1.433297
G02 X22.586843 Y3.521651 Z-0.125000 I1.855473 J1.877964
G01 X22.585997 Y4.186397 Z-0.125000
G01 X21.913975 Y3.771065 Z-0.125000
G02 X20.515347 Y3.423265 Z-0.125000 I-1.242481 J2.010371
G02 X19.378172 Y3.938973 Z-0.125000 I0.117207 J1.770084
G02 X18.998463 Y6.048574 Z-0.125000 I1.327992 J1.327999
G02 X21.573486 Y8.735458 Z-0.125000 I5.147757 J-2.356091
G02 X24.745380 Y9.965174 Z-0.125000 I7.599420 J-14.896124
G02 X25.410863 Y9.789047 Z-0.125000 I0.181293 J-0.660302
G02 X25.526923 Y9.619410 Z-0.125000 I-0.394129 J-0.394169
G02 X26.090846 Y8.243982 Z-0.125000 I-26.691858 J-11.746936
G02 X26.861656 Y4.803983 Z-0.125000 I-11.545365 J-4.393361
G02 X26.507848 Y2.856905 Z-0.125000 I-3.881164 J-0.300430
G01 X26.507950 Y2.856905 Z-0.125000
G00 Z5.000000

(End cutting path id: rect4831)


(Start cutting path id: rect4831)
(Change tool to Cylindrical cutter)

G00 Z5.000000
G00 X77.830449 Y53.041296

G01 Z-0.125000 F1000.0(Penetrate)
G03 X76.831762 Y54.038310 Z-0.125000 I-2.271577 J-1.276702 F1100.000000
G03 X75.905061 Y54.119185 Z-0.125000 I-0.553104 J-0.987988
G03 X75.514364 Y53.811191 Z-0.125000 I0.252312 J-0.721865
G03 X75.299463 Y53.178296 Z-0.125000 I1.160601 J-0.747017
G03 X75.453150 Y52.501959 Z-0.125000 I1.146255 J-0.095160
G03 X76.596407 Y50.963215 Z-0.125000 I7.583733 J4.440484
G03 X77.690148 Y50.582370 Z-0.125000 I0.906090 J0.841213
G03 X78.240930 Y51.215736 Z-0.125000 I-0.098562 J0.641877
G03 X78.132442 Y52.254775 Z-0.125000 I-4.468564 J0.058614
G03 X77.830449 Y53.041296 Z-0.125000 I-2.836248 J-0.637770
G01 X77.830449 Y53.041296 Z-0.125000
G00 Z5.000000

(End cutting path id: rect4831)


(Start cutting path id: rect4831)
(Change tool to Cylindrical cutter)

G00 Z5.000000
G00 X81.649362 Y52.639615

G01 Z-0.125000 F1000.0(Penetrate)
G01 X80.250251 Y52.639615 Z-0.125000 F1100.000000
G01 X80.245735 Y51.691848 Z-0.125000
G02 X80.131092 Y50.381048 Z-0.125000 I-8.008745 J0.040036
G02 X79.766273 Y48.889743 Z-0.125000 I-10.750502 J1.839623
G03 X79.898417 Y48.643689 Z-0.125000 I0.184791 J-0.059268
G03 X81.182061 Y48.490683 Z-0.125000 I1.127924 J4.001654
G01 X82.744624 Y48.549247 Z-0.125000
G01 X82.853564 Y49.347369 Z-0.125000
G03 X82.937822 Y50.147598 Z-0.125000 I-13.001657 J1.773527
G03 X83.005612 Y51.392549 Z-0.125000 I-31.331597 J2.330365
G01 X83.048749 Y52.639615 Z-0.125000
G01 X81.649362 Y52.639615 Z-0.125000
G00 Z5.000000

(End cutting path id: rect4831)


(Start cutting path id: rect4831)
(Change tool to Cylindrical cutter)

G00 Z5.000000
G00 X81.861116 Y65.209999

G01 Z-0.125000 F1000.0(Penetrate)
G01 X80.499196 Y65.209999 Z-0.125000 F1100.000000
G01 X80.409441 Y64.127671 Z-0.125000
G02 X79.188530 Y61.049610 Z-0.125000 I-5.677555 J0.470832
G02 X76.903276 Y59.724686 Z-0.125000 I-2.836055 J2.258393
G03 X76.164949 Y59.588377 Z-0.125000 I1.893570 J-12.324410
G03 X75.661063 Y59.456493 Z-0.125000 I1.269405 J-5.878512
G02 X75.193111 Y59.467143 Z-0.125000 I-0.218017 J0.706556
G02 X74.393386 Y59.911813 Z-0.125000 I0.954962 J2.658941
G02 X73.382080 Y61.115546 Z-0.125000 I2.433598 J3.071254
G02 X73.067924 Y62.356789 Z-0.125000 I2.284940 J1.238691
G02 X73.490581 Y63.604481 Z-0.125000 I2.060580 J-0.002590
G02 X75.491662 Y65.531507 Z-0.125000 I7.279309 J-5.556549
G01 X77.157538 Y66.706468 Z-0.125000
G01 X75.461535 Y66.770191 Z-0.125000
G03 X73.765616 Y66.783605 Z-0.125000 I-1.073956 J-28.566390
G03 X68.577748 Y66.620453 Z-0.125000 I5.833489 J-268.054125
G02 X63.389323 Y66.438375 Z-0.125000 I-17.668020 J429.447490
G02 X61.195145 Y66.406009 Z-0.125000 I-2.229544 J76.755539
G01 X59.000320 Y66.405162 Z-0.125000
G01 X56.665397 Y60.570017 Z-0.125000
G03 X54.397883 Y54.711759 Z-0.125000 I257.367121 J-102.985187
G03 X53.825699 Y52.979109 Z-0.125000 I21.908861 J-8.195904
G03 X53.087743 Y48.945830 Z-0.125000 I19.938706 J-5.732271
G03 X53.463362 Y48.569401 Z-0.125000 I0.347791 J-0.028578
G02 X53.713165 Y48.579907 Z-0.125000 I0.263721 J-3.295227
G02 X65.309939 Y48.619286 Z-0.125000 I29.963870 J-7116.543293
G03 X74.439014 Y48.658024 Z-0.125000 I-7.088217 J2746.148899
G03 X75.998479 Y48.787901 Z-0.125000 I-0.059923 J10.146868
G03 X76.159123 Y49.269382 Z-0.125000 I-0.045717 J0.282793
G03 X75.072960 Y50.197620 Z-0.125000 I-5.303964 J-5.106755
G02 X72.378909 Y52.701335 Z-0.125000 I7.612882 J10.892911
G02 X71.869995 Y54.132768 Z-0.125000 I1.758654 J1.431434
G02 X72.212965 Y55.612123 Z-0.125000 I3.361983 J-0.000000
G02 X73.094484 Y56.631671 Z-0.125000 I2.378142 J-1.165320
G03 X73.743812 Y57.115172 Z-0.125000 I-5.798014 J8.464337
G03 X73.974647 Y57.342733 Z-0.125000 I-1.033117 J1.278842
G02 X74.226438 Y57.467076 Z-0.125000 I0.265801 J-0.221133
G02 X75.072065 Y57.387225 Z-0.125000 I0.128166 J-3.160257
G02 X78.293136 Y55.892747 Z-0.125000 I-1.972136 J-8.469018
G02 X79.773160 Y53.886837 Z-0.125000 I-2.559500 J-3.437440
G01 X80.144386 Y52.839293 Z-0.125000
G01 X81.583096 Y52.839293 Z-0.125000
G01 X83.021803 Y52.839293 Z-0.125000
G01 X83.098113 Y53.787066 Z-0.125000
G03 X83.144019 Y54.736139 Z-0.125000 I-14.765526 J1.189844
G03 X83.198728 Y59.972499 Z-0.125000 I-450.851528 J7.328931
G01 X83.223027 Y65.210157 Z-0.125000
G01 X81.861116 Y65.209999 Z-0.125000
G00 Z5.000000

(End cutting path id: rect4831)


(Start cutting path id: rect4831)
(Change tool to Cylindrical cutter)

G00 Z5.000000
G00 X82.965719 Y66.530424

G01 Z-0.125000 F1000.0(Penetrate)
G01 X82.938953 Y66.543585 Z-0.125000 F1100.000000
G03 X81.597080 Y66.657096 Z-0.125000 I-7.845385 J-84.755827
G03 X80.407503 Y66.590550 Z-0.125000 I-0.344850 J-4.501187
G03 X80.250251 Y66.400517 Z-0.125000 I0.036198 J-0.190033
G03 X80.606312 Y65.765590 Z-0.125000 I0.744129 J-0.000000
G03 X81.871634 Y65.409527 Z-0.125000 I1.265322 J2.070224
G01 X83.250801 Y65.409527 Z-0.125000
G01 X83.119169 Y65.958238 Z-0.125000
G03 X82.980728 Y66.503291 Z-0.125000 I-20.577196 J-4.936426
G03 X82.965719 Y66.530424 Z-0.125000 I-0.062175 J-0.016675
G01 X82.965719 Y66.530424 Z-0.125000
G00 Z5.000000

(End cutting path id: rect4831)


(Start cutting path id: rect4831)
(Change tool to Cylindrical cutter)

G00 Z5.000000
G00 X78.512792 Y66.263148

G01 Z-0.125000 F1000.0(Penetrate)
G03 X77.277837 Y66.406924 Z-0.125000 I-0.670493 J-0.383486 F1100.000000
G03 X76.038078 Y63.613759 Z-0.125000 I3.409981 J-3.185254
G03 X76.309768 Y62.575058 Z-0.125000 I1.604259 J-0.135263
G03 X76.985016 Y62.217049 Z-0.125000 I0.675248 J0.457796
G03 X77.725111 Y62.540698 Z-0.125000 I-0.000000 J1.008021
G03 X78.553336 Y63.913055 Z-0.125000 I-2.914337 J2.694916
G03 X78.778448 Y65.297253 Z-0.125000 I-3.724135 J1.316060
G03 X78.512764 Y66.263148 Z-0.125000 I-2.014983 J-0.034765
G01 X78.512792 Y66.263148 Z-0.125000
G00 Z5.000000

(End cutting path id: rect4831)


(Start cutting path id: rect4831)
(Change tool to Cylindrical cutter)

G00 Z5.000000
G00 X102.399186 Y17.622808

G01 Z-0.125000 F1000.0(Penetrate)
G02 X101.071591 Y17.298502 Z-0.125000 I-1.163157 J1.882050 F1100.000000
G02 X84.839441 Y18.931529 Z-0.125000 I23.432813 J314.409853
G02 X71.032951 Y21.461764 Z-0.125000 I16.029652 J126.400829
G02 X62.331008 Y24.353035 Z-0.125000 I12.733201 J52.864382
G03 X60.449749 Y25.001864 Z-0.125000 I-5.371825 J-12.523685
G03 X59.753402 Y25.036069 Z-0.125000 I-0.428430 J-1.616788
G03 X57.381102 Y24.190046 Z-0.125000 I1.116391 J-6.879478
G03 X51.353108 Y20.178813 Z-0.125000 I28.832425 J-49.863726
G02 X46.425272 Y17.490042 Z-0.125000 I-11.325469 J14.896594
G02 X40.942867 Y16.391521 Z-0.125000 I-6.346980 J17.446132
G02 X36.876386 Y16.569157 Z-0.125000 I-1.051689 J22.558575
G02 X33.273695 Y17.424587 Z-0.125000 I2.494962 J18.521873
G03 X31.059778 Y17.420366 Z-0.125000 I-1.100882 J-3.189551
G03 X28.414275 Y15.726585 Z-0.125000 I2.240768 J-6.412726
G01 X27.739843 Y15.028229 Z-0.125000
G01 X28.105933 Y15.688141 Z-0.125000
G02 X29.772824 Y17.969656 Z-0.125000 I9.950807 J-5.520452
G02 X30.585151 Y18.320476 Z-0.125000 I0.812326 J-0.765066
G03 X30.673155 Y18.483277 Z-0.125000 I0.000000 J0.105187
G03 X30.115894 Y19.037241 Z-0.125000 I-1.586461 J-1.038632
G03 X26.499277 Y20.148219 Z-0.125000 I-3.771885 J-5.836632
G03 X17.198803 Y19.325918 Z-0.125000 I-0.945603 J-42.311679
G02 X12.592348 Y18.647873 Z-0.125000 I-8.746169 J43.432595
G02 X10.591647 Y18.705844 Z-0.125000 I-0.764998 J8.151422
G02 X4.582409 Y22.146187 Z-0.125000 I1.450850 J9.502527
G02 X1.257405 Y30.192501 Z-0.125000 I11.793598 J9.583664
G02 X1.198337 Y33.866198 Z-0.125000 I21.462447 J2.182407
G02 X1.754412 Y37.364222 Z-0.125000 I19.996736 J-1.385634
G02 X2.111099 Y38.527419 Z-0.125000 I11.474911 J-2.882428
G02 X2.169018 Y38.564374 Z-0.125000 I0.053071 J-0.019311
G01 X2.206958 Y38.518346 Z-0.125000
G02 X2.017807 Y37.341531 Z-0.125000 I-11.130594 J1.185431
G03 X1.850282 Y36.169320 Z-0.125000 I8.195008 J-1.769255
G03 X1.756706 Y33.684287 Z-0.125000 I36.879032 J-2.632982
G03 X1.896063 Y31.213115 Z-0.125000 I20.526690 J-0.081955
G03 X2.224407 Y29.693687 Z-0.125000 I8.039858 J0.942201
G01 X2.702096 Y28.197215 Z-0.125000
G01 X2.965468 Y29.593921 Z-0.125000
G02 X5.298215 Y34.717672 Z-0.125000 I11.596217 J-2.186634
G02 X8.319721 Y36.378648 Z-0.125000 I3.474647 J-2.742062
G01 X9.317375 Y36.481323 Z-0.125000
G01 X8.419486 Y36.150624 Z-0.125000
G03 X5.923317 Y34.499262 Z-0.125000 I2.253536 J-6.118669
G03 X4.207572 Y31.672443 Z-0.125000 I5.797799 J-5.453085
G03 X3.903263 Y30.367292 Z-0.125000 I5.912039 J-2.066505
G03 X3.745281 Y27.897918 Z-0.125000 I21.192191 J-2.595538
G03 X3.908740 Y25.443110 Z-0.125000 I17.006890 J-0.100409
G03 X4.247351 Y24.306381 Z-0.125000 I3.913943 J0.547097
G03 X4.817596 Y23.243309 Z-0.125000 I10.453909 J4.923131
G03 X5.284633 Y22.593757 Z-0.125000 I4.346647 J2.632618
G03 X6.741523 Y21.427185 Z-0.125000 I3.705945 J3.135206
G03 X9.435705 Y20.423485 Z-0.125000 I5.337046 J10.208195
G03 X12.695646 Y20.062817 Z-0.125000 I3.109322 J13.190940
G03 X17.697631 Y20.515315 Z-0.125000 I-0.353181 J31.776724
G02 X21.286608 Y20.866264 Z-0.125000 I4.232657 J-24.758437
G02 X26.077886 Y20.730140 Z-0.125000 I1.137217 J-44.361802
G03 X28.058994 Y20.607239 Z-0.125000 I3.991102 J48.306110
G03 X28.159981 Y20.643729 Z-0.125000 I0.005882 J0.141711
G03 X28.168079 Y20.725445 Z-0.125000 I-0.040956 J0.045318
G03 X27.549295 Y21.466743 Z-0.125000 I-6.782655 J-5.032779
G02 X24.759058 Y25.006067 Z-0.125000 I19.335758 J18.112909
G02 X24.820520 Y25.609649 Z-0.125000 I0.400951 J0.264092
G01 X24.889560 Y25.607666 Z-0.125000
G02 X25.589828 Y24.746077 Z-0.125000 I-9.158174 J-8.158806
G03 X26.351528 Y23.874254 Z-0.125000 I5.758472 J4.262444
G03 X27.487940 Y22.898803 Z-0.125000 I8.361700 J8.591784
G03 X32.118165 Y20.309676 Z-0.125000 I11.707525 J15.502212
G03 X37.398633 Y19.021761 Z-0.125000 I7.429213 J18.990916
G03 X38.031864 Y19.022723 Z-0.125000 I0.312141 J2.945850
G01 X38.042751 Y19.091992 Z-0.125000
G02 X37.242811 Y20.160415 Z-0.125000 I0.560221 J1.253117
G02 X37.800269 Y20.877748 Z-0.125000 I0.630151 J0.085567
G03 X38.175778 Y21.095292 Z-0.125000 I-0.062145 J0.540129
G03 X38.348974 Y21.622179 Z-0.125000 I-0.714834 J0.526887
G02 X38.507978 Y22.179454 Z-0.125000 I1.056068 J0.000000
G02 X38.850390 Y22.429329 Z-0.125000 I0.479964 J-0.298163
G02 X39.906438 Y22.037246 Z-0.125000 I0.242332 J-0.965534
G02 X40.543805 Y20.026399 Z-0.125000 I-2.853357 J-2.010847
G02 X40.372733 Y19.284420 Z-0.125000 I-1.694603 J-0.000000
G02 X40.094863 Y19.104579 Z-0.125000 I-0.287869 J0.140196
G03 X39.656615 Y19.046074 Z-0.125000 I0.068029 J-2.180240
G03 X39.246858 Y18.902251 Z-0.125000 I0.488604 J-2.047670
G03 X39.342604 Y18.551149 Z-0.125000 I0.078852 J-0.167103
G03 X42.976247 Y19.244652 Z-0.125000 I-1.745612 J19.012300
G03 X45.450843 Y20.387018 Z-0.125000 I-2.623860 J8.935234
G03 X48.325470 Y22.744363 Z-0.125000 I-9.485387 J14.498188
G02 X51.956311 Y26.156723 Z-0.125000 I44.494332 J-43.705294
G02 X55.073020 Y28.596277 Z-0.125000 I25.783858 J-29.730081
G03 X56.436111 Y29.623283 Z-0.125000 I-15.416736 J21.879898
G03 X56.497548 Y29.742565 Z-0.125000 I-0.103704 J0.128876
G03 X56.458749 Y29.876026 Z-0.125000 I-0.209197 J0.011555
G03 X55.497888 Y31.139277 Z-0.125000 I-22.055759 J-15.779118
G02 X51.845819 Y36.751329 Z-0.125000 I25.418541 J20.535561
G02 X46.961445 Y47.768028 Z-0.125000 I94.168498 J48.341757
G03 X44.820523 Y53.056957 Z-0.125000 I-110.023517 J-41.458988
G03 X43.651509 Y55.406530 Z-0.125000 I-22.821313 J-9.888980
G03 X39.138853 Y61.250318 Z-0.125000 I-22.534827 J-12.737452
G03 X35.903891 Y62.921030 Z-0.125000 I-4.382460 J-4.518408
G03 X35.283894 Y62.821294 Z-0.125000 I-0.170281 J-0.918405
G03 X34.856361 Y62.345599 Z-0.125000 I0.466519 J-0.849257
G03 X34.659004 Y61.611026 Z-0.125000 I2.640171 J-1.103129
G03 X34.557905 Y60.047762 Z-0.125000 I12.035598 J-1.563264
G03 X35.442290 Y56.285130 Z-0.125000 I8.446287 J-0.000000
G03 X39.385762 Y50.345036 Z-0.125000 I25.731388 J12.803359
G02 X42.596749 Y46.317512 Z-0.125000 I-52.275030 J-44.970582
G02 X44.980615 Y42.762896 Z-0.125000 I-38.309535 J-28.268555
G02 X47.769089 Y37.948715 Z-0.125000 I-114.406401 J-69.481238
G02 X47.678035 Y37.874414 Z-0.125000 I-0.052295 J-0.028856
G02 X47.574316 Y37.986267 Z-0.125000 I0.424430 J0.497584
G02 X46.220787 Y39.869712 Z-0.125000 I122.058648 J89.144999
G03 X43.268816 Y43.730118 Z-0.125000 I-53.095212 J-37.541913
G03 X39.602447 Y47.885322 Z-0.125000 I-65.198329 J-53.833018
G03 X37.645082 Y49.924338 Z-0.125000 I-111.651766 J-105.221786
G03 X37.530479 Y50.004292 Z-0.125000 I-0.268054 J-0.262107
G03 X37.433138 Y49.983512 Z-0.125000 I-0.034472 J-0.076898
G03 X37.263350 Y49.705001 Z-0.125000 I0.674932 J-0.602468
G02 X37.103029 Y49.358330 Z-0.125000 I-2.665476 J1.022262
G02 X35.623681 Y46.704408 Z-0.125000 I-158.494510 J86.608714
G03 X34.127902 Y43.003197 Z-0.125000 I13.097635 J-7.446028
G03 X34.141424 Y40.928113 Z-0.125000 I3.943301 J-1.011891
G03 X35.143904 Y39.169591 Z-0.125000 I3.889490 J1.052277
G03 X37.777908 Y37.193026 Z-0.125000 I7.641293 J7.439576
G02 X39.218892 Y36.368724 Z-0.125000 I-12.630334 J-23.751080
G02 X39.979414 Y35.841853 Z-0.125000 I-4.370696 J-7.121294
G02 X41.367767 Y34.243763 Z-0.125000 I-3.367337 J-4.327517
G02 X41.726886 Y32.797110 Z-0.125000 I-2.357783 J-1.353199
G02 X41.639123 Y32.763624 Z-0.125000 I-0.050937 J0.001748
G02 X41.355335 Y33.185462 Z-0.125000 I1.078695 J1.032062
G03 X40.298564 Y34.650733 Z-0.125000 I-4.074460 J-1.824835
G03 X37.548781 Y36.676838 Z-0.125000 I-10.786772 J-11.760531
G02 X34.789507 Y38.776019 Z-0.125000 I7.140599 J12.249035
G02 X33.354721 Y40.767599 Z-0.125000 I4.962255 J5.087557
G02 X32.865595 Y42.860024 Z-0.125000 I4.409854 J2.134231
G02 X33.320485 Y44.782134 Z-0.125000 I4.139077 J0.035321
G01 X33.741462 Y45.604191 Z-0.125000
G01 X30.009454 Y45.708342 Z-0.125000
G02 X26.296353 Y45.924237 Z-0.125000 I1.719501 J61.611188
G02 X25.289112 Y46.126031 Z-0.125000 I0.414382 J4.683041
G03 X24.308725 Y46.410816 Z-0.125000 I-6.303445 J-19.870036
G01 X24.263129 Y46.397001 Z-0.125000
G03 X24.247925 Y46.347994 Z-0.125000 I0.046605 J-0.041320
G03 X24.392431 Y45.356786 Z-0.125000 I23.623557 J2.937896
G02 X24.519950 Y44.354754 Z-0.125000 I-12.702609 J-2.125671
G02 X24.698605 Y41.860733 Z-0.125000 I-78.608806 J-6.884418
G02 X24.245484 Y36.582758 Z-0.125000 I-18.777518 J-1.046362
G02 X23.040653 Y34.681183 Z-0.125000 I-3.309114 J0.764167
G02 X21.781311 Y34.283454 Z-0.125000 I-1.154303 J1.462293
G02 X19.541587 Y34.878786 Z-0.125000 I0.323450 J5.727605
G02 X18.652346 Y35.358623 Z-0.125000 I7.135473 J14.287486
G01 X18.647138 Y35.398623 Z-0.125000
G02 X18.704659 Y35.417026 Z-0.125000 I0.046643 J-0.046692
G02 X19.618396 Y35.236291 Z-0.125000 I-2.586514 J-15.476777
G03 X21.021293 Y35.230044 Z-0.125000 I0.715385 J3.126251
G03 X22.171159 Y35.796565 Z-0.125000 I-0.573975 J2.615196
G03 X22.976802 Y37.146109 Z-0.125000 I-1.547439 J1.839027
G03 X23.327924 Y41.357435 Z-0.125000 I-17.011113 J3.538615
G03 X22.709662 Y45.764542 Z-0.125000 I-22.128335 J-0.857409
G03 X21.661217 Y48.167361 Z-0.125000 I-7.464524 J-1.826916
G02 X19.704562 Y52.494738 Z-0.125000 I12.584585 J8.296258
G02 X18.942915 Y58.126704 Z-0.125000 I20.823663 J5.683603
G02 X19.009584 Y60.715369 Z-0.125000 I45.597133 J0.120870
G02 X19.168859 Y62.307750 Z-0.125000 I17.549513 J-0.951200
G02 X20.098589 Y67.281584 Z-0.125000 I63.301959 J-9.258852
G02 X20.318264 Y67.344878 Z-0.125000 I0.127327 J-0.029055
G02 X20.352735 Y67.243275 Z-0.125000 I-0.085736 J-0.085736
G02 X20.191406 Y66.383643 Z-0.125000 I-7.991893 J1.054902
G03 X20.048955 Y65.499408 Z-0.125000 I5.440697 J-1.330092
G03 X19.858669 Y62.217066 Z-0.125000 I75.241992 J-6.008663
G03 X20.321457 Y55.485550 Z-0.125000 I32.239749 J-1.165201
G03 X21.927855 Y50.404491 Z-0.125000 I19.820866 J3.471987
G03 X23.441746 Y48.280719 Z-0.125000 I6.583397 J3.091388
G03 X25.253442 Y47.171785 Z-0.125000 I3.362620 J3.459233
G03 X26.591461 Y46.922432 Z-0.125000 I1.534607 J4.520071
G03 X27.831867 Y47.065506 Z-0.125000 I0.165454 J4.014059
G01 X28.588163 Y47.275527 Z-0.125000
G01 X27.700349 Y48.262986 Z-0.125000
G02 X26.303746 Y50.159179 Z-0.125000 I8.996523 J8.088623
G02 X25.365499 Y52.181693 Z-0.125000 I9.315510 J5.550365
G02 X25.343458 Y52.586283 Z-0.125000 I0.700668 J0.241066
G02 X25.459244 Y52.596012 Z-0.125000 I0.059432 J-0.013447
G03 X27.171616 Y49.679474 Z-0.125000 I11.150928 J4.586028
G03 X29.829399 Y47.098179 Z-0.125000 I11.326737 J9.003452
G03 X32.649496 Y46.340774 Z-0.125000 I2.358094 J3.151218
G03 X35.326484 Y47.747939 Z-0.125000 I-0.495584 J4.192728
G03 X36.324511 Y50.247143 Z-0.125000 I-3.026886 J2.657627
G03 X35.579691 Y54.180972 Z-0.125000 I-8.908808 J0.350657
G02 X34.402107 Y57.574264 Z-0.125000 I20.691862 J9.081735
G02 X33.713516 Y61.355555 Z-0.125000 I25.041392 J6.513495
G01 X33.472501 Y63.625228 Z-0.125000
G01 X32.468865 Y64.199263 Z-0.125000
G02 X28.635235 Y67.254308 Z-0.125000 I7.968641 J13.932308
G02 X25.767072 Y71.470981 Z-0.125000 I12.773091 J11.771995
G01 X25.846466 Y71.527605 Z-0.125000
G02 X26.411272 Y70.831533 Z-0.125000 I-2.944649 J-2.966527
G03 X29.285185 Y67.433376 Z-0.125000 I14.661646 J9.485397
G03 X33.161238 Y64.655706 Z-0.125000 I13.532622 J14.790654
G03 X34.830190 Y63.948983 Z-0.125000 I4.285887 J7.797271
G03 X38.227059 Y63.096795 Z-0.125000 I9.771323 J31.752898
G02 X39.935365 Y62.604861 Z-0.125000 I-1.955933 J-10.004356
G02 X40.890439 Y62.070847 Z-0.125000 I-1.388263 J-3.603952
G03 X41.775059 Y61.469017 Z-0.125000 I5.950579 J7.795594
G03 X41.869055 Y61.480478 Z-0.125000 I0.039678 J0.065771
G03 X42.109461 Y62.217585 Z-0.125000 I-0.605115 J0.605115
G03 X41.150216 Y66.085272 Z-0.125000 I-22.335745 J-3.486812
G03 X38.760348 Y70.463065 Z-0.125000 I-14.075491 J-4.842690
G03 X34.533262 Y74.471288 Z-0.125000 I-15.940225 J-12.577555
G02 X27.275600 Y80.676859 Z-0.125000 I29.810193 J42.211052
G02 X25.892272 Y83.367234 Z-0.125000 I3.720390 J3.613763
G01 X25.765926 Y84.065588 Z-0.125000
G01 X26.175975 Y83.272176 Z-0.125000
G03 X27.533394 Y81.272017 Z-0.125000 I9.026260 J4.665030
G03 X27.926307 Y81.258284 Z-0.125000 I0.202859 J0.176310
G03 X27.972889 Y81.353797 Z-0.125000 I-0.115377 J0.115385
G03 X28.189143 Y83.400243 Z-0.125000 I-60.796099 J7.459167
G02 X28.423551 Y85.451995 Z-0.125000 I40.708715 J-3.611610
G02 X28.561442 Y86.060890 Z-0.125000 I3.698571 J-0.517522
G01 X28.617975 Y86.055037 Z-0.125000
G02 X28.611517 Y85.562065 Z-0.125000 I-2.172250 J-0.218070
G03 X28.518952 Y84.461985 Z-0.125000 I12.958100 J-1.644279
G03 X28.493421 Y82.729610 Z-0.125000 I32.133959 J-1.339951
G03 X29.203756 Y79.970646 Z-0.125000 I5.997250 J0.073153
G03 X31.353168 Y77.391125 Z-0.125000 I7.343573 J3.933836
G03 X32.818452 Y76.413591 Z-0.125000 I6.478095 J8.123437
G03 X32.910529 Y76.533333 Z-0.125000 I0.036863 J0.066927
G02 X32.451552 Y77.126940 Z-0.125000 I2.586633 J2.474229
G02 X31.832468 Y78.279225 Z-0.125000 I9.255199 J5.714955
G02 X31.446287 Y79.512680 Z-0.125000 I4.545634 J2.100369
G02 X31.288841 Y81.371937 Z-0.125000 I10.277954 J1.806659
G02 X31.628260 Y84.176099 Z-0.125000 I12.264433 J-0.061879
G02 X32.789475 Y87.615672 Z-0.125000 I19.696506 J-4.733830
G03 X34.026204 Y92.379969 Z-0.125000 I-14.018266 J6.181562
G03 X33.442797 Y94.647786 Z-0.125000 I-3.452571 J0.320761
G02 X33.435432 Y94.994360 Z-0.125000 I0.263728 J0.178970
G02 X33.689389 Y95.046640 Z-0.125000 I0.151662 J-0.093765
G02 X34.421840 Y94.123866 Z-0.125000 I-1.186326 J-1.693725
G02 X34.757448 Y92.388417 Z-0.125000 I-4.319263 J-1.735450
G02 X34.565629 Y90.996460 Z-0.125000 I-5.146360 J-0.000000
G02 X32.773637 Y85.327245 Z-0.125000 I-88.710596 J24.922857
G03 X31.897353 Y82.371649 Z-0.125000 I28.979637 J-10.199674
G03 X31.730013 Y81.025989 Z-0.125000 I5.776435 J-1.401563
G03 X32.278532 Y79.041461 Z-0.125000 I3.736938 J-0.035188
G03 X34.794709 Y76.013226 Z-0.125000 I11.659175 J7.128202
G02 X40.218154 Y69.708211 Z-0.125000 I-21.882210 J-24.307704
G02 X42.550887 Y64.249013 Z-0.125000 I-13.913796 J-9.173402
G03 X43.985965 Y58.907481 Z-0.125000 I71.500893 J16.346184
G03 X44.940042 Y56.530461 Z-0.125000 I15.025656 J4.650944
G03 X46.720323 Y53.500724 Z-0.125000 I23.116786 J11.545559
G03 X47.029415 Y53.471880 Z-0.125000 I0.166506 J0.113743
G03 X47.639067 Y54.889906 Z-0.125000 I-1.473707 J1.473656
G03 X47.467994 Y69.898969 Z-0.125000 I-196.993723 J5.260187
G03 X46.928821 Y73.519882 Z-0.125000 I-18.621905 J-0.922300
G03 X46.073537 Y75.449137 Z-0.125000 I-6.009085 J-1.509758
G03 X44.484528 Y77.154665 Z-0.125000 I-6.024712 J-4.020123
G03 X41.641234 Y78.882870 Z-0.125000 I-9.037427 J-11.665605
G03 X40.244249 Y79.528183 Z-0.125000 I-752.446173 J-1627.077480
G03 X38.710975 Y80.234915 Z-0.125000 I-890.358462 J-1929.637083
G02 X36.157822 Y81.795347 Z-0.125000 I5.356706 J11.633481
G02 X35.119107 Y83.055438 Z-0.125000 I2.355852 J3.000130
G01 X35.177020 Y83.111937 Z-0.125000
G02 X35.680797 Y82.749752 Z-0.125000 I-1.189948 J-2.186595
G03 X37.202705 Y81.647609 Z-0.125000 I5.276025 J5.683622
G03 X39.218007 Y80.792848 Z-0.125000 I5.094932 J9.209356
G03 X40.588450 Y80.391643 Z-0.125000 I17.185635 J56.161808
G03 X40.714998 Y80.374285 Z-0.125000 I0.126548 J0.452598
G03 X40.781674 Y80.436920 Z-0.125000 I0.000000 J0.066806
G03 X40.849197 Y82.519230 Z-0.125000 I-34.595109 J2.164072
G02 X41.150024 Y84.771842 Z-0.125000 I8.738540 J-0.020599
G02 X42.040288 Y86.940275 Z-0.125000 I8.976309 J-2.418315
G02 X42.184446 Y86.888982 Z-0.125000 I0.067567 J-0.038327
G02 X41.840760 Y85.761594 Z-0.125000 I-4.544331 J0.769266
G03 X41.620356 Y81.936482 Z-0.125000 I4.871675 J-2.199612
G03 X43.993534 Y79.017775 Z-0.125000 I4.908488 J1.566893
G02 X47.115962 Y75.616084 Z-0.125000 I-3.681106 J-6.512796
G02 X48.863270 Y68.368345 Z-0.125000 I-17.736304 J-8.110417
G03 X49.113452 Y65.973602 Z-0.125000 I20.108809 J0.890352
G03 X49.267604 Y65.924100 Z-0.125000 I0.089794 J0.014854
G02 X49.708309 Y66.062997 Z-0.125000 I0.353723 J-0.353720
G02 X49.921719 Y65.808604 Z-0.125000 I-0.044919 J-0.254394
G03 X50.021482 Y65.509309 Z-0.125000 I0.498830 J-0.000000
G03 X50.221016 Y65.409541 Z-0.125000 I0.199533 J0.149647
G02 X50.485293 Y65.126872 Z-0.125000 I0.000000 J-0.264875
G02 X50.168982 Y64.636981 Z-0.125000 I-0.600098 J0.040405
G02 X49.805676 Y64.527744 Z-0.125000 I-0.452032 J0.844623
G02 X49.271095 Y64.553463 Z-0.125000 I-0.176579 J1.898353
G01 X48.724510 Y64.657947 Z-0.125000
G01 X48.724510 Y61.862406 Z-0.125000
G03 X48.926449 Y57.312904 Z-0.125000 I51.349078 J-0.000000
G03 X49.553741 Y52.539867 Z-0.125000 I57.157171 J5.084090
G03 X50.756512 Y46.997660 Z-0.125000 I68.033130 J11.862952
G03 X51.342265 Y45.672519 Z-0.125000 I4.361575 J1.135919
G01 X51.395285 Y45.669566 Z-0.125000
G03 X51.410890 Y45.755845 Z-0.125000 I-0.069318 J0.057088
G02 X51.323906 Y46.164446 Z-0.125000 I1.632051 J0.560995
G02 X51.169960 Y48.473634 Z-0.125000 I52.752678 J4.676579
G02 X52.187659 Y56.112819 Z-0.125000 I21.843319 J0.977394
G02 X56.523670 Y65.210016 Z-0.125000 I35.611105 J-11.391438
G03 X58.619593 Y68.933442 Z-0.125000 I-26.588221 J17.418168
G03 X59.735537 Y71.937406 Z-0.125000 I-16.133934 J7.702864
G03 X60.300029 Y76.171680 Z-0.125000 I-15.492524 J4.220150
G03 X59.728002 Y80.474050 Z-0.125000 I-16.575305 J-0.014580
G03 X58.548275 Y83.677014 Z-0.125000 I-18.449234 J-4.976539
G03 X56.609347 Y87.058537 Z-0.125000 I-22.522599 J-10.667570
G02 X56.110069 Y87.952090 Z-0.125000 I4.736270 J3.232683
G01 X56.165104 Y87.995439 Z-0.125000
G02 X56.483999 Y87.694713 Z-0.125000 I-1.347261 J-1.748101
G02 X57.644801 Y86.260517 Z-0.125000 I-20.009124 J-17.381740
G02 X60.608828 Y79.986212 Z-0.125000 I-13.660666 J-10.290665
G02 X60.826312 Y73.091444 Z-0.125000 I-16.428790 J-3.969032
G02 X60.052494 Y69.643530 Z-0.125000 I-37.206314 J6.539449
G02 X59.190300 Y67.123570 Z-0.125000 I-20.694464 J5.673043
G03 X59.306953 Y66.933753 Z-0.125000 I0.127233 J-0.052562
G03 X62.408591 Y66.875477 Z-0.125000 I2.051330 J26.609906
G02 X65.784430 Y67.004678 Z-0.125000 I59.111770 J-1500.341235
G02 X71.665330 Y67.219382 Z-0.125000 I171.724494 J-4623.020718
G03 X77.512305 Y67.519657 Z-0.125000 I-6.790030 J189.292270
G03 X77.785282 Y67.628604 Z-0.125000 I-0.031845 J0.476249
G03 X77.954873 Y67.866811 Z-0.125000 I-0.364129 J0.438715
G03 X78.158546 Y68.622170 Z-0.125000 I-3.820513 J1.435292
G02 X78.390786 Y69.153722 Z-0.125000 I1.181189 J-0.199562
G02 X78.584702 Y69.175298 Z-0.125000 I0.107362 J-0.082716
G02 X78.839982 Y68.902124 Z-0.125000 I-0.946172 J-1.140061
G02 X79.382781 Y68.069218 Z-0.125000 I-8.495350 J-6.129685
G01 X79.889051 Y67.205310 Z-0.125000
G01 X81.434305 Y67.205310 Z-0.125000
G03 X82.850529 Y67.405925 Z-0.125000 I-0.000000 J5.099150
G03 X83.213985 Y67.719807 Z-0.125000 I-0.159662 J0.552250
G02 X83.656944 Y67.985076 Z-0.125000 I0.413819 J-0.188543
G02 X84.148815 Y67.659778 Z-0.125000 I-0.038013 J-0.591996
G03 X84.376827 Y67.261417 Z-0.125000 I3.828570 J1.926948
G03 X84.620673 Y66.929125 Z-0.125000 I2.904384 J1.875707
G02 X84.770846 Y66.582583 Z-0.125000 I-0.518982 J-0.430707
G02 X84.742557 Y65.960081 Z-0.125000 I-1.821565 J-0.229115
G03 X84.622988 Y64.992466 Z-0.125000 I5.127028 J-1.124742
G03 X84.446626 Y57.463560 Z-0.125000 I577.355906 J-17.290924
G03 X84.369069 Y49.804658 Z-0.125000 I565.158544 J-9.552865
G03 X84.465293 Y49.556896 Z-0.125000 I0.363945 J-0.001219
G02 X84.861822 Y48.429281 Z-0.125000 I-1.112982 J-1.024911
G02 X84.340559 Y47.723535 Z-0.125000 I-0.813312 J0.055336
G03 X84.137052 Y47.542847 Z-0.125000 I0.138498 J-0.360938
G03 X84.041260 Y47.155639 Z-0.125000 I0.734688 J-0.387208
G02 X83.730584 Y46.434257 Z-0.125000 I-0.992854 J-0.000000
G02 X83.158630 Y46.320976 Z-0.125000 I-0.375932 J0.397536
G02 X82.969444 Y46.506852 Z-0.125000 I0.119146 J0.310483
G02 X82.806913 Y47.191298 Z-0.125000 I2.169078 J0.876597
G01 X82.744319 Y47.950674 Z-0.125000
G01 X81.019317 Y48.008018 Z-0.125000
G01 X79.294322 Y48.065360 Z-0.125000
G01 X78.880810 Y47.396299 Z-0.125000
G02 X78.433745 Y46.755187 Z-0.125000 I-6.007744 J3.712934
G02 X78.088516 Y46.384436 Z-0.125000 I-2.336116 J1.829193
G02 X77.845551 Y46.400846 Z-0.125000 I-0.113562 J0.125481
G02 X77.606652 Y46.956125 Z-0.125000 I0.797372 J0.672085
G03 X77.461902 Y47.850549 Z-0.125000 I-9.350145 J-1.054271
G03 X77.388715 Y47.985480 Z-0.125000 I-0.264016 J-0.055890
G03 X77.185772 Y48.070497 Z-0.125000 I-0.205273 J-0.205276
G03 X65.395305 Y48.122747 Z-0.125000 I-13.159977 J-1639.297214
G03 X53.604734 Y48.090195 Z-0.125000 I-1.369496 J-1639.333558
G03 X53.401945 Y48.005518 Z-0.125000 I0.001841 J-0.289569
G03 X53.239865 Y47.463670 Z-0.125000 I0.420370 J-0.420908
G03 X54.548939 Y42.481492 Z-0.125000 I48.320943 J10.033318
G03 X55.955281 Y38.897137 Z-0.125000 I28.347842 J9.054370
G03 X57.603272 Y35.970693 Z-0.125000 I20.498190 J9.616056
G03 X60.080945 Y33.137352 Z-0.125000 I11.956314 J7.955450
G03 X63.156479 Y31.091847 Z-0.125000 I9.128241 J10.389957
G03 X76.901714 Y27.357044 Z-0.125000 I16.706309 J34.323638
G03 X100.387365 Y28.195157 Z-0.125000 I8.060608 J103.602315
G02 X102.255253 Y28.417443 Z-0.125000 I4.571518 J-30.455700
G02 X102.432548 Y28.375401 Z-0.125000 I0.025370 J-0.287867
G02 X102.553235 Y28.164012 Z-0.125000 I-0.133842 J-0.216560
G02 X102.597659 Y22.999326 Z-0.125000 I-220.515191 J-4.479298
G02 X102.521149 Y17.834997 Z-0.125000 I-220.606171 J0.685533
G02 X102.399141 Y17.622817 Z-0.125000 I-0.257374 J0.006827
G01 X102.399186 Y17.622808 Z-0.125000
G00 Z5.000000

(End cutting path id: rect4831)


(Start cutting path id: rect4831)
(Change tool to Cylindrical cutter)

G00 Z5.000000
G00 X32.160219 Y129.299406

G01 Z-0.125000 F1000.0(Penetrate)
G01 X31.759014 Y128.641360 Z-0.125000 F1100.000000
G01 X31.139971 Y129.000107 Z-0.125000
G02 X30.249959 Y130.263865 Z-0.125000 I0.925587 J1.597131
G02 X30.812091 Y130.785769 Z-0.125000 I0.447120 J0.082098
G03 X31.224119 Y130.781871 Z-0.125000 I0.213766 J0.817323
G03 X31.584070 Y130.972123 Z-0.125000 I-0.193604 J0.801926
G02 X31.912389 Y131.092407 Z-0.125000 I0.312837 J-0.345678
G02 X32.239907 Y130.950336 Z-0.125000 I-0.016140 J-0.485756
G02 X32.477892 Y130.334167 Z-0.125000 I-0.576844 J-0.576840
G02 X32.160219 Y129.299426 Z-0.125000 I-2.188032 J0.105609
G01 X32.160219 Y129.299406 Z-0.125000
G00 Z5.000000

(End cutting path id: rect4831)


(Start cutting path id: rect4831)
(Change tool to Cylindrical cutter)

G00 Z5.000000
G00 X38.278212 Y133.554827

G01 Z-0.125000 F1000.0(Penetrate)
G02 X37.974666 Y133.353282 Z-0.125000 I-0.425031 J0.310780 F1100.000000
G02 X37.144622 Y133.286015 Z-0.125000 I-0.634643 J2.676413
G02 X36.393658 Y133.499335 Z-0.125000 I0.135921 J1.906987
G02 X36.191980 Y133.784897 Z-0.125000 I0.177823 J0.339585
G02 X36.464083 Y135.060004 Z-0.125000 I1.873709 J0.266744
G02 X37.213255 Y135.407014 Z-0.125000 I0.642246 J-0.404355
G02 X37.545056 Y135.239165 Z-0.125000 I-0.081583 J-0.573144
G02 X37.714440 Y134.895820 Z-0.125000 I-0.438215 J-0.429641
G03 X37.859009 Y134.539971 Z-0.125000 I0.784481 J0.111418
G03 X38.042269 Y134.446872 Z-0.125000 I0.183260 J0.133817
G02 X38.395199 Y134.175155 Z-0.125000 I0.000000 J-0.365066
G02 X38.278212 Y133.554827 Z-0.125000 I-0.708905 J-0.187504
G01 X38.278212 Y133.554827 Z-0.125000
G00 Z5.000000

(End cutting path id: rect4831)


(Start cutting path id: rect4831)
(Change tool to Cylindrical cutter)

G00 Z5.000000
G00 X34.240877 Y141.445729

G01 Z-0.125000 F1000.0(Penetrate)
G02 X33.464825 Y141.103091 Z-0.125000 I-0.737753 J0.620789 F1100.000000
G02 X32.778412 Y141.503872 Z-0.125000 I0.033622 J0.845779
G02 X32.449067 Y142.519703 Z-0.125000 I1.910346 J1.180662
G02 X32.666113 Y143.029783 Z-0.125000 I0.603511 J0.044416
G02 X32.965685 Y143.119722 Z-0.125000 I0.255838 J-0.308274
G02 X33.327287 Y142.957162 Z-0.125000 I-0.070260 J-0.639742
G03 X33.681647 Y142.784398 Z-0.125000 I0.475404 J0.525312
G03 X33.908721 Y142.856349 Z-0.125000 I0.044188 J0.254838
G02 X34.443755 Y142.947786 Z-0.125000 I0.332084 J-0.332084
G02 X34.757434 Y142.449638 Z-0.125000 I-0.238711 J-0.498148
G02 X34.670647 Y142.091286 Z-0.125000 I-0.783230 J-0.000000
G02 X34.240877 Y141.445729 Z-0.125000 I-3.081153 J1.585396
G01 X34.240877 Y141.445729 Z-0.125000
G00 Z5.000000

(End cutting path id: rect4831)


(Footer)
M5
G00 X0.0000 Y0.0000
M2
(Using default footer. To add your own footer create file "footer" in the output dir.)
(end)
%