%
(Header)
(Generated by gcodetools from Inkscape.)
(Using default header. To add your own header create file "header" in the output dir.)
M3
(Header end.)
G21 (All units in mm)

(Start cutting path id: path847)
(Change tool to Cylindrical cutter)

G00 Z5.000000
G00 X59.611721 Y0.796983

G01 Z0.000000 F1000.0(Penetrate)
G02 X58.662094 Y2.009508 Z0.000000 I2.004301 J2.547859 F1100.000000
G02 X58.296224 Y3.707061 Z0.000000 I3.755220 J1.697560
G02 X59.309682 Y8.782793 Z0.000000 I13.217074 J0.000025
G02 X60.920805 Y10.017516 Z0.000000 I1.876975 J-0.780668
G02 X61.060986 Y9.864503 Z0.000000 I0.016601 J-0.125511
G02 X60.758384 Y9.287625 Z0.000000 I-1.217852 J0.271022
G03 X59.410972 Y7.051808 Z0.000000 I4.701503 J-4.357270
G03 X58.879459 Y3.930272 Z0.000000 I8.900411 J-3.121519
G03 X59.487820 Y1.571089 Z0.000000 I4.878597 J0.000009
G03 X60.398633 Y1.180445 Z0.000000 I0.706614 J0.390386
G03 X61.473015 Y1.915935 Z0.000000 I-0.487786 J1.865000
G03 X62.629618 Y4.266049 Z0.000000 I-6.321835 J4.570941
G02 X63.078086 Y5.315536 Z0.000000 I4.761781 J-1.414248
G02 X63.304041 Y5.446690 Z0.000000 I0.225956 J-0.129064
G02 X63.664509 Y5.144746 Z0.000000 I0.000001 J-0.366139
G02 X63.563123 Y3.991881 Z0.000000 I-2.183569 J-0.388862
G03 X63.459010 Y3.382144 Z0.000000 I1.600069 J-0.586972
G03 X63.574855 Y3.107441 Z0.000000 I0.396172 J0.005292
G03 X64.310098 Y3.131681 Z0.000000 I0.356278 J0.356212
G03 X65.657492 Y5.484735 Z0.000000 I-5.149652 J4.511064
G02 X66.201127 Y6.319418 Z0.000000 I1.862216 J-0.618495
G02 X66.451173 Y6.204896 Z0.000000 I0.100514 J-0.110774
G02 X65.646611 Y3.313556 Z0.000000 I-6.154455 J0.154965
G02 X64.085011 Y2.050062 Z0.000000 I-2.395667 J1.364127
G02 X63.658687 Y2.045923 Z0.000000 I-0.220061 J0.708641
G02 X63.177101 Y2.313610 Z0.000000 I0.342291 J1.182850
G03 X62.733948 Y2.642102 Z0.000000 I-1.897847 J-2.097136
G03 X62.655578 Y2.626279 Z0.000000 I-0.030511 J-0.050875
G02 X60.583823 Y0.735934 Z0.000000 I-5.733926 J4.203730
G02 X59.611510 Y0.796983 Z0.000000 I-0.441902 J0.735351
G01 X59.611721 Y0.796983 Z0.000000
G00 Z5.000000

(End cutting path id: path847)


(Start cutting path id: path847)
(Change tool to Cylindrical cutter)

G00 Z5.000000
G00 X61.652567 Y7.881177

G01 Z0.000000 F1000.0(Penetrate)
G02 X61.637716 Y8.215460 Z0.000000 I0.492594 J0.189355 F1100.000000
G02 X62.335313 Y10.272508 Z0.000000 I21.426637 J-6.119506
G03 X63.111897 Y12.340838 Z0.000000 I-62.132472 J24.508487
G03 X63.521422 Y13.597851 Z0.000000 I-22.487262 J8.021384
G02 X64.180344 Y15.436614 Z0.000000 I16.505278 J-4.877230
G02 X65.356751 Y17.928164 Z0.000000 I31.516841 J-13.357450
G03 X65.868493 Y18.938638 Z0.000000 I-39.721223 J20.751137
G03 X66.462387 Y20.181456 Z0.000000 I-59.645113 J29.265405
G02 X66.802147 Y20.767596 Z0.000000 I3.419427 J-1.590549
G02 X67.413665 Y21.527344 Z0.000000 I6.380871 J-4.509959
G03 X68.051788 Y22.270858 Z0.000000 I-11.717424 J10.702112
G03 X68.260516 Y22.578032 Z0.000000 I-1.774842 J1.430526
G02 X68.471044 Y22.883813 Z0.000000 I1.846232 J-1.045752
G02 X69.268898 Y23.798389 Z0.000000 I17.466111 J-14.431730
G03 X70.840129 Y25.929544 Z0.000000 I-8.972326 J8.259785
G03 X71.127543 Y26.995935 Z0.000000 I-1.834588 J1.066387
G03 X70.937800 Y27.428023 Z0.000000 I-0.586856 J-0.000001
G03 X70.427663 Y27.639200 Z0.000000 I-0.543649 J-0.591532
G02 X69.377927 Y27.766298 Z0.000000 I0.283965 J6.743874
G02 X69.125059 Y27.901639 Z0.000000 I0.098259 J0.487484
G02 X69.137729 Y27.998842 Z0.000000 I0.043723 J0.043728
G02 X69.426411 Y28.076582 Z0.000000 I0.288683 J-0.497138
G03 X69.899954 Y28.105305 Z0.000000 I-0.000007 J3.917947
G03 X70.626823 Y28.221403 Z0.000000 I-1.195372 J9.817489
G02 X71.226433 Y28.141295 Z0.000000 I0.182938 J-0.914810
G02 X71.588680 Y27.740926 Z0.000000 I-0.331424 J-0.663928
G02 X71.493495 Y26.281212 Z0.000000 I-1.645407 J-0.625666
G02 X68.819556 Y22.593909 Z0.000000 I-15.031221 J8.087072
G03 X68.000900 Y21.610541 Z0.000000 I6.910572 J-6.585519
G03 X67.424464 Y20.669218 Z0.000000 I5.755887 J-4.171873
G02 X66.870663 Y19.756311 Z0.000000 I-6.472672 J3.302122
G02 X66.718458 Y19.677847 Z0.000000 I-0.152205 J0.108390
G03 X66.571596 Y19.599034 Z0.000000 I0.000000 J-0.176242
G03 X66.215487 Y18.919666 Z0.000000 I3.110179 J-2.063299
G02 X65.901972 Y18.165955 Z0.000000 I-26.284774 J10.491417
G02 X65.242910 Y16.673284 Z0.000000 I-104.332012 J45.174042
G03 X64.235329 Y14.147544 Z0.000000 I28.602641 J-12.874158
G03 X63.072410 Y10.462590 Z0.000000 I59.759350 J-20.885177
G02 X62.164158 Y7.658563 Z0.000000 I-37.268395 J10.522495
G02 X62.003557 Y7.546378 Z0.000000 I-0.160601 J0.058862
G02 X61.829068 Y7.616250 Z0.000000 I-0.000000 J0.252808
G02 X61.652567 Y7.881177 Z0.000000 I0.500442 J0.524666
G01 X61.652567 Y7.881177 Z0.000000
G00 Z5.000000

(End cutting path id: path847)


(Start cutting path id: path847)
(Change tool to Cylindrical cutter)

G00 Z5.000000
G00 X65.638632 Y26.290267

G01 Z0.000000 F1000.0(Penetrate)
G03 X65.168387 Y26.585138 Z0.000000 I-4.461172 J-6.592043 F1100.000000
G03 X64.128612 Y27.164990 Z0.000000 I-18.098157 J-31.230949
G02 X63.133532 Y27.794468 Z0.000000 I3.898660 J7.264259
G02 X62.653564 Y28.253186 Z0.000000 I1.552657 J2.105045
G03 X62.185183 Y28.687547 Z0.000000 I-1.750512 J-1.417902
G03 X61.895338 Y28.778075 Z0.000000 I-0.289844 J-0.418731
G02 X61.629298 Y28.844525 Z0.000000 I-0.000001 J0.565786
G02 X61.562334 Y28.956078 Z0.000000 I0.059434 J0.111553
G03 X61.497098 Y29.091915 Z0.000000 I-0.174043 J-0.000000
G03 X61.052510 Y29.364378 Z0.000000 I-1.301688 J-1.625060
G02 X60.604610 Y29.649839 Z0.000000 I0.766566 J1.696890
G02 X60.451384 Y29.881594 Z0.000000 I0.332380 J0.386286
G02 X60.531644 Y29.954374 Z0.000000 I0.056795 J0.018013
G02 X61.949015 Y29.240074 Z0.000000 I-5.042147 J-11.768411
G03 X64.284793 Y28.547084 Z0.000000 I2.581081 J4.416786
G03 X68.392365 Y28.930751 Z0.000000 I0.703305 J14.650205
G03 X70.907891 Y30.042421 Z0.000000 I-1.764758 J7.395302
G03 X73.110525 Y32.144632 Z0.000000 I-5.246691 J7.702358
G02 X74.318866 Y33.657867 Z0.000000 I26.514892 J-19.933494
G02 X74.897498 Y34.253062 Z0.000000 I4.642285 J-3.934232
G03 X75.485683 Y34.836109 Z0.000000 I-5.559785 J6.197003
G03 X75.714015 Y35.146991 Z0.000000 I-1.339244 J1.222916
G02 X76.903025 Y36.435699 Z0.000000 I3.499676 J-2.036064
G02 X80.452534 Y38.440105 Z0.000000 I12.486028 J-17.965897
G02 X83.265610 Y39.450562 Z0.000000 I8.050441 J-17.991154
G02 X83.492261 Y39.277930 Z0.000000 I0.047582 J-0.172632
G02 X83.413189 Y39.160787 Z0.000000 I-0.126309 J-0.000000
G02 X82.644692 Y38.936154 Z0.000000 I-1.516048 J3.759708
G03 X80.256129 Y38.104063 Z0.000000 I1.562817 J-8.330446
G03 X77.498879 Y36.224480 Z0.000000 I6.877447 J-13.051020
G02 X76.741149 Y35.601462 Z0.000000 I-13.580703 J15.744868
G02 X76.431448 Y35.388236 Z0.000000 I-1.883591 J2.404310
G03 X74.961129 Y34.099617 Z0.000000 I2.843799 J-4.727917
G03 X72.525524 Y30.488748 Z0.000000 I21.409102 J-17.067743
G02 X71.752708 Y29.299514 Z0.000000 I-9.896162 J5.585238
G02 X71.528010 Y29.145307 Z0.000000 I-0.336999 J0.250236
G02 X70.811894 Y28.949050 Z0.000000 I-38.473339 J138.979871
G02 X68.843291 Y28.417597 Z0.000000 I-216.026865 J796.292166
G03 X68.436855 Y28.154072 Z0.000000 I0.204239 J-0.760185
G03 X68.172565 Y27.592784 Z0.000000 I1.001259 J-0.814322
G02 X67.967647 Y26.995521 Z0.000000 I-2.341437 J0.469552
G02 X67.832206 Y26.911763 Z0.000000 I-0.135441 J0.067629
G02 X67.662313 Y27.091672 Z0.000000 I-0.000000 J0.170171
G02 X67.888664 Y27.895597 Z0.000000 I1.934680 J-0.110896
G03 X67.925003 Y28.184598 Z0.000000 I-0.358503 J0.191864
G03 X67.801683 Y28.249065 Z0.000000 I-0.090098 J-0.022165
G02 X67.446662 Y28.144831 Z0.000000 I-0.811917 J2.108677
G02 X66.371890 Y27.953427 Z0.000000 I-4.033469 J19.535524
G03 X65.332252 Y27.726236 Z0.000000 I1.175806 J-7.872851
G03 X65.175859 Y27.607388 Z0.000000 I0.076024 J-0.262364
G03 X65.199107 Y27.461570 Z0.000000 I0.096129 J-0.059436
G03 X65.922653 Y26.977399 Z0.000000 I2.531596 J3.000508
G02 X66.717323 Y26.474752 Z0.000000 I-2.543844 J-4.901240
G02 X66.875008 Y26.254655 Z0.000000 I-0.277048 J-0.365020
G02 X66.657409 Y25.961804 Z0.000000 I-0.211142 J-0.070381
G02 X65.638630 Y26.291283 Z0.000000 I0.055469 J1.911339
G01 X65.638632 Y26.290267 Z0.000000
G00 Z5.000000

(End cutting path id: path847)


(Start cutting path id: path847)
(Change tool to Cylindrical cutter)

G00 Z5.000000
G00 X69.771360 Y30.526970

G01 Z0.000000 F1000.0(Penetrate)
G02 X70.291138 Y31.082447 Z0.000000 I7.866991 J-6.840492 F1100.000000
G02 X70.358457 Y31.110201 Z0.000000 I0.067319 J-0.067765
G01 X70.378355 Y31.077458 Z0.000000
G02 X70.056225 Y30.526971 Z0.000000 I-5.573793 J2.892145
G02 X69.636751 Y30.012847 Z0.000000 I-2.664911 J1.746112
G02 X69.469164 Y29.943752 Z0.000000 I-0.167588 J0.168693
G02 X69.424690 Y30.016863 Z0.000000 I-0.000000 J0.050082
G02 X69.771360 Y30.526970 Z0.000000 I2.304726 J-1.193442
G01 X69.771360 Y30.526970 Z0.000000
G00 Z5.000000

(End cutting path id: path847)


(Start cutting path id: path847)
(Change tool to Cylindrical cutter)

G00 Z5.000000
G00 X59.346003 Y30.177162

G01 Z0.000000 F1000.0(Penetrate)
G02 X59.358415 Y30.323135 Z0.000000 I0.104746 J0.064608 F1100.000000
G02 X59.551772 Y30.410466 Z0.000000 I0.193357 J-0.170389
G02 X59.862831 Y30.340718 Z0.000000 I0.000001 J-0.728495
G02 X60.045899 Y30.177163 Z0.000000 I-0.184516 J-0.390762
G02 X60.033466 Y30.031186 Z0.000000 I-0.104766 J-0.064595
G02 X59.840142 Y29.943882 Z0.000000 I-0.193325 J0.170396
G02 X59.529091 Y30.013602 Z0.000000 I-0.000001 J0.728718
G02 X59.346003 Y30.177162 Z0.000000 I0.184394 J0.390663
G01 X59.346003 Y30.177162 Z0.000000
G00 Z5.000000

(End cutting path id: path847)


(Start cutting path id: path847)
(Change tool to Cylindrical cutter)

G00 Z5.000000
G00 X51.347091 Y27.137378

G01 Z0.000000 F1000.0(Penetrate)
G02 X51.686597 Y27.531931 Z0.000000 I1.454620 J-0.908328 F1100.000000
G02 X51.900455 Y27.610954 Z0.000000 I0.213859 J-0.249870
G03 X52.127628 Y27.679731 Z0.000000 I-0.000001 J0.409574
G03 X52.549775 Y28.043702 Z0.000000 I-1.254095 J1.881344
G02 X52.984474 Y28.420371 Z0.000000 I1.764292 J-1.596926
G02 X54.001475 Y29.021690 Z0.000000 I5.609241 J-8.326135
G03 X54.208240 Y31.046022 Z0.000000 I-0.555169 J1.079430
G03 X49.346973 Y32.774909 Z0.000000 I-4.898578 J-6.074899
G03 X48.010304 Y32.604780 Z0.000000 I-0.026028 J-5.131556
G03 X47.533043 Y32.295993 Z0.000000 I0.233591 J-0.884258
G02 X47.190741 Y32.173081 Z0.000000 I-0.272429 J0.220595
G02 X47.041268 Y32.396025 Z0.000000 I0.038057 J0.187095
G02 X47.279274 Y32.862781 Z0.000000 I0.923460 J-0.176827
G02 X47.726479 Y33.125646 Z0.000000 I0.671389 J-0.630378
G02 X49.405026 Y33.271190 Z0.000000 I1.291880 J-5.147063
G02 X52.788994 Y32.756157 Z0.000000 I-1.598136 J-21.874874
G03 X53.652604 Y32.701442 Z0.000000 I0.595112 J2.550227
G03 X54.038276 Y32.884927 Z0.000000 I-0.065404 J0.634546
G02 X54.372005 Y32.975525 Z0.000000 I0.245926 J-0.245930
G02 X54.879501 Y32.665442 Z0.000000 I-0.259702 J-0.995377
G03 X55.444823 Y32.200902 Z0.000000 I1.779993 J1.589908
G03 X56.546429 Y31.679879 Z0.000000 I3.369356 J5.698799
G02 X58.642903 Y30.713951 Z0.000000 I-4.819904 J-13.219323
G02 X58.675079 Y30.478378 Z0.000000 I-0.073382 J-0.130007
G02 X58.560777 Y30.449899 Z0.000000 I-0.080742 J0.080442
G02 X57.909573 Y30.713721 Z0.000000 I1.203769 J3.906923
G03 X57.235910 Y31.025579 Z0.000000 I-4.523786 J-8.888571
G03 X56.698377 Y31.220526 Z0.000000 I-2.280636 J-5.449913
G03 X56.392240 Y31.149819 Z0.000000 I-0.092248 J-0.298686
G03 X56.317539 Y30.863220 Z0.000000 I0.190050 J-0.202571
G02 X56.264923 Y30.396622 Z0.000000 I-0.549240 J-0.174331
G02 X55.475933 Y29.432807 Z0.000000 I-3.497746 J2.058453
G02 X54.422545 Y28.613011 Z0.000000 I-6.429957 J7.175427
G02 X53.932079 Y28.394569 Z0.000000 I-0.870216 J1.294053
G03 X53.476693 Y28.197980 Z0.000000 I0.375466 J-1.495472
G03 X53.396929 Y28.052271 Z0.000000 I0.093205 J-0.145708
G02 X53.331935 Y27.909182 Z0.000000 I-0.190007 J-0.000000
G02 X53.158999 Y27.844278 Z0.000000 I-0.172937 J0.197943
G03 X52.936319 Y27.791394 Z0.000000 I0.000001 J-0.495264
G03 X51.986235 Y27.254156 Z0.000000 I5.082343 J-10.096639
G02 X51.418248 Y27.032602 Z0.000000 I-0.856275 J1.356356
G02 X51.347091 Y27.137378 Z0.000000 I-0.012442 J0.068101
G01 X51.347091 Y27.137378 Z0.000000
G00 Z5.000000

(End cutting path id: path847)


(Start cutting path id: path847)
(Change tool to Cylindrical cutter)

G00 Z5.000000
G00 X48.730981 Y26.095415

G01 Z0.000000 F1000.0(Penetrate)
G02 X49.295250 Y26.640835 Z0.000000 I5.944734 J-5.585584 F1100.000000
G02 X49.395555 Y26.678607 Z0.000000 I0.100306 J-0.114298
G01 X49.416408 Y26.637265 Z0.000000
G02 X48.964273 Y26.095416 Z0.000000 I-4.821008 J3.563230
G02 X48.400009 Y25.549915 Z0.000000 I-5.942509 J5.582323
G02 X48.299700 Y25.512139 Z0.000000 I-0.100309 J0.114289
G01 X48.278846 Y25.553482 Z0.000000
G02 X48.730981 Y26.095415 Z0.000000 I4.824341 J-3.565374
G01 X48.730981 Y26.095415 Z0.000000
G00 Z5.000000

(End cutting path id: path847)


(Start cutting path id: path847)
(Change tool to Cylindrical cutter)

G00 Z5.000000
G00 X48.162741 Y24.180716

G01 Z0.000000 F1000.0(Penetrate)
G02 X48.350013 Y24.468633 Z0.000000 I0.762021 J-0.290786 F1100.000000
G02 X48.452637 Y24.468473 Z0.000000 I0.051232 J-0.051584
G02 X48.480526 Y24.337789 Z0.000000 I-0.086914 J-0.086866
G02 X48.293335 Y24.050151 Z0.000000 I-0.760801 J0.290389
G02 X48.190641 Y24.050338 Z0.000000 I-0.051253 J0.051640
G02 X48.162741 Y24.180716 Z0.000000 I0.086713 J0.086731
G01 X48.162741 Y24.180716 Z0.000000
G00 Z5.000000

(End cutting path id: path847)


(Start cutting path id: path847)
(Change tool to Cylindrical cutter)

G00 Z5.000000
G00 X45.239292 Y22.615359

G01 Z0.000000 F1000.0(Penetrate)
G02 X45.406715 Y23.039013 Z0.000000 I0.681815 J-0.024537 F1100.000000
G02 X46.640125 Y24.223022 Z0.000000 I7.243446 J-6.311228
G01 X46.685404 Y24.182949 Z0.000000
G02 X46.281357 Y23.643354 Z0.000000 I-3.238351 J2.003794
G03 X45.357151 Y22.596520 Z0.000000 I65.496922 J-58.755884
G03 X45.289854 Y22.502244 Z0.000000 I0.459064 J-0.398851
G01 X45.260792 Y22.503634 Z0.000000
G02 X45.239464 Y22.615359 Z0.000000 I0.232314 J0.102247
G01 X45.239292 Y22.615359 Z0.000000
G00 Z5.000000

(End cutting path id: path847)


(Start cutting path id: path847)
(Change tool to Cylindrical cutter)

G00 Z5.000000
G00 X44.742915 Y20.571715

G01 Z0.000000 F1000.0(Penetrate)
G02 X45.038026 Y21.018455 Z0.000000 I2.558190 J-1.369066 F1100.000000
G02 X45.256060 Y21.211277 Z0.000000 I0.668961 J-0.536748
G01 X45.325772 Y21.172012 Z0.000000
G02 X45.253161 Y20.887336 Z0.000000 I-0.615588 J0.005416
G02 X44.958042 Y20.440570 Z0.000000 I-2.557064 J1.368261
G02 X44.740016 Y20.247795 Z0.000000 I-0.668606 J0.536502
G01 X44.670298 Y20.287062 Z0.000000
G02 X44.742916 Y20.571715 Z0.000000 I0.615380 J-0.005401
G01 X44.742915 Y20.571715 Z0.000000
G00 Z5.000000

(End cutting path id: path847)


(Start cutting path id: path847)
(Change tool to Cylindrical cutter)

G00 Z5.000000
G00 X43.131859 Y18.732692

G01 Z0.000000 F1000.0(Penetrate)
G02 X43.186907 Y18.921557 Z0.000000 I0.351512 J0.000001 F1100.000000
G02 X43.362486 Y19.094842 Z0.000000 I0.466787 J-0.297370
G02 X43.451456 Y19.065759 Z0.000000 I0.031938 J-0.052926
G02 X43.454056 Y18.875232 Z0.000000 I-0.235610 J-0.098497
G02 X43.247054 Y18.657607 Z0.000000 I-0.365248 J0.140157
G02 X43.131743 Y18.732692 Z0.000000 I-0.033210 J0.075085
G01 X43.131859 Y18.732692 Z0.000000
G00 Z5.000000

(End cutting path id: path847)


(Start cutting path id: path847)
(Change tool to Cylindrical cutter)

G00 Z5.000000
G00 X38.932518 Y13.353744

G01 Z0.000000 F1000.0(Penetrate)
G02 X39.246052 Y13.867709 Z0.000000 I0.578028 J0.000001 F1100.000000
G02 X39.771838 Y13.785506 Z0.000000 I0.206563 J-0.401393
G01 X39.770048 Y13.720096 Z0.000000
G02 X39.388495 Y13.428155 Z0.000000 I-1.727345 J1.862246
G02 X39.012422 Y13.286855 Z0.000000 I-0.538762 J0.862814
G02 X38.932518 Y13.354854 Z0.000000 I-0.011017 J0.067999
G01 X38.932518 Y13.353744 Z0.000000
G00 Z5.000000

(End cutting path id: path847)


(Start cutting path id: path847)
(Change tool to Cylindrical cutter)

G00 Z5.000000
G00 X41.295831 Y11.592488

G01 Z0.000000 F1000.0(Penetrate)
G02 X41.181601 Y11.956464 Z0.000000 I0.387513 J0.321530 F1100.000000
G02 X41.410312 Y12.945789 Z0.000000 I3.554998 J-0.300743
G02 X41.846002 Y13.938215 Z0.000000 I11.563555 J-4.484718
G02 X42.082755 Y14.312010 Z0.000000 I1.854953 J-0.913010
G03 X42.650715 Y15.304977 Z0.000000 I-2.950453 J2.346524
G03 X42.531541 Y15.478511 Z0.000000 I-0.119173 J0.045847
G03 X42.426320 Y15.443778 Z0.000000 I0.000000 J-0.176751
G03 X41.949205 Y15.046930 Z0.000000 I3.290793 J-4.441615
G02 X39.680123 Y13.944626 Z0.000000 I-2.929953 J3.144687
G02 X38.126053 Y14.451892 Z0.000000 I-0.277574 J1.783789
G02 X37.276204 Y15.643659 Z0.000000 I3.134015 J3.133766
G02 X37.096192 Y16.564800 Z0.000000 I1.637285 J0.798121
G03 X37.065253 Y16.688099 Z0.000000 I-0.199638 J0.015436
G03 X36.911084 Y16.852170 Z0.000000 I-0.514441 J-0.328925
G02 X36.361642 Y17.538056 Z0.000000 I0.997420 J1.362016
G02 X36.132937 Y18.632319 Z0.000000 I2.503486 J1.094268
G03 X36.064649 Y19.212458 Z0.000000 I-2.498460 J-0.000005
G03 X35.802135 Y20.017968 Z0.000000 I-5.110892 J-1.220100
G03 X35.332993 Y20.563468 Z0.000000 I-1.073125 J-0.448424
G03 X34.693971 Y20.691386 Z0.000000 I-0.495558 J-0.815499
G03 X31.537755 Y18.644474 Z0.000000 I0.686646 J-4.515570
G03 X30.445923 Y14.078698 Z0.000000 I5.984705 J-3.844580
G01 X30.529185 Y13.262118 Z0.000000
G01 X30.298237 Y13.961958 Z0.000000
G02 X30.319847 Y16.325103 Z0.000000 I3.484435 J1.149808
G02 X32.278594 Y19.613781 Z0.000000 I9.084559 J-3.183133
G03 X32.747447 Y20.135466 Z0.000000 I-50.108156 J45.505260
G03 X33.176482 Y20.623333 Z0.000000 I-43.259542 J38.475365
G02 X33.637514 Y20.974392 Z0.000000 I1.077415 J-0.936669
G02 X33.934698 Y20.986284 Z0.000000 I0.162407 J-0.339296
G03 X34.191794 Y20.966434 Z0.000000 I0.161628 J0.418513
G03 X34.266600 Y21.059285 Z0.000000 I-0.020221 J0.092851
G02 X34.605995 Y21.373144 Z0.000000 I0.314819 J0.000001
G02 X35.633321 Y20.952268 Z0.000000 I-0.141748 J-1.810245
G02 X36.155040 Y20.292300 Z0.000000 I-1.347462 J-1.601396
G02 X36.478759 Y19.273699 Z0.000000 I-3.017158 J-1.519618
G03 X36.715669 Y18.189857 Z0.000000 I8.243389 J1.234053
G03 X36.994972 Y17.489610 Z0.000000 I3.710885 J1.074310
G01 X37.345203 Y16.812341 Z0.000000
G01 X37.878346 Y17.432772 Z0.000000
G02 X38.468283 Y17.829626 Z0.000000 I1.015419 J-0.872547
G02 X39.028931 Y17.818444 Z0.000000 I0.264686 J-0.789675
G03 X39.536335 Y17.828736 Z0.000000 I0.240950 J0.633820
G03 X39.872709 Y18.179036 Z0.000000 I-0.243976 J0.570929
G03 X40.045465 Y18.784109 Z0.000000 I-3.454386 J1.313469
G03 X40.099041 Y19.337936 Z0.000000 I-2.835687 J0.553822
G02 X40.265677 Y19.766774 Z0.000000 I0.635122 J0.000001
G02 X40.740607 Y20.038767 Z0.000000 I0.662825 J-0.606728
G03 X41.944856 Y20.487537 Z0.000000 I-0.924377 J4.320673
G03 X43.656823 Y21.642022 Z0.000000 I-5.494339 J9.994028
G02 X44.907631 Y22.544776 Z0.000000 I8.289002 J-10.166892
G02 X44.998282 Y22.494990 Z0.000000 I0.031654 J-0.049786
G02 X44.665809 Y21.797681 Z0.000000 I-0.897482 J-0.000002
G02 X41.930139 Y20.008830 Z0.000000 I-10.118217 J12.487436
G03 X41.392117 Y19.575066 Z0.000000 I0.794101 J-1.535522
G03 X41.121645 Y19.031308 Z0.000000 I1.028786 J-0.850878
G02 X40.894687 Y18.434128 Z0.000000 I-2.379025 J0.562429
G02 X40.496657 Y17.871507 Z0.000000 I-2.503263 J1.348844
G03 X40.272045 Y17.348832 Z0.000000 I0.647434 J-0.587825
G03 X40.424409 Y16.904517 Z0.000000 I0.594504 J-0.044415
G03 X40.834039 Y16.756127 Z0.000000 I0.344729 J0.312038
G03 X41.410110 Y17.043489 Z0.000000 I-0.141682 J1.005132
G02 X41.993557 Y17.492882 Z0.000000 I2.022416 J-2.022257
G02 X42.147628 Y17.472870 Z0.000000 I0.064046 J-0.110009
G02 X42.185395 Y17.331799 Z0.000000 I-0.099655 J-0.102271
G02 X42.057618 Y17.156500 Z0.000000 I-0.300560 J0.084862
G03 X41.850413 Y16.961477 Z0.000000 I0.439844 J-0.674903
G03 X41.372507 Y16.236069 Z0.000000 I6.279066 J-4.656842
G02 X40.664078 Y15.678071 Z0.000000 I-1.059110 J0.615931
G02 X40.332218 Y15.925287 Z0.000000 I-0.073849 J0.247216
G03 X40.045793 Y16.774016 Z0.000000 I-1.400691 J-0.000003
G03 X39.614250 Y16.867915 Z0.000000 I-0.270882 J-0.206330
G02 X39.371207 Y16.854504 Z0.000000 I-0.135900 J0.253878
G02 X39.312582 Y16.988815 Z0.000000 I0.038845 J0.096905
G03 X39.268326 Y17.220281 Z0.000000 I-0.208593 J0.080082
G03 X38.985954 Y17.344084 Z0.000000 I-0.282371 J-0.260117
G03 X37.951325 Y16.406033 Z0.000000 I0.000002 J-1.039603
G03 X38.739641 Y14.834584 Z0.000000 I1.639633 J-0.160934
G03 X39.384132 Y14.640725 Z0.000000 I0.700626 J1.161016
G03 X40.311990 Y14.769187 Z0.000000 I0.108905 J2.628519
G03 X41.598340 Y15.388338 Z0.000000 I-1.726219 J5.232228
G03 X42.733590 Y16.350521 Z0.000000 I-3.274874 J5.014739
G02 X43.307278 Y16.068807 Z0.000000 I0.245322 J-0.225414
G02 X42.303589 Y13.842620 Z0.000000 I-4.793701 J0.821915
G03 X41.697029 Y12.414076 Z0.000000 I2.221427 J-1.786262
G03 X42.064035 Y11.948550 Z0.000000 I0.412556 J-0.052185
G03 X42.314967 Y11.937336 Z0.000000 I0.200898 J1.682348
G03 X42.631617 Y11.965751 Z0.000000 I-0.078335 J2.651503
G02 X42.811038 Y11.895903 Z0.000000 I0.028334 J-0.192585
G02 X42.846929 Y11.701791 Z0.000000 I-0.159967 J-0.129951
G02 X42.206435 Y11.202320 Z0.000000 I-0.692449 J0.227554
G02 X41.295751 Y11.590978 Z0.000000 I-0.077206 J1.080359
G01 X41.295831 Y11.592488 Z0.000000
G00 Z5.000000

(End cutting path id: path847)


(Start cutting path id: path847)
(Change tool to Cylindrical cutter)

G00 Z5.000000
G00 X36.132951 Y11.649679

G01 Z0.000000 F1000.0(Penetrate)
G02 X36.456733 Y12.131307 Z0.000000 I0.520102 J0.000001 F1100.000000
G02 X38.086145 Y12.446062 Z0.000000 I1.606370 J-3.940870
G01 X38.109664 Y12.386595 Z0.000000
G02 X37.759688 Y12.136982 Z0.000000 I-1.070160 J1.130290
G02 X36.284011 Y11.537235 Z0.000000 I-3.884961 J7.443623
G02 X36.132951 Y11.649679 Z0.000000 I-0.033681 J0.112444
G01 X36.132951 Y11.649679 Z0.000000
G00 Z5.000000

(End cutting path id: path847)


(Start cutting path id: path847)
(Change tool to Cylindrical cutter)

G00 Z5.000000
G00 X31.049528 Y12.121029

G01 Z0.000000 F1000.0(Penetrate)
G02 X30.917830 Y12.373300 Z0.000000 I0.401660 J0.370197 F1100.000000
G02 X30.977327 Y12.447389 Z0.000000 I0.059497 J0.013155
G02 X31.456424 Y12.215356 Z0.000000 I0.000001 J-0.610629
G02 X31.431924 Y11.872210 Z0.000000 I-0.200142 J-0.158159
G02 X31.351830 Y11.864577 Z0.000000 I-0.044780 J0.045848
G02 X31.049415 Y12.121029 Z0.000000 I0.914539 J1.384986
G01 X31.049528 Y12.121029 Z0.000000
G00 Z5.000000

(End cutting path id: path847)


(Start cutting path id: path847)
(Change tool to Cylindrical cutter)

G00 Z5.000000
G00 X32.400154 Y31.500897

G01 Z0.000000 F1000.0(Penetrate)
G02 X30.181017 Y32.241993 Z0.000000 I1.164142 J7.178944 F1100.000000
G02 X27.698866 Y33.971552 Z0.000000 I5.657136 J10.764644
G03 X26.642331 Y34.824580 Z0.000000 I-8.409351 J-9.334770
G03 X25.809491 Y35.335184 Z0.000000 I-3.806219 J-5.273760
G02 X24.983555 Y35.814742 Z0.000000 I4.261784 J8.291044
G02 X24.934625 Y35.905003 Z0.000000 I0.058789 J0.090262
G01 X24.984746 Y35.942912 Z0.000000
G02 X25.459550 Y35.756355 Z0.000000 I-0.704926 J-2.491593
G03 X25.619473 Y35.751993 Z0.000000 I0.084524 J0.165086
G03 X25.634514 Y35.834206 Z0.000000 I-0.020578 J0.046247
G03 X25.276865 Y36.172693 Z0.000000 I-7.554353 J-7.623821
G03 X23.991164 Y37.319557 Z0.000000 I-88.189368 J-97.571191
G02 X15.035620 Y46.105743 Z0.000000 I76.772066 J87.209063
G02 X12.112758 Y50.304388 Z0.000000 I14.254413 J13.039814
G03 X11.050705 Y52.040425 Z0.000000 I-12.289806 J-6.325637
G03 X10.865937 Y52.040862 Z0.000000 I-0.092541 J-0.066446
G01 X10.806262 Y52.045190 Z0.000000
G02 X10.795087 Y52.176043 Z0.000000 I0.150255 J0.078737
G03 X10.810739 Y52.591579 Z0.000000 I-0.726234 J0.235419
G03 X10.342269 Y54.042428 Z0.000000 I-9.999264 J-2.427641
G02 X9.348248 Y57.222828 Z0.000000 I18.494902 J7.526049
G02 X9.070198 Y59.747363 Z0.000000 I11.321875 J2.524557
G02 X9.175394 Y59.871306 Z0.000000 I0.125613 J0.000000
G02 X9.420140 Y59.805014 Z0.000000 I0.049675 J-0.301545
G02 X9.701746 Y59.483049 Z0.000000 I-0.860236 J-1.036537
G02 X9.766515 Y59.251530 Z0.000000 I-0.360700 J-0.225729
G02 X9.699025 Y59.205127 Z0.000000 I-0.050175 J0.000693
G02 X9.529913 Y59.338550 Z0.000000 I0.119722 J0.325630
G03 X9.328394 Y59.260425 Z0.000000 I-0.092121 J-0.061347
G03 X10.048771 Y55.955735 Z0.000000 I26.784727 J4.107839
G03 X12.562223 Y50.047817 Z0.000000 I24.730725 J7.032769
G03 X16.791484 Y44.379486 Z0.000000 I26.957875 J15.701901
G03 X27.337467 Y34.113319 Z0.000000 I121.242278 J113.997092
G03 X28.422286 Y34.018609 Z0.000000 I0.605928 J0.680191
G02 X28.570549 Y34.038094 Z0.000000 I0.095814 J-0.155240
G02 X28.911666 Y33.871765 Z0.000000 I-0.338121 J-1.126390
G02 X28.922710 Y33.796090 Z0.000000 I-0.030519 J-0.043098
G02 X28.830206 Y33.767825 Z0.000000 I-0.066496 J0.052119
G03 X28.756211 Y33.624816 Z0.000000 I-0.025118 J-0.077651
G03 X30.167235 Y32.767942 Z0.000000 I5.137874 J6.870385
G03 X31.893950 Y32.158327 Z0.000000 I3.623495 J7.513196
G03 X32.023834 Y32.334408 Z0.000000 I0.027080 J0.115969
G01 X32.059692 Y32.376256 Z0.000000
G02 X32.320057 Y32.217765 Z0.000000 I-0.327088 J-0.830438
G03 X32.810035 Y31.871339 Z0.000000 I1.916291 J2.190643
G03 X33.046283 Y31.809484 Z0.000000 I0.236248 J0.420228
G02 X33.272017 Y31.748947 Z0.000000 I0.000001 J-0.451134
G02 X33.449950 Y31.576195 Z0.000000 I-0.254168 J-0.439801
G02 X33.388912 Y31.456855 Z0.000000 I-0.066648 J-0.041191
G02 X32.400114 Y31.500833 Z0.000000 I-0.305870 J4.260829
G01 X32.400154 Y31.500897 Z0.000000
G00 Z5.000000

(End cutting path id: path847)


(Start cutting path id: path847)
(Change tool to Cylindrical cutter)

G00 Z5.000000
G00 X33.930031 Y31.554190

G01 Z0.000000 F1000.0(Penetrate)
G02 X33.965299 Y31.642971 Z0.000000 I0.050564 J0.031308 F1100.000000
G02 X34.266212 Y31.643681 Z0.000000 I0.151804 J-0.570379
G02 X34.476306 Y31.463684 Z0.000000 I-0.080029 J-0.306022
G02 X34.396954 Y31.342699 Z0.000000 I-0.079352 J-0.034469
G02 X34.096913 Y31.407487 Z0.000000 I-0.000001 J0.727155
G02 X33.930031 Y31.554241 Z0.000000 I0.157189 J0.347011
G01 X33.930031 Y31.554190 Z0.000000
G00 Z5.000000

(End cutting path id: path847)


(Start cutting path id: path847)
(Change tool to Cylindrical cutter)

G00 Z5.000000
G00 X30.533772 Y32.975838

G01 Z0.000000 F1000.0(Penetrate)
G02 X30.411486 Y33.136433 Z0.000000 I0.161397 J0.249751 F1100.000000
G02 X30.461542 Y33.205560 Z0.000000 I0.050738 J0.015946
G02 X30.704408 Y33.145425 Z0.000000 I0.006471 J-0.494368
G02 X30.883585 Y32.975839 Z0.000000 I-0.229961 J-0.422413
G02 X30.834156 Y32.887183 Z0.000000 I-0.049429 J-0.030549
G02 X30.533645 Y32.975838 Z0.000000 I-0.000001 J0.553640
G01 X30.533772 Y32.975838 Z0.000000
G00 Z5.000000

(End cutting path id: path847)


(Start cutting path id: path847)
(Change tool to Cylindrical cutter)

G00 Z5.000000
G00 X23.035765 Y36.955729

G01 Z0.000000 F1000.0(Penetrate)
G01 X22.485008 Y37.436166 Z0.000000 F1100.000000
G01 X23.126571 Y37.045543 Z0.000000
G02 X23.733053 Y36.635210 Z0.000000 I-3.974154 J-6.527276
G02 X23.768141 Y36.565099 Z0.000000 I-0.052503 J-0.070111
G02 X23.679464 Y36.511903 Z0.000000 I-0.060294 J-0.000000
G02 X23.035765 Y36.955729 Z0.000000 I1.624804 J3.045227
G01 X23.035765 Y36.955729 Z0.000000
G00 Z5.000000

(End cutting path id: path847)


(Start cutting path id: path847)
(Change tool to Cylindrical cutter)

G00 Z5.000000
G00 X20.705503 Y38.749851

G01 Z0.000000 F1000.0(Penetrate)
G02 X20.710520 Y38.833100 Z0.000000 I0.049468 J0.038795 F1100.000000
G02 X20.793803 Y38.838141 Z0.000000 I0.044487 J-0.044491
G02 X21.171712 Y38.503176 Z0.000000 I-2.590633 J-3.303420
G02 X21.202075 Y38.429872 Z0.000000 I-0.073306 J-0.073304
G02 X21.111181 Y38.380345 Z0.000000 I-0.058940 J-0.000000
G02 X20.705716 Y38.750063 Z0.000000 I0.898314 J1.392362
G01 X20.705503 Y38.749851 Z0.000000
G00 Z5.000000

(End cutting path id: path847)


(Start cutting path id: path847)
(Change tool to Cylindrical cutter)

G00 Z5.000000
G00 X18.894162 Y40.221554

G01 Z0.000000 F1000.0(Penetrate)
G02 X18.439609 Y40.690923 Z0.000000 I1.956888 J2.349905 F1100.000000
G02 X18.446090 Y40.796107 Z0.000000 I0.062739 J0.048926
G02 X18.554731 Y40.804906 Z0.000000 I0.059493 J-0.059463
G02 X19.103046 Y40.323684 Z0.000000 I-2.216633 J-3.078676
G02 X19.080265 Y40.199146 Z0.000000 I-0.057336 J-0.053865
G02 X18.894162 Y40.221554 Z0.000000 I-0.075747 J0.154922
G01 X18.894162 Y40.221554 Z0.000000
G00 Z5.000000

(End cutting path id: path847)


(Start cutting path id: path847)
(Change tool to Cylindrical cutter)

G00 Z5.000000
G00 X17.857927 Y41.063366

G01 Z0.000000 F1000.0(Penetrate)
G02 X17.744592 Y41.236552 Z0.000000 I0.357384 J0.357552 F1100.000000
G02 X17.702398 Y41.459976 Z0.000000 I0.570444 J0.223426
G02 X17.775557 Y41.524465 Z0.000000 I0.065002 J0.000000
G02 X17.978466 Y41.425087 Z0.000000 I-0.043797 J-0.346264
G02 X18.159164 Y41.149021 Z0.000000 I-0.570710 J-0.570727
G02 X18.133995 Y41.028491 Z0.000000 I-0.104652 J-0.041039
G02 X18.013535 Y40.987276 Z0.000000 I-0.102265 J0.102249
G02 X17.857927 Y41.063391 Z0.000000 I0.033750 J0.266118
G01 X17.857927 Y41.063366 Z0.000000
G00 Z5.000000

(End cutting path id: path847)


(Start cutting path id: path847)
(Change tool to Cylindrical cutter)

G00 Z5.000000
G00 X16.972747 Y42.015994

G01 Z0.000000 F1000.0(Penetrate)
G02 X16.977760 Y42.099249 Z0.000000 I0.049474 J0.038800 F1100.000000
G02 X17.061037 Y42.104294 Z0.000000 I0.044486 J-0.044481
G02 X17.430752 Y41.698840 Z0.000000 I-1.022127 J-1.303322
G02 X17.381221 Y41.607944 Z0.000000 I-0.049532 J-0.031953
G02 X17.307945 Y41.638293 Z0.000000 I-0.000000 J0.103633
G02 X16.972951 Y42.016209 Z0.000000 I2.967973 J2.968316
G01 X16.972747 Y42.015994 Z0.000000
G00 Z5.000000

(End cutting path id: path847)


(Start cutting path id: path847)
(Change tool to Cylindrical cutter)

G00 Z5.000000
G00 X16.205579 Y42.923858

G01 Z0.000000 F1000.0(Penetrate)
G02 X16.253111 Y43.035730 Z0.000000 I0.081663 J0.031337 F1100.000000
G02 X16.413920 Y43.012148 Z0.000000 I0.061020 J-0.143979
G02 X16.649100 Y42.661080 Z0.000000 I-0.475308 J-0.572714
G02 X16.560863 Y42.541122 Z0.000000 I-0.088237 J-0.027527
G02 X16.400594 Y42.611051 Z0.000000 I-0.000000 J0.218624
G02 X16.205579 Y42.924062 Z0.000000 I0.712876 J0.661398
G01 X16.205579 Y42.923858 Z0.000000
G00 Z5.000000

(End cutting path id: path847)


(Start cutting path id: path847)
(Change tool to Cylindrical cutter)

G00 Z5.000000
G00 X14.902823 Y44.407289

G01 Z0.000000 F1000.0(Penetrate)
G02 X14.493764 Y45.061136 Z0.000000 I5.262256 J3.747039 F1100.000000
G01 X14.521099 Y45.107181 Z0.000000
G02 X14.615447 Y45.064505 Z0.000000 I0.000000 J-0.125629
G02 X15.136121 Y44.407290 Z0.000000 I-6.149186 J-5.406499
G02 X15.545173 Y43.753447 Z0.000000 I-5.262031 J-3.746868
G01 X15.517835 Y43.707397 Z0.000000
G02 X15.423488 Y43.750074 Z0.000000 I-0.000000 J0.125625
G02 X14.902823 Y44.407289 Z0.000000 I6.150995 J5.407854
G01 X14.902823 Y44.407289 Z0.000000
G00 Z5.000000

(End cutting path id: path847)


(Start cutting path id: path847)
(Change tool to Cylindrical cutter)

G00 Z5.000000
G00 X13.181500 Y46.800613

G01 Z0.000000 F1000.0(Penetrate)
G02 X12.386214 Y48.042885 Z0.000000 I18.041180 J12.425422 F1100.000000
G02 X12.336545 Y48.223838 Z0.000000 I0.304792 J0.180954
G01 X12.390676 Y48.242849 Z0.000000
G02 X13.161914 Y47.193741 Z0.000000 I-12.222332 J-9.793124
G02 X14.157151 Y45.624317 Z0.000000 I-28.349138 J-19.077639
G01 X14.128456 Y45.573782 Z0.000000
G02 X14.047255 Y45.613686 Z0.000000 I-0.000000 J0.102570
G02 X13.181500 Y46.800613 Z0.000000 I21.482298 J16.578587
G01 X13.181500 Y46.800613 Z0.000000
G00 Z5.000000

(End cutting path id: path847)


(Start cutting path id: path847)
(Change tool to Cylindrical cutter)

G00 Z5.000000
G00 X23.024491 Y44.333705

G01 Z0.000000 F1000.0(Penetrate)
G02 X23.315666 Y44.383594 Z0.000000 I0.262606 J-0.658015 F1100.000000
G02 X23.471640 Y44.315105 Z0.000000 I-0.009415 J-0.233290
G01 X23.456787 Y44.242588 Z0.000000
G02 X23.165435 Y44.192574 Z0.000000 I-0.262306 J0.654403
G02 X23.009605 Y44.260863 Z0.000000 I0.009498 J0.233612
G01 X23.024491 Y44.333520 Z0.000000
G01 X23.024491 Y44.333705 Z0.000000
G00 Z5.000000

(End cutting path id: path847)


(Start cutting path id: path847)
(Change tool to Cylindrical cutter)

G00 Z5.000000
G00 X35.662643 Y51.140083

G01 Z0.000000 F1000.0(Penetrate)
G02 X34.088558 Y52.990423 Z0.000000 I1.558027 J2.920121 F1100.000000
G02 X32.955767 Y59.065310 Z0.000000 I20.267183 J6.922305
G03 X32.694868 Y60.478093 Z0.000000 I-5.030393 J-0.198481
G03 X31.970798 Y61.981525 Z0.000000 I-6.440737 J-2.175855
G02 X29.640082 Y66.107052 Z0.000000 I34.595433 J22.265826
G02 X29.367222 Y67.281309 Z0.000000 I2.390312 J1.174262
G03 X29.310313 Y67.621714 Z0.000000 I-1.046552 J-0.000002
G03 X29.166153 Y67.865367 Z0.000000 I-0.664023 J-0.228404
G02 X28.580927 Y69.051270 Z0.000000 I1.782280 J1.616881
G02 X28.646414 Y70.720475 Z0.000000 I3.777665 J0.687682
G02 X28.981840 Y71.176497 Z0.000000 I0.745766 J-0.197176
G02 X30.081964 Y71.622295 Z0.000000 I1.804195 J-2.872005
G02 X31.356434 Y71.840045 Z0.000000 I3.366385 J-15.864553
G02 X32.400077 Y71.923819 Z0.000000 I1.371626 J-10.544836
G03 X36.589746 Y72.919047 Z0.000000 I-0.331051 J10.710005
G03 X39.331439 Y75.149463 Z0.000000 I-3.044739 J6.542977
G02 X39.997706 Y76.000998 Z0.000000 I18.468125 J-13.763614
G02 X40.149015 Y76.145303 Z0.000000 I0.665710 J-0.546541
G03 X40.663112 Y76.874330 Z0.000000 I-0.855968 J1.149393
G03 X41.059675 Y79.113375 Z0.000000 I-8.901719 J2.731243
G03 X40.894761 Y81.171558 Z0.000000 I-7.775850 J0.412654
G03 X40.477828 Y81.805788 Z0.000000 I-1.029417 J-0.222566
G01 X40.482223 Y81.884157 Z0.000000
G02 X40.682115 Y81.919717 Z0.000000 I0.151426 J-0.271607
G02 X41.490986 Y81.170212 Z0.000000 I-0.154171 J-0.977604
G02 X41.499482 Y78.468755 Z0.000000 I-5.779625 J-1.368919
G02 X40.630130 Y76.016791 Z0.000000 I-11.099790 J2.555369
G02 X39.501890 Y74.387488 Z0.000000 I-5.936985 J2.905883
G02 X36.844274 Y72.605990 Z0.000000 I-5.236388 J4.938529
G02 X31.538467 Y71.331576 Z0.000000 I-7.500905 J19.546626
G03 X29.579888 Y70.675359 Z0.000000 I0.500138 J-4.743690
G03 X29.135223 Y69.885960 Z0.000000 I0.473038 J-0.786399
G03 X29.995145 Y65.696912 Z0.000000 I10.825265 J0.039410
G03 X32.654645 Y61.595438 Z0.000000 I12.998056 J5.515287
G03 X33.044281 Y61.652319 Z0.000000 I0.175181 J0.162950
G03 X33.455145 Y63.213923 Z0.000000 I-3.606368 J1.783701
G02 X33.622301 Y64.708716 Z0.000000 I13.438378 J-0.746012
G02 X33.759414 Y65.013944 Z0.000000 I0.654174 J-0.110455
G03 X33.927627 Y65.312016 Z0.000000 I-0.820159 J0.659346
G03 X34.148763 Y66.079119 Z0.000000 I-5.377701 J1.965678
G02 X34.358949 Y66.857741 Z0.000000 I7.468278 J-1.598352
G02 X34.683541 Y67.712207 Z0.000000 I9.332723 J-3.056401
G03 X35.025921 Y68.560666 Z0.000000 I-16.099655 J6.990021
G03 X35.101562 Y68.831309 Z0.000000 I-1.551358 J0.579476
G02 X35.636093 Y70.568798 Z0.000000 I8.071179 J-1.532095
G02 X35.942594 Y70.769932 Z0.000000 I0.306502 J-0.132968
G02 X36.049328 Y70.680479 Z0.000000 I0.000000 J-0.108403
G02 X36.015145 Y70.361662 Z0.000000 I-0.566224 J-0.100532
G03 X35.377046 Y68.541784 Z0.000000 I16.950306 J-6.965051
G03 X35.202569 Y67.583934 Z0.000000 I4.482919 J-1.311397
G01 X35.218196 Y67.569645 Z0.000000
G03 X35.666403 Y67.669594 Z0.000000 I-1.156193 J6.239713
G02 X35.798524 Y67.537577 Z0.000000 I0.027383 J-0.104716
G02 X35.563789 Y67.275926 Z0.000000 I-0.370983 J0.096701
G03 X34.735917 Y66.437863 Z0.000000 I0.504119 J-1.325922
G03 X34.648488 Y64.776857 Z0.000000 I2.655403 J-0.972575
G03 X34.896968 Y64.719239 Z0.000000 I0.139010 J0.034889
G03 X35.072504 Y65.278626 Z0.000000 I-0.578333 J0.488717
G02 X35.133593 Y66.110340 Z0.000000 I2.502957 J0.234258
G02 X35.297068 Y66.195913 Z0.000000 I0.119430 J-0.029221
G03 X35.580218 Y66.188665 Z0.000000 I0.151809 J0.396181
G03 X35.795498 Y66.357547 Z0.000000 I-0.123355 J0.378898
G03 X35.789758 Y66.460805 Z0.000000 I-0.076877 J0.047516
G03 X35.702478 Y66.476332 Z0.000000 I-0.052314 J-0.040993
G02 X35.530679 Y66.484744 Z0.000000 I-0.079784 J0.129098
G02 X35.433128 Y66.681790 Z0.000000 I0.150235 J0.197047
G02 X35.561585 Y66.839361 Z0.000000 I0.160870 J0.000000
G02 X35.935100 Y66.785069 Z0.000000 I0.111743 J-0.543229
G03 X36.208439 Y66.775574 Z0.000000 I0.146332 J0.273424
G03 X36.275362 Y66.937820 Z0.000000 I-0.052297 J0.116496
G01 X36.343611 Y66.998379 Z0.000000
G02 X36.776394 Y66.673341 Z0.000000 I-0.800175 J-1.516060
G02 X37.298025 Y65.942991 Z0.000000 I-2.187945 J-2.114130
G02 X37.364959 Y65.520867 Z0.000000 I-0.614449 J-0.313799
G03 X37.404781 Y65.083909 Z0.000000 I0.881579 J-0.139951
G03 X37.724118 Y64.503248 Z0.000000 I1.918396 J0.676890
G01 X38.157448 Y63.952222 Z0.000000
G01 X38.458699 Y65.086494 Z0.000000
G02 X38.775761 Y66.216140 Z0.000000 I40.409526 J-10.732570
G02 X39.208445 Y67.620551 Z0.000000 I62.928348 J-18.618702
G03 X39.636232 Y69.413875 Z0.000000 I-11.578268 J3.709610
G03 X39.860085 Y71.703252 Z0.000000 I-18.690162 J2.983136
G02 X39.942413 Y71.796082 Z0.000000 I0.097490 J-0.003539
G02 X40.073482 Y71.736833 Z0.000000 I0.020377 J-0.129518
G03 X40.410008 Y71.713537 Z0.000000 I0.176825 J0.112039
G03 X40.499396 Y72.239507 Z0.000000 I-0.399393 J0.338457
G02 X40.562788 Y72.402416 Z0.000000 I0.121410 J0.046544
G02 X41.061958 Y72.519956 Z0.000000 I0.499172 J-1.001182
G02 X41.655803 Y72.443793 Z0.000000 I0.000004 J-2.353175
G02 X41.732147 Y72.344985 Z0.000000 I-0.025769 J-0.098808
G02 X41.667601 Y72.234555 Z0.000000 I-0.126739 J-0.000000
G02 X41.421477 Y72.170013 Z0.000000 I-0.246126 J0.437023
G03 X41.209850 Y72.032676 Z0.000000 I0.000000 J-0.231720
G03 X40.198904 Y69.428769 Z0.000000 I25.945556 J-11.571354
G03 X39.297453 Y66.685115 Z0.000000 I370.431095 J-123.228179
G03 X39.271598 Y66.570867 Z0.000000 I0.611745 J-0.198490
G02 X39.130613 Y65.783552 Z0.000000 I-8.742233 J1.159196
G02 X38.782807 Y64.412869 Z0.000000 I-26.583303 J6.015951
G03 X38.811986 Y64.113857 Z0.000000 I0.397836 J-0.112108
G03 X38.989876 Y64.004599 Z0.000000 I0.177890 J0.090188
G02 X39.274112 Y63.916072 Z0.000000 I0.000001 J-0.500564
G02 X39.939529 Y63.349495 Z0.000000 I-2.449379 J-3.550713
G02 X40.263323 Y62.692268 Z0.000000 I-0.877471 J-0.840674
G02 X40.113875 Y62.207839 Z0.000000 I-0.575147 J-0.087832
G03 X39.791936 Y61.722942 Z0.000000 I1.304893 J-1.215682
G03 X39.821513 Y61.556996 Z0.000000 I0.136441 J-0.061290
G01 X39.804417 Y61.478462 Z0.000000
G02 X39.515850 Y61.440054 Z0.000000 I-0.225071 J0.587763
G03 X38.415812 Y61.151124 Z0.000000 I-0.163842 J-1.614747
G03 X37.740967 Y60.186768 Z0.000000 I1.002674 J-1.419962
G03 X37.330908 Y56.329559 Z0.000000 I11.800721 J-3.204934
G03 X38.029711 Y54.781651 Z0.000000 I2.340747 J0.125038
G03 X38.669769 Y54.821669 Z0.000000 I0.302039 J0.307745
G03 X39.549402 Y56.700343 Z0.000000 I-3.536655 J2.801201
G02 X39.885860 Y58.287804 Z0.000000 I271.312883 J-56.674631
G02 X40.091577 Y59.221999 Z0.000000 I94.181574 J-20.249789
G02 X41.431693 Y63.928149 Z0.000000 I42.866625 J-9.662751
G02 X42.349662 Y65.747922 Z0.000000 I7.204833 J-2.492999
G02 X42.527892 Y65.764739 Z0.000000 I0.096131 J-0.065948
G02 X42.665348 Y65.434776 Z0.000000 I-0.327310 J-0.329964
G02 X42.543943 Y64.703470 Z0.000000 I-2.263241 J-0.000004
G02 X42.198761 Y64.068265 Z0.000000 I-2.036785 J0.695433
G03 X41.803519 Y63.450382 Z0.000000 I2.963062 J-2.330742
G03 X41.732165 Y63.153436 Z0.000000 I0.582203 J-0.296945
G02 X41.686116 Y62.843518 Z0.000000 I-1.065909 J-0.000002
G02 X41.511313 Y62.426683 Z0.000000 I-2.122272 J0.644918
G03 X39.630063 Y57.643436 Z0.000000 I18.185379 J-9.913878
G03 X40.125278 Y57.005676 Z0.000000 I0.495213 J-0.126616
G03 X40.261597 Y57.085049 Z0.000000 I-0.000000 J0.156748
G03 X40.480622 Y57.631697 Z0.000000 I-1.900174 J1.078545
G02 X40.674114 Y58.243927 Z0.000000 I5.205837 J-1.308581
G02 X40.950223 Y58.856510 Z0.000000 I5.458418 J-2.091754
G03 X41.204788 Y59.469625 Z0.000000 I-3.369757 J1.758525
G03 X41.264140 Y59.849806 Z0.000000 I-1.217643 J0.384817
G02 X41.338485 Y60.203470 Z0.000000 I0.892151 J-0.002897
G02 X41.498871 Y60.388491 Z0.000000 I0.376057 J-0.163960
G02 X41.607552 Y60.308087 Z0.000000 I0.038271 J-0.061923
G02 X40.872659 Y58.002665 Z0.000000 I-22.557023 J5.920608
G03 X40.156632 Y55.077058 Z0.000000 I11.726170 J-4.420342
G03 X40.322183 Y53.420529 Z0.000000 I3.801181 J-0.456652
G03 X41.001944 Y52.830265 Z0.000000 I0.835634 J0.275788
G03 X42.304060 Y53.063830 Z0.000000 I0.336571 J1.870034
G02 X42.909890 Y53.287434 Z0.000000 I0.919159 J-1.557846
G02 X42.994137 Y53.185200 Z0.000000 I0.013185 J-0.074964
G02 X42.112386 Y52.170556 Z0.000000 I-1.834898 J0.704117
G02 X40.885949 Y52.016100 Z0.000000 I-0.805981 J1.453384
G02 X40.032441 Y52.652656 Z0.000000 I0.358532 J1.371207
G02 X39.632502 Y54.084048 Z0.000000 I2.361544 J1.431397
G01 X39.632501 Y54.706512 Z0.000000
G01 X39.034362 Y54.236017 Z0.000000
G02 X38.017380 Y54.492934 Z0.000000 I-0.409445 J0.520521
G02 X37.219368 Y58.419079 Z0.000000 I8.863291 J3.845689
G01 X37.243662 Y61.349888 Z0.000000
G01 X36.163361 Y61.846204 Z0.000000
G02 X35.121888 Y62.400404 Z0.000000 I4.220341 J9.186710
G02 X34.582957 Y62.809506 Z0.000000 I1.730994 J2.839862
G03 X34.072406 Y62.913443 Z0.000000 I-0.339966 J-0.364044
G03 X33.799907 Y62.524076 Z0.000000 I0.141929 J-0.389366
G02 X33.748405 Y62.063624 Z0.000000 I-2.084047 J-0.000004
G02 X33.515143 Y61.267082 Z0.000000 I-6.521705 J1.477410
G03 X33.371384 Y60.526930 Z0.000000 I2.294390 J-0.829677
G03 X33.480295 Y60.317329 Z0.000000 I0.239239 J-0.008784
G02 X33.692774 Y60.120891 Z0.000000 I-0.466767 J-0.718014
G02 X34.003764 Y59.635429 Z0.000000 I-2.689936 J-2.065533
G02 X34.047378 Y59.320078 Z0.000000 I-0.413904 J-0.217936
G02 X33.922154 Y59.252115 Z0.000000 I-0.091645 J0.019513
G03 X33.711793 Y59.177602 Z0.000000 I-0.061558 J-0.160408
G03 X33.566806 Y58.636414 Z0.000000 I0.937538 J-0.541186
G03 X33.862467 Y58.248601 Z0.000000 I0.402174 J0.000001
G03 X34.849949 Y58.283967 Z0.000000 I0.437345 J1.592360
G01 X34.913061 Y58.220109 Z0.000000
G02 X34.733297 Y57.965677 Z0.000000 I-0.560964 J0.205617
G02 X34.125184 Y57.549698 Z0.000000 I-2.562117 J3.093032
G02 X33.856393 Y57.477363 Z0.000000 I-0.278925 J0.500895
G03 X32.953117 Y56.291690 Z0.000000 I0.016714 J-0.949639
G03 X35.279389 Y51.931015 Z0.000000 I10.114756 J2.595048
G03 X36.658552 Y50.983256 Z0.000000 I2.628243 J2.347229
G03 X37.553193 Y51.069057 Z0.000000 I0.360285 J0.950408
G02 X37.710948 Y51.084056 Z0.000000 I0.094043 J-0.152003
G02 X37.880472 Y50.943662 Z0.000000 I-0.122052 J-0.319922
G02 X37.638917 Y50.552156 Z0.000000 I-0.218836 J-0.135252
G02 X35.662855 Y51.140283 Z0.000000 I0.456328 J5.147002
G01 X35.662643 Y51.140083 Z0.000000
G00 Z5.000000

(End cutting path id: path847)


(Start cutting path id: path847)
(Change tool to Cylindrical cutter)

G00 Z5.000000
G00 X43.190110 Y56.622779

G01 Z0.000000 F1000.0(Penetrate)
G02 X42.808232 Y56.970933 Z0.000000 I0.415798 J0.839587 F1100.000000
G02 X42.668763 Y57.468997 Z0.000000 I0.799144 J0.492338
G02 X42.758973 Y57.753504 Z0.000000 I0.504913 J-0.003541
G02 X42.865110 Y57.751305 Z0.000000 I0.052338 J-0.036354
G03 X43.097874 Y57.545473 Z0.000000 I0.472346 J0.299623
G03 X43.357311 Y57.518006 Z0.000000 I0.168898 J0.356330
G02 X43.544477 Y57.438194 Z0.000000 I0.039487 J-0.166768
G02 X43.693590 Y56.947081 Z0.000000 I-0.940410 J-0.553722
G01 X43.722881 Y56.334156 Z0.000000
G01 X43.705631 Y56.355578 Z0.000000
G03 X43.190259 Y56.622779 Z0.000000 I-7.495885 J-13.827316
G01 X43.190110 Y56.622779 Z0.000000
G00 Z5.000000

(End cutting path id: path847)


(Start cutting path id: path847)
(Change tool to Cylindrical cutter)

G00 Z5.000000
G00 X44.064978 Y56.772118

G01 Z0.000000 F1000.0(Penetrate)
G02 X44.133305 Y56.937079 Z0.000000 I0.233295 J0.000000 F1100.000000
G02 X44.298275 Y57.005415 Z0.000000 I0.164971 J-0.164964
G02 X44.463241 Y56.937081 Z0.000000 I0.000000 J-0.233287
G02 X44.531567 Y56.772119 Z0.000000 I-0.164973 J-0.164962
G02 X44.463236 Y56.607149 Z0.000000 I-0.233306 J-0.000000
G02 X44.298276 Y56.538819 Z0.000000 I-0.164960 J0.164954
G02 X44.133313 Y56.607148 Z0.000000 I-0.000000 J0.233297
G02 X44.064978 Y56.772118 Z0.000000 I0.164967 J0.164971
G01 X44.064978 Y56.772118 Z0.000000
G00 Z5.000000

(End cutting path id: path847)


(Start cutting path id: path847)
(Change tool to Cylindrical cutter)

G00 Z5.000000
G00 X47.445435 Y56.542767

G01 Z0.000000 F1000.0(Penetrate)
G03 X47.274685 Y56.676920 Z0.000000 I-0.267878 J-0.165212 F1100.000000
G03 X47.097849 Y56.655609 Z0.000000 I-0.065407 J-0.201596
G02 X46.920486 Y56.631967 Z0.000000 I-0.115106 J0.186415
G02 X46.757789 Y56.756260 Z0.000000 I0.081659 J0.275521
G02 X46.950888 Y57.037643 Z0.000000 I0.158667 J0.098064
G02 X47.885587 Y56.544428 Z0.000000 I-0.330216 J-1.758087
G02 X47.942599 Y56.380954 Z0.000000 I-0.140765 J-0.140770
G02 X47.858178 Y56.305670 Z0.000000 I-0.084421 J0.009691
G02 X47.626451 Y56.367494 Z0.000000 I-0.000001 J0.465181
G02 X47.445435 Y56.542769 Z0.000000 I0.255839 J0.445328
G01 X47.445435 Y56.542767 Z0.000000
G00 Z5.000000

(End cutting path id: path847)


(Start cutting path id: path847)
(Change tool to Cylindrical cutter)

G00 Z5.000000
G00 X47.622759 Y58.135210

G01 Z0.000000 F1000.0(Penetrate)
G02 X46.466717 Y59.976276 Z0.000000 I28.503439 J19.181366 F1100.000000
G02 X46.397947 Y60.230156 Z0.000000 I0.434247 J0.253881
G03 X46.330128 Y60.437050 Z0.000000 I-0.349496 J-0.000001
G03 X46.195884 Y60.505013 Z0.000000 I-0.134244 J-0.098604
G02 X46.048916 Y60.590338 Z0.000000 I-0.000000 J0.169234
G02 X45.230204 Y62.196418 Z0.000000 I16.538242 J9.442218
G02 X44.672153 Y63.933314 Z0.000000 I7.359860 J3.322760
G02 X44.440738 Y66.138079 Z0.000000 I11.691630 J2.341695
G02 X44.660851 Y68.310372 Z0.000000 I9.732735 J0.111104
G02 X45.148597 Y69.404244 Z0.000000 I2.860599 J-0.619833
G02 X47.047287 Y71.155838 Z0.000000 I5.265470 J-3.802791
G02 X49.601911 Y72.103614 Z0.000000 I3.745831 J-6.179726
G02 X51.196699 Y71.973539 Z0.000000 I0.539444 J-3.227646
G02 X52.106230 Y71.250398 Z0.000000 I-0.556554 J-1.633559
G03 X52.274214 Y71.225735 Z0.000000 I0.094410 J0.058630
G03 X52.486896 Y71.586650 Z0.000000 I-0.447889 J0.507058
G01 X52.641744 Y72.286537 Z0.000000
G01 X52.669346 Y71.528322 Z0.000000
G02 X52.595777 Y70.867347 Z0.000000 I-2.260422 J-0.082990
G02 X52.469491 Y70.770101 Z0.000000 I-0.126286 J0.033377
G03 X52.356173 Y70.672152 Z0.000000 I0.000000 J-0.114525
G03 X52.358574 Y70.011888 Z0.000000 I2.202194 J-0.322128
G02 X52.295655 Y69.818933 Z0.000000 I-0.222454 J-0.034198
G02 X52.184452 Y69.836913 Z0.000000 I-0.049147 J0.048908
G03 X51.853998 Y70.384531 Z0.000000 I-3.555596 J-1.772070
G03 X51.653795 Y70.574696 Z0.000000 I-0.601039 J-0.432298
G02 X51.422638 Y70.741165 Z0.000000 I1.507780 J2.337405
G02 X50.853198 Y71.216256 Z0.000000 I11.613953 J14.499175
G03 X49.757292 Y71.601443 Z0.000000 I-1.033964 J-1.190173
G03 X47.890778 Y71.099775 Z0.000000 I0.171477 J-4.361129
G03 X45.716120 Y68.997759 Z0.000000 I2.532431 J-4.795859
G03 X44.898281 Y65.870843 Z0.000000 I5.375472 J-3.076356
G03 X45.065964 Y63.918443 Z0.000000 I12.636943 J0.101935
G03 X45.431676 Y62.632133 Z0.000000 I5.814245 J0.957908
G03 X46.564985 Y60.418505 Z0.000000 I13.957360 J5.748811
G03 X48.763671 Y57.265709 Z0.000000 I30.637018 J19.022490
G02 X49.148351 Y56.692429 Z0.000000 I-3.822523 J-2.980679
G02 X49.197521 Y56.507496 Z0.000000 I-0.323192 J-0.184933
G02 X49.004022 Y56.429218 Z0.000000 I-0.112583 J-0.000000
G02 X47.622760 Y58.135202 Z0.000000 I8.952877 J8.660922
G01 X47.622759 Y58.135210 Z0.000000
G00 Z5.000000

(End cutting path id: path847)


(Start cutting path id: path847)
(Change tool to Cylindrical cutter)

G00 Z5.000000
G00 X49.556362 Y56.830586

G01 Z0.000000 F1000.0(Penetrate)
G02 X48.520275 Y58.331650 Z0.000000 I2.443479 J2.794680 F1100.000000
G02 X48.749755 Y59.000225 Z0.000000 I0.522608 J0.194292
G02 X48.918237 Y59.004243 Z0.000000 I0.087664 J-0.141523
G02 X49.060131 Y58.828400 Z0.000000 I-0.146064 J-0.263036
G03 X49.154131 Y58.522446 Z0.000000 I30.114845 J9.084944
G03 X49.279241 Y58.127314 Z0.000000 I56.950855 J17.814944
G03 X49.477012 Y57.786822 Z0.000000 I0.875435 J0.280803
G03 X49.995392 Y57.346280 Z0.000000 I2.021249 J1.853119
G03 X50.588181 Y57.196701 Z0.000000 I0.512723 J0.782531
G03 X51.406274 Y57.467472 Z0.000000 I-0.159070 J1.851857
G03 X52.184053 Y58.017789 Z0.000000 I-4.030045 J6.520581
G03 X52.403912 Y58.270868 Z0.000000 I-0.595204 J0.739113
G02 X52.599807 Y58.552647 Z0.000000 I2.113118 J-1.260078
G02 X53.452379 Y59.574575 Z0.000000 I28.826435 J-23.182618
G02 X54.345534 Y60.236776 Z0.000000 I1.930513 J-1.670386
G02 X54.783817 Y60.166696 Z0.000000 I0.165309 J-0.371712
G03 X55.302638 Y59.965651 Z0.000000 I0.521783 J0.576564
G03 X57.294586 Y60.157101 Z0.000000 I0.038321 J10.059696
G03 X61.149781 Y61.317993 Z0.000000 I-4.060210 J20.465286
G03 X62.002130 Y62.087343 Z0.000000 I-0.643767 J1.570045
G03 X62.176502 Y62.511398 Z0.000000 I-1.999029 J1.069883
G03 X62.387267 Y63.383473 Z0.000000 I-8.320183 J2.472349
G03 X62.263519 Y64.177507 Z0.000000 I-1.184027 J0.222132
G03 X61.225582 Y65.537181 Z0.000000 I-4.803938 J-2.591189
G03 X59.874866 Y66.746993 Z0.000000 I-20.168190 J-21.158216
G03 X59.720644 Y66.803236 Z0.000000 I-0.154221 J-0.183321
G03 X59.567299 Y66.749191 Z0.000000 I0.000000 J-0.244570
G03 X58.995995 Y66.219996 Z0.000000 I3.517793 J-4.370687
G02 X58.421165 Y65.698915 Z0.000000 I-3.528474 J3.314830
G02 X58.238518 Y65.636743 Z0.000000 I-0.182648 J0.237205
G03 X58.038841 Y65.593828 Z0.000000 I0.000001 J-0.485993
G03 X55.374813 Y64.346190 Z0.000000 I41.427436 J-91.926207
G02 X52.702383 Y63.231926 Z0.000000 I-11.006485 J22.635861
G02 X52.123869 Y63.205419 Z0.000000 I-0.333397 J0.950104
G03 X51.549640 Y63.221222 Z0.000000 I-0.322725 J-1.286091
G03 X50.953741 Y62.979532 Z0.000000 I0.315561 J-1.633485
G02 X49.914144 Y62.691287 Z0.000000 I-0.970386 J1.480989
G02 X48.914616 Y63.059258 Z0.000000 I0.067472 J1.724782
G03 X48.346569 Y63.328911 Z0.000000 I-0.877706 J-1.115815
G03 X48.068973 Y63.248259 Z0.000000 I-0.065444 J-0.292807
G02 X47.139542 Y63.276482 Z0.000000 I-0.451435 J0.451435
G02 X46.366897 Y65.170000 Z0.000000 I2.313634 J2.048470
G02 X46.568683 Y65.656375 Z0.000000 I0.613021 J0.030717
G02 X46.802003 Y65.562664 Z0.000000 I0.093755 J-0.103883
G03 X47.424909 Y64.322911 Z0.000000 I1.807292 J0.131699
G03 X48.158612 Y64.391092 Z0.000000 I0.334072 J0.386836
G02 X48.819959 Y64.614914 Z0.000000 I0.504761 J-0.402482
G02 X49.197508 Y64.131352 Z0.000000 I-0.120898 J-0.483563
G03 X49.598761 Y63.605344 Z0.000000 I0.545404 J0.000001
G03 X50.659137 Y63.730799 Z0.000000 I0.375498 J1.370201
G02 X51.442946 Y64.008747 Z0.000000 I1.241131 J-2.255834
G02 X52.463667 Y64.056484 Z0.000000 I0.690364 J-3.824957
G03 X53.468041 Y64.140848 Z0.000000 I0.255098 J2.983846
G03 X54.369399 Y64.548568 Z0.000000 I-0.723451 J2.799543
G02 X55.215760 Y65.029505 Z0.000000 I3.416966 J-5.028051
G02 X55.349554 Y65.005931 Z0.000000 I0.050068 J-0.107300
G03 X55.436130 Y65.017713 Z0.000000 I0.038810 J0.038798
G03 X55.629163 Y65.500575 Z0.000000 I-1.688760 J0.955128
G02 X55.901350 Y66.027039 Z0.000000 I1.255711 J-0.315620
G02 X56.457056 Y66.467278 Z0.000000 I1.405707 J-1.203553
G02 X56.667012 Y66.347735 Z0.000000 I0.066163 J-0.127942
G02 X56.488237 Y65.933980 Z0.000000 I-0.500517 J-0.029237
G01 X55.846661 Y65.397271 Z0.000000
G01 X56.546552 Y65.678701 Z0.000000
G03 X57.226158 Y65.995066 Z0.000000 I-2.621926 J6.520487
G03 X57.596395 Y66.237372 Z0.000000 I-1.150388 J2.161769
G02 X57.967788 Y66.473708 Z0.000000 I1.325797 J-1.673460
G02 X58.471258 Y66.674577 Z0.000000 I1.447093 J-2.895682
G03 X58.858761 Y67.217929 Z0.000000 I-0.159588 J0.523668
G03 X58.412825 Y68.297491 Z0.000000 I-1.675680 J-0.060293
G02 X57.974235 Y68.939420 Z0.000000 I1.933094 J1.791556
G02 X58.062873 Y69.019431 Z0.000000 I0.055950 J0.027120
G03 X58.217571 Y69.132611 Z0.000000 I0.054379 J0.087986
G03 X57.849654 Y69.868450 Z0.000000 I-1.848000 J-0.464096
G03 X57.396566 Y70.243003 Z0.000000 I-1.156216 J-0.937323
G03 X57.208091 Y70.212309 Z0.000000 I-0.074193 J-0.138428
G03 X57.168909 Y70.042791 Z0.000000 I0.125495 J-0.118294
G03 X57.304662 Y69.901237 Z0.000000 I0.209692 J0.065226
G02 X57.524684 Y69.746565 Z0.000000 I-0.170593 J-0.476500
G02 X57.596281 Y69.547072 Z0.000000 I-0.242133 J-0.199493
G02 X57.511674 Y69.487731 Z0.000000 I-0.063114 J-0.000000
G02 X57.135823 Y69.713774 Z0.000000 I0.387429 J1.069684
G02 X56.812796 Y70.176706 Z0.000000 I0.845173 J0.933917
G02 X56.768535 Y70.624792 Z0.000000 I0.743215 J0.299644
G03 X56.856033 Y71.119917 Z0.000000 I-22.723909 J4.271037
G03 X56.879044 Y71.294074 Z0.000000 I-2.653042 J0.439151
G02 X56.949402 Y71.410619 Z0.000000 I0.158101 J-0.015935
G02 X57.143456 Y71.469054 Z0.000000 I0.194055 J-0.292995
G02 X57.252859 Y71.392342 Z0.000000 I0.000000 J-0.116368
G02 X57.234706 Y71.217154 Z0.000000 I-0.189952 J-0.068852
G03 X57.231332 Y70.983824 Z0.000000 I0.193004 J-0.119481
G03 X57.775008 Y70.284794 Z0.000000 I2.832833 J1.642323
G01 X58.471010 Y69.604336 Z0.000000
G01 X58.471009 Y70.186797 Z0.000000
G03 X58.380833 Y70.679032 Z0.000000 I-1.388559 J-0.000003
G03 X58.250206 Y70.769208 Z0.000000 I-0.130627 J-0.049523
G02 X58.201764 Y70.840598 Z0.000000 I-0.000000 J0.052130
G02 X58.396023 Y71.135830 Z0.000000 I0.812260 J-0.322930
G03 X58.654373 Y71.547280 Z0.000000 I-0.770803 J0.770823
G03 X58.762627 Y72.185663 Z0.000000 I-1.828159 J0.638380
G02 X58.904158 Y72.727362 Z0.000000 I1.107408 J0.000002
G02 X59.145806 Y72.868895 Z0.000000 I0.241649 J-0.135525
G02 X59.343384 Y72.701676 Z0.000000 I0.000000 J-0.200333
G02 X59.381810 Y71.460750 Z0.000000 I-4.545465 J-0.761813
G03 X59.405788 Y70.157491 Z0.000000 I5.303209 J-0.554279
G03 X59.601436 Y69.911849 Z0.000000 I0.306652 J0.043506
G02 X59.749084 Y69.750494 Z0.000000 I-0.087663 J-0.228446
G02 X59.690546 Y69.599392 Z0.000000 I-0.129200 J-0.036837
G03 X59.541484 Y69.379954 Z0.000000 I0.170815 J-0.276381
G03 X59.571132 Y68.928573 Z0.000000 I0.930096 J-0.165573
G03 X59.788764 Y68.589139 Z0.000000 I0.740699 J0.235422
G03 X59.961949 Y68.573100 Z0.000000 I0.097232 J0.106859
G03 X60.087346 Y68.752747 Z0.000000 I-0.144796 J0.234658
G03 X60.061639 Y69.062574 Z0.000000 I-0.544298 J0.110818
G02 X60.081951 Y69.262036 Z0.000000 I0.207875 J0.079597
G02 X60.220703 Y69.311162 Z0.000000 I0.100904 J-0.064485
G02 X60.432272 Y69.154185 Z0.000000 I-0.133184 J-0.400562
G02 X60.523088 Y68.883395 Z0.000000 I-0.405801 J-0.286718
G03 X60.620969 Y68.662892 Z0.000000 I0.324672 J0.012147
G03 X60.806318 Y68.608416 Z0.000000 I0.144138 J0.147861
G02 X60.936712 Y68.543548 Z0.000000 I0.023692 J-0.115864
G02 X60.945729 Y68.316799 Z0.000000 I-0.259158 J-0.123859
G03 X61.052501 Y68.063793 Z0.000000 I0.184962 J-0.070976
G03 X61.795627 Y67.951740 Z0.000000 I0.585567 J1.363232
G02 X61.872813 Y67.889761 Z0.000000 I0.007478 J-0.069739
G02 X61.816157 Y67.767254 Z0.000000 I-0.129585 J-0.014425
G03 X61.710474 Y67.524238 Z0.000000 I0.137584 J-0.204320
G03 X61.919756 Y67.115957 Z0.000000 I0.729161 J0.115984
G03 X62.139051 Y67.015824 Z0.000000 I0.245589 J0.247649
G03 X62.198202 Y67.094908 Z0.000000 I0.004413 J0.058363
G02 X62.167701 Y67.417496 Z0.000000 I0.571475 J0.216771
G02 X62.269751 Y67.503173 Z0.000000 I0.102051 J-0.017939
G03 X62.413902 Y67.584998 Z0.000000 I-0.000000 J0.167887
G03 X62.495729 Y67.881679 Z0.000000 I-0.496925 J0.296681
G02 X62.606624 Y68.024035 Z0.000000 I0.146817 J0.000000
G02 X62.845676 Y67.969980 Z0.000000 I0.066261 J-0.262586
G02 X63.094742 Y67.632178 Z0.000000 I-0.557544 J-0.671806
G02 X63.195622 Y67.124873 Z0.000000 I-1.225135 J-0.507307
G03 X63.288735 Y66.663311 Z0.000000 I1.190554 J0.000002
G03 X63.428915 Y66.570194 Z0.000000 I0.140180 J0.058957
G02 X63.591941 Y66.499915 Z0.000000 I0.000000 J-0.224221
G02 X63.662219 Y66.323128 Z0.000000 I-0.187219 J-0.176787
G02 X63.592131 Y66.201785 Z0.000000 I-0.140083 J-0.000000
G02 X63.455441 Y66.203857 Z0.000000 I-0.066610 J0.115475
G03 X63.306741 Y66.186573 Z0.000000 I-0.063445 J-0.102457
G03 X63.130136 Y65.878369 Z0.000000 I0.480480 J-0.480023
G03 X63.176567 Y65.488646 Z0.000000 I0.519669 J-0.135714
G03 X63.570212 Y65.059075 Z0.000000 I1.040901 J0.558702
G02 X64.043240 Y64.646826 Z0.000000 I-1.260752 J-1.924132
G02 X64.128813 Y64.418490 Z0.000000 I-0.261850 J-0.228337
G02 X64.047997 Y64.339362 Z0.000000 I-0.079145 J-0.000000
G02 X63.848854 Y64.424489 Z0.000000 I0.006124 J0.289823
G03 X63.390871 Y64.606447 Z0.000000 I-0.439916 J-0.439915
G03 X63.195627 Y64.405448 Z0.000000 I0.005839 J-0.200998
G03 X63.760466 Y63.621551 Z0.000000 I0.826377 J0.000002
G03 X64.839833 Y63.856886 Z0.000000 I0.341905 J1.024780
G01 X64.882259 Y63.830805 Z0.000000
G02 X64.741524 Y63.519138 Z0.000000 I-1.166562 J0.339159
G03 X64.473937 Y62.929865 Z0.000000 I1.985566 J-1.257031
G03 X64.516833 Y62.760921 Z0.000000 I0.163405 J-0.048428
G02 X64.436642 Y62.644261 Z0.000000 I-0.050901 J-0.050902
G02 X63.741676 Y63.106113 Z0.000000 I1.018163 J2.285868
G03 X63.274298 Y63.369774 Z0.000000 I-0.771076 J-0.820766
G03 X63.116909 Y63.281087 Z0.000000 I-0.034422 J-0.122911
G02 X62.377116 Y61.786004 Z0.000000 I-4.298762 J1.196530
G02 X61.329251 Y60.917362 Z0.000000 I-2.369484 J1.792017
G02 X60.025102 Y60.336409 Z0.000000 I-7.570726 J15.240807
G02 X59.112930 Y60.039530 Z0.000000 I-2.829333 J7.143459
G03 X58.181257 Y59.793423 Z0.000000 I19.824211 J-76.933727
G03 X56.468062 Y59.323687 Z0.000000 I70.577275 J-260.764773
G02 X54.789596 Y59.003433 Z0.000000 I-2.779019 J10.006390
G02 X54.443570 Y59.107932 Z0.000000 I-0.049246 J0.462079
G03 X54.140904 Y59.122580 Z0.000000 I-0.161082 J-0.194105
G03 X52.569296 Y57.836531 Z0.000000 I6.353151 J-9.367132
G02 X50.955898 Y56.432719 Z0.000000 I-12.586990 J12.837155
G02 X50.582424 Y56.305517 Z0.000000 I-0.373475 J0.484677
G02 X50.192313 Y56.399533 Z0.000000 I-0.000002 J0.856365
G02 X49.556644 Y56.830436 Z0.000000 I1.428672 J2.791903
G01 X49.556362 Y56.830586 Z0.000000
G00 Z5.000000

(End cutting path id: path847)


(Start cutting path id: path847)
(Change tool to Cylindrical cutter)

G00 Z5.000000
G00 X51.415508 Y48.370726

G01 Z0.000000 F1000.0(Penetrate)
G02 X51.444067 Y48.459527 Z0.000000 I0.052184 J0.032210 F1100.000000
G02 X51.635043 Y48.462267 Z0.000000 I0.098906 J-0.236921
G02 X51.852662 Y48.255262 Z0.000000 I-0.140148 J-0.365226
G02 X51.777580 Y48.139961 Z0.000000 I-0.075082 J-0.033205
G02 X51.588732 Y48.194995 Z0.000000 I-0.000001 J0.351531
G02 X51.415508 Y48.370581 Z0.000000 I0.296905 J0.466150
G01 X51.415508 Y48.370726 Z0.000000
G00 Z5.000000

(End cutting path id: path847)


(Start cutting path id: path847)
(Change tool to Cylindrical cutter)

G00 Z5.000000
G00 X60.551329 Y56.227781

G01 Z0.000000 F1000.0(Penetrate)
G02 X60.264732 Y57.027618 Z0.000000 I0.703250 J0.703253 F1100.000000
G02 X60.750743 Y58.271542 Z0.000000 I2.445666 J-0.238635
G02 X61.055878 Y58.261287 Z0.000000 I0.148953 J-0.112689
G02 X61.105908 Y57.730015 Z0.000000 I-0.477117 J-0.312922
G03 X60.926685 Y57.035275 Z0.000000 I2.371293 J-0.982214
G03 X60.973572 Y56.556050 Z0.000000 I1.148915 J-0.129497
G02 X60.865467 Y56.208191 Z0.000000 I-0.303623 J-0.096370
G02 X60.551329 Y56.227781 Z0.000000 I-0.145971 J0.187759
G01 X60.551329 Y56.227781 Z0.000000
G00 Z5.000000

(End cutting path id: path847)


(Start cutting path id: path847)
(Change tool to Cylindrical cutter)

G00 Z5.000000
G00 X66.694817 Y61.335230

G01 Z0.000000 F1000.0(Penetrate)
G03 X66.605354 Y61.538482 Z0.000000 I-0.275616 J-0.000001 F1100.000000
G03 X66.457710 Y61.552399 Z0.000000 I-0.083022 J-0.090649
G03 X66.327973 Y61.380607 Z0.000000 I0.155730 J-0.252492
G03 X66.354830 Y61.188678 Z0.000000 I0.231512 J-0.065447
G03 X66.556594 Y61.125132 Z0.000000 I0.137691 J0.085098
G03 X66.694817 Y61.335230 Z0.000000 I-0.090563 J0.210099
G01 X66.694817 Y61.335230 Z0.000000
G00 Z5.000000

(End cutting path id: path847)


(Start cutting path id: path847)
(Change tool to Cylindrical cutter)

G00 Z5.000000
G00 X66.811462 Y62.604518

G01 Z0.000000 F1000.0(Penetrate)
G02 X66.974255 Y62.804338 Z0.000000 I0.839745 J-0.517918 F1100.000000
G02 X67.058531 Y62.837811 Z0.000000 I0.084276 J-0.089354
G02 X67.120897 Y62.797118 Z0.000000 I0.000000 J-0.068137
G02 X67.161401 Y62.604518 Z0.000000 I-0.437672 J-0.192601
G02 X67.091126 Y62.441501 Z0.000000 I-0.224213 J-0.000000
G02 X66.914335 Y62.371220 Z0.000000 I-0.176791 J0.187217
G02 X66.800450 Y62.445465 Z0.000000 I-0.000000 J0.124467
G02 X66.811466 Y62.604518 Z0.000000 I0.156607 J0.069062
G01 X66.811462 Y62.604518 Z0.000000
G00 Z5.000000

(End cutting path id: path847)


(Start cutting path id: path847)
(Change tool to Cylindrical cutter)

G00 Z5.000000
G00 X65.804389 Y63.354888

G01 Z0.000000 F1000.0(Penetrate)
G02 X65.577260 Y63.651224 Z0.000000 I1.007215 J1.007199 F1100.000000
G02 X65.528323 Y63.834254 Z0.000000 I0.317815 J0.183031
G01 X65.594888 Y63.876856 Z0.000000
G02 X65.906045 Y63.659844 Z0.000000 I-0.451575 J-0.979057
G02 X66.195552 Y63.282125 Z0.000000 I-1.283886 J-1.283860
G02 X66.182112 Y63.180469 Z0.000000 I-0.073032 J-0.042060
G02 X66.080399 Y63.162321 Z0.000000 I-0.063869 J0.063858
G02 X65.804389 Y63.354888 Z0.000000 I0.400832 J0.868610
G01 X65.804389 Y63.354888 Z0.000000
G00 Z5.000000

(End cutting path id: path847)


(Start cutting path id: path847)
(Change tool to Cylindrical cutter)

G00 Z5.000000
G00 X65.994920 Y64.220562

G01 Z0.000000 F1000.0(Penetrate)
G03 X65.917313 Y64.373015 Z0.000000 I-0.188545 J-0.000000 F1100.000000
G03 X65.586653 Y64.517658 Z0.000000 I-0.493821 J-0.678620
G02 X65.410082 Y64.641453 Z0.000000 I0.051670 J0.261519
G02 X65.438814 Y64.762561 Z0.000000 I0.076086 J0.045912
G02 X65.679185 Y64.780403 Z0.000000 I0.137017 J-0.217838
G02 X66.116541 Y64.465464 Z0.000000 I-0.517209 J-1.179398
G02 X66.330268 Y64.094690 Z0.000000 I-0.751701 J-0.680293
G02 X66.264377 Y64.004371 Z0.000000 I-0.065891 J-0.021125
G02 X66.065015 Y64.074460 Z0.000000 I-0.000001 J0.318578
G02 X65.994920 Y64.220562 Z0.000000 I0.117218 J0.146103
G01 X65.994920 Y64.220562 Z0.000000
G00 Z5.000000

(End cutting path id: path847)


(Start cutting path id: path847)
(Change tool to Cylindrical cutter)

G00 Z5.000000
G00 X67.453021 Y65.267528

G01 Z0.000000 F1000.0(Penetrate)
G02 X66.995088 Y65.797783 Z0.000000 I2.570959 J2.683165 F1100.000000
G02 X66.935518 Y65.995586 Z0.000000 I0.263337 J0.187177
G01 X67.002617 Y66.034720 Z0.000000
G02 X67.229208 Y65.844767 Z0.000000 I-0.306630 J-0.595897
G03 X68.155716 Y65.524600 Z0.000000 I0.703764 J0.535911
G03 X68.442224 Y66.160382 Z0.000000 I-0.112727 J0.433246
G01 X68.468968 Y66.183468 Z0.000000
G02 X68.653065 Y66.011340 Z0.000000 I-0.535743 J-0.757510
G02 X68.770217 Y65.461973 Z0.000000 I-0.478986 J-0.389318
G02 X68.373222 Y64.968958 Z0.000000 I-0.757030 J0.203245
G02 X68.003119 Y64.938594 Z0.000000 I-0.221427 J0.428199
G02 X67.453021 Y65.267528 Z0.000000 I0.442270 J1.364089
G01 X67.453021 Y65.267528 Z0.000000
G00 Z5.000000

(End cutting path id: path847)


(Start cutting path id: path847)
(Change tool to Cylindrical cutter)

G00 Z5.000000
G00 X69.027785 Y64.718012

G01 Z0.000000 F1000.0(Penetrate)
G02 X69.102035 Y64.831905 Z0.000000 I0.124475 J0.000000 F1100.000000
G02 X69.261084 Y64.820893 Z0.000000 I0.069063 J-0.156610
G02 X69.460907 Y64.658067 Z0.000000 I-0.520080 J-0.842280
G02 X69.494384 Y64.573825 Z0.000000 I-0.089258 J-0.084242
G02 X69.453702 Y64.511465 Z0.000000 I-0.068135 J-0.000000
G02 X69.261084 Y64.470943 Z0.000000 I-0.192619 J0.437539
G02 X69.098063 Y64.541221 Z0.000000 I-0.000000 J0.224216
G02 X69.027785 Y64.718008 Z0.000000 I0.187218 J0.176787
G01 X69.027785 Y64.718012 Z0.000000
G00 Z5.000000

(End cutting path id: path847)


(Start cutting path id: path847)
(Change tool to Cylindrical cutter)

G00 Z5.000000
G00 X69.844327 Y65.171030

G01 Z0.000000 F1000.0(Penetrate)
G02 X69.833299 Y65.329979 Z0.000000 I0.145821 J0.089974 F1100.000000
G02 X69.947207 Y65.404324 Z0.000000 I0.113909 J-0.050091
G02 X70.123995 Y65.334046 Z0.000000 I0.000000 J-0.257496
G02 X70.194270 Y65.171031 Z0.000000 I-0.153932 J-0.163015
G02 X70.153433 Y64.978094 Z0.000000 I-0.476182 J-0.000001
G02 X70.091390 Y64.937728 Z0.000000 I-0.062042 J0.027496
G02 X70.006836 Y64.971395 Z0.000000 I-0.000000 J0.123010
G02 X69.844322 Y65.171030 Z0.000000 I0.684151 J0.722903
G01 X69.844327 Y65.171030 Z0.000000
G00 Z5.000000

(End cutting path id: path847)


(Start cutting path id: path847)
(Change tool to Cylindrical cutter)

G00 Z5.000000
G00 X70.660878 Y64.382892

G01 Z0.000000 F1000.0(Penetrate)
G02 X70.771755 Y64.525225 Z0.000000 I0.146795 J0.000000 F1100.000000
G02 X71.010807 Y64.471183 Z0.000000 I0.066268 J-0.262603
G02 X71.331644 Y64.167079 Z0.000000 I-2.143480 J-2.582723
G02 X71.360773 Y64.092671 Z0.000000 I-0.080472 J-0.074408
G02 X71.322216 Y64.043150 Z0.000000 I-0.051081 J-0.000000
G02 X71.010808 Y64.004381 Z0.000000 I-0.311411 J1.231317
G02 X70.767354 Y64.110864 Z0.000000 I-0.000001 J0.331546
G02 X70.660878 Y64.382892 Z0.000000 I0.294258 J0.272029
G01 X70.660878 Y64.382892 Z0.000000
G00 Z5.000000

(End cutting path id: path847)


(Start cutting path id: path847)
(Change tool to Cylindrical cutter)

G00 Z5.000000
G00 X71.262970 Y64.907032

G01 Z0.000000 F1000.0(Penetrate)
G03 X71.075799 Y65.040980 Z0.000000 I-0.252923 J-0.155675 F1100.000000
G03 X70.770065 Y65.019048 Z0.000000 I-0.116760 J-0.514302
G02 X70.550546 Y65.066369 Z0.000000 I-0.073581 J0.191490
G02 X70.427591 Y65.365786 Z0.000000 I0.303091 J0.299417
G02 X70.576573 Y65.663530 Z0.000000 I0.372015 J0.000001
G02 X70.935380 Y65.746153 Z0.000000 I0.272767 J-0.364136
G02 X71.679658 Y65.321065 Z0.000000 I-0.251054 J-1.303677
G02 X71.667094 Y64.917223 Z0.000000 I-0.221178 J-0.195235
G02 X71.431202 Y64.816069 Z0.000000 I-0.244521 J0.244597
G02 X71.262970 Y64.907182 Z0.000000 I-0.004792 J0.192020
G01 X71.262970 Y64.907032 Z0.000000
G00 Z5.000000

(End cutting path id: path847)


(Start cutting path id: path847)
(Change tool to Cylindrical cutter)

G00 Z5.000000
G00 X72.029033 Y65.520960

G01 Z0.000000 F1000.0(Penetrate)
G02 X72.214658 Y66.212520 Z0.000000 I0.773312 J0.163124 F1100.000000
G02 X72.812014 Y66.391653 Z0.000000 I0.445723 J-0.400785
G02 X73.370240 Y65.699292 Z0.000000 I-0.189307 J-0.723852
G02 X72.863756 Y65.171021 Z0.000000 I-0.506486 J-0.021336
G02 X72.658876 Y65.259563 Z0.000000 I-0.000001 J0.281309
G02 X72.644267 Y65.404314 Z0.000000 I0.087043 J0.081897
G03 X72.661371 Y65.566815 Z0.000000 I-0.161979 J0.099200
G03 X72.561257 Y65.637612 Z0.000000 I-0.100114 J-0.035388
G03 X72.381713 Y65.569679 Z0.000000 I0.000001 J-0.271233
G03 X72.230987 Y65.345988 Z0.000000 I0.354693 J-0.401624
G02 X72.145677 Y65.323650 Z0.000000 I-0.050259 J0.017871
G02 X72.029808 Y65.520960 Z0.000000 I0.236949 J0.271824
G01 X72.029033 Y65.520960 Z0.000000
G00 Z5.000000

(End cutting path id: path847)


(Start cutting path id: path847)
(Change tool to Cylindrical cutter)

G00 Z5.000000
G00 X73.516852 Y65.583202

G01 Z0.000000 F1000.0(Penetrate)
G02 X73.600045 Y65.805995 Z0.000000 I0.285918 J0.020164 F1100.000000
G02 X73.723772 Y65.790115 Z0.000000 I0.055733 J-0.055706
G02 X73.851960 Y65.375059 Z0.000000 I-0.825851 J-0.482383
G02 X73.769193 Y65.152446 Z0.000000 I-0.286398 J-0.020211
G02 X73.645564 Y65.168422 Z0.000000 I-0.055654 J0.055657
G02 X73.517610 Y65.583202 Z0.000000 I0.825069 J0.481648
G01 X73.516852 Y65.583202 Z0.000000
G00 Z5.000000

(End cutting path id: path847)


(Start cutting path id: path847)
(Change tool to Cylindrical cutter)

G00 Z5.000000
G00 X72.410635 Y67.037295

G01 Z0.000000 F1000.0(Penetrate)
G02 X72.395420 Y67.198654 Z0.000000 I0.156512 J0.096154 F1100.000000
G02 X72.499685 Y67.270592 Z0.000000 I0.104265 J-0.039589
G02 X72.701101 Y67.213387 Z0.000000 I0.000001 J-0.383184
G02 X72.877161 Y67.037296 Z0.000000 I-0.284605 J-0.460617
G02 X72.892266 Y66.875884 Z0.000000 I-0.157059 J-0.096111
G02 X72.788112 Y66.803994 Z0.000000 I-0.104155 J0.039506
G02 X72.586759 Y66.861183 Z0.000000 I-0.000001 J0.383055
G02 X72.410690 Y67.037295 Z0.000000 I0.284608 J0.460607
G01 X72.410635 Y67.037295 Z0.000000
G00 Z5.000000

(End cutting path id: path847)


(Start cutting path id: path847)
(Change tool to Cylindrical cutter)

G00 Z5.000000
G00 X73.976093 Y67.629419

G01 Z0.000000 F1000.0(Penetrate)
G02 X73.909690 Y67.864633 Z0.000000 I0.211757 J0.186761 F1100.000000
G02 X74.035583 Y67.970492 Z0.000000 I0.125893 J-0.021929
G02 X74.290915 Y67.866651 Z0.000000 I0.000001 J-0.365833
G02 X74.394718 Y67.620541 Z0.000000 I-0.239854 J-0.246111
G02 X74.266469 Y67.495225 Z0.000000 I-0.125349 J-0.000000
G02 X73.977219 Y67.630240 Z0.000000 I0.009187 J0.397026
G01 X73.976093 Y67.629419 Z0.000000
G00 Z5.000000

(End cutting path id: path847)


(Start cutting path id: path847)
(Change tool to Cylindrical cutter)

G00 Z5.000000
G00 X75.283074 Y68.129704

G01 Z0.000000 F1000.0(Penetrate)
G02 X75.574332 Y68.179640 Z0.000000 I0.262709 J-0.657917 F1100.000000
G02 X75.730158 Y68.111125 Z0.000000 I-0.009390 J-0.232815
G01 X75.715210 Y68.038473 Z0.000000
G02 X75.423998 Y67.988596 Z0.000000 I-0.262060 J0.654998
G02 X75.268184 Y68.056890 Z0.000000 I0.009504 J0.233578
G01 X75.283074 Y68.129546 Z0.000000
G01 X75.283074 Y68.129704 Z0.000000
G00 Z5.000000

(End cutting path id: path847)


(Start cutting path id: path847)
(Change tool to Cylindrical cutter)

G00 Z5.000000
G00 X75.910021 Y68.436945

G01 Z0.000000 F1000.0(Penetrate)
G02 X75.894662 Y68.598158 Z0.000000 I0.159814 J0.096564 F1100.000000
G02 X75.998110 Y68.670248 Z0.000000 I0.103448 J-0.038179
G02 X76.199452 Y68.613041 Z0.000000 I0.000001 J-0.382918
G02 X76.375555 Y68.436946 Z0.000000 I-0.285109 J-0.461222
G02 X76.390939 Y68.275496 Z0.000000 I-0.158645 J-0.096575
G02 X76.287485 Y68.203653 Z0.000000 I-0.103454 J0.038566
G02 X76.085969 Y68.260899 Z0.000000 I-0.000001 J0.383305
G02 X75.909887 Y68.436945 Z0.000000 I0.285003 J0.461144
G01 X75.910021 Y68.436945 Z0.000000
G00 Z5.000000

(End cutting path id: path847)


(Start cutting path id: path847)
(Change tool to Cylindrical cutter)

G00 Z5.000000
G00 X76.260078 Y66.329965

G01 Z0.000000 F1000.0(Penetrate)
G03 X76.177893 Y66.436417 Z0.000000 I-0.110035 J-0.000000 F1100.000000
G03 X75.910024 Y66.421504 Z0.000000 I-0.110777 J-0.423412
G03 X75.596457 Y66.262202 Z0.000000 I0.615207 J-1.599230
G03 X75.560127 Y66.195537 Z0.000000 I0.043000 J-0.066665
G03 X75.599934 Y66.143949 Z0.000000 I0.053332 J0.000000
G03 X75.910025 Y66.103978 Z0.000000 I0.310089 J1.182818
G03 X76.180359 Y66.183637 Z0.000000 I-0.000001 J0.498538
G03 X76.260078 Y66.329966 Z0.000000 I-0.094437 J0.146328
G01 X76.260078 Y66.329965 Z0.000000
G00 Z5.000000

(End cutting path id: path847)


(Start cutting path id: path847)
(Change tool to Cylindrical cutter)

G00 Z5.000000
G00 X77.893073 Y66.570958

G01 Z0.000000 F1000.0(Penetrate)
G02 X77.963343 Y66.733966 Z0.000000 I0.224203 J0.000000 F1100.000000
G02 X78.140147 Y66.804253 Z0.000000 I0.176804 J-0.187228
G02 X78.254033 Y66.729998 Z0.000000 I0.000000 J-0.124462
G02 X78.243028 Y66.570958 Z0.000000 I-0.156653 J-0.069060
G02 X78.080760 Y66.371147 Z0.000000 I-0.809060 J0.491249
G02 X77.995971 Y66.337658 Z0.000000 I-0.084789 J0.090593
G02 X77.932545 Y66.379412 Z0.000000 I-0.000000 J0.069050
G02 X77.893078 Y66.570958 Z0.000000 I0.445090 J0.191547
G01 X77.893073 Y66.570958 Z0.000000
G00 Z5.000000

(End cutting path id: path847)


(Start cutting path id: path847)
(Change tool to Cylindrical cutter)

G00 Z5.000000
G00 X77.690810 Y65.082455

G01 Z0.000000 F1000.0(Penetrate)
G02 X77.536255 Y65.438189 Z0.000000 I0.469479 J0.415416 F1100.000000
G02 X77.631049 Y65.703484 Z0.000000 I0.330239 J0.031584
G02 X77.864787 Y65.880368 Z0.000000 I0.756303 J-0.756522
G01 X77.908960 Y65.859089 Z0.000000
G03 X77.928165 Y65.753843 Z0.000000 I16.658875 J2.985511
G02 X78.024240 Y65.229184 Z0.000000 I-103.192468 J-19.167611
G02 X77.919580 Y65.031542 Z0.000000 I-0.176747 J-0.032937
G02 X77.689353 Y65.082455 Z0.000000 I-0.080213 J0.183272
G01 X77.690810 Y65.082455 Z0.000000
G00 Z5.000000

(End cutting path id: path847)


(Start cutting path id: path847)
(Change tool to Cylindrical cutter)

G00 Z5.000000
G00 X77.309887 Y64.237571

G01 Z0.000000 F1000.0(Penetrate)
G03 X76.439217 Y64.416705 Z0.000000 I-0.870665 J-2.026325 F1100.000000
G03 X76.260082 Y64.237569 Z0.000000 I0.000000 J-0.179136
G03 X76.359419 Y64.105822 Z0.000000 I0.137034 J0.000000
G03 X77.018273 Y64.020669 Z0.000000 I0.610843 J2.134825
G03 X77.323054 Y64.125251 Z0.000000 I-0.011449 J0.529765
G03 X77.309887 Y64.237571 Z0.000000 I-0.038947 J0.052366
G01 X77.309887 Y64.237571 Z0.000000
G00 Z5.000000

(End cutting path id: path847)


(Start cutting path id: path847)
(Change tool to Cylindrical cutter)

G00 Z5.000000
G00 X74.689965 Y63.286910

G01 Z0.000000 F1000.0(Penetrate)
G03 X74.647748 Y63.557149 Z0.000000 I-0.335244 J0.086045 F1100.000000
G03 X74.483894 Y63.611890 Z0.000000 I-0.115281 J-0.072464
G03 X74.226933 Y63.327533 Z0.000000 I0.151736 J-0.395398
G03 X74.315866 Y62.993298 Z0.000000 I0.332760 J-0.090409
G03 X74.490475 Y62.982813 Z0.000000 I0.093217 J0.093216
G03 X74.689965 Y63.286910 Z0.000000 I-0.351869 J0.448312
G01 X74.689965 Y63.286910 Z0.000000
G00 Z5.000000

(End cutting path id: path847)


(Start cutting path id: path847)
(Change tool to Cylindrical cutter)

G00 Z5.000000
G00 X72.527232 Y64.004379

G01 Z0.000000 F1000.0(Penetrate)
G02 X72.489947 Y64.140895 Z0.000000 I0.057560 J0.089071 F1100.000000
G02 X72.643929 Y64.237677 Z0.000000 I0.156664 J-0.078370
G03 X72.797687 Y64.334349 Z0.000000 I-0.002946 J0.175300
G03 X72.760537 Y64.470189 Z0.000000 I-0.094164 J0.047247
G03 X72.440078 Y64.531360 Z0.000000 I-0.236026 J-0.366491
G03 X72.151610 Y64.349970 Z0.000000 I0.092113 J-0.466560
G02 X71.900813 Y64.276437 Z0.000000 I-0.174537 J0.130826
G02 X71.827341 Y64.470974 Z0.000000 I0.048280 J0.129377
G02 X72.716108 Y65.048706 Z0.000000 I0.969359 J-0.518742
G02 X73.227141 Y64.573857 Z0.000000 I0.034902 J-0.474850
G03 X73.315027 Y64.367808 Z0.000000 I0.285486 J0.000001
G03 X73.457812 Y64.352681 Z0.000000 I0.081159 J0.084630
G02 X73.546545 Y64.324139 Z0.000000 I0.032190 J-0.052123
G02 X73.549203 Y64.133153 Z0.000000 I-0.236921 J-0.098809
G02 X73.191655 Y63.852833 Z0.000000 I-0.412810 J0.158352
G02 X72.527001 Y64.004384 Z0.000000 I-0.124415 J0.987613
G01 X72.527232 Y64.004379 Z0.000000
G00 Z5.000000

(End cutting path id: path847)


(Start cutting path id: path847)
(Change tool to Cylindrical cutter)

G00 Z5.000000
G00 X72.070428 Y63.052817

G01 Z0.000000 F1000.0(Penetrate)
G02 X71.990587 Y63.528665 Z0.000000 I0.665851 J0.356343 F1100.000000
G02 X72.162537 Y63.627739 Z0.000000 I0.126167 J-0.020220
G02 X72.362243 Y63.438693 Z0.000000 I-0.129665 J-0.336985
G02 X72.369872 Y63.165818 Z0.000000 I-0.324179 J-0.145606
G03 X72.414935 Y63.005690 Z0.000000 I0.129883 J-0.049853
G03 X72.616547 Y62.976270 Z0.000000 I0.127058 J0.165190
G03 X72.842918 Y63.169956 Z0.000000 I-0.158966 J0.414920
G03 X72.839778 Y63.364907 Z0.000000 I-0.165190 J0.094840
G02 X72.856577 Y63.441606 Z0.000000 I0.048023 J0.029671
G02 X72.957693 Y63.443197 Z0.000000 I0.051798 J-0.078015
G02 X73.053812 Y63.185745 Z0.000000 I-0.117833 J-0.190662
G02 X72.770306 Y62.842919 Z0.000000 I-0.560689 J0.175034
G02 X72.375460 Y62.803266 Z0.000000 I-0.245488 J0.458772
G02 X72.070353 Y63.052672 Z0.000000 I0.147286 J0.491506
G01 X72.070428 Y63.052817 Z0.000000
G00 Z5.000000

(End cutting path id: path847)


(Start cutting path id: path847)
(Change tool to Cylindrical cutter)

G00 Z5.000000
G00 X70.427597 Y62.721168

G01 Z0.000000 F1000.0(Penetrate)
G02 X70.508918 Y62.989782 Z0.000000 I0.484288 J0.000001 F1100.000000
G02 X70.660881 Y63.071115 Z0.000000 I0.151963 J-0.101297
G02 X70.812844 Y62.989799 Z0.000000 I0.000000 J-0.182651
G02 X70.894197 Y62.721168 Z0.000000 I-0.402842 J-0.268631
G02 X70.812848 Y62.452546 Z0.000000 I-0.484183 J-0.000001
G02 X70.660882 Y62.371227 Z0.000000 I-0.151966 J0.101335
G02 X70.508916 Y62.452562 Z0.000000 I-0.000000 J0.182633
G02 X70.427597 Y62.721168 Z0.000000 I0.402957 J0.268607
G01 X70.427597 Y62.721168 Z0.000000
G00 Z5.000000

(End cutting path id: path847)


(Start cutting path id: path847)
(Change tool to Cylindrical cutter)

G00 Z5.000000
G00 X68.864090 Y63.147121

G01 Z0.000000 F1000.0(Penetrate)
G02 X68.614802 Y64.000845 Z0.000000 I1.420826 J0.878140 F1100.000000
G02 X68.848008 Y64.237486 Z0.000000 I0.233206 J0.003409
G02 X68.961217 Y64.156589 Z0.000000 I0.000000 J-0.119662
G02 X68.987809 Y63.829218 Z0.000000 I-0.630803 J-0.216006
G03 X69.213965 Y63.504615 Z0.000000 I0.278349 J-0.047155
G03 X69.607887 Y63.712563 Z0.000000 I0.066169 J0.351737
G02 X69.874924 Y63.870483 Z0.000000 I0.243354 J-0.106768
G02 X70.022002 Y63.675534 Z0.000000 I-0.014676 J-0.164028
G02 X69.463997 Y62.965178 Z0.000000 I-0.966334 J0.184741
G02 X68.863952 Y63.147257 Z0.000000 I-0.196765 J0.431328
G01 X68.864090 Y63.147121 Z0.000000
G00 Z5.000000

(End cutting path id: path847)


(Start cutting path id: path847)
(Change tool to Cylindrical cutter)

G00 Z5.000000
G00 X68.016828 Y62.993219

G01 Z0.000000 F1000.0(Penetrate)
G02 X67.903513 Y63.166406 Z0.000000 I0.357953 J0.357870 F1100.000000
G02 X67.861299 Y63.389819 Z0.000000 I0.570098 J0.223414
G02 X67.934460 Y63.454303 Z0.000000 I0.064999 J0.000000
G02 X68.137362 Y63.354899 Z0.000000 I-0.043823 J-0.346235
G02 X68.318068 Y63.078829 Z0.000000 I-0.570788 J-0.570794
G02 X68.292899 Y62.958291 Z0.000000 I-0.104655 J-0.041044
G02 X68.172437 Y62.917079 Z0.000000 I-0.102286 J0.102316
G02 X68.016828 Y62.993181 Z0.000000 I0.033688 J0.266024
G01 X68.016828 Y62.993219 Z0.000000
G00 Z5.000000

(End cutting path id: path847)


(Start cutting path id: path847)
(Change tool to Cylindrical cutter)

G00 Z5.000000
G00 X68.908809 Y60.282286

G01 Z0.000000 F1000.0(Penetrate)
G03 X68.698169 Y60.923343 Z0.000000 I-3.258466 J-0.715540 F1100.000000
G03 X68.545918 Y61.097635 Z0.000000 I-0.358616 J-0.159621
G03 X68.466357 Y61.068291 Z0.000000 I-0.028322 J-0.045739
G03 X68.472018 Y60.867019 Z0.000000 I0.289337 J-0.092578
G02 X68.485919 Y60.590999 Z0.000000 I-0.415327 J-0.159277
G02 X68.373339 Y60.504949 Z0.000000 I-0.112580 J0.030620
G02 X68.239895 Y60.593622 Z0.000000 I-0.000000 J0.144746
G02 X68.201771 Y60.913217 Z0.000000 I0.538608 J0.226321
G03 X68.185627 Y61.300027 Z0.000000 I-0.956539 J0.153820
G03 X68.024983 Y61.626275 Z0.000000 I-0.828449 J-0.205253
G02 X67.938465 Y61.836741 Z0.000000 I0.319021 J0.254158
G01 X67.996502 Y61.890269 Z0.000000
G03 X68.338540 Y61.964440 Z0.000000 I0.083595 J0.440237
G03 X68.334376 Y62.128921 Z0.000000 I-0.057079 J0.080848
G02 X68.106294 Y62.358752 Z0.000000 I0.387366 J0.612504
G02 X68.119599 Y62.474369 Z0.000000 I0.079492 J0.049426
G02 X68.244820 Y62.484100 Z0.000000 I0.068297 J-0.068316
G02 X68.812734 Y61.969196 Z0.000000 I-2.128190 J-2.917937
G02 X69.007037 Y61.679685 Z0.000000 I-0.953509 J-0.849895
G01 X68.969187 Y61.648740 Z0.000000
G03 X68.772505 Y61.592930 Z0.000000 I-0.077562 J-0.101130
G03 X68.797771 Y61.198195 Z0.000000 I0.445872 J-0.169636
G03 X69.086227 Y60.870840 Z0.000000 I0.840416 J0.449783
G03 X69.322694 Y60.825348 Z0.000000 I0.168158 J0.236759
G02 X69.432091 Y60.824942 Z0.000000 I0.053870 J-0.223149
G01 X69.435790 Y60.797169 Z0.000000
G03 X69.221572 Y60.371593 Z0.000000 I0.207581 J-0.371190
G03 X69.540648 Y59.983915 Z0.000000 I0.468438 J0.060399
G02 X69.585189 Y59.885335 Z0.000000 I-0.023366 J-0.069910
G02 X69.439611 Y59.744493 Z0.000000 I-0.238221 J0.100573
G02 X69.168932 Y59.802937 Z0.000000 I-0.090645 J0.236219
G02 X68.908539 Y60.282242 Z0.000000 I0.698787 J0.690015
G01 X68.908809 Y60.282286 Z0.000000
G00 Z5.000000

(End cutting path id: path847)


(Start cutting path id: path847)
(Change tool to Cylindrical cutter)

G00 Z5.000000
G00 X69.964551 Y60.424679

G01 Z0.000000 F1000.0(Penetrate)
G02 X70.110130 Y60.735972 Z0.000000 I0.399242 J0.002978 F1100.000000
G02 X70.427600 Y60.805744 Z0.000000 I0.227054 J-0.275973
G02 X70.814093 Y60.621935 Z0.000000 I-0.287975 J-1.103763
G02 X70.894201 Y60.463872 Z0.000000 I-0.115884 J-0.158063
G02 X70.822074 Y60.373284 Z0.000000 I-0.092950 J-0.000000
G02 X70.634803 Y60.404172 Z0.000000 I-0.056002 J0.243619
G03 X70.406570 Y60.429318 Z0.000000 I-0.140485 J-0.226759
G03 X70.171761 Y60.242960 Z0.000000 I0.149682 J-0.429704
G02 X70.055334 Y60.226155 Z0.000000 I-0.065406 J0.041424
G02 X69.964551 Y60.424522 Z0.000000 I0.175476 J0.200264
G01 X69.964551 Y60.424679 Z0.000000
G00 Z5.000000

(End cutting path id: path847)


(Start cutting path id: path847)
(Change tool to Cylindrical cutter)

G00 Z5.000000
G00 X71.569642 Y60.951452

G01 Z0.000000 F1000.0(Penetrate)
G03 X71.625233 Y61.114859 Z0.000000 I-0.073574 J0.116190 F1100.000000
G03 X71.452936 Y61.270766 Z0.000000 I-0.234136 J-0.085592
G02 X71.382346 Y61.349227 Z0.000000 I0.023619 J0.092235
G02 X71.432416 Y61.411048 Z0.000000 I0.053536 J0.007827
G03 X71.690501 Y61.522787 Z0.000000 I-0.026863 J0.415967
G03 X71.710279 Y61.671400 Z0.000000 I-0.080915 J0.086390
G02 X71.728830 Y61.814199 Z0.000000 I0.097633 J0.059921
G02 X71.954772 Y61.904700 Z0.000000 I0.225943 J-0.236789
G02 X72.173495 Y61.787919 Z0.000000 I0.000001 J-0.263215
G02 X72.201831 Y61.535676 Z0.000000 I-0.229221 J-0.153463
G03 X72.085434 Y61.162057 Z0.000000 I2.940212 J-1.120932
G03 X72.060180 Y60.952430 Z0.000000 I0.857396 J-0.209626
G02 X71.979347 Y60.819758 Z0.000000 I-0.149293 J-0.000000
G02 X71.651970 Y60.741784 Z0.000000 I-0.321262 J0.622588
G02 X71.528800 Y60.826627 Z0.000000 I0.001268 J0.133667
G02 X71.569740 Y60.951452 Z0.000000 I0.095964 J0.037652
G01 X71.569642 Y60.951452 Z0.000000
G00 Z5.000000

(End cutting path id: path847)


(Start cutting path id: path847)
(Change tool to Cylindrical cutter)

G00 Z5.000000
G00 X71.010818 Y58.871838

G01 Z0.000000 F1000.0(Penetrate)
G02 X71.173564 Y59.071659 Z0.000000 I0.837293 J-0.515753 F1100.000000
G02 X71.257888 Y59.105139 Z0.000000 I0.084325 J-0.089454
G02 X71.320352 Y59.064357 Z0.000000 I0.000000 J-0.068226
G02 X71.360780 Y58.871838 Z0.000000 I-0.438177 J-0.192519
G02 X71.290495 Y58.708812 Z0.000000 I-0.224213 J-0.000000
G02 X71.113709 Y58.638539 Z0.000000 I-0.176786 J0.187236
G02 X70.999817 Y58.712777 Z0.000000 I-0.000000 J0.124483
G02 X71.010818 Y58.871838 Z0.000000 I0.156587 J0.069081
G01 X71.010818 Y58.871838 Z0.000000
G00 Z5.000000

(End cutting path id: path847)


(Start cutting path id: path847)
(Change tool to Cylindrical cutter)

G00 Z5.000000
G00 X70.583098 Y57.528638

G01 Z0.000000 F1000.0(Penetrate)
G02 X70.244904 Y57.976579 Z0.000000 I1.780757 J1.696106 F1100.000000
G02 X70.258112 Y58.080364 Z0.000000 I0.073617 J0.043364
G02 X70.708072 Y58.148959 Z0.000000 I0.271616 J-0.271621
G02 X71.215893 Y57.578273 Z0.000000 I-0.502340 J-0.958288
G02 X71.067487 Y57.343220 Z0.000000 I-0.161936 J-0.062134
G02 X70.583098 Y57.528812 Z0.000000 I-0.047101 J0.601982
G01 X70.583098 Y57.528638 Z0.000000
G00 Z5.000000

(End cutting path id: path847)


(Start cutting path id: path847)
(Change tool to Cylindrical cutter)

G00 Z5.000000
G00 X71.662227 Y56.644046

G01 Z0.000000 F1000.0(Penetrate)
G02 X71.555500 Y56.950832 Z0.000000 I0.323981 J0.284666 F1100.000000
G02 X71.692036 Y57.222779 Z0.000000 I0.377733 J-0.019399
G02 X71.876469 Y57.211545 Z0.000000 I0.086232 J-0.103877
G02 X72.002924 Y56.893227 Z0.000000 I-0.337420 J-0.318319
G02 X71.988285 Y56.325198 Z0.000000 I-11.027182 J-0.000021
G01 X71.973125 Y56.314500 Z0.000000
G02 X71.947456 Y56.330682 Z0.000000 I0.018561 J0.057891
G02 X71.662150 Y56.644046 Z0.000000 I8.804611 J8.302829
G01 X71.662227 Y56.644046 Z0.000000
G00 Z5.000000

(End cutting path id: path847)


(Start cutting path id: path847)
(Change tool to Cylindrical cutter)

G00 Z5.000000
G00 X72.527247 Y56.072305

G01 Z0.000000 F1000.0(Penetrate)
G02 X72.472206 Y56.212847 Z0.000000 I0.070129 J0.108514 F1100.000000
G02 X72.586057 Y56.302034 Z0.000000 I0.114887 J-0.029397
G02 X72.908591 Y56.219038 Z0.000000 I0.005752 J-0.645859
G02 X72.994385 Y56.072305 Z0.000000 I-0.082582 J-0.146733
G02 X72.887981 Y55.965901 Z0.000000 I-0.106404 J-0.000000
G02 X72.527740 Y56.072305 Z0.000000 I-0.000001 J0.663013
G01 X72.527247 Y56.072305 Z0.000000
G00 Z5.000000

(End cutting path id: path847)


(Start cutting path id: path847)
(Change tool to Cylindrical cutter)

G00 Z5.000000
G00 X73.094625 Y55.298531

G01 Z0.000000 F1000.0(Penetrate)
G03 X73.196998 Y55.650194 Z0.000000 I-2.010630 J0.776051 F1100.000000
G03 X73.242950 Y56.033058 Z0.000000 I-2.402643 J0.482561
G02 X73.328961 Y56.083519 Z0.000000 I0.059262 J-0.002478
G02 X73.511895 Y55.897321 Z0.000000 I-0.183584 J-0.363329
G03 X73.809300 Y55.442857 Z0.000000 I1.887419 J0.910594
G03 X73.962641 Y55.372403 Z0.000000 I0.153341 J0.131646
G02 X74.034309 Y55.193950 Z0.000000 I0.000000 J-0.103618
G02 X73.561048 Y54.987821 Z0.000000 I-0.516369 J0.539198
G02 X73.158784 Y55.097032 Z0.000000 I-0.037723 J0.656497
G02 X73.094625 Y55.298531 Z0.000000 I0.093808 J0.140833
G01 X73.094625 Y55.298531 Z0.000000
G00 Z5.000000

(End cutting path id: path847)


(Start cutting path id: path847)
(Change tool to Cylindrical cutter)

G00 Z5.000000
G00 X73.345431 Y57.469434

G01 Z0.000000 F1000.0(Penetrate)
G02 X73.374220 Y57.558299 Z0.000000 I0.052516 J0.032083 F1100.000000
G02 X73.564964 Y57.560995 Z0.000000 I0.098731 J-0.236275
G02 X73.782642 Y57.353960 Z0.000000 I-0.140131 J-0.365286
G02 X73.707575 Y57.238679 Z0.000000 I-0.075067 J-0.033201
G02 X73.518641 Y57.293729 Z0.000000 I-0.000001 J0.351737
G02 X73.345431 Y57.469309 Z0.000000 I0.296706 J0.465926
G01 X73.345431 Y57.469434 Z0.000000
G00 Z5.000000

(End cutting path id: path847)


(Start cutting path id: path847)
(Change tool to Cylindrical cutter)

G00 Z5.000000
G00 X74.891949 Y58.904725

G01 Z0.000000 F1000.0(Penetrate)
G02 X74.593876 Y59.177695 Z0.000000 I0.187621 J0.504103 F1100.000000
G02 X74.628861 Y59.457633 Z0.000000 I0.236587 J0.112588
G02 X75.098224 Y59.665227 Z0.000000 I0.443328 J-0.367944
G02 X75.326842 Y59.426034 Z0.000000 I-0.010820 J-0.239194
G03 X75.474702 Y59.227167 Z0.000000 I0.207665 J0.000000
G03 X76.085072 Y59.198024 Z0.000000 I0.363612 J1.209120
G03 X76.779819 Y59.421515 Z0.000000 I-0.624935 J3.134272
G03 X76.921063 Y59.577134 Z0.000000 I-0.109326 J0.241136
G02 X77.040766 Y59.747126 Z0.000000 I0.356408 J-0.123827
G02 X77.205288 Y59.805153 Z0.000000 I0.164523 J-0.204221
G02 X77.347445 Y59.508383 Z0.000000 I0.000000 J-0.182433
G02 X76.534790 Y58.973179 Z0.000000 I-1.238727 J0.996317
G02 X75.495592 Y58.808882 Z0.000000 I-1.229985 J4.411116
G02 X74.891949 Y58.904676 Z0.000000 I-0.064386 J1.544087
G01 X74.891949 Y58.904725 Z0.000000
G00 Z5.000000

(End cutting path id: path847)


(Start cutting path id: path847)
(Change tool to Cylindrical cutter)

G00 Z5.000000
G00 X75.793436 Y59.572065

G01 Z0.000000 F1000.0(Penetrate)
G02 X75.863712 Y59.735084 Z0.000000 I0.224217 J0.000000 F1100.000000
G02 X76.040498 Y59.805364 Z0.000000 I0.176787 J-0.187211
G02 X76.154380 Y59.731095 Z0.000000 I0.000000 J-0.124445
G02 X76.143302 Y59.572065 Z0.000000 I-0.156589 J-0.068993
G02 X75.981136 Y59.372234 Z0.000000 I-0.800935 J0.484255
G02 X75.896268 Y59.338771 Z0.000000 I-0.084868 J0.090889
G02 X75.833139 Y59.380251 Z0.000000 I-0.000000 J0.068779
G02 X75.793441 Y59.572065 Z0.000000 I0.443572 J0.191815
G01 X75.793436 Y59.572065 Z0.000000
G00 Z5.000000

(End cutting path id: path847)


(Start cutting path id: path847)
(Change tool to Cylindrical cutter)

G00 Z5.000000
G00 X75.793435 Y60.504930

G01 Z0.000000 F1000.0(Penetrate)
G02 X75.861754 Y60.669888 Z0.000000 I0.233307 J0.000000 F1100.000000
G02 X76.026724 Y60.738230 Z0.000000 I0.164971 J-0.164941
G02 X76.191723 Y60.669913 Z0.000000 I0.000000 J-0.233409
G02 X76.260089 Y60.504931 Z0.000000 I-0.164889 J-0.164983
G02 X76.191724 Y60.339952 Z0.000000 I-0.233246 J-0.000000
G02 X76.026725 Y60.271635 Z0.000000 I-0.165000 J0.165096
G02 X75.861758 Y60.339971 Z0.000000 I-0.000000 J0.233286
G02 X75.793435 Y60.504930 Z0.000000 I0.164975 J0.164959
G01 X75.793435 Y60.504930 Z0.000000
G00 Z5.000000

(End cutting path id: path847)


(Start cutting path id: path847)
(Change tool to Cylindrical cutter)

G00 Z5.000000
G00 X76.345628 Y61.523806

G01 Z0.000000 F1000.0(Penetrate)
G02 X76.287134 Y61.795361 Z0.000000 I0.215241 J0.188441 F1100.000000
G02 X76.520645 Y62.100153 Z0.000000 I0.522911 J-0.158773
G02 X76.873260 Y62.218354 Z0.000000 I0.423224 J-0.677498
G02 X76.959876 Y62.139084 Z0.000000 I0.007034 J-0.079270
G02 X76.892371 Y61.971329 Z0.000000 I-0.242196 J-0.000000
G02 X76.733914 Y61.903806 Z0.000000 I-0.158458 J0.152166
G03 X76.627585 Y61.821673 Z0.000000 I0.000000 J-0.109894
G03 X76.642825 Y61.553863 Z0.000000 I0.422456 J-0.110298
G02 X76.570227 Y61.435765 Z0.000000 I-0.081492 J-0.031268
G02 X76.346251 Y61.523533 Z0.000000 I-0.026770 J0.261353
G01 X76.345628 Y61.523806 Z0.000000
G00 Z5.000000

(End cutting path id: path847)


(Start cutting path id: path847)
(Change tool to Cylindrical cutter)

G00 Z5.000000
G00 X76.959878 Y60.943162

G01 Z0.000000 F1000.0(Penetrate)
G02 X77.017097 Y61.144571 Z0.000000 I0.383079 J0.000001 F1100.000000
G02 X77.193158 Y61.320642 Z0.000000 I0.461067 J-0.284977
G02 X77.354630 Y61.335818 Z0.000000 I0.096095 J-0.155827
G02 X77.426469 Y61.231443 Z0.000000 I-0.039905 J-0.104376
G02 X77.369288 Y61.030074 Z0.000000 I-0.383158 J-0.000001
G02 X77.193159 Y60.853960 Z0.000000 I-0.460649 J0.284561
G02 X77.031747 Y60.838758 Z0.000000 I-0.096083 J0.155662
G02 X76.959878 Y60.943180 Z0.000000 I0.039925 J0.104422
G01 X76.959878 Y60.943162 Z0.000000
G00 Z5.000000

(End cutting path id: path847)


(Start cutting path id: path847)
(Change tool to Cylindrical cutter)

G00 Z5.000000
G00 X77.309894 Y60.504933

G01 Z0.000000 F1000.0(Penetrate)
G02 X77.472169 Y60.704765 Z0.000000 I0.806504 J-0.489123 F1100.000000
G02 X77.556962 Y60.738233 Z0.000000 I0.084793 J-0.090680
G02 X77.619932 Y60.696914 Z0.000000 I0.000000 J-0.068642
G02 X77.659788 Y60.504933 Z0.000000 I-0.442453 J-0.191981
G02 X77.589498 Y60.341912 Z0.000000 I-0.224189 J-0.000000
G02 X77.412688 Y60.271638 Z0.000000 I-0.176810 J0.187290
G02 X77.298843 Y60.345872 Z0.000000 I-0.000000 J0.124413
G02 X77.309896 Y60.504933 Z0.000000 I0.156618 J0.069031
G01 X77.309894 Y60.504933 Z0.000000
G00 Z5.000000

(End cutting path id: path847)


(Start cutting path id: path847)
(Change tool to Cylindrical cutter)

G00 Z5.000000
G00 X78.232799 Y60.445474

G01 Z0.000000 F1000.0(Penetrate)
G03 X78.336410 Y60.781404 Z0.000000 I-2.318147 J0.898931 F1100.000000
G03 X78.374481 Y61.048810 Z0.000000 I-1.513926 J0.351952
G01 X78.431283 Y61.068095 Z0.000000
G02 X78.605856 Y60.781454 Z0.000000 I-0.770544 J-0.665767
G03 X78.885138 Y60.422885 Z0.000000 I0.762296 J0.305688
G03 X79.115980 Y60.410576 Z0.000000 I0.124908 J0.171778
G02 X79.216930 Y60.424531 Z0.000000 I0.067694 J-0.117582
G01 X79.229795 Y60.381826 Z0.000000
G02 X78.470567 Y60.074452 Z0.000000 I-0.699145 J0.635569
G02 X78.232799 Y60.445174 Z0.000000 I0.017380 J0.272756
G01 X78.232799 Y60.445474 Z0.000000
G00 Z5.000000

(End cutting path id: path847)


(Start cutting path id: path847)
(Change tool to Cylindrical cutter)

G00 Z5.000000
G00 X77.830914 Y59.601139

G01 Z0.000000 F1000.0(Penetrate)
G02 X78.118842 Y59.788344 Z0.000000 I0.577325 J-0.572920 F1100.000000
G02 X78.249234 Y59.760425 Z0.000000 I0.043641 J-0.114627
G02 X78.249068 Y59.657430 Z0.000000 I-0.051853 J-0.051414
G02 X77.961467 Y59.470531 Z0.000000 I-0.581933 J0.580750
G02 X77.831093 Y59.498440 Z0.000000 I-0.043640 J0.114606
G02 X77.830914 Y59.601139 Z0.000000 I0.051460 J0.051439
G01 X77.830914 Y59.601139 Z0.000000
G00 Z5.000000

(End cutting path id: path847)


(Start cutting path id: path847)
(Change tool to Cylindrical cutter)

G00 Z5.000000
G00 X76.843270 Y58.638550

G01 Z0.000000 F1000.0(Penetrate)
G02 X77.005674 Y58.838395 Z0.000000 I0.812653 J-0.494488 F1100.000000
G02 X77.090337 Y58.871849 Z0.000000 I0.084663 J-0.090403
G02 X77.153699 Y58.830132 Z0.000000 I0.000000 J-0.068977
G02 X77.193163 Y58.638550 Z0.000000 I-0.445296 J-0.191583
G02 X77.122884 Y58.475529 Z0.000000 I-0.224212 J-0.000000
G02 X76.946111 Y58.405258 Z0.000000 I-0.176773 J0.187210
G02 X76.832250 Y58.479472 Z0.000000 I-0.000000 J0.124450
G02 X76.843274 Y58.638550 Z0.000000 I0.156553 J0.069072
G01 X76.843270 Y58.638550 Z0.000000
G00 Z5.000000

(End cutting path id: path847)


(Start cutting path id: path847)
(Change tool to Cylindrical cutter)

G00 Z5.000000
G00 X78.280423 Y58.042046

G01 Z0.000000 F1000.0(Penetrate)
G02 X78.295440 Y58.304970 Z0.000000 I0.293742 J0.115114 F1100.000000
G02 X78.524484 Y58.508135 Z0.000000 I0.386369 J-0.204892
G02 X78.808304 Y58.403159 Z0.000000 I0.082149 J-0.214060
G02 X78.760105 Y58.072464 Z0.000000 I-0.245918 J-0.133017
G02 X78.450776 Y57.932667 Z0.000000 I-0.339877 J0.339919
G02 X78.280423 Y58.041913 Z0.000000 I-0.010858 J0.170511
G01 X78.280423 Y58.042046 Z0.000000
G00 Z5.000000

(End cutting path id: path847)


(Start cutting path id: path847)
(Change tool to Cylindrical cutter)

G00 Z5.000000
G00 X79.416760 Y59.093644

G01 Z0.000000 F1000.0(Penetrate)
G03 X79.235843 Y59.236823 Z0.000000 I-0.281637 J-0.169979 F1100.000000
G03 X79.046177 Y59.213694 Z0.000000 I-0.069784 J-0.216973
G02 X78.966674 Y59.244620 Z0.000000 I-0.028102 J0.045412
G02 X78.975827 Y59.461279 Z0.000000 I0.334872 J0.094377
G02 X79.172684 Y59.601748 Z0.000000 I0.204532 J-0.078462
G02 X79.484161 Y59.479110 Z0.000000 I0.014707 J-0.419511
G02 X79.734208 Y59.116613 Z0.000000 I-0.862085 J-0.862149
G02 X79.708947 Y58.978909 Z0.000000 I-0.112481 J-0.050535
G02 X79.584601 Y58.952567 Z0.000000 I-0.082228 J0.081501
G02 X79.415047 Y59.093803 Z0.000000 I0.126755 J0.324563
G01 X79.416760 Y59.093644 Z0.000000
G00 Z5.000000

(End cutting path id: path847)


(Start cutting path id: path847)
(Change tool to Cylindrical cutter)

G00 Z5.000000
G00 X80.579195 Y59.424158

G01 Z0.000000 F1000.0(Penetrate)
G02 X80.406690 Y59.778921 Z0.000000 I0.248820 J0.340312 F1100.000000
G02 X80.610483 Y60.335111 Z0.000000 I0.949777 J-0.032576
G02 X81.059378 Y60.615424 Z0.000000 I0.613115 J-0.482258
G02 X81.347031 Y60.493728 Z0.000000 I0.057199 J-0.265609
G02 X81.463400 Y60.096118 Z0.000000 I-0.650348 J-0.406173
G02 X81.353832 Y59.896675 Z0.000000 I-0.231595 J-0.002586
G02 X81.264883 Y59.908731 Z0.000000 I-0.037147 J0.060093
G02 X81.255732 Y60.002514 Z0.000000 I0.057051 J0.052905
G03 X81.143827 Y60.173368 Z0.000000 I-0.095886 J0.059272
G03 X80.694786 Y59.922033 Z0.000000 I0.101723 J-0.708541
G03 X80.634878 Y59.680297 Z0.000000 I0.220366 J-0.182903
G03 X80.768156 Y59.572091 Z0.000000 I0.133278 J0.027977
G02 X81.093330 Y59.501109 Z0.000000 I0.000001 J-0.780308
G02 X81.277084 Y59.338798 Z0.000000 I-0.176474 J-0.384957
G02 X81.179927 Y59.187123 Z0.000000 I-0.084978 J-0.052521
G02 X80.580388 Y59.424427 Z0.000000 I0.156022 J1.270192
G01 X80.579195 Y59.424158 Z0.000000
G00 Z5.000000

(End cutting path id: path847)


(Start cutting path id: path847)
(Change tool to Cylindrical cutter)

G00 Z5.000000
G00 X81.625803 Y59.441680

G01 Z0.000000 F1000.0(Penetrate)
G02 X81.708279 Y59.722943 Z0.000000 I0.520819 J0.000001 F1100.000000
G02 X81.859162 Y59.805401 Z0.000000 I0.150883 J-0.096814
G02 X82.026247 Y59.739156 Z0.000000 I0.000000 J-0.243834
G02 X82.092492 Y59.585873 Z0.000000 I-0.144217 J-0.153283
G02 X82.037167 Y59.397183 Z0.000000 I-0.349426 J-0.000001
G02 X81.859163 Y59.222150 Z0.000000 I-0.474247 J0.304267
G02 X81.714328 Y59.236841 Z0.000000 I-0.062832 J0.101847
G02 X81.625803 Y59.441680 Z0.000000 I0.192727 J0.204840
G01 X81.625803 Y59.441680 Z0.000000
G00 Z5.000000

(End cutting path id: path847)


(Start cutting path id: path847)
(Change tool to Cylindrical cutter)

G00 Z5.000000
G00 X83.025641 Y60.504943

G01 Z0.000000 F1000.0(Penetrate)
G02 X83.095933 Y60.667984 Z0.000000 I0.224229 J0.000000 F1100.000000
G02 X83.272690 Y60.738244 Z0.000000 I0.176758 J-0.187211
G02 X83.386616 Y60.663990 Z0.000000 I0.000000 J-0.124523
G02 X83.375641 Y60.504944 Z0.000000 I-0.156593 J-0.069096
G02 X83.213317 Y60.305079 Z0.000000 I-0.802696 J0.486071
G02 X83.128521 Y60.271649 Z0.000000 I-0.084796 J0.090830
G02 X83.065179 Y60.313326 Z0.000000 I-0.000000 J0.068972
G02 X83.025651 Y60.504943 Z0.000000 I0.444679 J0.191618
G01 X83.025641 Y60.504943 Z0.000000
G00 Z5.000000

(End cutting path id: path847)


(Start cutting path id: path847)
(Change tool to Cylindrical cutter)

G00 Z5.000000
G00 X81.990809 Y61.602127

G01 Z0.000000 F1000.0(Penetrate)
G02 X82.018706 Y61.732530 Z0.000000 I0.114646 J0.043659 F1100.000000
G02 X82.121388 Y61.732720 Z0.000000 I0.051436 J-0.051434
G02 X82.308595 Y61.444779 Z0.000000 I-0.572863 J-0.577278
G02 X82.280709 Y61.314390 Z0.000000 I-0.114671 J-0.043652
G02 X82.177834 Y61.314254 Z0.000000 I-0.051506 J0.051520
G02 X81.990809 Y61.602127 Z0.000000 I0.575133 J0.578344
G01 X81.990809 Y61.602127 Z0.000000
G00 Z5.000000

(End cutting path id: path847)


(Start cutting path id: path847)
(Change tool to Cylindrical cutter)

G00 Z5.000000
G00 X81.244165 Y63.063949

G01 Z0.000000 F1000.0(Penetrate)
G03 X81.143724 Y63.073377 Z0.000000 I-0.056106 J-0.057987 F1100.000000
G03 X80.945650 Y62.869617 Z0.000000 I0.361248 J-0.549319
G02 X80.798191 Y62.836955 Z0.000000 I-0.089613 J0.055381
G02 X80.622199 Y63.082160 Z0.000000 I0.230968 J0.351534
G03 X80.379218 Y63.415315 Z0.000000 I-0.545630 J-0.142761
G03 X80.006522 Y63.473675 Z0.000000 I-0.253284 J-0.398289
G02 X79.643289 Y63.499718 Z0.000000 I-0.143274 J0.547786
G02 X79.526195 Y63.676158 Z0.000000 I0.074384 J0.176440
G03 X79.441109 Y63.919150 Z0.000000 I-0.389521 J-0.000001
G03 X79.264287 Y64.004256 Z0.000000 I-0.176822 J-0.141135
G02 X79.185545 Y64.089970 Z0.000000 I-0.000000 J0.079025
G02 X79.294316 Y64.354198 Z0.000000 I0.472901 J-0.040170
G03 X79.349252 Y64.593658 Z0.000000 I-0.209869 J0.174178
G03 X79.208216 Y64.704147 Z0.000000 I-0.141036 J-0.034769
G03 X78.951883 Y64.582014 Z0.000000 I0.000001 J-0.330062
G03 X78.829744 Y64.237556 Z0.000000 I0.424644 J-0.344456
G03 X78.929049 Y63.870233 Z0.000000 I0.729009 J0.000001
G03 X79.101893 Y63.770956 Z0.000000 I0.172844 J0.100825
G02 X79.226143 Y63.709657 Z0.000000 I0.000000 J-0.156573
G02 X79.220044 Y63.616913 Z0.000000 I-0.055939 J-0.042894
G03 X79.279593 Y62.961665 Z0.000000 I0.302783 J-0.302813
G03 X80.203429 Y62.938283 Z0.000000 I0.479810 J0.695222
G02 X80.349932 Y62.916267 Z0.000000 I0.060274 J-0.097364
G02 X80.545413 Y62.547008 Z0.000000 I-0.686289 J-0.599683
G03 X80.746441 Y62.371951 Z0.000000 I0.228857 J0.059855
G03 X81.019480 Y62.490849 Z0.000000 I0.034733 J0.293194
G03 X81.271712 Y62.946942 Z0.000000 I-1.669928 J1.221309
G03 X81.247607 Y63.063858 Z0.000000 I-0.100853 J0.040150
G01 X81.244165 Y63.063949 Z0.000000
G00 Z5.000000

(End cutting path id: path847)


(Start cutting path id: path847)
(Change tool to Cylindrical cutter)

G00 Z5.000000
G00 X80.925970 Y64.223926

G01 Z0.000000 F1000.0(Penetrate)
G02 X81.171265 Y64.517932 Z0.000000 I0.298841 J0.000001 F1100.000000
G02 X81.627993 Y64.351778 Z0.000000 I0.086268 J-0.473674
G02 X81.645139 Y64.131723 Z0.000000 I-0.147229 J-0.122167
G02 X81.421125 Y64.004399 Z0.000000 I-0.224014 J0.133404
G02 X81.012484 Y64.090930 Z0.000000 I-0.000002 J1.008162
G02 X80.925970 Y64.223926 Z0.000000 I0.058969 J0.132997
G01 X80.925970 Y64.223926 Z0.000000
G00 Z5.000000

(End cutting path id: path847)


(Start cutting path id: path847)
(Change tool to Cylindrical cutter)

G00 Z5.000000
G00 X83.725524 Y63.990503

G01 Z0.000000 F1000.0(Penetrate)
G03 X83.670217 Y64.179187 Z0.000000 I-0.349510 J-0.000001 F1100.000000
G03 X83.492213 Y64.354214 Z0.000000 I-0.473908 J-0.303937
G03 X83.347399 Y64.339516 Z0.000000 I-0.062820 J-0.101801
G03 X83.258914 Y64.134696 Z0.000000 I0.192808 J-0.204819
G03 X83.341342 Y63.853453 Z0.000000 I0.521012 J0.000001
G03 X83.492214 Y63.770973 Z0.000000 I0.150872 J0.096747
G03 X83.659300 Y63.837235 Z0.000000 I-0.000000 J0.243795
G03 X83.725524 Y63.990503 Z0.000000 I-0.144249 J0.153268
G01 X83.725524 Y63.990503 Z0.000000
G00 Z5.000000

(End cutting path id: path847)


(Start cutting path id: path847)
(Change tool to Cylindrical cutter)

G00 Z5.000000
G00 X87.970711 Y65.547236

G01 Z0.000000 F1000.0(Penetrate)
G03 X87.853365 Y65.563524 Z0.000000 I-0.064842 J-0.036298 F1100.000000
G03 X87.771491 Y65.348326 Z0.000000 I0.198316 J-0.198624
G03 X87.890409 Y64.943284 Z0.000000 I0.956722 J0.060908
G03 X88.007352 Y64.926897 Z0.000000 I0.064659 J0.035960
G03 X88.088918 Y65.141950 Z0.000000 I-0.197790 J0.198012
G03 X87.969251 Y65.547236 Z0.000000 I-0.940428 J-0.057365
G01 X87.970711 Y65.547236 Z0.000000
G00 Z5.000000

(End cutting path id: path847)


(Start cutting path id: path847)
(Change tool to Cylindrical cutter)

