%
(Header)
(Generated by gcodetools from Inkscape.)
(Using default header. To add your own header create file "header" in the output dir.)
M3
(Header end.)
G21 (All units in mm)

(Start cutting path id: path63555)
(Change tool to Default tool)

G00 Z5.000000
G00 X8.229524 Y3.253204

G01 Z-0.125000 F100.0(Penetrate)
G02 X8.340791 Y3.584589 Z-0.125000 I0.549110 J-0.000000 F400.000000
G02 X9.223546 Y4.566562 Z-0.125000 I6.247450 J-4.728439
G03 X9.389413 Y5.307901 Z-0.125000 I-0.462971 J0.492810
G03 X8.838708 Y5.540293 Z-0.125000 I-0.389316 J-0.153865
G02 X5.976723 Y4.919382 Z-0.125000 I-3.116608 J7.459107
G02 X5.446262 Y5.433390 Z-0.125000 I-0.016198 J0.514008
G02 X5.963737 Y6.607668 Z-0.125000 I1.591100 J0.000000
G02 X11.241720 Y10.732090 Z-0.125000 I29.253124 J-31.995640
G03 X13.565448 Y12.624625 Z-0.125000 I-8.513087 J12.825543
G03 X13.445368 Y12.916346 Z-0.125000 I-0.120080 J0.121146
G03 X13.100671 Y12.821440 Z-0.125000 I0.000000 J-0.673420
G03 X12.816000 Y12.541349 Z-0.125000 I0.430086 J-0.721825
G02 X10.004982 Y9.990249 Z-0.125000 I-5.837064 J3.607513
G02 X5.487073 Y8.940258 Z-0.125000 I-4.517910 J9.194856
G01 X4.234152 Y8.940258 Z-0.125000
G01 X5.485928 Y10.315869 Z-0.125000
G02 X6.848265 Y11.555957 Z-0.125000 I7.255372 J-6.602247
G02 X9.502090 Y13.333770 Z-0.125000 I17.717480 J-23.578079
G03 X12.068537 Y15.000866 Z-0.125000 I-19.537286 J32.886105
G03 X12.082078 Y15.160456 Z-0.125000 I-0.060540 J0.085506
G03 X11.870928 Y15.212698 Z-0.125000 I-0.148869 J-0.148863
G03 X9.398636 Y14.329407 Z-0.125000 I9.072909 J-29.296241
G02 X6.705471 Y13.374157 Z-0.125000 I-11.928115 J29.355219
G02 X6.071582 Y13.308004 Z-0.125000 I-0.487315 J1.599441
G02 X5.962616 Y13.530248 Z-0.125000 I0.012676 J0.144050
G02 X6.882624 Y14.550816 Z-0.125000 I3.576144 J-2.298810
G02 X12.557271 Y18.405496 Z-0.125000 I27.441718 J-34.293892
G02 X19.317397 Y21.645934 Z-0.125000 I25.994464 J-45.557424
G03 X24.900593 Y24.110411 Z-0.125000 I-27.827184 J70.598113
G03 X35.068115 Y29.369543 Z-0.125000 I-117.542711 J239.704321
G03 X41.610694 Y33.399075 Z-0.125000 I-34.540898 J63.408807
G03 X42.032993 Y34.188414 Z-0.125000 I-0.557639 J0.805973
G02 X42.284470 Y34.813632 Z-0.125000 I0.942817 J-0.016039
G02 X47.051838 Y39.599207 Z-0.125000 I69.457103 J-64.425448
G02 X49.262410 Y41.217041 Z-0.125000 I7.822048 J-8.368712
G02 X56.079187 Y44.671708 Z-0.125000 I43.673891 J-77.724887
G01 X58.005035 Y45.546086 Z-0.125000
G01 X57.073208 Y46.266732 Z-0.125000
G03 X56.083573 Y46.859618 Z-0.125000 I-2.983941 J-3.858358
G03 X54.948554 Y47.218651 Z-0.125000 I-2.123639 J-4.739911
G02 X53.779740 Y47.527991 Z-0.125000 I1.713140 J8.835759
G02 X51.867085 Y48.260203 Z-0.125000 I8.268466 J24.462717
G02 X50.313363 Y49.291237 Z-0.125000 I2.046637 J4.770403
G02 X49.978443 Y50.078635 Z-0.125000 I0.758126 J0.787397
G03 X49.820564 Y50.947416 Z-0.125000 I-2.469315 J-0.000000
G03 X49.580834 Y51.136488 Z-0.125000 I-0.276344 J-0.103867
G03 X49.182922 Y51.183469 Z-0.125000 I-3.610335 J-28.870008
G03 X48.686215 Y51.235893 Z-0.125000 I-5.028082 J-45.260860
G02 X48.345927 Y51.448794 Z-0.125000 I0.045062 J0.450421
G02 X48.050800 Y52.266802 Z-0.125000 I1.808561 J1.114749
G03 X47.754056 Y53.161870 Z-0.125000 I-2.607745 J-0.367830
G03 X47.156181 Y53.903875 Z-0.125000 I-2.359863 J-1.289600
G02 X46.578296 Y54.641133 Z-0.125000 I1.611987 J1.858636
G02 X46.399964 Y55.380645 Z-0.125000 I1.444149 J0.739511
G03 X46.174246 Y56.085185 Z-0.125000 I-1.212413 J0.000000
G03 X45.207502 Y57.050661 Z-0.125000 I-3.365241 J-2.402919
G02 X44.403878 Y57.990943 Z-0.125000 I1.479976 J2.078434
G02 X44.413359 Y58.644042 Z-0.125000 I0.636783 J0.317374
G03 X44.584558 Y59.327207 Z-0.125000 I-1.275667 J0.682711
G03 X44.413077 Y59.634713 Z-0.125000 I-0.361660 J-0.000113
G02 X44.154409 Y59.959176 Z-0.125000 I0.323274 J0.523059
G02 X44.014393 Y60.802983 Z-0.125000 I2.472592 J0.843807
G03 X43.844392 Y61.645021 Z-0.125000 I-2.170368 J-0.000000
G03 X43.417981 Y62.219835 Z-0.125000 I-1.388568 J-0.584506
G02 X43.006552 Y62.801683 Z-0.125000 I0.876589 J1.056229
G02 X42.821567 Y63.839195 Z-0.125000 I2.817008 J1.037512
G03 X42.611806 Y64.840592 Z-0.125000 I-2.495208 J-0.000000
G03 X42.168846 Y65.328865 Z-0.125000 I-0.948893 J-0.415769
G02 X41.796445 Y65.816534 Z-0.125000 I0.377239 J0.674097
G02 X41.793126 Y66.839654 Z-0.125000 I2.084215 J0.518325
G03 X41.779493 Y69.154128 Z-0.125000 I-4.671999 J1.129756
G03 X40.876697 Y70.443099 Z-0.125000 I-2.153528 J-0.547686
G02 X39.068254 Y72.461547 Z-0.125000 I3.177873 J4.666606
G02 X38.197926 Y75.487065 Z-0.125000 I6.728794 J3.573562
G03 X37.750404 Y77.291033 Z-0.125000 I-5.441673 J-0.392456
G03 X36.671741 Y78.957252 Z-0.125000 I-5.695645 J-2.504940
G02 X35.596367 Y81.078551 Z-0.125000 I3.362478 J3.037804
G02 X36.104760 Y81.702665 Z-0.125000 I0.508392 J0.104993
G03 X36.356449 Y82.096317 Z-0.125000 I0.000000 J0.277287
G03 X34.862756 Y84.389028 Z-0.125000 I-8.632488 J-3.991111
G02 X33.550374 Y86.263246 Z-0.125000 I7.758717 J6.829474
G02 X33.488368 Y86.904997 Z-0.125000 I0.720276 J0.393464
G03 X33.301262 Y88.220048 Z-0.125000 I-1.459394 J0.463194
G03 X29.203470 Y93.304694 Z-0.125000 I-30.751768 J-20.589758
G02 X27.738479 Y95.602573 Z-0.125000 I4.961305 J4.778966
G02 X28.010643 Y96.394248 Z-0.125000 I0.606441 J0.234137
G03 X28.129119 Y96.868696 Z-0.125000 I-0.177707 J0.296392
G03 X26.619011 Y98.709131 Z-0.125000 I-7.019615 J-4.219963
G02 X24.730706 Y100.694917 Z-0.125000 I12.682454 J13.950572
G02 X24.531565 Y101.251231 Z-0.125000 I0.677481 J0.556314
G02 X25.078332 Y102.181771 Z-0.125000 I1.065224 J0.000000
G02 X26.157882 Y102.157342 Z-0.125000 I0.518973 J-0.931466
G03 X26.424084 Y102.408177 Z-0.125000 I0.099531 J0.161044
G03 X24.829772 Y104.622596 Z-0.125000 I-9.275902 J-4.997223
G02 X22.746320 Y107.323801 Z-0.125000 I12.858932 J12.072245
G02 X22.744270 Y107.947993 Z-0.125000 I0.500270 J0.313742
G02 X23.545716 Y108.340839 Z-0.125000 I0.713003 J-0.440660
G02 X26.420208 Y107.557943 Z-0.125000 I-0.985370 J-9.286354
G03 X27.986870 Y106.978888 Z-0.125000 I4.793729 J10.560819
G03 X28.105757 Y107.069663 Z-0.125000 I0.025882 J0.089343
G03 X28.018147 Y107.314880 Z-0.125000 I-0.403615 J-0.005944
G03 X26.614726 Y108.945875 Z-0.125000 I-21.612782 J-17.177820
G02 X21.580685 Y114.692352 Z-0.125000 I92.841014 J86.409003
G02 X21.350613 Y115.333274 Z-0.125000 I0.777688 J0.640922
G02 X22.029489 Y115.870914 Z-0.125000 I0.552332 J0.000000
G02 X25.731053 Y114.302258 Z-0.125000 I-2.727220 J-11.587058
G03 X27.602521 Y113.179747 Z-0.125000 I19.487397 J30.368345
G03 X27.855652 Y113.113758 Z-0.125000 I0.253131 J0.452506
G03 X27.906051 Y113.216419 Z-0.125000 I0.000000 J0.063702
G03 X25.136986 Y116.630663 Z-0.125000 I-74.462428 J-57.561458
G02 X22.289652 Y120.695231 Z-0.125000 I20.199782 J17.180065
G02 X22.586246 Y121.124682 Z-0.125000 I0.251761 J0.143270
G02 X23.944341 Y120.610586 Z-0.125000 I-0.548152 J-3.498954
G02 X31.092030 Y115.697738 Z-0.125000 I-69.014850 J-108.065515
G03 X34.103452 Y113.932010 Z-0.125000 I9.828332 J13.311236
G03 X34.471703 Y114.169652 Z-0.125000 I0.107448 J0.237642
G03 X34.238962 Y114.828710 Z-0.125000 I-1.049507 J-0.000000
G03 X30.794438 Y118.726849 Z-0.125000 I-45.240982 J-36.505511
G02 X29.180602 Y120.661672 Z-0.125000 I12.374018 J11.961632
G02 X28.585572 Y121.808317 Z-0.125000 I3.677331 J2.635994
G02 X28.541439 Y122.776838 Z-0.125000 I1.601344 J0.558235
G02 X28.896166 Y123.053978 Z-0.125000 I0.354727 J-0.088448
G02 X30.295554 Y122.522867 Z-0.125000 I-0.000000 J-2.109134
G02 X41.221426 Y112.123962 Z-0.125000 I-142.109217 J-160.249857
G03 X44.505539 Y109.055070 Z-0.125000 I36.196520 J35.443314
G03 X44.737178 Y109.119412 Z-0.125000 I0.094153 J0.110172
G03 X44.688890 Y109.515880 Z-0.125000 I-0.442021 J0.147338
G03 X43.473565 Y111.116454 Z-0.125000 I-9.968593 J-6.307524
G02 X39.443454 Y117.445247 Z-0.125000 I16.679408 J15.068839
G02 X40.286731 Y118.667637 Z-0.125000 I0.811291 J0.342389
G02 X41.216588 Y118.197947 Z-0.125000 I-0.045257 J-1.244870
G02 X47.230538 Y109.932887 Z-0.125000 I-93.875445 J-74.627619
G03 X52.765828 Y102.294006 Z-0.125000 I96.664557 J64.220177
G03 X64.788238 Y87.666797 Z-0.125000 I367.103891 J289.476044
G02 X65.951994 Y86.252517 Z-0.125000 I-35.322191 J-30.251213
G02 X68.166457 Y83.392502 Z-0.125000 I-142.303975 J-112.470982
G03 X70.421332 Y80.647754 Z-0.125000 I36.448988 J27.645106
G03 X70.728414 Y80.509839 Z-0.125000 I0.307082 J0.272918
G03 X71.088354 Y80.572181 Z-0.125000 I0.000000 J1.070251
G03 X71.857230 Y80.912962 Z-0.125000 I-1.907654 J5.341839
G02 X72.490605 Y80.832607 Z-0.125000 I0.260121 J-0.486045
G02 X74.558260 Y78.427908 Z-0.125000 I-9.210159 J-10.010532
G02 X76.431998 Y75.496245 Z-0.125000 I-58.553326 J-39.488287
G02 X77.534500 Y73.508252 Z-0.125000 I-25.792671 J-15.603819
G02 X79.299107 Y68.915675 Z-0.125000 I-21.595878 J-10.933089
G02 X79.799101 Y65.164747 Z-0.125000 I-13.819625 J-3.750928
G03 X80.523516 Y64.311552 Z-0.125000 I0.864642 J0.000000
G03 X83.323927 Y64.585424 Z-0.125000 I0.886248 J5.392282
G03 X85.393884 Y65.720493 Z-0.125000 I-2.887013 J7.719838
G03 X86.293024 Y66.820537 Z-0.125000 I-1.795402 J2.384987
G02 X87.096740 Y68.054147 Z-0.125000 I5.030658 J-2.398930
G02 X88.065021 Y68.882500 Z-0.125000 I3.166260 J-2.721013
G03 X91.189383 Y71.521089 Z-0.125000 I-7.357599 J11.881238
G03 X92.182152 Y73.551684 Z-0.125000 I-3.202100 J2.823507
G02 X92.556607 Y74.153463 Z-0.125000 I0.963451 J-0.182112
G02 X94.017959 Y74.931056 Z-0.125000 I3.212758 J-4.275849
G03 X95.462246 Y75.686893 Z-0.125000 I-1.803808 J5.204616
G03 X95.703455 Y76.161661 Z-0.125000 I-0.346632 J0.474768
G02 X96.281367 Y77.318096 Z-0.125000 I1.446002 J0.000000
G02 X98.600388 Y78.336273 Z-0.125000 I3.331726 J-4.438390
G03 X99.869577 Y78.908076 Z-0.125000 I-0.534797 J2.881516
G03 X100.661634 Y79.946198 Z-0.125000 I-1.587305 J2.032286
G02 X102.279554 Y81.343346 Z-0.125000 I2.209379 J-0.923134
G02 X105.296409 Y81.127646 Z-0.125000 I1.184033 J-4.644935
G03 X105.765410 Y81.211151 Z-0.125000 I0.169152 J0.408782
G03 X106.217955 Y81.977157 Z-0.125000 I-1.045878 J1.134570
G02 X108.251849 Y84.416389 Z-0.125000 I3.517174 J-0.865137
G02 X110.921084 Y84.088318 Z-0.125000 I1.063566 J-2.369353
G03 X111.953643 Y83.355518 Z-0.125000 I7.939377 J10.093205
G03 X112.167532 Y83.293100 Z-0.125000 I0.213889 J0.335258
G03 X112.293349 Y83.402775 Z-0.125000 I0.000000 J0.127004
G03 X112.403024 Y85.002816 Z-0.125000 I-11.616580 J1.600042
G02 X113.077173 Y86.992646 Z-0.125000 I3.273683 J-0.000000
G02 X114.442187 Y87.666797 Z-0.125000 I1.365014 J-1.044858
G02 X115.661207 Y87.194630 Z-0.125000 I0.000000 J-1.809690
G02 X117.661550 Y84.732665 Z-0.125000 I-7.177811 J-7.875579
G03 X119.298111 Y83.402850 Z-0.125000 I2.609017 J1.538896
G03 X120.148819 Y83.889512 Z-0.125000 I0.210061 J0.619673
G03 X120.355079 Y84.883558 Z-0.125000 I-4065.831552 J844.220845
G03 X120.558699 Y85.866081 Z-0.125000 I-4093.922894 J848.881853
G02 X121.519889 Y87.196347 Z-0.125000 I1.964111 J-0.406788
G02 X123.291539 Y87.443940 Z-0.125000 I1.191539 J-2.063739
G02 X124.158979 Y86.643856 Z-0.125000 I-0.300081 J-1.195619
G02 X125.070524 Y82.192826 Z-0.125000 I-17.306476 J-5.863118
G03 X125.472515 Y79.485728 Z-0.125000 I19.488469 J1.510548
G03 X125.695164 Y79.086252 Z-0.125000 I0.778249 J0.171974
G03 X125.879380 Y79.140265 Z-0.125000 I0.076851 J0.079043
G03 X126.115903 Y81.176442 Z-0.125000 I-8.821503 J2.056535
G02 X127.064591 Y84.538809 Z-0.125000 I6.484265 J-0.014509
G02 X128.741148 Y85.479947 Z-0.125000 I1.676557 J-1.022753
G02 X129.409893 Y85.151147 Z-0.125000 I0.000000 J-0.844477
G02 X129.967553 Y83.889512 Z-0.125000 I-2.291306 J-1.766855
G02 X129.305345 Y73.815750 Z-0.125000 I-20.811527 J-3.690581
G02 X124.084019 Y65.317365 Z-0.125000 I-19.668100 J6.230733
G03 X122.083110 Y63.162257 Z-0.125000 I22.024264 J-22.454844
G03 X121.945635 Y62.786545 Z-0.125000 I0.444663 J-0.375712
G03 X122.131369 Y62.506397 Z-0.125000 I0.304145 J-0.000000
G03 X123.834275 Y61.988266 Z-0.125000 I3.320697 J7.856420
G02 X125.448152 Y61.361909 Z-0.125000 I-0.920148 J-4.763209
G02 X125.846446 Y60.755711 Z-0.125000 I-0.444850 J-0.726227
G02 X124.413392 Y57.586679 Z-0.125000 I-3.209943 J-0.456979
G02 X116.526740 Y54.649610 Z-0.125000 I-10.403833 J15.879293
G03 X108.760379 Y52.611082 Z-0.125000 I4.314298 J-32.249924
G03 X101.726292 Y48.731342 Z-0.125000 I12.091684 J-30.238968
G01 X99.598150 Y47.187200 Z-0.125000
G01 X101.740147 Y45.816986 Z-0.125000
G02 X104.949278 Y42.870004 Z-0.125000 I-6.790699 J-10.615561
G02 X106.875231 Y39.120832 Z-0.125000 I-9.358395 J-7.176681
G02 X107.286066 Y34.975439 Z-0.125000 I-10.228248 J-3.106741
G02 X106.224265 Y32.452883 Z-0.125000 I-4.592520 J0.448350
G03 X105.427274 Y31.224262 Z-0.125000 I4.527977 J-3.810052
G03 X105.246066 Y30.435065 Z-0.125000 I1.627953 J-0.789197
G02 X104.494827 Y28.379109 Z-0.125000 I-3.188943 J-0.000000
G02 X102.878484 Y27.627871 Z-0.125000 I-1.616343 J1.363222
G02 X102.603542 Y27.768609 Z-0.125000 I0.000000 J0.338928
G02 X102.462805 Y28.204527 Z-0.125000 I0.604734 J0.435918
G03 X101.825786 Y28.888382 Z-0.125000 I-0.685577 J0.000000
G03 X94.995589 Y28.734752 Z-0.125000 I-2.594860 J-36.543609
G02 X88.736925 Y28.163385 Z-0.125000 I-14.634604 J125.741128
G02 X84.570407 Y28.043443 Z-0.125000 I-3.684495 J55.563643
G03 X69.161040 Y27.727582 Z-0.125000 I-2.288661 J-264.379887
G03 X65.406022 Y27.091208 Z-0.125000 I0.801169 J-16.124132
G03 X63.206678 Y26.337707 Z-0.125000 I7.464773 J-25.374919
G03 X62.961241 Y26.131613 Z-0.125000 I0.183660 J-0.467914
G03 X62.833259 Y25.818610 Z-0.125000 I0.907482 J-0.553720
G03 X61.922581 Y21.663739 Z-0.125000 I163.829062 J-38.085818
G02 X60.129896 Y14.942906 Z-0.125000 I-59.234780 J12.200524
G02 X59.224001 Y13.471311 Z-0.125000 I-3.545312 J1.167821
G02 X57.685106 Y12.839082 Z-0.125000 I-1.526422 J1.526422
G02 X55.040542 Y13.495497 Z-0.125000 I0.033454 J5.790194
G03 X54.081317 Y13.521287 Z-0.125000 I-0.506041 J-0.970114
G03 X52.921600 Y12.531276 Z-0.125000 I1.144331 J-2.514754
G02 X50.056243 Y9.655430 Z-0.125000 I-8.564024 J5.667414
G02 X47.791596 Y9.109374 Z-0.125000 I-1.876466 J2.813138
G03 X46.598332 Y9.242995 Z-0.125000 I-19.496891 J-168.717091
G03 X46.101759 Y9.292553 Z-0.125000 I-3.160804 J-29.158374
G02 X45.587093 Y9.836109 Z-0.125000 I0.051462 J0.564161
G02 X45.992517 Y12.294071 Z-0.125000 I6.270079 J0.228211
G03 X45.748995 Y12.617845 Z-0.125000 I-0.223845 J0.085106
G03 X45.100791 Y12.220552 Z-0.125000 I0.069295 J-0.840495
G02 X41.458287 Y8.324804 Z-0.125000 I-11.505992 J7.107306
G02 X37.642250 Y6.890199 Z-0.125000 I-4.594644 J6.429095
G02 X36.525953 Y7.091104 Z-0.125000 I-0.204502 J2.065427
G02 X36.136713 Y7.626469 Z-0.125000 I0.310496 J0.634930
G02 X36.211664 Y8.462453 Z-0.125000 I1.816553 J0.258487
G02 X37.031332 Y10.324437 Z-0.125000 I10.231841 J-3.392775
G03 X37.996628 Y12.163306 Z-0.125000 I-35.162265 J19.630879
G03 X38.050180 Y12.393256 Z-0.125000 I-0.466925 J0.229950
G01 X37.966431 Y12.429236 Z-0.125000
G03 X35.366322 Y9.846287 Z-0.125000 I55.204119 J-58.171029
G02 X28.140081 Y4.669893 Z-0.125000 I-17.571833 J16.898150
G02 X26.519527 Y5.700096 Z-0.125000 I-0.482821 J1.030203
G02 X26.642916 Y6.338773 Z-0.125000 I1.714641 J0.000000
G02 X27.156497 Y7.287088 Z-0.125000 I4.373793 J-1.755499
G03 X26.892846 Y7.652738 Z-0.125000 I-0.195485 J0.136923
G03 X24.941319 Y6.626916 Z-0.125000 I1.630498 J-5.471077
G02 X19.240149 Y3.141780 Z-0.125000 I-16.222583 J20.132050
G02 X18.236692 Y3.640018 Z-0.125000 I-0.295773 J0.663915
G02 X18.439562 Y4.447063 Z-0.125000 I0.883697 J0.206883
G02 X25.227299 Y11.570208 Z-0.125000 I95.184769 J-83.907162
G03 X26.618379 Y13.349371 Z-0.125000 I-5.781810 J5.954046
G03 X26.466696 Y13.519938 Z-0.125000 I-0.103803 J0.060417
G03 X25.391830 Y12.900909 Z-0.125000 I2.202734 J-5.067468
G03 X22.145831 Y10.230750 Z-0.125000 I23.367756 J-31.715290
G02 X14.687857 Y4.670827 Z-0.125000 I-31.125010 J33.968535
G02 X10.316970 Y3.148409 Z-0.125000 I-5.859012 J9.785665
G02 X8.402690 Y3.071147 Z-0.125000 I-1.382792 J10.507500
G02 X8.229524 Y3.253226 Z-0.125000 I0.009143 J0.182080
G01 X8.229524 Y3.253204 Z-0.125000
G00 Z5.000000

(End cutting path id: path63555)


(Footer)
M5
G00 X0.0000 Y0.0000
M2
(Using default footer. To add your own footer create file "footer" in the output dir.)
(end)
%