%
(Header)
(Generated by gcodetools from Inkscape.)
(Using default header. To add your own header create file "header" in the output dir.)
M3
(Header end.)
G21 (All units in mm)

(Start cutting path id: path849)
(Change tool to Cylindrical cutter)

G00 Z5.000000
G00 X47.202410 Y0.315230

G01 Z0.000000 F1000.0(Penetrate)
G02 X47.169304 Y0.512578 Z0.000000 I0.225034 J0.139202 F1100.000000
G02 X47.282391 Y0.671300 Z0.000000 I0.245562 J-0.055313
G02 X47.454174 Y0.670746 Z0.000000 I0.085447 J-0.138140
G02 X47.636244 Y0.449479 Z0.000000 I-0.240725 J-0.383622
G02 X47.514227 Y0.198306 Z0.000000 I-0.178524 J-0.068499
G02 X47.202274 Y0.315230 Z0.000000 I-0.080431 J0.260015
G01 X47.202410 Y0.315230 Z0.000000
G00 Z5.000000

(End cutting path id: path849)


(Start cutting path id: path849)
(Change tool to Cylindrical cutter)

G00 Z5.000000
G00 X51.269885 Y0.705603

G01 Z0.000000 F1000.0(Penetrate)
G03 X51.078274 Y0.930947 Z0.000000 I-0.415846 J-0.159460 F1100.000000
G03 X50.887471 Y0.928473 Z0.000000 I-0.093341 J-0.160181
G02 X50.745898 Y0.956558 Z0.000000 I-0.055716 J0.090010
G02 X50.647511 Y1.261154 Z0.000000 I0.422301 J0.304595
G03 X50.531547 Y1.691546 Z0.000000 I-0.856657 J0.000002
G03 X50.041536 Y2.304055 Z0.000000 I-2.294051 J-1.332993
G02 X49.545380 Y2.934440 Z0.000000 I1.751958 J1.889356
G02 X49.097127 Y3.990517 Z0.000000 I4.596954 J2.574351
G02 X48.995965 Y5.055387 Z0.000000 I2.608595 J0.785057
G02 X49.265601 Y5.622006 Z0.000000 I0.932526 J-0.096294
G03 X49.644694 Y6.303885 Z0.000000 I-1.005137 J1.005130
G03 X49.922208 Y8.433685 Z0.000000 I-10.491533 J2.450029
G02 X50.043279 Y8.689789 Z0.000000 I0.353837 J-0.010604
G02 X50.195242 Y8.671985 Z0.000000 I0.067908 J-0.077811
G03 X50.292584 Y8.670204 Z0.000000 I0.049332 J0.035237
G03 X50.333048 Y8.850704 Z0.000000 I-0.173323 J0.133641
G02 X50.304819 Y9.315207 Z0.000000 I1.469197 J0.322394
G02 X50.383599 Y9.386864 Z0.000000 I0.078779 J-0.007476
G03 X50.466392 Y9.462946 Z0.000000 I0.000000 J0.083089
G03 X50.454220 Y10.220884 Z0.000000 I-3.764424 J0.318613
G02 X50.467572 Y10.956129 Z0.000000 I2.721259 J0.318328
G02 X50.582730 Y11.054914 Z0.000000 I0.115158 J-0.017730
G03 X50.708225 Y11.155408 Z0.000000 I0.000000 J0.128604
G03 X50.809601 Y12.067673 Z0.000000 I-4.091158 J0.916398
G02 X50.870059 Y13.070462 Z0.000000 I8.466873 J-0.007252
G02 X50.995963 Y13.620123 Z0.000000 I2.655965 J-0.319117
G03 X50.972773 Y13.943714 Z0.000000 I-0.391772 J0.134551
G03 X50.795161 Y14.011633 Z0.000000 I-0.126628 J-0.064945
G02 X50.559178 Y14.167909 Z0.000000 I-0.062268 J0.162281
G02 X50.753083 Y15.229484 Z0.000000 I2.524924 J0.087300
G03 X51.022971 Y16.073143 Z0.000000 I-4.749211 J1.984279
G03 X51.380061 Y17.988412 Z0.000000 I-24.280176 J5.517813
G03 X51.497870 Y19.847208 Z0.000000 I-11.263189 J1.646983
G03 X51.340345 Y20.123702 Z0.000000 I-0.332273 J-0.006184
G03 X51.036415 Y20.222392 Z0.000000 I-0.353903 J-0.572554
G03 X50.892085 Y20.157103 Z0.000000 I-0.012285 J-0.165016
G02 X50.737235 Y20.042609 Z0.000000 I-0.270328 J0.203648
G02 X50.290055 Y19.938324 Z0.000000 I-0.659399 J1.816644
G02 X50.096409 Y19.962819 Z0.000000 I-0.045814 J0.415511
G01 X50.094841 Y20.012325 Z0.000000
G03 X50.191636 Y20.197535 Z0.000000 I-0.069239 J0.154085
G03 X49.928623 Y20.898985 Z0.000000 I-2.133586 J-0.399969
G02 X49.586812 Y21.690910 Z0.000000 I2.987413 J1.759154
G02 X49.430869 Y22.612266 Z0.000000 I3.907526 J1.135241
G02 X49.597965 Y24.830879 Z0.000000 I8.723545 J0.458580
G02 X49.945674 Y25.114344 Z0.000000 I0.347708 J-0.071522
G02 X50.031200 Y25.026124 Z0.000000 I-0.000000 J-0.085567
G02 X49.926712 Y24.503105 Z0.000000 I-1.611442 J0.049983
G03 X49.620657 Y22.836649 Z0.000000 I4.382591 J-1.666224
G03 X49.926838 Y21.779395 Z0.000000 I1.978794 J0.000098
G03 X50.160758 Y21.679706 Z0.000000 I0.189170 J0.119598
G03 X50.497785 Y21.895914 Z0.000000 I-0.110962 J0.543755
G03 X50.750217 Y22.372330 Z0.000000 I-1.514375 J1.107485
G03 X50.731433 Y22.550064 Z0.000000 I-0.194136 J0.069342
G02 X50.737487 Y22.665480 Z0.000000 I0.086433 J0.053333
G02 X50.871724 Y22.731413 Z0.000000 I0.134237 J-0.103683
G02 X50.997678 Y22.609760 Z0.000000 I-0.000000 J-0.126030
G02 X50.902782 Y21.837783 Z0.000000 I-2.484954 J-0.086357
G03 X50.892612 Y21.141148 Z0.000000 I1.279949 J-0.367079
G03 X51.190945 Y20.709663 Z0.000000 I0.731430 J0.186841
G03 X51.707513 Y20.786775 Z0.000000 I0.217652 J0.310747
G03 X52.215324 Y22.020271 Z0.000000 I-1.949807 J1.523981
G02 X52.438857 Y23.309225 Z0.000000 I12.028136 J-1.422087
G02 X52.700075 Y24.130690 Z0.000000 I5.120148 J-1.175892
G03 X52.966127 Y24.947930 Z0.000000 I-5.287616 J2.173311
G03 X53.049169 Y25.560455 Z0.000000 I-2.871869 J0.701240
G02 X53.121049 Y25.889430 Z0.000000 I0.908254 J-0.026109
G01 X53.188177 Y25.888804 Z0.000000
G03 X53.451703 Y25.881368 Z0.000000 I0.133387 J0.053820
G03 X53.663950 Y26.899606 Z0.000000 I-2.025713 J0.953490
G03 X53.545434 Y28.126124 Z0.000000 I-9.134924 J-0.263707
G03 X53.447377 Y28.210234 Z0.000000 I-0.099161 J-0.016389
G02 X53.086516 Y28.592233 Z0.000000 I0.003545 J0.364795
G02 X53.526141 Y29.880210 Z0.000000 I2.444647 J-0.115413
G01 X53.610143 Y29.871689 Z0.000000
G02 X53.629327 Y29.641917 Z0.000000 I-0.330985 J-0.143322
G03 X53.697191 Y29.482113 Z0.000000 I0.140434 J-0.034674
G03 X53.854092 Y29.511563 Z0.000000 I0.061357 J0.105795
G03 X54.176192 Y30.004809 Z0.000000 I-2.411889 J1.926809
G03 X54.510037 Y30.762623 Z0.000000 I-5.398299 J2.830589
G02 X54.850161 Y31.468440 Z0.000000 I3.615110 J-1.307213
G02 X54.992939 Y31.548272 Z0.000000 I0.142778 J-0.087761
G02 X55.064153 Y31.471839 Z0.000000 I-0.000000 J-0.071393
G02 X54.962658 Y31.120119 Z0.000000 I-0.874718 J0.061913
G03 X54.795641 Y30.672545 Z0.000000 I1.574225 J-0.842386
G03 X54.597982 Y29.511625 Z0.000000 I10.575020 J-2.397800
G02 X54.438813 Y28.334967 Z0.000000 I-29.456744 J3.385571
G02 X54.228529 Y27.139837 Z0.000000 I-30.452675 J4.742102
G03 X53.791814 Y24.720077 Z0.000000 I78.786959 J-15.468664
G03 X53.600541 Y23.327138 Z0.000000 I25.903936 J-4.266628
G02 X53.405244 Y22.154090 Z0.000000 I-10.693519 J1.177546
G02 X53.216694 Y21.612779 Z0.000000 I-2.439310 J0.546171
G03 X53.069184 Y21.073133 Z0.000000 I1.381927 J-0.667727
G03 X53.092634 Y20.131359 Z0.000000 I4.336910 J-0.363191
G02 X52.884674 Y19.482575 Z0.000000 I-0.786799 J-0.105523
G02 X52.507158 Y19.507540 Z0.000000 I-0.178504 J0.167533
G03 X52.257403 Y19.494992 Z0.000000 I-0.120843 J-0.086568
G03 X51.906624 Y18.461801 Z0.000000 I2.454973 J-1.409632
G03 X51.910379 Y17.606368 Z0.000000 I3.087668 J-0.414170
G03 X52.045827 Y17.488921 Z0.000000 I0.135448 J0.019381
G03 X52.228424 Y17.582524 Z0.000000 I0.000000 J0.224902
G03 X52.345711 Y17.905951 Z0.000000 I-0.513373 J0.369149
G01 X52.387706 Y17.908711 Z0.000000
G02 X52.571797 Y16.813170 Z0.000000 I-14.526751 J-3.004260
G03 X52.849781 Y15.339156 Z0.000000 I12.964159 J1.681687
G03 X53.024236 Y14.994219 Z0.000000 I0.842711 J0.209625
G02 X53.084432 Y14.736432 Z0.000000 I-0.227869 J-0.189131
G02 X52.917309 Y14.545569 Z0.000000 I-0.264558 J0.063053
G02 X52.691273 Y14.606106 Z0.000000 I-0.071356 J0.185826
G02 X52.553771 Y14.994320 Z0.000000 I0.479276 J0.388213
G03 X52.290613 Y15.104496 Z0.000000 I-0.154643 J0.000000
G03 X51.880855 Y14.331531 Z0.000000 I1.020436 J-1.036036
G03 X50.642055 Y5.278725 Z0.000000 I97.899015 J-18.007817
G03 X51.025243 Y4.859363 Z0.000000 I0.383189 J-0.034613
G03 X51.518719 Y5.179576 Z0.000000 I0.000001 J0.540349
G03 X51.838887 Y6.683171 Z0.000000 I-3.370599 J1.503602
G02 X51.923523 Y6.919381 Z0.000000 I0.371935 J-0.000001
G02 X52.102666 Y7.004011 Z0.000000 I0.179142 J-0.147287
G02 X52.238673 Y6.916174 Z0.000000 I-0.000000 J-0.149215
G02 X52.245232 Y6.688101 Z0.000000 I-0.270117 J-0.121899
G03 X52.161643 Y6.363410 Z0.000000 I1.371116 J-0.526087
G03 X51.973081 Y4.722171 Z0.000000 I35.299324 J-4.886991
G01 X51.822146 Y3.072162 Z0.000000
G01 X52.324332 Y3.988241 Z0.000000
G02 X52.838729 Y4.816504 Z0.000000 I7.873989 J-4.316313
G01 X52.907343 Y4.822269 Z0.000000
G02 X52.940822 Y4.725448 Z0.000000 I-0.084678 J-0.083479
G02 X52.752344 Y3.446090 Z0.000000 I-18.999082 J2.145416
G03 X52.651330 Y2.168717 Z0.000000 I6.230062 J-1.135353
G03 X52.795071 Y1.540520 Z0.000000 I1.601606 J0.035928
G01 X53.073672 Y0.929049 Z0.000000
G01 X53.528579 Y1.490848 Z0.000000
G03 X53.913367 Y2.077474 Z0.000000 I-2.726944 J2.208209
G03 X53.983498 Y2.363807 Z0.000000 I-0.549462 J0.286335
G02 X54.065334 Y2.616065 Z0.000000 I0.429712 J-0.000001
G02 X54.281366 Y2.774597 Z0.000000 I0.355193 J-0.257564
G03 X54.448122 Y2.967048 Z0.000000 I-0.079421 J0.237288
G03 X54.556223 Y4.283786 Z0.000000 I-6.625741 J1.206765
G01 X54.533316 Y5.693396 Z0.000000
G01 X54.871009 Y4.263616 Z0.000000
G02 X54.898392 Y2.498145 Z0.000000 I-4.001061 J-0.945005
G02 X54.434214 Y2.118977 Z0.000000 I-0.464177 J0.094538
G03 X54.216512 Y2.005213 Z0.000000 I-0.000001 J-0.265183
G03 X54.102739 Y1.642387 Z0.000000 I0.521652 J-0.362827
G02 X54.010903 Y1.216135 Z0.000000 I-1.035138 J0.000002
G02 X53.800057 Y0.972558 Z0.000000 I-0.514915 J0.232677
G02 X52.999429 Y0.891094 Z0.000000 I-0.481124 J0.753477
G02 X52.487514 Y1.474870 Z0.000000 I0.297372 J0.777105
G03 X52.362582 Y1.525666 Z0.000000 I-0.080632 J-0.019281
G03 X52.129452 Y1.248531 Z0.000000 I0.319486 J-0.505379
G02 X51.584635 Y0.601190 Z0.000000 I-1.290180 J0.532910
G02 X51.269868 Y0.705693 Z0.000000 I-0.114525 J0.181345
G01 X51.269885 Y0.705603 Z0.000000
G00 Z5.000000

(End cutting path id: path849)


(Start cutting path id: path849)
(Change tool to Cylindrical cutter)

G00 Z5.000000
G00 X51.838979 Y1.165712

G01 Z0.000000 F1000.0(Penetrate)
G03 X51.755900 Y1.440092 Z0.000000 I-0.494627 J0.000001 F1100.000000
G03 X51.600678 Y1.523162 Z0.000000 I-0.155223 J-0.103487
G03 X51.445456 Y1.440090 Z0.000000 I-0.000000 J-0.186553
G03 X51.362381 Y1.165712 Z0.000000 I0.411568 J-0.274379
G03 X51.445449 Y0.891349 Z0.000000 I0.494626 J-0.000001
G03 X51.600676 Y0.808272 Z0.000000 I0.155228 J0.103482
G03 X51.755905 Y0.891346 Z0.000000 I0.000000 J0.186563
G03 X51.838979 Y1.165712 Z0.000000 I-0.411535 J0.274366
G01 X51.838979 Y1.165712 Z0.000000
G00 Z5.000000

(End cutting path id: path849)


(Start cutting path id: path849)
(Change tool to Cylindrical cutter)

G00 Z5.000000
G00 X51.362382 Y1.880602

G01 Z0.000000 F1000.0(Penetrate)
G03 X51.293684 Y2.171614 Z0.000000 I-0.650716 J0.000001 F1100.000000
G03 X51.124082 Y2.357183 Z0.000000 I-0.411372 J-0.205688
G03 X50.989260 Y2.318903 Z0.000000 I-0.049925 J-0.080729
G03 X50.885791 Y1.880603 Z0.000000 I0.876610 J-0.438301
G03 X50.989283 Y1.442290 Z0.000000 I0.979923 J-0.000002
G03 X51.124081 Y1.404013 Z0.000000 I0.084888 J0.042453
G03 X51.293680 Y1.589667 Z0.000000 I-0.242382 J0.391716
G03 X51.362382 Y1.880602 Z0.000000 I-0.581672 J0.290937
G01 X51.362382 Y1.880602 Z0.000000
G00 Z5.000000

(End cutting path id: path849)


(Start cutting path id: path849)
(Change tool to Cylindrical cutter)

G00 Z5.000000
G00 X52.225198 Y2.681831

G01 Z0.000000 F1000.0(Penetrate)
G03 X52.202026 Y2.734759 Z0.000000 I-0.050015 J0.009639 F1100.000000
G01 X52.159368 Y2.722631 Z0.000000
G02 X51.725019 Y2.663702 Z0.000000 I-0.237176 J0.117964
G02 X51.362368 Y3.610992 Z0.000000 I1.055887 J0.947288
G03 X51.248076 Y3.950575 Z0.000000 I-0.561627 J0.000001
G03 X51.017791 Y4.064883 Z0.000000 I-0.230286 J-0.174815
G03 X50.870845 Y3.946537 Z0.000000 I-0.000000 J-0.150401
G03 X50.918060 Y3.607593 Z0.000000 I0.483322 J-0.105434
G02 X51.073102 Y3.163617 Z0.000000 I-1.338721 J-0.716557
G02 X51.026398 Y3.013923 Z0.000000 I-0.166101 J-0.030310
G03 X50.987652 Y2.872918 Z0.000000 I0.104593 J-0.104566
G03 X51.136643 Y2.580373 Z0.000000 I0.722193 J0.183594
G03 X51.807165 Y2.302712 Z0.000000 I0.598408 J0.496642
G03 X52.225280 Y2.681841 Z0.000000 I-0.043607 J0.468210
G01 X52.225198 Y2.681831 Z0.000000
G00 Z5.000000

(End cutting path id: path849)


(Start cutting path id: path849)
(Change tool to Cylindrical cutter)

G00 Z5.000000
G00 X50.405561 Y4.098884

G01 Z0.000000 F1000.0(Penetrate)
G03 X50.294539 Y4.611613 Z0.000000 I-1.262584 J-0.005005 F1100.000000
G03 X50.170916 Y4.620975 Z0.000000 I-0.064357 J-0.028934
G03 X49.778510 Y3.290848 Z0.000000 I2.058162 J-1.330131
G03 X50.170913 Y3.072075 Z0.000000 I0.257187 J-0.000000
G03 X50.314041 Y3.272047 Z0.000000 I-0.167194 J0.270874
G03 X50.405561 Y4.098884 Z0.000000 I-3.552792 J0.811732
G01 X50.405561 Y4.098884 Z0.000000
G00 Z5.000000

(End cutting path id: path849)


(Start cutting path id: path849)
(Change tool to Cylindrical cutter)

G00 Z5.000000
G00 X54.861274 Y3.235886

G01 Z0.000000 F1000.0(Penetrate)
G01 X54.787107 Y3.251094 Z0.000000 F1100.000000
G03 X54.717312 Y3.091926 Z0.000000 I0.169029 J-0.169006
G03 X54.768431 Y2.794371 Z0.000000 I0.725192 J-0.028582
G01 X54.842477 Y2.779156 Z0.000000
G03 X54.912247 Y2.938237 Z0.000000 I-0.168967 J0.168946
G03 X54.861278 Y3.235886 Z0.000000 I-0.720687 J0.029779
G01 X54.861274 Y3.235886 Z0.000000
G00 Z5.000000

(End cutting path id: path849)


(Start cutting path id: path849)
(Change tool to Cylindrical cutter)

G00 Z5.000000
G00 X54.519780 Y0.706276

G01 Z0.000000 F1000.0(Penetrate)
G03 X55.061000 Y1.252447 Z0.000000 I-0.634962 J1.170448 F1100.000000
G03 X55.187386 Y1.964075 Z0.000000 I-1.039281 J0.551615
G02 X55.251091 Y2.119935 Z0.000000 I0.166478 J0.022904
G02 X55.399126 Y2.127705 Z0.000000 I0.079628 J-0.103014
G03 X55.603886 Y2.121328 Z0.000000 I0.107917 J0.174591
G03 X55.797476 Y2.340694 Z0.000000 I-0.197841 J0.369700
G02 X55.986026 Y2.575176 Z0.000000 I0.458890 J-0.175951
G02 X56.157117 Y2.577643 Z0.000000 I0.087479 J-0.132811
G02 X56.267981 Y2.418230 Z0.000000 I-0.128384 J-0.207542
G02 X56.230876 Y2.211133 Z0.000000 I-0.280999 J-0.056527
G03 X56.260156 Y1.734916 Z0.000000 I0.351753 J-0.217381
G03 X57.192396 Y1.013181 Z0.000000 I1.969175 J1.580575
G02 X57.220416 Y0.939646 Z0.000000 I-0.022889 J-0.050828
G02 X57.141196 Y0.898381 Z0.000000 I-0.065598 J0.029258
G03 X56.697982 Y0.889304 Z0.000000 I-0.200425 J-1.038718
G03 X56.605028 Y0.771882 Z0.000000 I0.027688 J-0.117421
G02 X56.533125 Y0.670756 Z0.000000 I-0.107066 J0.000000
G02 X56.366726 Y0.688983 Z0.000000 I-0.064027 J0.184141
G02 X56.207302 Y0.880061 Z0.000000 I0.205721 J0.333687
G02 X56.128438 Y1.298773 Z0.000000 I1.072092 J0.418710
G03 X56.038177 Y1.671043 Z0.000000 I-0.812811 J0.000002
G03 X55.890154 Y1.761294 Z0.000000 I-0.148023 J-0.076264
G03 X55.724628 Y1.688536 Z0.000000 I-0.000000 J-0.224667
G03 X55.651860 Y1.501624 Z0.000000 I0.203666 J-0.186913
G02 X55.277388 Y0.718731 Z0.000000 I-1.005621 J0.000002
G02 X54.222091 Y0.349017 Z0.000000 I-1.047724 J1.299625
G01 X54.183984 Y0.430898 Z0.000000
G02 X54.519956 Y0.706136 Z0.000000 I0.886156 J-0.739022
G01 X54.519780 Y0.706276 Z0.000000
G00 Z5.000000

(End cutting path id: path849)


(Start cutting path id: path849)
(Change tool to Cylindrical cutter)

G00 Z5.000000
G00 X57.615012 Y1.868081

G01 Z0.000000 F1000.0(Penetrate)
G03 X57.576526 Y2.115934 Z0.000000 I-1.913401 J-0.170197 F1100.000000
G03 X57.426367 Y2.714621 Z0.000000 I-11.427216 J-2.547928
G02 X57.475357 Y2.882381 Z0.000000 I0.159425 J0.044477
G02 X57.600950 Y2.871011 Z0.000000 I0.057500 J-0.064189
G03 X57.927812 Y2.802071 Z0.000000 I0.204090 J0.158307
G03 X58.583898 Y3.402059 Z0.000000 I-0.869631 J1.609651
G03 X59.148633 Y4.395779 Z0.000000 I-7.033344 J4.654403
G03 X59.226089 Y4.734997 Z0.000000 I-0.704082 J0.339220
G02 X59.309589 Y5.014065 Z0.000000 I0.508092 J-0.000001
G02 X59.464396 Y5.097567 Z0.000000 I0.154806 J-0.101748
G03 X59.616479 Y5.184857 Z0.000000 I0.000000 J0.176131
G03 X59.707980 Y5.514567 Z0.000000 I-0.579023 J0.338242
G02 X59.796191 Y5.902362 Z0.000000 I0.943557 J-0.010697
G02 X60.179267 Y6.527326 Z0.000000 I2.922948 J-1.361758
G03 X60.579951 Y7.146219 Z0.000000 I-3.257007 J2.547801
G03 X60.650550 Y7.420935 Z0.000000 I-0.541593 J0.285613
G02 X60.722573 Y7.650867 Z0.000000 I0.424555 J-0.006739
G02 X60.850010 Y7.718804 Z0.000000 I0.127437 J-0.085554
G03 X60.996342 Y7.794606 Z0.000000 I0.000000 J0.179144
G03 X61.447962 Y8.565523 Z0.000000 I-4.300382 J3.037004
G02 X61.900096 Y9.247893 Z0.000000 I2.643923 J-1.260873
G02 X62.075857 Y9.273712 Z0.000000 I0.103221 J-0.091516
G03 X62.261053 Y9.279866 Z0.000000 I0.087971 J0.142325
G03 X62.558631 Y9.618451 Z0.000000 I-0.575165 J0.805566
G02 X62.870790 Y10.011104 Z0.000000 I1.233275 J-0.660045
G02 X63.106759 Y10.098070 Z0.000000 I0.231530 J-0.264604
G02 X63.172236 Y10.030801 Z0.000000 I-0.000884 J-0.066362
G02 X63.104159 Y9.909010 Z0.000000 I-0.146567 J0.002004
G03 X62.884316 Y9.676399 Z0.000000 I0.350774 J-0.551714
G03 X62.739824 Y9.257341 Z0.000000 I1.093342 J-0.611423
G02 X62.625983 Y8.806473 Z0.000000 I-2.468952 J0.383591
G02 X62.452618 Y8.446591 Z0.000000 I-1.740054 J0.616533
G03 X61.738222 Y6.868481 Z0.000000 I5.573013 J-3.473609
G03 X61.317171 Y4.680543 Z0.000000 I10.404909 J-3.136823
G02 X61.228829 Y4.450597 Z0.000000 I-0.444763 J0.038928
G02 X61.092486 Y4.382664 Z0.000000 I-0.136342 J0.102853
G03 X60.973887 Y4.302722 Z0.000000 I-0.000000 J-0.127946
G03 X60.893918 Y3.892014 Z0.000000 I1.014698 J-0.410710
G02 X60.790233 Y3.587340 Z0.000000 I-0.499484 J0.000001
G02 X60.637992 Y3.559545 Z0.000000 I-0.091520 J0.070450
G03 X60.394464 Y3.575004 Z0.000000 I-0.136250 J-0.220459
G03 X59.751599 Y3.156596 Z0.000000 I1.060958 J-2.333185
G02 X59.498601 Y3.016878 Z0.000000 I-0.434974 J0.488717
G01 X59.459447 Y3.071997 Z0.000000
G02 X59.813631 Y3.535851 Z0.000000 I6.843399 J-4.858253
G02 X60.371877 Y4.184515 Z0.000000 I13.952599 J-11.443177
G03 X60.715829 Y5.032922 Z0.000000 I-0.993131 J0.896548
G03 X60.408869 Y5.211365 Z0.000000 I-0.201137 J0.007242
G03 X59.232138 Y3.902595 Z0.000000 I1.645721 J-2.663078
G03 X59.149375 Y2.586728 Z0.000000 I1.584259 J-0.760181
G02 X59.097007 Y2.398675 Z0.000000 I-0.165267 J-0.055296
G02 X58.434460 Y1.978529 Z0.000000 I-1.826360 J2.147599
G02 X57.729952 Y1.776102 Z0.000000 I-1.041616 J2.297974
G02 X57.614813 Y1.868021 Z0.000000 I-0.013619 J0.101012
G01 X57.615012 Y1.868081 Z0.000000
G00 Z5.000000

(End cutting path id: path849)


(Start cutting path id: path849)
(Change tool to Cylindrical cutter)

G00 Z5.000000
G00 X61.438465 Y2.719633

G01 Z0.000000 F1000.0(Penetrate)
G03 X61.230634 Y2.947585 Z0.000000 I-0.320997 J-0.083945 F1100.000000
G03 X60.945895 Y2.898354 Z0.000000 I-0.099305 J-0.273692
G01 X60.870050 Y2.927836 Z0.000000
G02 X60.913316 Y3.131624 Z0.000000 I0.302520 J0.042260
G02 X61.279242 Y3.610096 Z0.000000 I2.669813 J-1.662662
G02 X61.411632 Y3.667793 Z0.000000 I0.132389 J-0.123037
G02 X61.517537 Y3.599908 Z0.000000 I-0.000000 J-0.116553
G02 X61.657828 Y3.131623 Z0.000000 I-1.595196 J-0.733051
G03 X61.836303 Y2.735019 Z0.000000 I0.802867 J0.122838
G03 X62.049557 Y2.660942 Z0.000000 I0.168058 J0.139810
G02 X62.197278 Y2.612366 Z0.000000 I0.032063 J-0.151396
G02 X62.208555 Y2.482222 Z0.000000 I-0.081710 J-0.072641
G02 X61.809409 Y2.332411 Z0.000000 I-0.296456 J0.183224
G02 X61.438609 Y2.719633 Z0.000000 I0.162391 J0.526653
G01 X61.438465 Y2.719633 Z0.000000
G00 Z5.000000

(End cutting path id: path849)


(Start cutting path id: path849)
(Change tool to Cylindrical cutter)

G00 Z5.000000
G00 X63.750021 Y4.442229

G01 Z0.000000 F1000.0(Penetrate)
G03 X63.627859 Y5.081007 Z0.000000 I-1.761748 J-0.005853 F1100.000000
G03 X63.492452 Y5.097559 Z0.000000 I-0.072185 J-0.028381
G01 X63.405870 Y5.113730 Z0.000000
G02 X63.401812 Y5.454990 Z0.000000 I0.706012 J0.179049
G03 X63.558619 Y6.171123 Z0.000000 I-40.909334 J9.332891
G03 X63.612764 Y6.460839 Z0.000000 I-6.535946 J1.371414
G02 X63.782257 Y6.470782 Z0.000000 I0.085865 J-0.014098
G02 X63.966561 Y5.230128 Z0.000000 I-4.563925 J-1.312005
G02 X63.934683 Y3.487479 Z0.000000 I-26.122739 J-0.393759
G02 X63.873617 Y3.429489 Z0.000000 I-0.061065 J0.003157
G02 X63.809835 Y3.485967 Z0.000000 I0.000000 J0.064255
G02 X63.750029 Y4.442229 Z0.000000 I8.083891 J0.985574
G01 X63.750021 Y4.442229 Z0.000000
G00 Z5.000000

(End cutting path id: path849)


(Start cutting path id: path849)
(Change tool to Cylindrical cutter)

G00 Z5.000000
G00 X63.926776 Y9.148549

G01 Z0.000000 F1000.0(Penetrate)
G02 X64.135050 Y11.149199 Z0.000000 I24.959686 J-1.587208 F1100.000000
G02 X64.271953 Y11.531488 Z0.000000 I1.011723 J-0.146655
G01 X64.363494 Y11.508101 Z0.000000
G02 X64.332730 Y10.139888 Z0.000000 I-10.341856 J-0.451916
G02 X64.087774 Y8.144228 Z0.000000 I-29.810441 J2.646207
G02 X63.986913 Y7.782955 Z0.000000 I-1.593698 J0.250215
G01 X63.926078 Y7.792959 Z0.000000
G02 X63.926658 Y9.148549 Z0.000000 I10.710452 J0.673208
G01 X63.926776 Y9.148549 Z0.000000
G00 Z5.000000

(End cutting path id: path849)


(Start cutting path id: path849)
(Change tool to Cylindrical cutter)

G00 Z5.000000
G00 X63.160361 Y11.535370

G01 Z0.000000 F1000.0(Penetrate)
G02 X63.335995 Y11.667834 Z0.000000 I0.258363 J-0.159894 F1100.000000
G02 X63.531871 Y11.640459 Z0.000000 I0.066839 J-0.236208
G02 X63.596768 Y11.434377 Z0.000000 I-0.086927 J-0.140633
G02 X63.382171 Y11.293200 Z0.000000 I-0.214596 J0.092509
G02 X63.174570 Y11.384573 Z0.000000 I0.000001 J0.281522
G02 X63.160361 Y11.535370 Z0.000000 I0.092574 J0.084791
G01 X63.160361 Y11.535370 Z0.000000
G00 Z5.000000

(End cutting path id: path849)


(Start cutting path id: path849)
(Change tool to Cylindrical cutter)

G00 Z5.000000
G00 X62.562210 Y11.982591

G01 Z0.000000 F1000.0(Penetrate)
G02 X62.630816 Y12.148213 Z0.000000 I0.234218 J-0.000000 F1100.000000
G02 X62.907525 Y12.327880 Z0.000000 I0.560894 J-0.560929
G02 X63.083003 Y12.290557 Z0.000000 I0.058989 J-0.153832
G02 X63.120324 Y12.115080 Z0.000000 I-0.116456 J-0.116476
G02 X62.775854 Y11.813729 Z0.000000 I-0.457716 J0.175654
G02 X62.562210 Y11.982591 Z0.000000 I-0.040089 J0.168861
G01 X62.562210 Y11.982591 Z0.000000
G00 Z5.000000

(End cutting path id: path849)


(Start cutting path id: path849)
(Change tool to Cylindrical cutter)

G00 Z5.000000
G00 X61.132437 Y11.203224

G01 Z0.000000 F1000.0(Penetrate)
G02 X61.244389 Y11.351418 Z0.000000 I0.154061 J-0.000000 F1100.000000
G02 X61.479466 Y11.301823 Z0.000000 I0.070457 J-0.247962
G03 X61.835040 Y11.137189 Z0.000000 I0.488349 J0.588431
G03 X62.111997 Y11.190322 Z0.000000 I0.068759 J0.389983
G02 X62.213289 Y11.182566 Z0.000000 I0.045327 J-0.073350
G02 X62.227533 Y11.091722 Z0.000000 I-0.045839 J-0.053727
G02 X61.539466 Y10.752646 Z0.000000 I-0.614837 J0.379989
G02 X61.132437 Y11.203234 Z0.000000 I0.045888 J0.450587
G01 X61.132437 Y11.203224 Z0.000000
G00 Z5.000000

(End cutting path id: path849)


(Start cutting path id: path849)
(Change tool to Cylindrical cutter)

G00 Z5.000000
G00 X61.406269 Y10.022293

G01 Z0.000000 F1000.0(Penetrate)
G02 X61.173902 Y10.369568 Z0.000000 I0.993436 J0.916101 F1100.000000
G02 X61.193595 Y10.480594 Z0.000000 I0.089271 J0.041426
G02 X61.298210 Y10.492517 Z0.000000 I0.059803 J-0.059803
G02 X61.609040 Y10.220863 Z0.000000 I-0.687301 J-1.100075
G02 X61.598540 Y10.017397 Z0.000000 I-0.115714 J-0.096032
G02 X61.406269 Y10.022293 Z0.000000 I-0.093760 J0.095738
G01 X61.406269 Y10.022293 Z0.000000
G00 Z5.000000

(End cutting path id: path849)


(Start cutting path id: path849)
(Change tool to Cylindrical cutter)

G00 Z5.000000
G00 X64.230272 Y12.462458

G01 Z0.000000 F1000.0(Penetrate)
G02 X63.867825 Y12.637747 Z0.000000 I0.137144 J0.745937 F1100.000000
G02 X63.894607 Y12.756329 Z0.000000 I0.045549 J0.052028
G02 X64.385427 Y12.790030 Z0.000000 I0.325926 J-1.155755
G02 X65.086078 Y12.590966 Z0.000000 I-0.360768 J-2.602388
G02 X65.067007 Y12.448739 Z0.000000 I-0.030164 J-0.068348
G02 X64.230272 Y12.462458 Z0.000000 I-0.377284 J2.512556
G01 X64.230272 Y12.462458 Z0.000000
G00 Z5.000000

(End cutting path id: path849)


(Start cutting path id: path849)
(Change tool to Cylindrical cutter)

G00 Z5.000000
G00 X65.962439 Y13.841095

G01 Z0.000000 F1000.0(Penetrate)
G02 X66.380113 Y13.891976 Z0.000000 I0.398688 J-1.532990 F1100.000000
G02 X66.677324 Y13.832093 Z0.000000 I-0.009782 J-0.816047
G01 X66.673472 Y13.773107 Z0.000000
G02 X66.255779 Y13.722244 Z0.000000 I-0.398159 J1.529218
G02 X65.958565 Y13.781864 Z0.000000 I0.008260 J0.811810
G01 X65.962439 Y13.840925 Z0.000000
G01 X65.962439 Y13.841095 Z0.000000
G00 Z5.000000

(End cutting path id: path849)


(Start cutting path id: path849)
(Change tool to Cylindrical cutter)

G00 Z5.000000
G00 X67.208953 Y13.437702

G01 Z0.000000 F1000.0(Penetrate)
G02 X67.193384 Y13.602595 Z0.000000 I0.159222 J0.098215 F1100.000000
G02 X67.299954 Y13.676002 Z0.000000 I0.106570 J-0.040653
G02 X67.505671 Y13.617562 Z0.000000 I-0.000001 J-0.391299
G02 X67.685530 Y13.437701 Z0.000000 I-0.291017 J-0.470874
G02 X67.701087 Y13.272821 Z0.000000 I-0.159281 J-0.098203
G02 X67.594510 Y13.199402 Z0.000000 I-0.106577 J0.040645
G02 X67.388805 Y13.257837 Z0.000000 I0.000001 J0.391281
G02 X67.208942 Y13.437702 Z0.000000 I0.291003 J0.470861
G01 X67.208953 Y13.437702 Z0.000000
G00 Z5.000000

(End cutting path id: path849)


(Start cutting path id: path849)
(Change tool to Cylindrical cutter)

G00 Z5.000000
G00 X65.243016 Y15.254666

G01 Z0.000000 F1000.0(Penetrate)
G02 X65.410899 Y15.871183 Z0.000000 I1.215964 J-0.000002 F1100.000000
G02 X66.663254 Y17.669093 Z0.000000 I12.325183 J-7.250120
G01 X68.083495 Y19.407181 Z0.000000
G01 X67.050495 Y19.266893 Z0.000000
G02 X66.967785 Y19.440472 Z0.000000 I-0.013587 J0.100021
G02 X67.566395 Y19.751692 Z0.000000 I0.851060 J-0.905654
G03 X68.361325 Y20.004554 Z0.000000 I-0.821605 J3.958852
G03 X68.858099 Y20.315179 Z0.000000 I-0.797010 J1.827188
G02 X68.980916 Y20.203079 Z0.000000 I0.054388 J-0.063741
G02 X66.317238 Y16.719854 Z0.000000 I-47.585994 J33.629686
G03 X65.507272 Y15.585277 Z0.000000 I7.629541 J-6.303075
G03 X65.507668 Y15.397866 Z0.000000 I0.152484 J-0.093384
G02 X65.548690 Y15.202190 Z0.000000 I-0.249865 J-0.154519
G02 X65.435757 Y14.890256 Z0.000000 I-0.799850 J0.113167
G02 X65.332542 Y14.893715 Z0.000000 I-0.050617 J0.031284
G02 X65.242953 Y15.254666 Z0.000000 I0.682323 J0.360949
G01 X65.243016 Y15.254666 Z0.000000
G00 Z5.000000

(End cutting path id: path849)


(Start cutting path id: path849)
(Change tool to Cylindrical cutter)

G00 Z5.000000
G00 X63.634552 Y14.629169

G01 Z0.000000 F1000.0(Penetrate)
G02 X63.663867 Y14.865132 Z0.000000 I0.116404 J0.105341 F1100.000000
G02 X63.991981 Y14.867478 Z0.000000 I0.165844 J-0.248745
G02 X64.151206 Y14.685860 Z0.000000 I-0.239549 J-0.370619
G01 X64.111125 Y14.616088 Z0.000000
G01 X64.091654 Y14.560333 Z0.000000
G03 X64.349419 Y14.390878 Z0.000000 I0.606271 J0.641447
G02 X64.494225 Y14.246773 Z0.000000 I-0.109509 J-0.254850
G02 X64.445889 Y14.169338 Z0.000000 I-0.050774 J-0.022110
G02 X64.106832 Y14.250920 Z0.000000 I-0.027219 J0.632230
G02 X63.634512 Y14.629169 Z0.000000 I0.936001 J1.652805
G01 X63.634552 Y14.629169 Z0.000000
G00 Z5.000000

(End cutting path id: path849)


(Start cutting path id: path849)
(Change tool to Cylindrical cutter)

G00 Z5.000000
G00 X63.277115 Y15.773120

G01 Z0.000000 F1000.0(Penetrate)
G02 X63.324274 Y15.944219 Z0.000000 I0.333964 J-0.000001 F1100.000000
G02 X63.559083 Y16.245749 Z0.000000 I1.329619 J-0.793214
G03 X63.512394 Y16.577172 Z0.000000 I-0.148131 J0.148132
G03 X62.968392 Y16.572610 Z0.000000 I-0.267961 J-0.484161
G01 X62.930959 Y16.614481 Z0.000000
G02 X63.257422 Y16.965490 Z0.000000 I1.683112 J-1.238091
G03 X63.352232 Y17.507151 Z0.000000 I-0.280220 J0.328177
G03 X62.843557 Y17.692531 Z0.000000 I-0.363533 J-0.206940
G02 X62.285862 Y17.580274 Z0.000000 I-0.636398 J1.720204
G02 X61.676114 Y17.642433 Z0.000000 I-0.091311 J2.126034
G03 X61.265174 Y17.647586 Z0.000000 I-0.216307 J-0.861537
G03 X61.219968 Y17.540084 Z0.000000 I0.015687 J-0.069852
G02 X61.107564 Y17.273725 Z0.000000 I-0.150856 J-0.093235
G02 X60.548119 Y17.390865 Z0.000000 I-0.150296 J0.676694
G02 X60.180694 Y17.705527 Z0.000000 I1.860451 J2.544262
G01 X60.193321 Y17.745406 Z0.000000
G03 X60.297786 Y17.766366 Z0.000000 I-0.341386 J1.972208
G03 X60.775020 Y17.878524 Z0.000000 I-8.822105 J38.609568
G02 X61.255455 Y17.966087 Z0.000000 I1.007145 J-4.164151
G02 X61.906921 Y18.019142 Z0.000000 I0.957058 J-7.725579
G03 X62.459997 Y18.144540 Z0.000000 I-0.060110 J1.547508
G03 X62.565875 Y18.303041 Z0.000000 I-0.069411 J0.160979
G02 X62.627530 Y18.356688 Z0.000000 I0.054916 J-0.000861
G02 X62.748066 Y18.280541 Z0.000000 I-0.020519 J-0.165954
G03 X63.310702 Y17.997021 Z0.000000 I0.519143 J0.330196
G03 X64.187731 Y18.382628 Z0.000000 I-0.100553 J1.418865
G02 X64.703829 Y18.607877 Z0.000000 I0.570358 J-0.602948
G02 X64.814631 Y18.423627 Z0.000000 I0.007907 J-0.120686
G03 X64.872153 Y18.308785 Z0.000000 I0.064192 J-0.039674
G03 X65.813331 Y18.335025 Z0.000000 I0.358364 J4.038373
G02 X66.831270 Y18.434694 Z0.000000 I1.575174 J-10.839490
G01 X66.851523 Y18.388023 Z0.000000
G02 X64.940869 Y17.283547 Z0.000000 I-3.171261 J3.281146
G02 X64.595299 Y17.739487 Z0.000000 I-0.084715 J0.294721
G03 X64.602246 Y17.891489 Z0.000000 I-0.133089 J0.082243
G03 X64.482632 Y17.965537 Z0.000000 I-0.119615 J-0.059585
G03 X64.316406 Y17.879413 Z0.000000 I-0.000000 J-0.203475
G03 X64.230281 Y17.608088 Z0.000000 I0.384329 J-0.271326
G02 X64.143734 Y17.337197 Z0.000000 I-0.467218 J0.000001
G02 X63.975919 Y17.250648 Z0.000000 I-0.167815 J0.119420
G03 X63.853503 Y17.154116 Z0.000000 I-0.000000 J-0.125885
G03 X63.866473 Y16.794129 Z0.000000 I0.653447 J-0.156685
G02 X63.894177 Y16.380940 Z0.000000 I-0.830292 J-0.263195
G02 X63.759494 Y16.181909 Z0.000000 I-0.289086 J0.050538
G03 X63.619347 Y15.999834 Z0.000000 I0.171246 J-0.276785
G03 X63.644724 Y15.804419 Z0.000000 I0.228921 J-0.069627
G02 X63.650229 Y15.655922 Z0.000000 I-0.127925 J-0.079093
G02 X63.529456 Y15.582609 Z0.000000 I-0.120772 J0.062820
G02 X63.340461 Y15.645982 Z0.000000 I0.000001 J0.313508
G02 X63.277115 Y15.773240 Z0.000000 I0.096153 J0.127258
G01 X63.277115 Y15.773120 Z0.000000
G00 Z5.000000

(End cutting path id: path849)


(Start cutting path id: path849)
(Change tool to Cylindrical cutter)

G00 Z5.000000
G00 X64.230280 Y16.737798

G01 Z0.000000 F1000.0(Penetrate)
G02 X64.310591 Y16.894684 Z0.000000 I0.193394 J-0.000000 F1100.000000
G02 X64.706867 Y17.081317 Z0.000000 I0.698463 J-0.969021
G02 X65.143685 Y17.154465 Z0.000000 I0.625059 J-2.391813
G01 X65.183455 Y17.117616 Z0.000000
G02 X65.148834 Y17.049977 Z0.000000 I-0.083384 J0.000000
G02 X64.706867 Y16.774107 Z0.000000 I-2.288407 J3.174254
G02 X64.314514 Y16.659733 Z0.000000 I-0.467422 J0.873302
G02 X64.230280 Y16.737808 Z0.000000 I-0.005934 J0.078075
G01 X64.230280 Y16.737798 Z0.000000
G00 Z5.000000

(End cutting path id: path849)


(Start cutting path id: path849)
(Change tool to Cylindrical cutter)

G00 Z5.000000
G00 X61.132451 Y18.674224

G01 Z0.000000 F1000.0(Penetrate)
G02 X61.369460 Y19.048730 Z0.000000 I0.414391 J-0.000001 F1100.000000
G02 X61.710375 Y18.947953 Z0.000000 I0.114126 J-0.240953
G02 X61.709840 Y18.776176 Z0.000000 I-0.138061 J-0.085460
G02 X61.488536 Y18.594103 Z0.000000 I-0.383668 J0.240807
G02 X61.212530 Y18.574008 Z0.000000 I-0.171193 J0.445809
G02 X61.132451 Y18.674104 Z0.000000 I0.022518 J0.100096
G01 X61.132451 Y18.674224 Z0.000000
G00 Z5.000000

(End cutting path id: path849)


(Start cutting path id: path849)
(Change tool to Cylindrical cutter)

G00 Z5.000000
G00 X59.051926 Y17.892198

G01 Z0.000000 F1000.0(Penetrate)
G02 X59.469598 Y17.943081 Z0.000000 I0.398688 J-1.532929 F1100.000000
G02 X59.766804 Y17.883196 Z0.000000 I-0.009781 J-0.815991
G01 X59.762976 Y17.824246 Z0.000000
G02 X59.345254 Y17.773337 Z0.000000 I-0.398202 J1.528156
G02 X59.048052 Y17.832957 Z0.000000 I0.008260 J0.811761
G01 X59.051926 Y17.892018 Z0.000000
G01 X59.051926 Y17.892198 Z0.000000
G00 Z5.000000

(End cutting path id: path849)


(Start cutting path id: path849)
(Change tool to Cylindrical cutter)

G00 Z5.000000
G00 X57.561701 Y17.176841

G01 Z0.000000 F1000.0(Penetrate)
G02 X57.600615 Y17.358850 Z0.000000 I0.485820 J-0.008706 F1100.000000
G02 X57.796351 Y17.727080 Z0.000000 I2.252951 J-0.961436
G02 X57.941611 Y17.788969 Z0.000000 I0.118421 J-0.076532
G02 X58.030995 Y17.681580 Z0.000000 I-0.021016 J-0.108386
G02 X57.958819 Y17.320418 Z0.000000 I-0.902996 J-0.007333
G02 X57.796349 Y17.131370 Z0.000000 I-0.379070 J0.161438
G02 X57.624006 Y17.099894 Z0.000000 I-0.126402 J0.204539
G02 X57.561701 Y17.176971 Z0.000000 I0.014720 J0.075620
G01 X57.561701 Y17.176841 Z0.000000
G00 Z5.000000

(End cutting path id: path849)


(Start cutting path id: path849)
(Change tool to Cylindrical cutter)

G00 Z5.000000
G00 X57.185661 Y16.242751

G01 Z0.000000 F1000.0(Penetrate)
G02 X57.353018 Y16.352012 Z0.000000 I0.343395 J-0.343185 F1100.000000
G02 X57.705938 Y16.445280 Z0.000000 I0.588547 J-1.512665
G02 X57.917092 Y16.418973 Z0.000000 I0.057938 J-0.395526
G01 X57.930431 Y16.351980 Z0.000000
G02 X57.763007 Y16.242655 Z0.000000 I-0.343218 J0.342757
G02 X57.410180 Y16.149431 Z0.000000 I-0.588831 J1.514266
G02 X57.199002 Y16.175739 Z0.000000 I-0.057945 J0.395599
G01 X57.185661 Y16.242731 Z0.000000
G01 X57.185661 Y16.242751 Z0.000000
G00 Z5.000000

(End cutting path id: path849)


(Start cutting path id: path849)
(Change tool to Cylindrical cutter)

G00 Z5.000000
G00 X56.604875 Y15.463262

G01 Z0.000000 F1000.0(Penetrate)
G02 X56.686262 Y15.739320 Z0.000000 I0.508881 J-0.000001 F1100.000000
G02 X56.835691 Y15.820702 Z0.000000 I0.149429 J-0.096495
G02 X56.944427 Y15.736790 Z0.000000 I-0.000000 J-0.112408
G02 X56.929380 Y15.463262 Z0.000000 I-0.432634 J-0.113378
G02 X56.766692 Y15.142945 Z0.000000 I-1.627029 J0.624893
G02 X56.698564 Y15.105832 Z0.000000 I-0.068128 J0.043976
G02 X56.645773 Y15.146548 Z0.000000 I0.000000 J0.054581
G02 X56.604874 Y15.463262 Z0.000000 I1.205825 J0.316712
G01 X56.604875 Y15.463262 Z0.000000
G00 Z5.000000

(End cutting path id: path849)


(Start cutting path id: path849)
(Change tool to Cylindrical cutter)

G00 Z5.000000
G00 X60.651100 Y14.754125

G01 Z0.000000 F1000.0(Penetrate)
G02 X60.431655 Y15.113512 Z0.000000 I1.124558 J0.933354 F1100.000000
G02 X60.452213 Y15.219865 Z0.000000 I0.088923 J0.037975
G02 X60.543280 Y15.221678 Z0.000000 I0.046477 J-0.046486
G02 X60.845636 Y14.856664 Z0.000000 I-1.207536 J-1.307985
G02 X60.809440 Y14.722574 Z0.000000 I-0.080422 J-0.050222
G02 X60.651100 Y14.754075 Z0.000000 I-0.059758 J0.113324
G01 X60.651100 Y14.754125 Z0.000000
G00 Z5.000000

(End cutting path id: path849)


(Start cutting path id: path849)
(Change tool to Cylindrical cutter)

G00 Z5.000000
G00 X61.659211 Y13.819203

G01 Z0.000000 F1000.0(Penetrate)
G02 X61.524670 Y14.076936 Z0.000000 I0.410436 J0.378237 F1100.000000
G02 X61.585442 Y14.152613 Z0.000000 I0.060771 J0.013438
G02 X62.074778 Y13.915618 Z0.000000 I-0.000001 J-0.623679
G02 X62.049774 Y13.565042 Z0.000000 I-0.204493 J-0.161595
G02 X61.968610 Y13.557647 Z0.000000 I-0.045271 J0.047774
G02 X61.659076 Y13.819203 Z0.000000 I0.887785 J1.364572
G01 X61.659211 Y13.819203 Z0.000000
G00 Z5.000000

(End cutting path id: path849)


(Start cutting path id: path849)
(Change tool to Cylindrical cutter)

G00 Z5.000000
G00 X68.519565 Y18.084490

G01 Z0.000000 F1000.0(Penetrate)
G02 X68.494340 Y18.634622 Z0.000000 I0.351557 J0.291764 F1100.000000
G02 X69.514971 Y19.536088 Z0.000000 I2.303663 J-1.579677
G03 X70.077220 Y19.951136 Z0.000000 I-1.015795 J1.964411
G03 X70.187631 Y20.221187 Z0.000000 I-0.275051 J0.270052
G02 X70.387458 Y20.492363 Z0.000000 I0.283915 J-0.000001
G02 X70.598671 Y20.348646 Z0.000000 I0.048367 J-0.155980
G02 X70.496831 Y19.972068 Z0.000000 I-0.584196 J-0.044072
G02 X70.014024 Y19.500477 Z0.000000 I-1.443996 J0.995397
G01 X69.395974 Y19.095518 Z0.000000
G01 X69.970524 Y18.774057 Z0.000000
G02 X69.977038 Y18.658049 Z0.000000 I-0.033613 J-0.060075
G02 X69.733075 Y18.603707 Z0.000000 I-0.185686 J0.258825
G03 X69.176181 Y18.517388 Z0.000000 I-0.155569 J-0.835920
G03 X69.055447 Y18.240919 Z0.000000 I0.115013 J-0.214822
G02 X68.900722 Y17.967830 Z0.000000 I-0.217816 J-0.056967
G02 X68.519565 Y18.084490 Z0.000000 I-0.101750 J0.348554
G01 X68.519565 Y18.084490 Z0.000000
G00 Z5.000000

(End cutting path id: path849)


(Start cutting path id: path849)
(Change tool to Cylindrical cutter)

G00 Z5.000000
G00 X72.157061 Y16.891093

G01 Z0.000000 F1000.0(Penetrate)
G03 X71.886982 Y17.234639 Z0.000000 I-1.227198 J-0.686827 F1100.000000
G03 X71.241624 Y17.741415 Z0.000000 I-3.373419 J-3.631609
G02 X70.803798 Y18.123732 Z0.000000 I1.187953 J1.802283
G01 X70.839177 Y18.202165 Z0.000000
G02 X72.511995 Y17.558487 Z0.000000 I0.012182 J-2.463876
G02 X72.532677 Y16.656632 Z0.000000 I-0.420411 J-0.460806
G02 X72.395508 Y16.640953 Z0.000000 I-0.078448 J0.078448
G02 X72.157061 Y16.891093 Z0.000000 I0.367437 J0.588981
G01 X72.157061 Y16.891093 Z0.000000
G00 Z5.000000

(End cutting path id: path849)


(Start cutting path id: path849)
(Change tool to Cylindrical cutter)

G00 Z5.000000
G00 X72.719153 Y15.710802

G01 Z0.000000 F1000.0(Penetrate)
G02 X72.725368 Y15.975189 Z0.000000 I0.324765 J0.124632 F1100.000000
G02 X72.837945 Y15.981572 Z0.000000 I0.057910 J-0.025406
G02 X73.012470 Y15.556902 Z0.000000 I-1.454769 J-0.846059
G02 X72.979279 Y15.435151 Z0.000000 I-0.123105 J-0.031839
G02 X72.891861 Y15.436394 Z0.000000 I-0.043105 J0.043112
G02 X72.719153 Y15.710802 Z0.000000 I0.607206 J0.573722
G01 X72.719153 Y15.710802 Z0.000000
G00 Z5.000000

(End cutting path id: path849)


(Start cutting path id: path849)
(Change tool to Cylindrical cutter)

G00 Z5.000000
G00 X71.519487 Y14.163754

G01 Z0.000000 F1000.0(Penetrate)
G03 X71.016070 Y15.029185 Z0.000000 I-5.893452 J-2.849057 F1100.000000
G03 X70.870293 Y15.105765 Z0.000000 I-0.145778 J-0.100461
G02 X70.720639 Y15.178356 Z0.000000 I0.000000 J0.190561
G02 X70.306777 Y15.820626 Z0.000000 I3.158015 J2.489416
G03 X69.353995 Y16.471368 Z0.000000 I-1.080069 J-0.558502
G03 X68.042988 Y16.058941 Z0.000000 I-0.180606 J-1.715795
G02 X67.441895 Y15.685965 Z0.000000 I-1.462852 J1.686703
G02 X67.331044 Y15.761072 Z0.000000 I-0.030873 J0.073790
G02 X67.397865 Y15.904256 Z0.000000 I0.194015 J-0.003359
G02 X68.134110 Y16.457851 Z0.000000 I4.309785 J-4.965361
G02 X68.966188 Y16.796531 Z0.000000 I1.305927 J-2.016953
G02 X69.771108 Y16.787137 Z0.000000 I0.380442 J-1.891280
G02 X70.920846 Y16.278452 Z0.000000 I-0.714788 J-3.169245
G02 X71.096408 Y15.858365 Z0.000000 I-0.244524 J-0.348920
G03 X71.132586 Y15.481918 Z0.000000 I0.715037 J-0.121245
G03 X71.581294 Y14.568414 Z0.000000 I4.918670 J1.849069
G02 X72.047263 Y13.665722 Z0.000000 I-5.612803 J-3.468942
G02 X72.054109 Y13.448433 Z0.000000 I-0.278383 J-0.117524
G02 X71.962700 Y13.434371 Z0.000000 I-0.049447 J0.017300
G02 X71.519487 Y14.163754 Z0.000000 I3.573862 J2.671030
G01 X71.519487 Y14.163754 Z0.000000
G00 Z5.000000

(End cutting path id: path849)


(Start cutting path id: path849)
(Change tool to Cylindrical cutter)

G00 Z5.000000
G00 X73.561364 Y13.199510

G01 Z0.000000 F1000.0(Penetrate)
G02 X73.619207 Y13.497391 Z0.000000 I0.795950 J-0.000002 F1100.000000
G01 X73.681542 Y13.497380 Z0.000000
G02 X73.739392 Y13.199510 Z0.000000 I-0.737942 J-0.297869
G02 X73.681541 Y12.901640 Z0.000000 I-0.795791 J0.000002
G01 X73.619179 Y12.901647 Z0.000000
G02 X73.561364 Y13.199510 Z0.000000 I0.738384 J0.297862
G01 X73.561364 Y13.199510 Z0.000000
G00 Z5.000000

(End cutting path id: path849)


(Start cutting path id: path849)
(Change tool to Cylindrical cutter)

G00 Z5.000000
G00 X74.523359 Y11.650608

G01 Z0.000000 F1000.0(Penetrate)
G02 X74.583006 Y11.947794 Z0.000000 I0.814572 J-0.008910 F1100.000000
G01 X74.642041 Y11.943948 Z0.000000
G02 X74.692976 Y11.526169 Z0.000000 I-1.532261 J-0.398806
G02 X74.633439 Y11.229068 Z0.000000 I-0.820113 J0.009828
G01 X74.574466 Y11.232909 Z0.000000
G02 X74.523588 Y11.650608 Z0.000000 I1.528790 J0.398165
G01 X74.523359 Y11.650608 Z0.000000
G00 Z5.000000

(End cutting path id: path849)


(Start cutting path id: path849)
(Change tool to Cylindrical cutter)

G00 Z5.000000
G00 X73.556169 Y9.682850

G01 Z0.000000 F1000.0(Penetrate)
G03 X73.424657 Y10.048893 Z0.000000 I-0.735214 J-0.057502 F1100.000000
G03 X72.833252 Y10.713242 Z0.000000 I-3.156620 J-2.214622
G02 X72.027377 Y11.924068 Z0.000000 I1.912562 J2.146512
G02 X72.126305 Y12.767113 Z0.000000 I0.925861 J0.318681
G02 X72.232893 Y12.760324 Z0.000000 I0.051433 J-0.032618
G02 X72.328626 Y12.335103 Z0.000000 I-0.918704 J-0.430222
G03 X73.005052 Y11.273796 Z0.000000 I1.179415 J0.005489
G03 X73.780151 Y11.650610 Z0.000000 I0.235906 J0.500335
G01 X73.943923 Y12.365499 Z0.000000
G01 X73.972112 Y11.591039 Z0.000000
G03 X74.097435 Y10.917289 Z0.000000 I2.332343 J0.085304
G03 X74.238585 Y10.816569 Z0.000000 I0.141151 J0.048546
G02 X74.394455 Y10.734133 Z0.000000 I-0.000000 J-0.188578
G02 X74.476887 Y10.466628 Z0.000000 I-0.392830 J-0.267504
G02 X74.370760 Y10.271045 Z0.000000 I-0.233286 J0.000000
G02 X74.138400 Y10.246539 Z0.000000 I-0.140218 J0.215668
G03 X73.898964 Y10.198484 Z0.000000 I-0.081813 J-0.212890
G03 X73.694267 Y9.822060 Z0.000000 I0.485831 J-0.508060
G02 X73.610420 Y9.662936 Z0.000000 I-0.302411 J0.057697
G01 X73.556145 Y9.682850 Z0.000000
G01 X73.556169 Y9.682850 Z0.000000
G00 Z5.000000

(End cutting path id: path849)


(Start cutting path id: path849)
(Change tool to Cylindrical cutter)

G00 Z5.000000
G00 X71.632488 Y7.849834

G01 Z0.000000 F1000.0(Penetrate)
G03 X71.525335 Y8.537300 Z0.000000 I-2.582114 J-0.050379 F1100.000000
G03 X71.331427 Y8.862584 Z0.000000 I-0.739734 J-0.220533
G02 X71.243699 Y9.066373 Z0.000000 I0.212026 J0.212051
G02 X71.323627 Y9.148534 Z0.000000 I0.079928 J0.002203
G02 X71.884129 Y8.758808 Z0.000000 I-0.000001 J-0.597919
G02 X71.870254 Y7.676943 Z0.000000 I-1.407941 J-0.522966
G02 X71.742423 Y7.640209 Z0.000000 I-0.078204 J0.031354
G02 X71.633058 Y7.849834 Z0.000000 I0.156822 J0.215158
G01 X71.632488 Y7.849834 Z0.000000
G00 Z5.000000

(End cutting path id: path849)


(Start cutting path id: path849)
(Change tool to Cylindrical cutter)

G00 Z5.000000
G00 X70.489198 Y8.432876

G01 Z0.000000 F1000.0(Penetrate)
G03 X70.151639 Y9.722016 Z0.000000 I-3.104570 J-0.124162 F1100.000000
G03 X69.110626 Y11.131599 Z0.000000 I-4.782282 J-2.442638
G02 X68.343430 Y11.963367 Z0.000000 I7.172887 J7.385741
G02 X68.281281 Y12.136290 Z0.000000 I0.209495 J0.172923
G01 X68.350634 Y12.173046 Z0.000000
G02 X68.993664 Y11.652999 Z0.000000 I-2.769040 J-4.081451
G03 X69.704774 Y11.090577 Z0.000000 I3.313250 J3.458417
G03 X69.840539 Y11.104947 Z0.000000 I0.058994 J0.091158
G03 X69.909328 Y11.984630 Z0.000000 I-0.480067 J0.480071
G03 X68.462903 Y12.997060 Z0.000000 I-2.197364 J-1.599858
G02 X68.427444 Y13.090403 Z0.000000 I0.017236 J0.059954
G02 X68.576144 Y13.175780 Z0.000000 I0.155392 J-0.098462
G02 X69.087410 Y12.960943 Z0.000000 I0.023910 J-0.658871
G02 X70.061333 Y11.545617 Z0.000000 I-4.676430 J-4.260727
G03 X70.971015 Y9.965243 Z0.000000 I14.612031 J7.358863
G03 X71.281902 Y9.674775 Z0.000000 I0.745631 J0.486440
G02 X71.399266 Y9.477280 Z0.000000 I-0.112038 J-0.200200
G02 X71.286202 Y9.310665 Z0.000000 I-0.176234 J-0.002079
G03 X71.021221 Y9.081396 Z0.000000 I0.184867 J-0.481425
G03 X70.899038 Y8.619855 Z0.000000 I0.834808 J-0.467940
G02 X70.695844 Y8.305890 Z0.000000 I-0.347410 J0.002104
G02 X70.489391 Y8.432876 Z0.000000 I-0.060595 J0.132803
G01 X70.489198 Y8.432876 Z0.000000
G00 Z5.000000

(End cutting path id: path849)


(Start cutting path id: path849)
(Change tool to Cylindrical cutter)

G00 Z5.000000
G00 X69.234430 Y5.705098

G01 Z0.000000 F1000.0(Penetrate)
G02 X69.260502 Y5.829834 Z0.000000 I0.311427 J-0.000001 F1100.000000
G02 X69.604153 Y6.551038 Z0.000000 I11.238828 J-4.912800
G03 X69.811954 Y7.804272 Z0.000000 I-1.832692 J0.947727
G03 X69.357966 Y8.195348 Z0.000000 I-0.453989 J-0.067972
G02 X69.102630 Y8.312066 Z0.000000 I0.000001 J0.337653
G02 X68.275498 Y9.446410 Z0.000000 I6.383158 J5.523152
G03 X67.449571 Y10.645720 Z0.000000 I-11.061422 J-6.733602
G03 X66.705589 Y11.471903 Z0.000000 I-5.962348 J-4.621054
G02 X66.121721 Y12.156168 Z0.000000 I3.102974 J3.238929
G02 X66.168951 Y12.246354 Z0.000000 I0.047230 J0.032726
G02 X66.402545 Y12.157401 Z0.000000 I-0.000001 J-0.351192
G02 X67.956716 Y10.653851 Z0.000000 I-17.481059 J-19.624623
G02 X69.302306 Y9.100678 Z0.000000 I-15.875942 J-15.113575
G01 X69.237169 Y9.027698 Z0.000000
G03 X69.148136 Y8.996365 Z0.000000 I-0.031874 J-0.051591
G03 X69.150879 Y8.784269 Z0.000000 I0.288746 J-0.102332
G03 X69.374430 Y8.539968 Z0.000000 I0.422253 J0.161957
G03 X69.721107 Y8.505338 Z0.000000 I0.220000 J0.449804
G02 X70.327269 Y8.070613 Z0.000000 I0.122634 J-0.468971
G02 X69.878133 Y6.288347 Z0.000000 I-2.935683 J-0.207924
G02 X69.345776 Y5.655728 Z0.000000 I-2.593426 J1.642097
G02 X69.234422 Y5.705098 Z0.000000 I-0.044733 J0.049370
G01 X69.234430 Y5.705098 Z0.000000
G00 Z5.000000

(End cutting path id: path849)


(Start cutting path id: path849)
(Change tool to Cylindrical cutter)

G00 Z5.000000
G00 X72.022811 Y21.770463

G01 Z0.000000 F1000.0(Penetrate)
G02 X72.205835 Y22.201136 Z0.000000 I1.553259 J-0.405866 F1100.000000
G02 X72.477186 Y22.514862 Z0.000000 I1.077798 J-0.658004
G03 X72.775345 Y23.000378 Z0.000000 I-0.565738 J0.681734
G03 X72.613686 Y23.115862 Z0.000000 I-0.105036 J0.023857
G02 X72.525089 Y23.157372 Z0.000000 I-0.030739 J0.049696
G02 X72.526617 Y23.731382 Z0.000000 I1.991014 J0.281706
G03 X72.492331 Y24.250845 Z0.000000 I-1.225559 J0.179972
G03 X72.364358 Y24.300472 Z0.000000 I-0.082755 J-0.023584
G02 X72.236626 Y24.382658 Z0.000000 I-0.044245 J0.071587
G02 X72.423039 Y24.762942 Z0.000000 I0.649237 J-0.082421
G02 X72.752125 Y24.979502 Z0.000000 I0.689537 J-0.689505
G02 X72.893877 Y24.950268 Z0.000000 I0.048664 J-0.122326
G03 X73.040608 Y24.914926 Z0.000000 I0.102251 J0.102250
G03 X73.404837 Y25.114928 Z0.000000 I-0.339277 J1.049518
G03 X73.555917 Y25.436907 Z0.000000 I-0.266983 J0.321710
G03 X73.404373 Y25.829765 Z0.000000 I-0.585962 J-0.000376
G02 X73.275748 Y26.240519 Z0.000000 I0.381004 J0.344825
G02 X73.530967 Y26.808346 Z0.000000 I1.066132 J-0.137920
G01 X74.027163 Y27.378504 Z0.000000
G01 X73.753329 Y26.816760 Z0.000000
G03 X73.624852 Y26.279399 Z0.000000 I1.143536 J-0.557445
G03 X73.740377 Y25.994307 Z0.000000 I0.394177 J-0.006224
G03 X74.004936 Y25.955233 Z0.000000 I0.158586 J0.158578
G03 X75.010231 Y26.675193 Z0.000000 I-2.265007 J4.224508
G02 X75.391202 Y26.955620 Z0.000000 I1.390993 J-1.490731
G01 X75.426886 Y26.912799 Z0.000000
G01 X74.834489 Y26.208788 Z0.000000
G01 X75.430229 Y26.582747 Z0.000000
G03 X75.955561 Y27.024623 Z0.000000 I-1.319679 J2.102135
G03 X76.492592 Y27.763339 Z0.000000 I-3.265535 J2.938536
G03 X76.602043 Y28.171102 Z0.000000 I-0.704844 J0.407765
G03 X76.492592 Y28.226438 Z0.000000 I-0.068714 J0.000000
G01 X76.453925 Y28.256577 Z0.000000
G02 X76.589973 Y28.464730 Z0.000000 I0.606479 J-0.247855
G02 X77.109872 Y28.834011 Z0.000000 I1.255934 J-1.217579
G02 X77.256701 Y28.773974 Z0.000000 I0.045542 J-0.098186
G03 X77.425573 Y28.623912 Z0.000000 I0.227207 J0.085636
G03 X77.884122 Y28.618698 Z0.000000 I0.240347 J0.971098
G02 X77.941188 Y28.540649 Z0.000000 I0.011519 J-0.051464
G02 X77.678379 Y28.266217 Z0.000000 I-0.703410 J0.410564
G03 X75.804216 Y26.616177 Z0.000000 I4.508326 J-7.010066
G03 X75.430178 Y25.589178 Z0.000000 I1.222910 J-1.027002
G03 X75.725624 Y25.427426 Z0.000000 I0.192001 J-0.000000
G03 X77.422249 Y26.863173 Z0.000000 I-4.504134 J7.042872
G02 X77.786132 Y27.155083 Z0.000000 I1.088910 J-0.984635
G01 X77.842123 Y27.101645 Z0.000000
G02 X76.440257 Y25.319550 Z0.000000 I-5.172237 J2.626256
G02 X75.240358 Y24.876413 Z0.000000 I-1.199895 J1.402929
G02 X75.053442 Y25.004920 Z0.000000 I0.000000 J0.200190
G02 X75.011901 Y25.472155 Z0.000000 I0.799286 J0.306528
G03 X74.882330 Y25.771211 Z0.000000 I-0.284401 J0.054375
G03 X74.590465 Y25.738812 Z0.000000 I-0.125683 J-0.198619
G03 X74.389018 Y25.406425 Z0.000000 I0.576829 J-0.576832
G03 X74.428769 Y25.224017 Z0.000000 I0.179576 J-0.056402
G01 X74.412901 Y25.186576 Z0.000000
G02 X74.283269 Y25.218817 Z0.000000 I-0.008560 J0.242313
G03 X73.503890 Y25.141569 Z0.000000 I-0.335874 J-0.581583
G03 X73.047237 Y24.131891 Z0.000000 I0.887898 J-1.009681
G03 X73.177484 Y23.877225 Z0.000000 I0.314091 J-0.000001
G03 X73.464250 Y23.830860 Z0.000000 I0.189593 J0.262630
G01 X73.527877 Y23.771915 Z0.000000
G02 X73.404770 Y23.574810 Z0.000000 I-0.349268 J0.081148
G03 X73.035540 Y23.186495 Z0.000000 I1.319755 J-1.624588
G03 X73.047339 Y23.086501 Z0.000000 I0.059642 J-0.043656
G02 X73.069318 Y22.977511 Z0.000000 I-0.058091 J-0.068426
G02 X72.749477 Y22.498292 Z0.000000 I-2.153667 J1.091060
G03 X72.387283 Y21.990994 Z0.000000 I2.691084 J-2.304289
G03 X72.332461 Y21.789763 Z0.000000 I0.341915 J-0.201233
G02 X72.278780 Y21.598212 Z0.000000 I-0.368597 J0.000001
G02 X72.116384 Y21.434723 Z0.000000 I-0.421759 J0.256540
G02 X72.025335 Y21.470315 Z0.000000 I-0.032157 J0.051991
G02 X72.022934 Y21.770273 Z0.000000 I0.554585 J0.154428
G01 X72.022811 Y21.770463 Z0.000000
G00 Z5.000000

(End cutting path id: path849)


(Start cutting path id: path849)
(Change tool to Cylindrical cutter)

G00 Z5.000000
G00 X72.808876 Y28.688828

G01 Z0.000000 F1000.0(Penetrate)
G03 X72.916211 Y28.847638 Z0.000000 I-0.132756 J0.205403 F1100.000000
G03 X72.854417 Y28.923472 Z0.000000 I-0.062535 J0.012136
G02 X72.693144 Y29.009881 Z0.000000 I0.001956 J0.197353
G02 X72.689771 Y29.165430 Z0.000000 I0.118254 J0.080376
G02 X72.885819 Y29.311287 Z0.000000 I0.281308 J-0.173425
G02 X73.478281 Y29.376078 Z0.000000 I0.507686 J-1.901187
G02 X73.712124 Y29.304978 Z0.000000 I-0.021156 J-0.489678
G01 X73.702507 Y29.239451 Z0.000000
G03 X73.387966 Y29.051418 Z0.000000 I0.165292 J-0.633598
G03 X73.285511 Y28.790514 Z0.000000 I0.280971 J-0.260905
G02 X73.175839 Y28.561174 Z0.000000 I-0.294629 J0.000001
G02 X72.868474 Y28.454186 Z0.000000 I-0.303140 J0.375881
G02 X72.752458 Y28.545130 Z0.000000 I0.000880 J0.120595
G02 X72.808914 Y28.688828 Z0.000000 I0.128282 J0.032539
G01 X72.808876 Y28.688828 Z0.000000
G00 Z5.000000

(End cutting path id: path849)


(Start cutting path id: path849)
(Change tool to Cylindrical cutter)

G00 Z5.000000
G00 X74.655651 Y29.085139

G01 Z0.000000 F1000.0(Penetrate)
G02 X74.953529 Y29.142987 Z0.000000 I0.297877 J-0.738012 F1100.000000
G02 X75.251394 Y29.085138 Z0.000000 I-0.000002 J-0.795790
G01 X75.251387 Y29.022772 Z0.000000
G02 X74.953520 Y28.964956 Z0.000000 I-0.297866 J0.738376
G02 X74.655623 Y29.022825 Z0.000000 I0.000002 J0.795695
G01 X74.655651 Y29.085139 Z0.000000
G01 X74.655651 Y29.085139 Z0.000000
G00 Z5.000000

(End cutting path id: path849)


(Start cutting path id: path849)
(Change tool to Cylindrical cutter)

G00 Z5.000000
G00 X75.777763 Y30.611232

G01 Z0.000000 F1000.0(Penetrate)
G02 X75.703584 Y30.855684 Z0.000000 I0.424386 J0.262261 F1100.000000
G02 X75.763724 Y31.008378 Z0.000000 I0.205295 J0.007333
G02 X75.847096 Y31.007537 Z0.000000 I0.041274 J-0.041274
G02 X75.906742 Y30.859326 Z0.000000 I-0.154315 J-0.148211
G03 X75.994419 Y30.724510 Z0.000000 I0.147488 J-0.000000
G03 X76.181852 Y30.737269 Z0.000000 I0.081627 J0.183987
G02 X76.275960 Y30.726319 Z0.000000 I0.040135 J-0.064938
G02 X76.286933 Y30.632193 Z0.000000 I-0.053980 J-0.053996
G02 X76.025892 Y30.479534 Z0.000000 I-0.274296 J0.169520
G02 X75.777786 Y30.611254 Z0.000000 I-0.011436 J0.277982
G01 X75.777763 Y30.611232 Z0.000000
G00 Z5.000000

(End cutting path id: path849)


(Start cutting path id: path849)
(Change tool to Cylindrical cutter)

G00 Z5.000000
G00 X74.581959 Y31.571039

G01 Z0.000000 F1000.0(Penetrate)
G02 X74.559258 Y31.814402 Z0.000000 I0.233989 J0.144567 F1100.000000
G02 X74.834033 Y32.226336 Z0.000000 I1.054777 J-0.405966
G02 X74.960388 Y32.235419 Z0.000000 I0.068683 J-0.072051
G02 X74.989746 Y32.115652 Z0.000000 I-0.054645 J-0.076876
G03 X74.829083 Y31.626167 Z0.000000 I1.486826 J-0.759128
G03 X74.882487 Y31.460350 Z0.000000 I0.188393 J-0.030834
G02 X74.929215 Y31.352875 Z0.000000 I-0.113048 J-0.113047
G01 X74.887686 Y31.309873 Z0.000000
G02 X74.767688 Y31.354071 Z0.000000 I0.000000 J0.184998
G02 X74.581462 Y31.571039 Z0.000000 I0.598047 J0.701714
G01 X74.581959 Y31.571039 Z0.000000
G00 Z5.000000

(End cutting path id: path849)


(Start cutting path id: path849)
(Change tool to Cylindrical cutter)

G00 Z5.000000
G00 X73.597664 Y32.505786

G01 Z0.000000 F1000.0(Penetrate)
G03 X74.320765 Y33.322141 Z0.000000 I-2.466512 J2.913185 F1100.000000
G03 X74.358006 Y33.662362 Z0.000000 I-0.314179 J0.206539
G02 X74.393673 Y33.768348 Z0.000000 I0.082281 J0.031305
G02 X74.507327 Y33.755581 Z0.000000 I0.048768 J-0.078131
G02 X74.581822 Y33.456730 Z0.000000 I-0.209313 J-0.210886
G02 X74.223580 Y32.840099 Z0.000000 I-1.521601 J0.471619
G02 X73.608356 Y32.265387 Z0.000000 I-4.562647 J4.267622
G02 X73.166323 Y31.978225 Z0.000000 I-1.547602 J1.898456
G01 X73.127080 Y32.027062 Z0.000000
G02 X73.597664 Y32.505838 Z0.000000 I2.847935 J-2.328549
G01 X73.597664 Y32.505786 Z0.000000
G00 Z5.000000

(End cutting path id: path849)


(Start cutting path id: path849)
(Change tool to Cylindrical cutter)

G00 Z5.000000
G00 X72.539365 Y32.344521

G01 Z0.000000 F1000.0(Penetrate)
G03 X72.685471 Y32.661703 Z0.000000 I-0.520763 J0.432124 F1100.000000
G03 X72.628026 Y32.859329 Z0.000000 I-0.231433 J0.039890
G01 X72.643013 Y32.899668 Z0.000000
G02 X72.760823 Y32.875799 Z0.000000 I0.023283 J-0.187756
G02 X72.890902 Y32.665105 Z0.000000 I-0.130446 J-0.226036
G02 X72.791122 Y32.361007 Z0.000000 I-0.435181 J-0.025628
G02 X72.494607 Y32.061970 Z0.000000 I-1.835097 J1.523101
G02 X72.392937 Y32.024787 Z0.000000 I-0.101670 J0.120407
G01 X72.365302 Y32.067817 Z0.000000
G02 X72.539191 Y32.344569 Z0.000000 I1.129484 J-0.516671
G01 X72.539365 Y32.344521 Z0.000000
G00 Z5.000000

(End cutting path id: path849)


(Start cutting path id: path849)
(Change tool to Cylindrical cutter)

G00 Z5.000000
G00 X71.572744 Y32.664102

G01 Z0.000000 F1000.0(Penetrate)
G02 X71.870318 Y32.715028 Z0.000000 I0.267795 J-0.669934 F1100.000000
G02 X72.029470 Y32.645281 Z0.000000 I-0.009873 J-0.238982
G01 X72.014286 Y32.571199 Z0.000000
G02 X71.716716 Y32.520132 Z0.000000 I-0.267932 J0.668730
G02 X71.557535 Y32.589921 Z0.000000 I0.009807 J0.238798
G01 X71.572744 Y32.664089 Z0.000000
G01 X71.572744 Y32.664102 Z0.000000
G00 Z5.000000

(End cutting path id: path849)


(Start cutting path id: path849)
(Change tool to Cylindrical cutter)

G00 Z5.000000
G00 X79.481124 Y32.144177

G01 Z0.000000 F1000.0(Penetrate)
G03 X79.605357 Y32.420661 Z0.000000 I-0.436610 J0.362337 F1100.000000
G03 X79.535855 Y32.501613 Z0.000000 I-0.069503 J0.010639
G03 X79.345763 Y32.426134 Z0.000000 I-0.000001 J-0.277110
G03 X79.156707 Y32.144178 Z0.000000 I0.523740 J-0.555535
G03 X79.071444 Y31.822266 Z0.000000 I1.442655 J-0.554357
G01 X79.101976 Y31.786738 Z0.000000
G03 X79.171641 Y31.814410 Z0.000000 I0.000000 J0.101527
G03 X79.481124 Y32.144177 Z0.000000 I-2.549243 J2.702542
G01 X79.481124 Y32.144177 Z0.000000
G00 Z5.000000

(End cutting path id: path849)


(Start cutting path id: path849)
(Change tool to Cylindrical cutter)

G00 Z5.000000
G00 X79.654860 Y30.262688

G01 Z0.000000 F1000.0(Penetrate)
G03 X79.495808 Y30.332453 Z0.000000 I-0.168920 J-0.168919 F1100.000000
G03 X79.198130 Y30.281518 Z0.000000 I-0.029810 J-0.721108
G01 X79.182934 Y30.207351 Z0.000000
G03 X79.342120 Y30.137562 Z0.000000 I0.169028 J0.169105
G03 X79.639677 Y30.188715 Z0.000000 I0.028569 J0.724835
G01 X79.654860 Y30.262731 Z0.000000
G01 X79.654860 Y30.262688 Z0.000000
G00 Z5.000000

(End cutting path id: path849)


(Start cutting path id: path849)
(Change tool to Cylindrical cutter)

G00 Z5.000000
G00 X78.786139 Y28.676646

G01 Z0.000000 F1000.0(Penetrate)
G02 X78.759254 Y28.820374 Z0.000000 I0.051974 J0.084100 F1100.000000
G02 X79.033550 Y29.003858 Z0.000000 I0.401688 J-0.303728
G03 X79.415961 Y29.190945 Z0.000000 I-0.271794 J1.039926
G03 X79.423296 Y29.302766 Z0.000000 I-0.045355 J0.059126
G03 X79.245616 Y29.364937 Z0.000000 I-0.153320 J-0.153194
G03 X78.530255 Y29.202005 Z0.000000 I0.371193 J-3.281625
G01 X77.793375 Y28.945122 Z0.000000
G01 X78.302792 Y29.710611 Z0.000000
G01 X78.812219 Y30.476110 Z0.000000
G01 X78.133147 Y29.761224 Z0.000000
G02 X77.379022 Y29.243360 Z0.000000 I-1.595866 J1.515918
G02 X76.581676 Y29.119085 Z0.000000 I-0.655033 J1.582667
G02 X76.084064 Y29.596933 Z0.000000 I0.045480 J0.545382
G02 X76.452843 Y30.155165 Z0.000000 I0.510753 J0.063513
G02 X77.459165 Y30.422872 Z0.000000 I7.366373 J-25.665202
G02 X77.693915 Y30.459530 Z0.000000 I0.330987 J-1.349589
G03 X77.864423 Y30.539884 Z0.000000 I-0.017082 J0.257333
G03 X77.934882 Y30.714390 Z0.000000 I-0.188034 J0.177399
G02 X78.688658 Y32.963956 Z0.000000 I3.847218 J-0.038042
G02 X80.134656 Y33.693066 Z0.000000 I1.445994 J-1.069316
G01 X80.162434 Y33.649875 Z0.000000
G02 X79.988953 Y33.373280 Z0.000000 I-1.124447 J0.512554
G03 X80.052598 Y33.074694 Z0.000000 I0.149629 J-0.124182
G03 X80.474533 Y33.133750 Z0.000000 I0.167537 J0.339821
G02 X80.828028 Y33.341881 Z0.000000 I0.681315 J-0.752905
G02 X80.910893 Y33.282594 Z0.000000 I0.020223 J-0.059287
G02 X80.568191 Y32.646316 Z0.000000 I-0.762026 J0.000001
G02 X79.931326 Y32.637058 Z0.000000 I-0.325684 J0.494190
G03 X79.835129 Y32.624219 Z0.000000 I-0.040261 J-0.065142
G03 X79.825089 Y32.523401 Z0.000000 I0.060935 J-0.056977
G02 X79.860866 Y32.246332 Z0.000000 I-0.288121 J-0.178050
G02 X79.600257 Y31.786724 Z0.000000 I-1.162171 J0.355290
G03 X79.325819 Y31.328339 Z0.000000 I1.016676 J-0.920038
G03 X79.351003 Y31.089582 Z0.000000 I0.260683 J-0.093210
G02 X79.323028 Y30.990334 Z0.000000 I-0.059513 J-0.036792
G02 X79.136046 Y30.980919 Z0.000000 I-0.104110 J0.206180
G03 X78.855697 Y30.992602 Z0.000000 I-0.157529 J-0.410574
G03 X78.766231 Y30.873407 Z0.000000 I0.034670 J-0.119195
G03 X78.872544 Y30.721879 Z0.000000 I0.161144 J-0.000000
G03 X79.659828 Y30.550057 Z0.000000 I1.039116 J2.871628
G03 X80.458595 Y30.698648 Z0.000000 I0.127421 J1.536252
G03 X81.231268 Y31.310110 Z0.000000 I-0.988290 J2.042778
G03 X82.112114 Y32.809922 Z0.000000 I-4.474065 J3.636204
G03 X82.118007 Y33.532729 Z0.000000 I-0.924823 J0.368967
G02 X82.097761 Y34.678305 Z0.000000 I1.580550 J0.600900
G02 X82.599500 Y34.948190 Z0.000000 I0.395916 J-0.134712
G03 X82.952262 Y34.963041 Z0.000000 I0.152189 J0.582073
G03 X83.055532 Y35.109092 Z0.000000 I-0.051645 J0.146052
G03 X82.971695 Y35.238861 Z0.000000 I-0.142352 J0.000000
G03 X82.793464 Y35.227267 Z0.000000 I-0.078210 J-0.173444
G02 X82.678760 Y35.348698 Z0.000000 I-0.044832 J0.072542
G02 X84.137631 Y37.148306 Z0.000000 I13.439161 J-9.403474
G01 X85.251786 Y38.339775 Z0.000000
G01 X84.125420 Y36.958117 Z0.000000
G03 X83.126982 Y35.582913 Z0.000000 I11.774060 J-9.598358
G03 X83.143101 Y35.432404 Z0.000000 I0.101367 J-0.065262
G03 X83.279031 Y35.423213 Z0.000000 I0.073227 J0.073227
G03 X83.784378 Y35.920461 Z0.000000 I-1.695356 J2.228384
G02 X84.318302 Y36.476982 Z0.000000 I3.092615 J-2.432654
G02 X84.522848 Y36.552571 Z0.000000 I0.204546 J-0.238960
G02 X84.569981 Y36.464838 Z0.000000 I-0.000000 J-0.056527
G02 X83.790666 Y35.446714 Z0.000000 I-7.812347 J5.172574
G03 X82.884002 Y34.315646 Z0.000000 I11.815674 J-10.400366
G03 X82.817225 Y34.110592 Z0.000000 I0.281443 J-0.205055
G02 X82.734325 Y34.000983 Z0.000000 I-0.113912 J0.000000
G02 X82.471931 Y34.012932 Z0.000000 I-0.113242 J0.400240
G03 X82.300467 Y33.971611 Z0.000000 I-0.055726 J-0.145172
G03 X82.265673 Y33.783073 Z0.000000 I0.136766 J-0.122719
G03 X82.466669 Y33.703721 Z0.000000 I0.136902 J0.052535
G03 X83.281312 Y34.276650 Z0.000000 I-1.361429 J2.801438
G02 X84.156994 Y34.984150 Z0.000000 I4.193368 J-4.294515
G02 X84.322943 Y34.967510 Z0.000000 I0.072803 J-0.109763
G02 X84.336724 Y34.806369 Z0.000000 I-0.088793 J-0.088753
G02 X83.712210 Y34.102272 Z0.000000 I-3.470177 J2.448940
G03 X83.268625 Y33.649977 Z0.000000 I3.485133 J-3.861682
G01 X83.293831 Y33.620169 Z0.000000
G02 X83.660684 Y33.819776 Z0.000000 I2.193989 J-3.595363
G02 X84.366146 Y34.136461 Z0.000000 I6.267286 J-13.017191
G02 X84.461777 Y34.033700 Z0.000000 I0.028811 J-0.069067
G02 X84.008696 Y33.427570 Z0.000000 I-1.941991 J0.979230
G03 X83.247406 Y32.653333 Z0.000000 I9.344606 J-9.949739
G01 X83.274956 Y32.619437 Z0.000000
G01 X83.339238 Y32.570022 Z0.000000
G02 X83.155826 Y32.190940 Z0.000000 I-1.136929 J0.316172
G02 X82.655474 Y31.644464 Z0.000000 I-2.699218 J1.969099
G02 X82.429386 Y31.555971 Z0.000000 I-0.236072 J0.270074
G03 X82.192762 Y31.482528 Z0.000000 I0.013419 J-0.461138
G03 X81.864059 Y31.191051 Z0.000000 I0.783057 J-1.214147
G03 X81.841910 Y30.962524 Z0.000000 I0.157340 J-0.130587
G03 X82.059106 Y30.833612 Z0.000000 I0.217197 J0.118517
G02 X82.501163 Y30.744578 Z0.000000 I-0.000002 J-1.141941
G02 X82.723111 Y30.554820 Z0.000000 I-0.185349 J-0.441468
G02 X82.692374 Y30.444183 Z0.000000 I-0.066517 J-0.041108
G02 X82.486405 Y30.432979 Z0.000000 I-0.115498 J0.224438
G03 X81.766394 Y30.404429 Z0.000000 I-0.326800 J-0.851692
G03 X80.553428 Y29.509591 Z0.000000 I1.720505 J-3.601685
G02 X79.372894 Y28.643423 Z0.000000 I-2.811498 J2.594318
G02 X78.786139 Y28.676661 Z0.000000 I-0.262740 J0.557466
G01 X78.786139 Y28.676646 Z0.000000
G00 Z5.000000

(End cutting path id: path849)


(Start cutting path id: path849)
(Change tool to Cylindrical cutter)

G00 Z5.000000
G00 X80.672590 Y34.526806

G01 Z0.000000 F1000.0(Penetrate)
G02 X81.248930 Y35.083950 Z0.000000 I6.070035 J-5.702499 F1100.000000
G02 X81.351408 Y35.122541 Z0.000000 I0.102477 J-0.116765
G01 X81.372765 Y35.080180 Z0.000000
G02 X80.910895 Y34.526805 Z0.000000 I-4.941693 J3.655103
G02 X80.334520 Y33.969652 Z0.000000 I-6.072951 J5.705759
G02 X80.232081 Y33.931074 Z0.000000 I-0.102439 J0.116721
G01 X80.210724 Y33.973435 Z0.000000
G02 X80.672590 Y34.526806 Z0.000000 I4.939769 J-3.653508
G01 X80.672590 Y34.526806 Z0.000000
G00 Z5.000000

(End cutting path id: path849)


(Start cutting path id: path849)
(Change tool to Cylindrical cutter)

G00 Z5.000000
G00 X85.438470 Y37.743768

G01 Z0.000000 F1000.0(Penetrate)
G02 X85.510263 Y37.910290 Z0.000000 I0.229018 J-0.000000 F1100.000000
G02 X85.690836 Y37.982066 Z0.000000 I0.180573 J-0.191250
G02 X85.807161 Y37.906229 Z0.000000 I-0.000000 J-0.127133
G02 X85.795912 Y37.743767 Z0.000000 I-0.159974 J-0.070543
G02 X85.629637 Y37.539654 Z0.000000 I-0.857619 J0.528849
G02 X85.543565 Y37.505465 Z0.000000 I-0.086072 J0.091254
G02 X85.479952 Y37.546933 Z0.000000 I0.000000 J0.069527
G02 X85.438470 Y37.743768 Z0.000000 I0.446247 J0.196834
G01 X85.438470 Y37.743768 Z0.000000
G00 Z5.000000

(End cutting path id: path849)


(Start cutting path id: path849)
(Change tool to Cylindrical cutter)

G00 Z5.000000
G00 X86.267607 Y38.728792

G01 Z0.000000 F1000.0(Penetrate)
G03 X86.581725 Y39.365743 Z0.000000 I-3.484307 J2.114246 F1100.000000
G03 X86.591979 Y39.562813 Z0.000000 I-0.293274 J0.114061
G02 X86.643963 Y40.535036 Z0.000000 I1.491753 J0.407738
G02 X87.093418 Y40.841584 Z0.000000 I0.449455 J-0.176216
G02 X87.261083 Y40.787524 Z0.000000 I-0.000001 J-0.287031
G02 X87.572772 Y40.496609 Z0.000000 I-0.982204 J-1.364772
G02 X87.703617 Y40.142091 Z0.000000 I-0.437013 J-0.362697
G02 X87.583910 Y39.722169 Z0.000000 I-0.758077 J-0.010920
G02 X87.484966 Y39.687027 Z0.000000 I-0.072119 J0.046193
G02 X87.440986 Y39.769310 Z0.000000 I0.021178 J0.064215
G01 X87.375419 Y39.829097 Z0.000000
G03 X87.161118 Y39.663096 Z0.000000 I0.164668 J-0.433909
G02 X86.734789 Y39.091553 Z0.000000 I-11.429607 J8.080854
G02 X86.317892 Y38.590760 Z0.000000 I-9.190273 J7.226746
G01 X86.255179 Y38.602588 Z0.000000
G02 X86.267602 Y38.728836 Z0.000000 I0.137771 J0.050178
G01 X86.267607 Y38.728792 Z0.000000
G00 Z5.000000

(End cutting path id: path849)


(Start cutting path id: path849)
(Change tool to Cylindrical cutter)

G00 Z5.000000
G00 X86.868246 Y42.257160

G01 Z0.000000 F1000.0(Penetrate)
G02 X86.924456 Y42.450027 Z0.000000 I0.358990 J-0.000001 F1100.000000
G02 X87.103812 Y42.626970 Z0.000000 I0.476238 J-0.303359
G02 X87.194621 Y42.597831 Z0.000000 I0.032975 J-0.053303
G02 X87.197511 Y42.402750 Z0.000000 I-0.242089 J-0.101149
G02 X86.986059 Y42.180465 Z0.000000 I-0.373062 J0.143165
G02 X86.868283 Y42.257160 Z0.000000 I-0.033916 J0.076695
G01 X86.868246 Y42.257160 Z0.000000
G00 Z5.000000

(End cutting path id: path849)


(Start cutting path id: path849)
(Change tool to Cylindrical cutter)

G00 Z5.000000
G00 X88.536304 Y43.399017

G01 Z0.000000 F1000.0(Penetrate)
G02 X88.554750 Y43.489382 Z0.000000 I0.230568 J-0.000000 F1100.000000
G02 X88.747831 Y43.895450 Z0.000000 I5.030988 J-2.143237
G03 X88.883962 Y44.317974 Z0.000000 I-1.138186 J0.599898
G03 X89.085625 Y46.322299 Z0.000000 I-26.240678 J3.652482
G03 X89.071603 Y47.505681 Z0.000000 I-7.978085 J0.497241
G01 X88.982944 Y47.513772 Z0.000000
G02 X88.522168 Y46.128622 Z0.000000 I-13.217094 J3.627510
G02 X88.431187 Y46.109661 Z0.000000 I-0.051700 J0.020316
G02 X88.392294 Y46.220027 Z0.000000 I0.095796 J0.095795
G02 X88.570434 Y47.394812 Z0.000000 I13.827987 J-1.495929
G03 X88.895667 Y49.761355 Z0.000000 I-20.687111 J4.048638
G03 X88.770721 Y49.896703 Z0.000000 I-0.124946 J0.010002
G02 X88.613103 Y50.118299 Z0.000000 I0.000000 J0.166854
G02 X89.205165 Y51.147741 Z0.000000 I3.006621 J-1.044218
G03 X89.297869 Y51.442840 Z0.000000 I-0.297649 J0.255616
G03 X89.162986 Y51.564769 Z0.000000 I-0.134884 J-0.013643
G02 X89.006468 Y51.713271 Z0.000000 I0.000000 J0.156735
G02 X89.125997 Y52.267816 Z0.000000 I1.082066 J0.056921
G03 X89.386192 Y53.087448 Z0.000000 I-2.259328 J1.168346
G03 X89.259551 Y53.232824 Z0.000000 I-0.126641 J0.017528
G02 X89.044947 Y53.285884 Z0.000000 I0.000001 J0.460520
G02 X87.902276 Y53.947710 Z0.000000 I7.654132 J14.532546
G03 X86.394151 Y54.500501 Z0.000000 I-2.026864 J-3.196064
G03 X85.749566 Y54.245578 Z0.000000 I-0.096602 J-0.698131
G01 X85.682499 Y54.253498 Z0.000000
G02 X85.683006 Y54.385140 Z0.000000 I0.136906 J0.065294
G03 X85.865780 Y54.926933 Z0.000000 I-2.022889 J0.984149
G03 X85.821219 Y55.074250 Z0.000000 I-0.159825 J0.032054
G03 X85.665357 Y55.129269 Z0.000000 I-0.135509 J-0.135601
G03 X84.299572 Y54.912031 Z0.000000 I1.429943 J-13.392097
G02 X82.909503 Y54.699897 Z0.000000 I-2.532070 J11.931666
G02 X82.327746 Y54.726611 Z0.000000 I-0.195855 J2.082683
G01 X82.319964 Y54.797425 Z0.000000
G02 X82.698185 Y54.885195 Z0.000000 I0.435226 J-1.016685
G03 X83.640320 Y54.985624 Z0.000000 I-0.448854 J8.680052
G03 X84.110522 Y55.114262 Z0.000000 I-0.367589 J2.267291
G03 X84.258662 Y55.293074 Z0.000000 I-0.087439 J0.223212
G03 X84.173122 Y55.446369 Z0.000000 I-0.134650 J0.025377
G03 X83.767263 Y55.562661 Z0.000000 I-0.864175 J-2.249607
G03 X82.544962 Y55.761943 Z0.000000 I-3.961594 J-20.450361
G03 X81.599406 Y55.672781 Z0.000000 I-0.278804 J-2.101661
G03 X81.450978 Y55.399493 Z0.000000 I0.071488 J-0.215777
G02 X81.401363 Y55.167571 Z0.000000 I-0.255063 J-0.066702
G02 X81.252418 Y55.152571 Z0.000000 I-0.081857 J0.065829
G02 X81.031840 Y55.450379 Z0.000000 I0.496632 J0.598434
G02 X81.046939 Y55.642781 Z0.000000 I0.194506 J0.081529
G03 X81.037739 Y55.776154 Z0.000000 I-0.097525 J0.060277
G03 X80.872139 Y55.854061 Z0.000000 I-0.165601 J-0.137048
G02 X80.826022 Y55.935831 Z0.000000 I0.000000 J0.053890
G02 X81.096369 Y56.225031 Z0.000000 I0.820456 J-0.496009
G03 X81.529112 Y56.646412 Z0.000000 I-1.080209 J1.542234
G03 X81.625982 Y56.939898 Z0.000000 I-0.396155 J0.293487
G03 X81.442918 Y57.144300 Z0.000000 I-0.205646 J0.000000
G03 X80.499917 Y57.064297 Z0.000000 I-0.268618 J-2.431390
G02 X79.726203 Y56.892282 Z0.000000 I-1.805897 J6.296770
G02 X78.714287 Y56.779384 Z0.000000 I-1.703034 J10.673069
G03 X77.716891 Y56.640628 Z0.000000 I0.436000 J-6.788106
G03 X77.287968 Y56.471771 Z0.000000 I0.299797 J-1.390720
G02 X76.896135 Y56.344837 Z0.000000 I-0.473958 J0.794824
G02 X76.692595 Y56.418732 Z0.000000 I-0.022697 J0.254749
G02 X76.736467 Y57.089138 Z0.000000 I0.315967 J0.315961
G02 X77.624481 Y57.134097 Z0.000000 I0.476576 J-0.620813
G03 X77.998895 Y57.090872 Z0.000000 I0.233273 J0.377408
G03 X80.354166 Y58.050009 Z0.000000 I-6.426369 J19.152074
G02 X81.351316 Y58.425002 Z0.000000 I2.576080 J-5.336834
G02 X81.664802 Y58.412310 Z0.000000 I0.136942 J-0.495393
G02 X81.683644 Y58.309352 Z0.000000 I-0.020846 J-0.057018
G02 X81.328119 Y58.121400 Z0.000000 I-0.586109 J0.678442
G03 X81.194909 Y57.812403 Z0.000000 I0.055064 J-0.206951
G03 X81.605153 Y57.610285 Z0.000000 I0.347782 J0.188502
G03 X82.529866 Y57.787883 Z0.000000 I-2.408893 J15.038753
G03 X82.915781 Y57.904523 Z0.000000 I-0.606173 J2.702307
G02 X83.207448 Y57.923606 Z0.000000 I0.176613 J-0.460890
G02 X83.294049 Y57.813793 Z0.000000 I-0.026323 J-0.109814
G02 X83.209241 Y57.643275 Z0.000000 I-0.213830 J0.000000
G02 X82.817445 Y57.453160 Z0.000000 I-0.674727 J0.891728
G03 X82.456421 Y57.239343 Z0.000000 I0.192513 J-0.736752
G03 X82.340873 Y56.948775 Z0.000000 I0.307572 J-0.290569
G02 X82.256008 Y56.653887 Z0.000000 I-0.554773 J0.000001
G02 X82.102575 Y56.569031 Z0.000000 I-0.153432 J0.096286
G03 X81.931795 Y56.501463 Z0.000000 I-0.000000 J-0.249610
G03 X81.864281 Y56.345553 Z0.000000 I0.146265 J-0.155910
G03 X81.948322 Y56.208174 Z0.000000 I0.154306 J-0.000000
G03 X82.281287 Y56.132261 Z0.000000 I0.315992 J0.617814
G02 X82.692458 Y56.094820 Z0.000000 I0.042582 J-1.808796
G02 X84.126148 Y55.748030 Z0.000000 I-4.670881 J-22.447209
G03 X85.541738 Y55.508129 Z0.000000 I1.883528 J6.817733
G03 X86.128305 Y55.615269 Z0.000000 I0.080713 J1.217348
G02 X86.677631 Y55.738689 Z0.000000 I0.569195 J-1.249219
G02 X86.952366 Y55.627188 Z0.000000 I0.005510 J-0.380645
G02 X87.008628 Y55.457630 Z0.000000 I-0.140857 J-0.140851
G02 X86.915976 Y55.377494 Z0.000000 I-0.092652 J0.013493
G03 X86.824291 Y55.156401 Z0.000000 I-0.000000 J-0.129557
G03 X88.075113 Y54.216456 Z0.000000 I3.918063 J3.911686
G03 X89.458257 Y53.712814 Z0.000000 I2.319642 J4.219329
G03 X89.854730 Y53.863575 Z0.000000 I0.077767 J0.392195
G02 X90.111187 Y54.062649 Z0.000000 I0.498859 J-0.377928
G02 X90.196831 Y54.007286 Z0.000000 I0.023916 J-0.056929
G02 X90.077561 Y53.511096 Z0.000000 I-0.987491 J-0.025064
G02 X89.882714 Y53.428582 Z0.000000 I-0.149174 J0.080947
G01 X89.823608 Y53.378335 Z0.000000
G03 X89.907964 Y53.200868 Z0.000000 I0.298452 J0.033083
G03 X90.200494 Y53.152670 Z0.000000 I0.179274 J0.176246
G03 X90.936746 Y53.720002 Z0.000000 I-1.113153 J2.205989
G01 X91.666345 Y54.543450 Z0.000000
G01 X91.135778 Y53.541261 Z0.000000
G03 X90.819654 Y52.558305 Z0.000000 I2.609460 J-1.381526
G03 X90.941000 Y52.111505 Z0.000000 I0.588189 J-0.080133
G02 X90.937842 Y52.022819 Z0.000000 I-0.054082 J-0.042474
G02 X90.854110 Y52.015755 Z0.000000 I-0.045659 J0.041436
G03 X90.458981 Y52.032474 Z0.000000 I-0.209196 J-0.266544
G03 X89.859237 Y51.362735 Z0.000000 I0.960861 J-1.463840
G03 X89.603255 Y50.531298 Z0.000000 I2.264995 J-1.152471
G03 X89.510266 Y48.622352 Z0.000000 I12.167061 J-1.549418
G02 X89.283244 Y43.675803 Z0.000000 I-32.966280 J-0.965495
G02 X88.863391 Y43.303912 Z0.000000 I-0.419852 J0.051054
G02 X88.577267 Y43.344693 Z0.000000 I0.000002 J1.024153
G02 X88.536484 Y43.399033 Z0.000000 I0.015811 J0.054340
G01 X88.536304 Y43.399017 Z0.000000
G00 Z5.000000

(End cutting path id: path849)


(Start cutting path id: path849)
(Change tool to Cylindrical cutter)

G00 Z5.000000
G00 X85.442138 Y44.699765

G01 Z0.000000 F1000.0(Penetrate)
G02 X85.494347 Y44.996995 Z0.000000 I0.924339 J-0.009162 F1100.000000
G02 X85.676781 Y45.369136 Z0.000000 I1.661380 J-0.583668
G02 X85.811331 Y45.395371 Z0.000000 I0.079902 J-0.051641
G02 X85.911434 Y45.204470 Z0.000000 I-0.135115 J-0.192546
G02 X85.831989 Y44.728275 Z0.000000 I-1.416631 J-0.008384
G02 X85.676779 Y44.535094 Z0.000000 I-0.350404 J0.122588
G02 X85.524274 Y44.539590 Z0.000000 I-0.072837 J0.118131
G02 X85.442138 Y44.699765 Z0.000000 I0.110716 J0.157921
G01 X85.442138 Y44.699765 Z0.000000
G00 Z5.000000

(End cutting path id: path849)


(Start cutting path id: path849)
(Change tool to Cylindrical cutter)

G00 Z5.000000
G00 X85.961530 Y46.679761

G01 Z0.000000 F1000.0(Penetrate)
G02 X86.021180 Y46.976970 Z0.000000 I0.814655 J-0.008910 F1100.000000
G01 X86.080211 Y46.973123 Z0.000000
G02 X86.131146 Y46.555364 Z0.000000 I-1.532139 J-0.398788
G02 X86.071610 Y46.258224 Z0.000000 I-0.820332 J0.009831
G01 X86.012642 Y46.262065 Z0.000000
G02 X85.961751 Y46.679761 Z0.000000 I1.528598 J0.398185
G01 X85.961530 Y46.679761 Z0.000000
G00 Z5.000000

(End cutting path id: path849)


(Start cutting path id: path849)
(Change tool to Cylindrical cutter)

G00 Z5.000000
G00 X85.200196 Y46.903998

G01 Z0.000000 F1000.0(Penetrate)
G02 X85.266359 Y47.210459 Z0.000000 I0.742834 J-0.000001 F1100.000000
G02 X85.416278 Y47.380910 Z0.000000 I0.354287 J-0.160456
G02 X85.506950 Y47.344862 Z0.000000 I0.031961 J-0.051668
G02 X85.507617 Y47.037542 Z0.000000 I-0.582296 J-0.154924
G02 X85.323769 Y46.822949 Z0.000000 I-0.312574 J0.081740
G02 X85.200196 Y46.903998 Z0.000000 I-0.035207 J0.081049
G01 X85.200196 Y46.903998 Z0.000000
G00 Z5.000000

(End cutting path id: path849)


(Start cutting path id: path849)
(Change tool to Cylindrical cutter)

G00 Z5.000000
G00 X85.828920 Y47.871219

G01 Z0.000000 F1000.0(Penetrate)
G02 X85.813830 Y48.144764 Z0.000000 I0.416995 J0.160192 F1100.000000
G02 X85.922610 Y48.228688 Z0.000000 I0.108780 J-0.028537
G02 X86.072031 Y48.147308 Z0.000000 I-0.000000 J-0.177866
G02 X86.153424 Y47.871218 Z0.000000 I-0.427559 J-0.276089
G02 X86.112724 Y47.554704 Z0.000000 I-1.251105 J0.000002
G02 X86.059733 Y47.513788 Z0.000000 I-0.052991 J0.013857
G02 X85.991685 Y47.550833 Z0.000000 I0.000000 J0.081022
G02 X85.828920 Y47.871219 Z0.000000 I1.457939 J0.942213
G01 X85.828920 Y47.871219 Z0.000000
G00 Z5.000000

(End cutting path id: path849)


(Start cutting path id: path849)
(Change tool to Cylindrical cutter)

G00 Z5.000000
G00 X87.583137 Y48.795180

G01 Z0.000000 F1000.0(Penetrate)
G02 X87.614113 Y48.869980 Z0.000000 I0.105799 J-0.000000 F1100.000000
G02 X88.000160 Y49.212213 Z0.000000 I3.030099 J-3.029177
G02 X88.084937 Y49.207104 Z0.000000 I0.039507 J-0.050377
G02 X88.090030 Y49.122343 Z0.000000 I-0.045255 J-0.045253
G02 X87.675868 Y48.744696 Z0.000000 I-1.331141 J1.043927
G02 X87.583032 Y48.795287 Z0.000000 I-0.032633 J0.050591
G01 X87.583137 Y48.795180 Z0.000000
G00 Z5.000000

(End cutting path id: path849)


(Start cutting path id: path849)
(Change tool to Cylindrical cutter)

G00 Z5.000000
G00 X87.153002 Y50.016148

G01 Z0.000000 F1000.0(Penetrate)
G02 X87.212653 Y50.313327 Z0.000000 I0.814469 J-0.008909 F1100.000000
G01 X87.271689 Y50.309479 Z0.000000
G02 X87.322627 Y49.891720 Z0.000000 I-1.532052 J-0.398790
G02 X87.263088 Y49.594612 Z0.000000 I-0.820112 J0.009828
G01 X87.204118 Y49.598451 Z0.000000
G02 X87.153232 Y50.016148 Z0.000000 I1.528778 J0.398192
G01 X87.153002 Y50.016148 Z0.000000
G00 Z5.000000

(End cutting path id: path849)


(Start cutting path id: path849)
(Change tool to Cylindrical cutter)

G00 Z5.000000
G00 X88.941095 Y54.500943

G01 Z0.000000 F1000.0(Penetrate)
G03 X88.902580 Y54.581129 Z0.000000 I-0.044865 J0.027793 F1100.000000
G03 X88.551133 Y54.548234 Z0.000000 I-0.100015 J-0.825302
G02 X88.342050 Y54.625127 Z0.000000 I-0.054977 J0.173220
G02 X88.342000 Y54.882803 Z0.000000 I0.206182 J0.128878
G02 X88.709166 Y55.312194 Z0.000000 I1.611373 J-1.006185
G02 X89.071904 Y55.515431 Z0.000000 I0.674051 J-0.777726
G03 X89.412709 Y55.704237 Z0.000000 I-0.299994 J0.943491
G03 X89.489510 Y55.870200 Z0.000000 I-0.140918 J0.165963
G02 X89.573130 Y56.007297 Z0.000000 I0.154197 J-0.000000
G02 X89.906512 Y56.084868 Z0.000000 I0.320642 J-0.622857
G02 X90.005626 Y55.973777 Z0.000000 I-0.001750 J-0.101321
G02 X89.872702 Y55.736010 Z0.000000 I-0.337610 J0.032703
G02 X89.410317 Y55.414582 Z0.000000 I-4.197826 J5.545423
G02 X89.157823 Y55.280839 Z0.000000 I-0.961859 J1.510688
G03 X89.104238 Y55.150409 Z0.000000 I0.039888 J-0.092610
G03 X89.310750 Y54.902960 Z0.000000 I0.488197 J0.197533
G02 X89.508764 Y54.512340 Z0.000000 I-0.228822 J-0.361493
G02 X89.268839 Y54.288230 Z0.000000 I-0.239924 J0.016372
G02 X88.969042 Y54.377040 Z0.000000 I0.000001 J0.550427
G02 X88.941240 Y54.500991 Z0.000000 I0.049483 J0.076192
G01 X88.941095 Y54.500943 Z0.000000
G00 Z5.000000

(End cutting path id: path849)


(Start cutting path id: path849)
(Change tool to Cylindrical cutter)

G00 Z5.000000
G00 X89.906513 Y56.503160

G01 Z0.000000 F1000.0(Penetrate)
G02 X90.680977 Y56.551102 Z0.000000 I0.774452 J-6.231288 F1100.000000
G02 X91.455433 Y56.503157 Z0.000000 I-0.000012 J-6.279113
G01 X91.455434 Y56.454932 Z0.000000
G02 X90.680971 Y56.407069 Z0.000000 I-0.774451 J6.241562
G02 X89.906512 Y56.454935 Z0.000000 I0.000012 J6.289365
G01 X89.906513 Y56.503160 Z0.000000
G01 X89.906513 Y56.503160 Z0.000000
G00 Z5.000000

(End cutting path id: path849)


(Start cutting path id: path849)
(Change tool to Cylindrical cutter)

G00 Z5.000000
G00 X91.888541 Y55.169207

G01 Z0.000000 F1000.0(Penetrate)
G02 X93.089649 Y56.286367 Z0.000000 I2.230230 J-1.193558 F1100.000000
G02 X94.420137 Y56.296723 Z0.000000 I0.677118 J-1.520355
G02 X94.427469 Y56.206320 Z0.000000 I-0.020133 J-0.047132
G02 X93.145837 Y55.487809 Z0.000000 I-7.214197 J11.365891
G02 X91.975768 Y55.057695 Z0.000000 I-2.643856 J5.385697
G02 X91.888541 Y55.169207 Z0.000000 I-0.019007 J0.075004
G01 X91.888541 Y55.169207 Z0.000000
G00 Z5.000000

(End cutting path id: path849)


(Start cutting path id: path849)
(Change tool to Cylindrical cutter)

G00 Z5.000000
G00 X92.349037 Y56.784510

G01 Z0.000000 F1000.0(Penetrate)
G02 X92.747629 Y57.354132 Z0.000000 I0.606316 J-0.000001 F1100.000000
G02 X93.471530 Y57.193906 Z0.000000 I0.236275 J-0.647917
G01 X93.465605 Y57.136850 Z0.000000
G02 X92.945776 Y56.851028 Z0.000000 I-2.156761 J3.306913
G02 X92.432897 Y56.709486 Z0.000000 I-0.699811 J1.535783
G02 X92.349037 Y56.784519 Z0.000000 I-0.008362 J0.075034
G01 X92.349037 Y56.784510 Z0.000000
G00 Z5.000000

(End cutting path id: path849)


(Start cutting path id: path849)
(Change tool to Cylindrical cutter)

G00 Z5.000000
G00 X94.784756 Y57.799702

G01 Z0.000000 F1000.0(Penetrate)
G02 X94.934264 Y58.031100 Z0.000000 I0.523599 J-0.174304 F1100.000000
G02 X95.459921 Y58.422326 Z0.000000 I2.117864 J-2.296833
G01 X96.042582 Y58.767486 Z0.000000
G01 X95.516567 Y58.293590 Z0.000000
G03 X95.121691 Y57.816265 Z0.000000 I1.421557 J-1.578003
G03 X95.139258 Y57.670968 Z0.000000 I0.101410 J-0.061450
G02 X95.139157 Y57.583805 Z0.000000 I-0.043584 J-0.043531
G02 X94.990115 Y57.522220 Z0.000000 I-0.149041 J0.149554
G02 X94.814824 Y57.610572 Z0.000000 I0.000000 J0.218067
G02 X94.784756 Y57.799702 Z0.000000 I0.166872 J0.123485
G01 X94.784756 Y57.799702 Z0.000000
G00 Z5.000000

(End cutting path id: path849)


(Start cutting path id: path849)
(Change tool to Cylindrical cutter)

G00 Z5.000000
G00 X95.577913 Y56.782204

G01 Z0.000000 F1000.0(Penetrate)
G02 X95.834091 Y56.935535 Z0.000000 I0.477509 J-0.507129 F1100.000000
G02 X96.638318 Y57.137556 Z0.000000 I1.707148 J-5.094213
G01 X97.472347 Y57.279703 Z0.000000
G01 X96.638318 Y56.942484 Z0.000000
G02 X95.633678 Y56.667515 Z0.000000 I-1.670868 J4.131982
G02 X95.577913 Y56.782161 Z0.000000 I-0.009982 J0.066030
G01 X95.577913 Y56.782204 Z0.000000
G00 Z5.000000

(End cutting path id: path849)


(Start cutting path id: path849)
(Change tool to Cylindrical cutter)

G00 Z5.000000
G00 X95.163895 Y60.544442

G01 Z0.000000 F1000.0(Penetrate)
G02 X95.461451 Y60.595387 Z0.000000 I0.267832 J-0.669884 F1100.000000
G02 X95.620621 Y60.525631 Z0.000000 I-0.009854 J-0.238958
G01 X95.605425 Y60.451539 Z0.000000
G02 X95.307854 Y60.400495 Z0.000000 I-0.267904 J0.668907
G02 X95.148682 Y60.470286 Z0.000000 I0.009805 J0.238767
G01 X95.163895 Y60.544457 Z0.000000
G01 X95.163895 Y60.544442 Z0.000000
G00 Z5.000000

(End cutting path id: path849)


(Start cutting path id: path849)
(Change tool to Cylindrical cutter)

G00 Z5.000000
G00 X94.970270 Y61.565610

G01 Z0.000000 F1000.0(Penetrate)
G02 X95.054194 Y61.674361 Z0.000000 I0.112423 J-0.000000 F1100.000000
G02 X95.327719 Y61.659300 Z0.000000 I0.113358 J-0.432580
G02 X95.648030 Y61.496622 Z0.000000 I-0.624869 J-1.627042
G02 X95.685149 Y61.428482 Z0.000000 I-0.043981 J-0.068140
G02 X95.644436 Y61.375691 Z0.000000 I-0.054583 J0.000000
G02 X95.327718 Y61.334783 Z0.000000 I-0.316715 J1.205563
G02 X95.051643 Y61.416180 Z0.000000 I0.000001 J0.508886
G02 X94.970270 Y61.565599 Z0.000000 I0.096496 J0.149420
G01 X94.970270 Y61.565610 Z0.000000
G00 Z5.000000

(End cutting path id: path849)


(Start cutting path id: path849)
(Change tool to Cylindrical cutter)

G00 Z5.000000
G00 X93.257527 Y61.020819

G01 Z0.000000 F1000.0(Penetrate)
G02 X93.555093 Y61.071752 Z0.000000 I0.267818 J-0.669961 F1100.000000
G02 X93.714262 Y61.001968 Z0.000000 I-0.009858 J-0.238899
G01 X93.699071 Y60.927873 Z0.000000
G02 X93.401503 Y60.876801 Z0.000000 I-0.267933 J0.668680
G02 X93.242317 Y60.946601 Z0.000000 I0.009807 J0.238788
G01 X93.257527 Y61.020789 Z0.000000
G01 X93.257527 Y61.020819 Z0.000000
G00 Z5.000000

(End cutting path id: path849)


(Start cutting path id: path849)
(Change tool to Cylindrical cutter)

G00 Z5.000000
G00 X91.589479 Y59.591359

G01 Z0.000000 F1000.0(Penetrate)
G02 X91.887056 Y59.642309 Z0.000000 I0.267859 J-0.669963 F1100.000000
G02 X92.046207 Y59.572568 Z0.000000 I-0.009850 J-0.238942
G01 X92.031011 Y59.498470 Z0.000000
G02 X91.733449 Y59.447416 Z0.000000 I-0.267937 J0.668946
G02 X91.574268 Y59.517211 Z0.000000 I0.009806 J0.238783
G01 X91.589479 Y59.591389 Z0.000000
G01 X91.589479 Y59.591359 Z0.000000
G00 Z5.000000

(End cutting path id: path849)


(Start cutting path id: path849)
(Change tool to Cylindrical cutter)

G00 Z5.000000
G00 X90.362947 Y60.545112

G01 Z0.000000 F1000.0(Penetrate)
G02 X89.298452 Y60.914825 Z0.000000 I4.379849 J14.327993 F1100.000000
G01 X89.290621 Y60.963353 Z0.000000
G02 X90.383099 Y61.438005 Z0.000000 I1.365088 J-1.647371
G02 X90.582096 Y61.129257 Z0.000000 I0.025924 J-0.201795
G03 X90.891337 Y60.296349 Z0.000000 I0.478985 J-0.296024
G03 X92.202931 Y60.616768 Z0.000000 I0.392025 J1.239930
G02 X92.591549 Y60.761682 Z0.000000 I0.352949 J-0.352968
G02 X92.683306 Y60.582327 Z0.000000 I-0.008415 J-0.117453
G03 X92.744002 Y60.456170 Z0.000000 I0.070671 J-0.043678
G03 X93.681994 Y60.461556 Z0.000000 I0.447754 J3.702434
G02 X94.471070 Y60.475743 Z0.000000 I0.456579 J-3.443539
G02 X94.493690 Y60.383594 Z0.000000 I-0.004811 J-0.050031
G02 X93.284837 Y60.049904 Z0.000000 I-1.128161 J1.730476
G02 X90.362947 Y60.545081 Z0.000000 I0.450615 J11.527121
G01 X90.362947 Y60.545112 Z0.000000
G00 Z5.000000

(End cutting path id: path849)


(Start cutting path id: path849)
(Change tool to Cylindrical cutter)

G00 Z5.000000
G00 X86.532058 Y60.231838

G01 Z0.000000 F1000.0(Penetrate)
G02 X86.778117 Y60.478479 Z0.000000 I0.400559 J-0.153555 F1100.000000
G02 X87.537165 Y60.619911 Z0.000000 I0.759044 J-1.966122
G02 X87.680131 Y60.364055 Z0.000000 I-0.000000 J-0.167871
G02 X87.154431 Y59.997998 Z0.000000 I-0.682968 J0.420311
G02 X86.617624 Y60.041556 Z0.000000 I-0.192193 J0.960989
G02 X86.532058 Y60.231838 Z0.000000 I0.051696 J0.137626
G01 X86.532058 Y60.231838 Z0.000000
G00 Z5.000000

(End cutting path id: path849)


(Start cutting path id: path849)
(Change tool to Cylindrical cutter)

G00 Z5.000000
G00 X85.617252 Y61.969312

G01 Z0.000000 F1000.0(Penetrate)
G02 X85.915121 Y62.027164 Z0.000000 I0.297868 J-0.737913 F1100.000000
G02 X86.212987 Y61.969311 Z0.000000 I-0.000002 J-0.795747
G01 X86.212983 Y61.906935 Z0.000000
G02 X85.915120 Y61.849105 Z0.000000 I-0.297861 J0.738161
G02 X85.617232 Y61.906971 Z0.000000 I0.000002 J0.795682
G01 X85.617252 Y61.969312 Z0.000000
G01 X85.617252 Y61.969312 Z0.000000
G00 Z5.000000

(End cutting path id: path849)


(Start cutting path id: path849)
(Change tool to Cylindrical cutter)

G00 Z5.000000
G00 X84.485353 Y61.297111

G01 Z0.000000 F1000.0(Penetrate)
G03 X84.165433 Y61.729753 Z0.000000 I-0.452499 J0.000001 F1100.000000
G03 X82.029250 Y62.049718 Z0.000000 I-2.136197 J-6.971010
G02 X81.461451 Y62.131679 Z0.000000 I0.000004 J2.007772
G02 X81.278794 Y62.271167 Z0.000000 I0.090930 J0.308407
G02 X81.516935 Y62.661132 Z0.000000 I0.217862 J0.134653
G02 X84.425776 Y62.021251 Z0.000000 I-0.861707 J-10.848846
G02 X84.977801 Y61.445398 Z0.000000 I-0.316003 J-0.855446
G02 X84.723644 Y61.096518 Z0.000000 I-0.254157 J-0.081864
G02 X84.549037 Y61.160238 Z0.000000 I0.000001 J0.271093
G02 X84.485353 Y61.297111 Z0.000000 I0.115247 J0.136873
G01 X84.485353 Y61.297111 Z0.000000
G00 Z5.000000

(End cutting path id: path849)


(Start cutting path id: path849)
(Change tool to Cylindrical cutter)

G00 Z5.000000
G00 X84.247039 Y57.866002

G01 Z0.000000 F1000.0(Penetrate)
G03 X84.105677 Y58.080559 Z0.000000 I-0.233506 J0.000000 F1100.000000
G03 X83.234293 Y58.300960 Z0.000000 I-1.127745 J-2.625926
G01 X83.233611 Y58.353316 Z0.000000
G02 X84.247040 Y58.418700 Z0.000000 I1.142610 J-9.823527
G02 X85.659803 Y58.309539 Z0.000000 I0.102665 J-7.867909
G02 X85.676805 Y58.177202 Z0.000000 I-0.011609 J-0.068752
G03 X85.647619 Y57.988088 Z0.000000 I0.046806 J-0.104033
G03 X86.153392 Y57.751522 Z0.000000 I0.647053 J0.724435
G01 X86.166898 Y57.658502 Z0.000000
G02 X85.736378 Y57.558067 Z0.000000 I-0.456569 J0.984166
G02 X84.399714 Y57.678544 Z0.000000 I-0.141859 J5.901347
G02 X84.247039 Y57.866002 Z0.000000 I0.038744 J0.187458
G01 X84.247039 Y57.866002 Z0.000000
G00 Z5.000000

(End cutting path id: path849)


(Start cutting path id: path849)
(Change tool to Cylindrical cutter)

G00 Z5.000000
G00 X83.830027 Y56.726757

G01 Z0.000000 F1000.0(Penetrate)
G02 X83.602932 Y56.894728 Z0.000000 I0.211047 J0.522830 F1100.000000
G02 X83.532158 Y57.094563 Z0.000000 I0.246734 J0.199834
G02 X83.611467 Y57.173320 Z0.000000 I0.078759 J-0.000000
G02 X83.833058 Y57.092463 Z0.000000 I-0.002449 J-0.350775
G03 X84.165765 Y56.918602 Z0.000000 I0.571649 J0.688658
G03 X85.084092 Y56.745899 Z0.000000 I1.480338 J5.343636
G01 X86.034242 Y56.649077 Z0.000000
G01 X85.081076 Y56.627879 Z0.000000
G02 X84.136640 Y56.654636 Z0.000000 I-0.207432 J9.359453
G02 X83.830027 Y56.726732 Z0.000000 I0.081812 J1.035981
G01 X83.830027 Y56.726757 Z0.000000
G00 Z5.000000

(End cutting path id: path849)


(Start cutting path id: path849)
(Change tool to Cylindrical cutter)

G00 Z5.000000
G00 X80.910942 Y59.123669

G01 Z0.000000 F1000.0(Penetrate)
G02 X80.653573 Y59.383011 Z0.000000 I0.056170 J0.313120 F1100.000000
G02 X80.831263 Y59.588340 Z0.000000 I0.173159 J0.029700
G03 X81.739490 Y59.618016 Z0.000000 I0.199657 J7.802613
G03 X82.459982 Y59.736848 Z0.000000 I-0.457246 J5.015938
G01 X83.174861 Y59.908922 Z0.000000
G01 X82.579520 Y59.569082 Z0.000000
G01 X81.984161 Y59.229215 Z0.000000
G01 X82.817811 Y59.128637 Z0.000000
G01 X82.825804 Y59.075508 Z0.000000
G02 X82.579125 Y59.022428 Z0.000000 I-0.249866 J0.561471
G02 X81.509876 Y59.051969 Z0.000000 I-0.083165 J16.355519
G02 X80.911079 Y59.123729 Z0.000000 I0.308597 J5.109250
G01 X80.910942 Y59.123669 Z0.000000
G00 Z5.000000

(End cutting path id: path849)


(Start cutting path id: path849)
(Change tool to Cylindrical cutter)

G00 Z5.000000
G00 X80.389666 Y62.689068

G01 Z0.000000 F1000.0(Penetrate)
G02 X80.687249 Y62.740011 Z0.000000 I0.267852 J-0.670019 F1100.000000
G02 X80.846396 Y62.670257 Z0.000000 I-0.009852 J-0.238906
G01 X80.831209 Y62.596164 Z0.000000
G02 X80.533648 Y62.545096 Z0.000000 I-0.267903 J0.668560
G02 X80.374458 Y62.614889 Z0.000000 I0.009807 J0.238810
G01 X80.389666 Y62.689060 Z0.000000
G01 X80.389666 Y62.689068 Z0.000000
G00 Z5.000000

(End cutting path id: path849)


(Start cutting path id: path849)
(Change tool to Cylindrical cutter)

G00 Z5.000000
G00 X79.178358 Y65.053319

G01 Z0.000000 F1000.0(Penetrate)
G03 X79.019291 Y65.123103 Z0.000000 I-0.168950 J-0.168928 F1100.000000
G03 X78.721630 Y65.072140 Z0.000000 I-0.029828 J-0.720546
G01 X78.706419 Y64.997972 Z0.000000
G03 X78.865583 Y64.928173 Z0.000000 I0.169004 J0.169012
G03 X79.163140 Y64.979294 Z0.000000 I0.028582 J0.725182
G01 X79.178358 Y65.053338 Z0.000000
G01 X79.178358 Y65.053319 Z0.000000
G00 Z5.000000

(End cutting path id: path849)


(Start cutting path id: path849)
(Change tool to Cylindrical cutter)

G00 Z5.000000
G00 X81.325417 Y68.755175

G01 Z0.000000 F1000.0(Penetrate)
G03 X81.483817 Y69.040617 Z0.000000 I-0.419367 J0.419389 F1100.000000
G03 X81.462576 Y69.346759 Z0.000000 I-0.510618 J0.118379
G02 X81.498009 Y69.564139 Z0.000000 I0.203965 J0.078331
G02 X81.733555 Y69.675167 Z0.000000 I0.235545 J-0.194340
G02 X81.949582 Y69.574261 Z0.000000 I-0.000001 J-0.281699
G02 X81.961917 Y69.402319 Z0.000000 I-0.112935 J-0.094515
G03 X82.011496 Y69.287050 Z0.000000 I0.065162 J-0.040269
G03 X82.484013 Y69.293835 Z0.000000 I0.221033 J1.063811
G02 X84.849374 Y69.740959 Z0.000000 I5.957817 J-25.037715
G02 X84.961941 Y69.643146 Z0.000000 I0.013788 J-0.097812
G02 X84.876596 Y69.522221 Z0.000000 I-0.128343 J0.000000
G02 X84.381730 Y69.436859 Z0.000000 I-0.494863 J1.391738
G03 X83.812745 Y69.377529 Z0.000000 I-0.000005 J-2.757963
G03 X83.130682 Y69.173080 Z0.000000 I0.881369 J-4.180277
G02 X81.392902 Y68.633514 Z0.000000 I-4.529730 J11.520687
G02 X81.325417 Y68.755175 Z0.000000 I-0.016320 J0.070495
G01 X81.325417 Y68.755175 Z0.000000
G00 Z5.000000

(End cutting path id: path849)


(Start cutting path id: path849)
(Change tool to Cylindrical cutter)

G00 Z5.000000
G00 X83.725812 Y70.791077

G01 Z0.000000 F1000.0(Penetrate)
G02 X84.023365 Y70.842024 Z0.000000 I0.267810 J-0.669726 F1100.000000
G02 X84.182542 Y70.772266 Z0.000000 I-0.009864 J-0.238995
G01 X84.167343 Y70.698166 Z0.000000
G02 X83.869768 Y70.647129 Z0.000000 I-0.267904 J0.668998
G02 X83.710599 Y70.716919 Z0.000000 I0.009805 J0.238765
G01 X83.725812 Y70.791089 Z0.000000
G01 X83.725812 Y70.791077 Z0.000000
G00 Z5.000000

(End cutting path id: path849)


(Start cutting path id: path849)
(Change tool to Cylindrical cutter)

G00 Z5.000000
G00 X87.776801 Y73.174040

G01 Z0.000000 F1000.0(Penetrate)
G02 X88.074374 Y73.224979 Z0.000000 I0.267878 J-0.670241 F1100.000000
G02 X88.233526 Y73.155219 Z0.000000 I-0.009835 J-0.238865
G01 X88.218336 Y73.081140 Z0.000000
G02 X87.920776 Y73.030080 Z0.000000 I-0.267909 J0.668714
G02 X87.761592 Y73.099871 Z0.000000 I0.009807 J0.238801
G01 X87.776801 Y73.174040 Z0.000000
G01 X87.776801 Y73.174040 Z0.000000
G00 Z5.000000

(End cutting path id: path849)


(Start cutting path id: path849)
(Change tool to Cylindrical cutter)

G00 Z5.000000
G00 X89.966119 Y73.011251

G01 Z0.000000 F1000.0(Penetrate)
G02 X89.808982 Y73.133520 Z0.000000 I0.088242 J0.275514 F1100.000000
G01 X89.846972 Y73.202036 Z0.000000
G02 X90.317096 Y73.160530 Z0.000000 I-0.000005 J-2.683250
G02 X90.919310 Y73.011249 Z0.000000 I-0.813420 J-4.570755
G02 X91.076433 Y72.888984 Z0.000000 I-0.088229 J-0.275477
G01 X91.038441 Y72.820469 Z0.000000
G02 X90.568341 Y72.861982 Z0.000000 I0.000005 J2.682561
G02 X89.966119 Y73.011251 Z0.000000 I0.814304 J4.574749
G01 X89.966119 Y73.011251 Z0.000000
G00 Z5.000000

(End cutting path id: path849)


(Start cutting path id: path849)
(Change tool to Cylindrical cutter)

G00 Z5.000000
G00 X90.854641 Y66.483112

G01 Z0.000000 F1000.0(Penetrate)
G03 X90.293390 Y66.581583 Z0.000000 I-0.350809 J-0.350789 F1100.000000
G03 X89.966105 Y66.066867 Z0.000000 I0.241103 J-0.514717
G03 X90.051714 Y65.988615 Z0.000000 I0.078568 J-0.000000
G03 X90.463105 Y66.111736 Z0.000000 I-0.096351 J1.070808
G03 X90.853460 Y66.393497 Z0.000000 I-0.851362 J1.590767
G03 X90.854641 Y66.483175 Z0.000000 I-0.043080 J0.045414
G01 X90.854641 Y66.483112 Z0.000000
G00 Z5.000000

(End cutting path id: path849)


(Start cutting path id: path849)
(Change tool to Cylindrical cutter)

G00 Z5.000000
G00 X92.288234 Y65.853670

G01 Z0.000000 F1000.0(Penetrate)
G03 X92.351895 Y66.133086 Z0.000000 I-0.370460 J0.231364 F1100.000000
G03 X92.250465 Y66.194873 Z0.000000 I-0.074561 J-0.008253
G02 X91.958045 Y66.179930 Z0.000000 I-0.169143 J0.441317
G02 X91.760892 Y66.326708 Z0.000000 I0.087280 J0.323033
G03 X91.417752 Y66.386829 Z0.000000 I-0.198311 J-0.122563
G03 X91.157513 Y65.848421 Z0.000000 I0.426840 J-0.538410
G03 X91.560107 Y65.447647 Z0.000000 I0.400777 J-0.000001
G03 X92.288173 Y65.853419 Z0.000000 I-0.003913 J0.863082
G01 X92.288234 Y65.853670 Z0.000000
G00 Z5.000000

(End cutting path id: path849)


(Start cutting path id: path849)
(Change tool to Cylindrical cutter)

G00 Z5.000000
G00 X93.431161 Y63.971992

G01 Z0.000000 F1000.0(Penetrate)
G03 X93.356836 Y64.167978 Z0.000000 I-0.112390 J0.069464 F1100.000000
G03 X93.068703 Y64.081054 Z0.000000 I-0.078482 J-0.260862
G03 X92.946801 Y63.802136 Z0.000000 I0.422876 J-0.350917
G03 X93.020702 Y63.717825 Z0.000000 I0.073901 J-0.009767
G03 X93.239403 Y63.780058 Z0.000000 I0.000001 J0.415400
G03 X93.431171 Y63.971992 Z0.000000 I-0.311459 J0.502957
G01 X93.431161 Y63.971992 Z0.000000
G00 Z5.000000

(End cutting path id: path849)


(Start cutting path id: path849)
(Change tool to Cylindrical cutter)

G00 Z5.000000
G00 X98.068093 Y60.620007

G01 Z0.000000 F1000.0(Penetrate)
G02 X98.006221 Y60.765260 Z0.000000 I0.076511 J0.118395 F1100.000000
G02 X98.113633 Y60.854647 Z0.000000 I0.108410 J-0.021041
G02 X98.474802 Y60.782470 Z0.000000 I0.007333 J-0.903025
G02 X98.663854 Y60.620004 Z0.000000 I-0.161445 J-0.379091
G02 X98.579709 Y60.469079 Z0.000000 I-0.084145 J-0.052006
G02 X98.068120 Y60.620006 Z0.000000 I0.000002 J0.942528
G01 X98.068093 Y60.620007 Z0.000000
G00 Z5.000000

(End cutting path id: path849)


(Start cutting path id: path849)
(Change tool to Cylindrical cutter)

G00 Z5.000000
G00 X98.201265 Y59.793574

G01 Z0.000000 F1000.0(Penetrate)
G02 X97.952541 Y60.071619 Z0.000000 I0.584829 J0.773428 F1100.000000
G01 X97.993365 Y60.143371 Z0.000000
G02 X98.216972 Y60.077226 Z0.000000 I-0.000001 J-0.411036
G02 X98.544678 Y59.785937 Z0.000000 I-0.790618 J-1.219442
G02 X98.498387 Y59.690035 Z0.000000 I-0.045043 J-0.037381
G02 X98.201265 Y59.793237 Z0.000000 I0.010896 J0.510682
G01 X98.201265 Y59.793574 Z0.000000
G00 Z5.000000

(End cutting path id: path849)


(Start cutting path id: path849)
(Change tool to Cylindrical cutter)

G00 Z5.000000
G00 X100.867058 Y58.138572

G01 Z0.000000 F1000.0(Penetrate)
G03 X99.477919 Y58.882873 Z0.000000 I-1.925787 J-1.925753 F1100.000000
G03 X99.020787 Y58.509664 Z0.000000 I-0.075249 J-0.374397
G02 X98.593472 Y58.099054 Z0.000000 I-0.412060 J0.001170
G02 X96.721318 Y58.594898 Z0.000000 I0.162898 J4.397314
G02 X96.492474 Y58.839298 Z0.000000 I0.233776 J0.448235
G02 X96.564690 Y58.950377 Z0.000000 I0.072441 J0.031918
G02 X97.040791 Y58.869062 Z0.000000 I0.003401 J-1.414525
G02 X97.234610 Y58.712650 Z0.000000 I-0.125402 J-0.353686
G03 X97.757827 Y58.475406 Z0.000000 I0.438188 J0.270806
G03 X98.943623 Y58.998868 Z0.000000 I-0.432595 J2.584775
G02 X100.218699 Y59.298530 Z0.000000 I0.960249 J-1.223322
G02 X101.095239 Y58.554026 Z0.000000 I-0.242679 J-1.173965
G02 X101.069048 Y58.167574 Z0.000000 I-0.429897 J-0.164978
G02 X100.867058 Y58.138630 Z0.000000 I-0.111862 J0.061368
G01 X100.867058 Y58.138572 Z0.000000
G00 Z5.000000

(End cutting path id: path849)


(Start cutting path id: path849)
(Change tool to Cylindrical cutter)

G00 Z5.000000
G00 X102.834008 Y57.998581

G01 Z0.000000 F1000.0(Penetrate)
G01 X102.238178 Y58.189364 Z0.000000 F1100.000000
G01 X102.834008 Y58.189362 Z0.000000
G02 X103.422436 Y58.142534 Z0.000000 I-0.000007 J-3.720485
G02 X104.025428 Y57.998579 Z0.000000 I-0.649780 J-4.056638
G01 X104.621088 Y57.807801 Z0.000000
G01 X104.025428 Y57.807802 Z0.000000
G02 X103.437054 Y57.854622 Z0.000000 I0.000007 J3.720499
G02 X102.834008 Y57.998581 Z0.000000 I0.649751 J4.056856
G01 X102.834008 Y57.998581 Z0.000000
G00 Z5.000000

(End cutting path id: path849)


(Start cutting path id: path849)
(Change tool to Cylindrical cutter)

G00 Z5.000000
G00 X103.668060 Y59.190146

G01 Z0.000000 F1000.0(Penetrate)
G02 X103.507785 Y59.335891 Z0.000000 I0.131141 J0.305215 F1100.000000
G01 X103.548781 Y59.408040 Z0.000000
G02 X103.890378 Y59.363372 Z0.000000 I0.036742 J-1.047530
G02 X104.263770 Y59.190145 Z0.000000 I-0.431201 J-1.418492
G02 X104.229720 Y59.074760 Z0.000000 I-0.034050 J-0.052668
G02 X103.668060 Y59.190146 Z0.000000 I0.000003 J1.424691
G01 X103.668060 Y59.190146 Z0.000000
G00 Z5.000000

(End cutting path id: path849)


(Start cutting path id: path849)
(Change tool to Cylindrical cutter)

G00 Z5.000000
G00 X105.488699 Y58.510293

G01 Z0.000000 F1000.0(Penetrate)
G02 X104.799572 Y58.769407 Z0.000000 I1.282198 J4.456018 F1100.000000
G01 X104.787300 Y58.839784 Z0.000000
G02 X106.012564 Y59.169804 Z0.000000 I0.898770 J-0.897332
G02 X106.646749 Y58.344859 Z0.000000 I-0.219448 J-0.824943
G02 X106.570316 Y58.278569 Z0.000000 I-0.066964 J0.000000
G02 X105.488699 Y58.510293 Z0.000000 I1.131540 J7.921855
G01 X105.488699 Y58.510293 Z0.000000
G00 Z5.000000

(End cutting path id: path849)


(Start cutting path id: path849)
(Change tool to Cylindrical cutter)

G00 Z5.000000
G00 X104.918927 Y57.680023

G01 Z0.000000 F1000.0(Penetrate)
G02 X105.216653 Y57.737860 Z0.000000 I0.297724 J-0.737358 F1100.000000
G02 X105.514917 Y57.680021 Z0.000000 I-0.000002 J-0.797975
G01 X105.514873 Y57.617539 Z0.000000
G02 X105.216767 Y57.559843 Z0.000000 I-0.298104 J0.741281
G02 X104.918907 Y57.617698 Z0.000000 I0.000002 J0.795687
G01 X104.918927 Y57.680023 Z0.000000
G01 X104.918927 Y57.680023 Z0.000000
G00 Z5.000000

(End cutting path id: path849)


(Start cutting path id: path849)
(Change tool to Cylindrical cutter)

G00 Z5.000000
G00 X107.793318 Y58.161259

G01 Z0.000000 F1000.0(Penetrate)
G02 X108.091022 Y58.212231 Z0.000000 I0.268008 J-0.670452 F1100.000000
G02 X108.250148 Y58.142468 Z0.000000 I-0.009829 J-0.238781
G01 X108.234995 Y58.068060 Z0.000000
G02 X107.937468 Y58.017311 Z0.000000 I-0.267680 J0.671787
G02 X107.778149 Y58.087120 Z0.000000 I0.009824 J0.239125
G01 X107.793318 Y58.161294 Z0.000000
G01 X107.793318 Y58.161259 Z0.000000
G00 Z5.000000

(End cutting path id: path849)


(Start cutting path id: path849)
(Change tool to Cylindrical cutter)

G00 Z5.000000
G00 X108.250151 Y59.572618

G01 Z0.000000 F1000.0(Penetrate)
G03 X108.090388 Y59.642279 Z0.000000 I-0.169746 J-0.171269 F1100.000000
G03 X107.793321 Y59.591419 Z0.000000 I-0.029790 J-0.718996
G01 X107.778154 Y59.517262 Z0.000000
G03 X107.937471 Y59.447453 Z0.000000 I0.169162 J0.169360
G03 X108.234934 Y59.498601 Z0.000000 I0.028550 J0.724518
G01 X108.250151 Y59.572599 Z0.000000
G01 X108.250151 Y59.572618 Z0.000000
G00 Z5.000000

(End cutting path id: path849)


(Start cutting path id: path849)
(Change tool to Cylindrical cutter)

G00 Z5.000000
G00 X109.267767 Y57.522123

G01 Z0.000000 F1000.0(Penetrate)
G02 X109.337673 Y57.690725 Z0.000000 I0.238275 J-0.000000 F1100.000000
G02 X109.506097 Y57.760421 Z0.000000 I0.168424 J-0.168657
G02 X109.674663 Y57.690584 Z0.000000 I-0.000000 J-0.238353
G02 X109.744427 Y57.522122 Z0.000000 I-0.168511 J-0.168461
G02 X109.674663 Y57.353667 Z0.000000 I-0.238263 J0.000000
G02 X109.506097 Y57.283832 Z0.000000 I-0.168566 J0.168523
G02 X109.337672 Y57.353526 Z0.000000 I0.000000 J0.238358
G02 X109.267767 Y57.522123 Z0.000000 I0.168359 J0.168596
G01 X109.267767 Y57.522123 Z0.000000
G00 Z5.000000

(End cutting path id: path849)


(Start cutting path id: path849)
(Change tool to Cylindrical cutter)

G00 Z5.000000
G00 X109.982757 Y57.284213

G01 Z0.000000 F1000.0(Penetrate)
G02 X110.065857 Y57.439472 Z0.000000 I0.186589 J-0.000000 F1100.000000
G02 X110.340097 Y57.522493 Z0.000000 I0.274239 J-0.411429
G02 X110.614668 Y57.439390 Z0.000000 I-0.000001 J-0.495140
G02 X110.697737 Y57.284212 Z0.000000 I-0.103407 J-0.155178
G02 X110.614665 Y57.129026 Z0.000000 I-0.186487 J0.000000
G02 X110.340096 Y57.045921 Z0.000000 I-0.274568 J0.412018
G02 X110.065859 Y57.128945 Z0.000000 I0.000001 J0.494432
G02 X109.982757 Y57.284213 Z0.000000 I0.103499 J0.155267
G01 X109.982757 Y57.284213 Z0.000000
G00 Z5.000000

(End cutting path id: path849)


(Start cutting path id: path849)
(Change tool to Cylindrical cutter)

G00 Z5.000000
G00 X111.898599 Y58.361922

G01 Z0.000000 F1000.0(Penetrate)
G03 X110.852165 Y58.626382 Z0.000000 I-2.947943 J-9.462104 F1100.000000
G03 X110.732529 Y58.589883 Z0.000000 I-0.025536 J-0.130621
G03 X110.733942 Y58.511989 Z0.000000 I0.037469 J-0.038281
G03 X110.961329 Y58.380832 Z0.000000 I0.413669 J0.454489
G02 X111.293053 Y58.273821 Z0.000000 I-15.112332 J-47.414337
G02 X111.650768 Y58.155746 Z0.000000 I-17.894736 J-54.814103
G03 X112.013861 Y58.069348 Z0.000000 I0.669501 J2.007471
G03 X112.484778 Y58.033640 Z0.000000 I0.491482 J3.358582
G01 X112.502831 Y58.102006 Z0.000000
G03 X111.898599 Y58.361922 Z0.000000 I-1.547003 J-2.764054
G01 X111.898599 Y58.361922 Z0.000000
G00 Z5.000000

(End cutting path id: path849)


