%
(Header)
(Generated by gcodetools from Inkscape.)
(Using default header. To add your own header create file "header" in the output dir.)
M3
(Header end.)
G21 (All units in mm)

(Start cutting path id: path4758)
(Change tool to Default tool)

G00 Z5.000000
G00 X14.815872 Y0.699485

G01 Z-0.125000 F100.0(Penetrate)
G02 X14.486986 Y0.954921 Z-0.125000 I2.853247 J4.013137 F400.000000
G02 X14.078341 Y1.324048 Z-0.125000 I5.564566 J6.571056
G03 X13.676038 Y1.694551 Z-0.125000 I-8.489684 J-8.814675
G01 X13.643664 Y1.706773 Z-0.125000
G01 X13.619007 Y1.690570 Z-0.125000
G03 X13.554895 Y1.501425 Z-0.125000 I1.129660 J-0.488342
G02 X13.245600 Y0.688870 Z-0.125000 I-3.577656 J0.896675
G02 X13.076945 Y0.587494 Z-0.125000 I-0.167425 J0.087557
G02 X10.292902 Y0.863352 Z-0.125000 I0.098513 J15.180827
G02 X9.515596 Y1.276178 Z-0.125000 I0.285355 J1.475497
G02 X9.488771 Y1.320051 Z-0.125000 I0.077584 J0.077573
G02 X9.283383 Y1.995619 Z-0.125000 I19.680925 J6.352461
G03 X9.071320 Y2.654428 Z-0.125000 I-9.982276 J-2.849635
G01 X9.038522 Y2.677499 Z-0.125000
G01 X9.000347 Y2.656930 Z-0.125000
G03 X8.694416 Y2.154995 Z-0.125000 I7.015238 J-4.620011
G02 X8.384795 Y1.673072 Z-0.125000 I-4.255871 J2.393853
G01 X8.330512 Y1.655631 Z-0.125000
G02 X8.278818 Y1.696649 Z-0.125000 I0.030080 J0.090992
G02 X8.205142 Y1.860781 Z-0.125000 I0.607745 J0.371409
G03 X6.915238 Y5.924453 Z-0.125000 I-169.017283 J-51.413465
G03 X6.789303 Y6.141367 Z-0.125000 I-0.580485 J-0.192000
G03 X6.247388 Y6.222891 Z-0.125000 I-0.320458 J-0.288281
G03 X5.899028 Y5.608227 Z-0.125000 I0.368092 J-0.614664
G03 X5.914855 Y5.547909 Z-0.125000 I0.122851 J-0.000000
G03 X7.273106 Y3.170166 Z-0.125000 I206.356682 J116.301397
G02 X7.890934 Y2.060857 Z-0.125000 I-33.063782 J-19.141539
G01 X7.885750 Y2.025836 Z-0.125000
G01 X7.851352 Y2.019852 Z-0.125000
G02 X7.567316 Y2.176041 Z-0.125000 I1.115329 J2.364637
G03 X7.278025 Y2.353811 Z-0.125000 I-6.598472 J-10.413604
G03 X6.683076 Y2.702772 Z-0.125000 I-26.024928 J-43.688678
G02 X5.129652 Y3.854467 Z-0.125000 I4.240051 J7.342533
G02 X4.604968 Y4.647494 Z-0.125000 I1.400821 J1.496900
G01 X4.556246 Y4.680092 Z-0.125000
G03 X4.420027 Y4.639903 Z-0.125000 I0.011967 J-0.291508
G02 X4.281116 Y4.645932 Z-0.125000 I-0.064815 J0.109926
G02 X3.791801 Y5.087930 Z-0.125000 I1.666403 J2.336641
G02 X3.048213 Y5.984639 Z-0.125000 I15.239922 J13.394242
G02 X2.348541 Y6.933763 Z-0.125000 I16.376965 J12.805176
G02 X1.981604 Y7.595367 Z-0.125000 I3.097019 J2.150215
G02 X1.861461 Y8.067184 Z-0.125000 I1.434609 J0.616513
G03 X1.726700 Y8.527878 Z-0.125000 I-1.253738 J-0.116681
G03 X1.302786 Y9.149918 Z-0.125000 I-2.751977 J-1.419978
G02 X0.790775 Y9.734154 Z-0.125000 I688.626592 J604.012749
G02 X0.653872 Y9.891006 Z-0.125000 I49.238256 J43.114372
G02 X0.595785 Y10.062457 Z-0.125000 I0.179899 J0.156514
G02 X0.693710 Y10.525712 Z-0.125000 I1.628187 J-0.102194
G02 X0.882821 Y10.998105 Z-0.125000 I8.892934 J-3.286028
G02 X1.311709 Y11.956892 Z-0.125000 I37.090631 J-16.016206
G02 X1.739322 Y12.749719 Z-0.125000 I6.703852 J-3.104007
G01 X1.798514 Y12.740939 Z-0.125000
G02 X1.826938 Y12.568890 Z-0.125000 I-0.865896 J-0.231423
G02 X1.894046 Y11.302032 Z-0.125000 I-47.339889 J-3.142894
G03 X1.950423 Y10.032951 Z-0.125000 I131.097357 J5.188039
G03 X1.991044 Y9.333560 Z-0.125000 I39.849196 J1.963592
G01 X2.037807 Y8.634501 Z-0.125000
G01 X2.634234 Y8.192279 Z-0.125000
G03 X3.228259 Y7.782593 Z-0.125000 I6.275698 J8.463960
G01 X3.267444 Y7.786839 Z-0.125000
G01 X3.279080 Y7.828787 Z-0.125000
G03 X3.182576 Y8.127659 Z-0.125000 I-2.233508 J-0.556175
G02 X2.369914 Y10.348776 Z-0.125000 I36.775164 J14.714513
G02 X2.400850 Y10.479577 Z-0.125000 I0.121393 J0.040349
G01 X2.430091 Y10.480815 Z-0.125000
G02 X3.436141 Y9.606607 Z-0.125000 I-28.904442 J-34.279622
G03 X5.093170 Y8.206984 Z-0.125000 I25.060237 J27.988369
G03 X6.184147 Y7.418222 Z-0.125000 I9.015890 J11.321478
G02 X6.833712 Y6.952589 Z-0.125000 I-5.152273 J-7.873382
G02 X6.868583 Y6.882167 Z-0.125000 I-0.056094 J-0.071620
G03 X6.969005 Y6.797430 Z-0.125000 I0.086930 J0.001148
G03 X7.421514 Y6.969026 Z-0.125000 I-0.183028 J1.165102
G01 X7.832414 Y7.231877 Z-0.125000
G01 X7.948455 Y7.066204 Z-0.125000
G02 X8.046030 Y6.894711 Z-0.125000 I-0.863431 J-0.604776
G02 X8.064496 Y6.808828 Z-0.125000 I-0.190485 J-0.085883
G03 X8.077379 Y6.719114 Z-0.125000 I0.318800 J0.000000
G03 X8.426422 Y5.574699 Z-0.125000 I53.313458 J15.634993
G02 X8.780323 Y4.429935 Z-0.125000 I-81.906516 J-25.948309
G02 X8.922868 Y3.928243 Z-0.125000 I-15.583217 J-4.698724
G03 X9.073943 Y3.445764 Z-0.125000 I5.729181 J1.529038
G01 X9.104626 Y3.424211 Z-0.125000
G03 X9.214350 Y3.485942 Z-0.125000 I-0.000000 J0.128380
G03 X10.002695 Y4.902700 Z-0.125000 I-18.196477 J11.053013
G03 X9.989913 Y5.067945 Z-0.125000 I-0.142097 J0.072126
G03 X8.941883 Y6.375846 Z-0.125000 I-13.223409 J-9.522162
G02 X8.378745 Y7.032357 Z-0.125000 I17.956291 J15.972230
G02 X8.363181 Y7.075599 Z-0.125000 I0.052288 J0.043243
G01 X8.386521 Y7.104381 Z-0.125000
G02 X9.019453 Y7.214139 Z-0.125000 I1.825610 J-8.647736
G03 X10.372459 Y7.498601 Z-0.125000 I-1.299168 J9.539241
G03 X11.680832 Y7.976819 Z-0.125000 I-2.692404 J9.395163
G02 X12.189006 Y8.185337 Z-0.125000 I3.474480 J-7.744115
G01 X12.221134 Y8.178348 Z-0.125000
G02 X12.230562 Y8.108895 Z-0.125000 I-0.040921 J-0.040921
G02 X10.875719 Y5.804236 Z-0.125000 I-73.249791 J41.510879
G03 X10.545519 Y5.230008 Z-0.125000 I11.102700 J-6.766461
G03 X10.528648 Y5.163433 Z-0.125000 I0.122918 J-0.066574
G03 X10.574065 Y5.052895 Z-0.125000 I0.157227 J-0.000000
G03 X11.978704 Y3.665586 Z-0.125000 I58.872731 J58.203409
G03 X13.412429 Y2.316378 Z-0.125000 I55.876517 J57.940357
G01 X13.479382 Y2.317804 Z-0.125000
G03 X13.505237 Y2.361150 Z-0.125000 I-0.072818 J0.072818
G03 X13.889879 Y3.692172 Z-0.125000 I-74.355985 J22.208670
G02 X14.265026 Y5.029207 Z-0.125000 I578.705233 J-161.652658
G02 X14.477262 Y5.776358 Z-0.125000 I180.905189 J-50.984170
G03 X14.665660 Y6.521317 Z-0.125000 I-11.867237 J3.397503
G03 X14.657986 Y6.597740 Z-0.125000 I-0.120448 J0.026502
G03 X14.597104 Y6.679159 Z-0.125000 I-0.208038 J-0.092090
G03 X13.182348 Y7.849260 Z-0.125000 I-47.995319 J-56.590263
G02 X12.627273 Y8.360483 Z-0.125000 I3.611231 J4.477954
G01 X12.644471 Y8.414199 Z-0.125000
G02 X12.772783 Y8.406282 Z-0.125000 I0.048780 J-0.253173
G02 X13.851958 Y8.022644 Z-0.125000 I-6.315741 J-19.475875
G03 X14.929363 Y7.612286 Z-0.125000 I37.044105 J95.640589
G03 X14.965154 Y7.605804 Z-0.125000 I0.035791 J0.095581
G01 X14.988262 Y7.622541 Z-0.125000
G03 X15.051545 Y7.869053 Z-0.125000 I-1.838049 J0.603229
G03 X15.042576 Y8.120500 Z-0.125000 I-0.563835 J0.105773
G03 X14.904527 Y8.429086 Z-0.125000 I-1.001893 J-0.263037
G01 X14.708122 Y8.725874 Z-0.125000
G01 X14.074475 Y8.725874 Z-0.125000
G02 X13.474383 Y8.759429 Z-0.125000 I0.000000 J5.382791
G01 X13.440829 Y8.796957 Z-0.125000
G02 X13.466341 Y8.854626 Z-0.125000 I0.077935 J-0.000000
G02 X13.762477 Y9.089342 Z-0.125000 I1.882408 J-2.070819
G03 X14.073870 Y9.321863 Z-0.125000 I-2.842644 J4.131658
G03 X14.182312 Y9.428949 Z-0.125000 I-0.485072 J0.599664
G02 X14.401594 Y9.491324 Z-0.125000 I0.155137 J-0.128752
G02 X14.728199 Y9.245738 Z-0.125000 I-0.206080 J-0.614036
G03 X15.128853 Y8.993605 Z-0.125000 I0.495224 J0.342540
G03 X15.384130 Y9.141426 Z-0.125000 I0.036722 J0.230915
G03 X15.364853 Y9.431237 Z-0.125000 I-0.325810 J0.123875
G03 X15.083597 Y9.696600 Z-0.125000 I-0.543294 J-0.294103
G02 X14.720672 Y9.878105 Z-0.125000 I3.346919 J7.145822
G01 X14.710241 Y9.895482 Z-0.125000
G01 X14.717783 Y9.916750 Z-0.125000
G02 X15.290474 Y10.610763 Z-0.125000 I41.679002 J-33.809780
G03 X15.865784 Y11.305962 Z-0.125000 I-49.549743 J41.590358
G03 X16.090207 Y11.590997 Z-0.125000 I-8.098397 J6.607180
G02 X16.298267 Y11.810786 Z-0.125000 I1.114184 J-0.846351
G01 X16.336308 Y11.800163 Z-0.125000
G02 X16.340541 Y11.719652 Z-0.125000 I-0.143889 J-0.047932
G02 X16.093467 Y10.696166 Z-0.125000 I-25.239304 J5.551315
G03 X15.882528 Y9.695035 Z-0.125000 I9.981934 J-2.625989
G03 X15.920507 Y9.611168 Z-0.125000 I0.082535 J-0.013157
G03 X16.020263 Y9.556457 Z-0.125000 I0.500745 J0.794717
G03 X16.875708 Y9.160245 Z-0.125000 I27.538645 J58.335957
G03 X17.752249 Y8.844331 Z-0.125000 I2.395824 J5.273510
G03 X18.425139 Y8.739087 Z-0.125000 I0.811788 J2.986559
G03 X19.089085 Y8.736046 Z-0.125000 I0.369655 J8.224419
G01 X19.115847 Y8.763782 Z-0.125000
G03 X19.103619 Y8.816397 Z-0.125000 I-0.119312 J0.000000
G03 X18.827125 Y9.351394 Z-0.125000 I-13.310319 J-6.540013
G02 X18.542735 Y9.885573 Z-0.125000 I32.874612 J17.844822
G02 X17.808791 Y11.302038 Z-0.125000 I230.484440 J120.324309
G03 X17.065258 Y12.711405 Z-0.125000 I-67.708410 J-34.819789
G03 X16.977443 Y12.838681 Z-0.125000 I-0.630699 J-0.341219
G02 X16.989626 Y13.004306 Z-0.125000 I0.088901 J0.076722
G02 X17.379740 Y13.185843 Z-0.125000 I0.515016 J-0.596810
G03 X20.914659 Y13.794318 Z-0.125000 I-25.027998 J155.971643
G03 X21.680823 Y13.976576 Z-0.125000 I-1.377083 J7.490413
G03 X21.727720 Y14.125979 Z-0.125000 I-0.026498 J0.090379
G03 X20.887663 Y14.962827 Z-0.125000 I-4.208025 J-3.384096
G03 X19.206834 Y16.048303 Z-0.125000 I-6.246862 J-7.828997
G03 X18.887173 Y15.987477 Z-0.125000 I-0.120757 J-0.235759
G03 X18.841108 Y15.929312 Z-0.125000 I0.539084 J-0.474263
G03 X18.659612 Y15.667485 Z-0.125000 I10.824942 J-7.697581
G02 X17.654981 Y14.333316 Z-0.125000 I-13.502095 J9.121765
G02 X17.562431 Y14.356077 Z-0.125000 I-0.040700 J0.034051
G02 X17.560878 Y14.459887 Z-0.125000 I0.255698 J0.055740
G02 X17.726306 Y15.233227 Z-0.125000 I14.945403 J-2.792654
G03 X17.901072 Y16.008572 Z-0.125000 I-25.663194 J6.191980
G03 X17.962924 Y16.361938 Z-0.125000 I-5.262305 J1.103182
G02 X18.036034 Y16.702507 Z-0.125000 I2.412521 J-0.339767
G02 X18.078020 Y16.757723 Z-0.125000 I0.092789 J-0.026984
G02 X18.143432 Y16.763497 Z-0.125000 I0.038453 J-0.062217
G02 X18.491012 Y16.593970 Z-0.125000 I-0.935096 J-2.358294
G01 X18.838995 Y16.390036 Z-0.125000
G01 X19.014941 Y16.594585 Z-0.125000
G03 X19.106226 Y16.802592 Z-0.125000 I-0.294403 J0.253234
G03 X19.060029 Y16.979087 Z-0.125000 I-0.248789 J0.029174
G03 X18.898417 Y17.099103 Z-0.125000 I-0.272556 J-0.198199
G03 X18.537144 Y17.161389 Z-0.125000 I-0.367963 J-1.055403
G01 X18.145121 Y17.163647 Z-0.125000
G01 X18.148056 Y17.817019 Z-0.125000
G01 X18.150991 Y18.470392 Z-0.125000
G01 X18.614744 Y17.968197 Z-0.125000
G03 X19.114464 Y17.567125 Z-0.125000 I1.587115 J1.465628
G03 X19.398442 Y17.511677 Z-0.125000 I0.221718 J0.380618
G03 X19.691431 Y17.604096 Z-0.125000 I-0.133214 J0.932952
G03 X19.870884 Y17.751239 Z-0.125000 I-0.243174 J0.479573
G01 X20.023392 Y17.945117 Z-0.125000
G01 X19.823338 Y18.104632 Z-0.125000
G03 X19.615683 Y18.252521 Z-0.125000 I-1.464568 J-1.836705
G03 X19.313558 Y18.427494 Z-0.125000 I-2.357432 J-3.722251
G02 X19.007182 Y18.596765 Z-0.125000 I4.199459 J7.962785
G02 X18.425128 Y18.941141 Z-0.125000 I16.821306 J29.094960
G02 X18.223929 Y19.214624 Z-0.125000 I0.229995 J0.379957
G02 X18.331788 Y19.319141 Z-0.125000 I0.084379 J0.020836
G03 X18.632370 Y19.243093 Z-0.125000 I1.626997 J5.798693
G03 X19.638536 Y19.024103 Z-0.125000 I14.624177 J64.770993
G01 X20.646598 Y18.812874 Z-0.125000
G01 X20.813656 Y19.014990 Z-0.125000
G03 X23.172785 Y22.043677 Z-0.125000 I-51.097174 J42.234167
G03 X23.295888 Y22.399473 Z-0.125000 I-0.514158 J0.377090
G01 X23.275928 Y22.427842 Z-0.125000
G03 X23.017411 Y22.489056 Z-0.125000 I-0.517361 J-1.608425
G03 X19.250351 Y23.053232 Z-0.125000 I-56.757625 J-366.117389
G01 X19.223167 Y23.037368 Z-0.125000
G02 X19.218499 Y23.025380 Z-0.125000 I-1.434300 J0.551654
G02 X18.556084 Y21.345237 Z-0.125000 I-237368.680580 J93589.152221
G01 X17.893675 Y19.665134 Z-0.125000
G01 X17.732292 Y20.299841 Z-0.125000
G03 X17.392400 Y21.358203 Z-0.125000 I-8.727515 J-2.219076
G03 X16.792243 Y22.705619 Z-0.125000 I-14.769120 J-5.770988
G02 X16.438318 Y23.433821 Z-0.125000 I27.500804 J13.816227
G02 X16.427669 Y23.481527 Z-0.125000 I0.101530 J0.047706
G01 X16.452140 Y23.505702 Z-0.125000
G02 X17.417064 Y23.469476 Z-0.125000 I-0.231810 J-19.043488
G03 X18.406687 Y23.413229 Z-0.125000 I5.099200 J80.981981
G03 X18.728985 Y23.402945 Z-0.125000 I0.435030 J8.578515
G01 X19.051509 Y23.398712 Z-0.125000
G01 X19.415524 Y24.276101 Z-0.125000
G03 X19.727341 Y25.118631 Z-0.125000 I-10.694883 J4.437088
G01 X19.702056 Y25.153488 Z-0.125000
G03 X19.627049 Y25.140354 Z-0.125000 I0.000000 J-0.220764
G03 X18.679497 Y24.784084 Z-0.125000 I13.255921 J-36.694194
G02 X16.180015 Y23.840534 Z-0.125000 I-41.738322 J106.783208
G02 X16.003596 Y23.809404 Z-0.125000 I-0.176419 J0.484344
G02 X15.944298 Y23.850081 Z-0.125000 I0.000000 J0.063561
G02 X15.895533 Y24.089422 Z-0.125000 I0.684191 J0.264038
G03 X15.878114 Y24.395545 Z-0.125000 I-6.630455 J-0.223734
G03 X15.841567 Y24.762886 Z-0.125000 I-9.576901 J-0.767331
G03 X15.799335 Y24.812711 Z-0.125000 I-0.058752 J-0.006988
G03 X15.661438 Y24.815267 Z-0.125000 I-0.073668 J-0.253343
G02 X15.493978 Y24.812510 Z-0.125000 I-0.089631 J0.357080
G02 X14.784050 Y25.005030 Z-0.125000 I1.501521 J6.942144
G03 X13.280271 Y25.431194 Z-0.125000 I-6.014636 J-18.357245
G03 X11.536697 Y25.784886 Z-0.125000 I-5.844402 J-24.336352
G02 X10.342602 Y25.986765 Z-0.125000 I34.381869 J206.998355
G02 X10.155352 Y26.022526 Z-0.125000 I0.881134 J5.121868
G01 X9.968747 Y26.061724 Z-0.125000
G01 X10.155352 Y26.164724 Z-0.125000
G02 X10.348676 Y26.252358 Z-0.125000 I0.651721 J-1.180652
G02 X11.519273 Y26.657690 Z-0.125000 I15.617263 J-43.209677
G03 X12.631741 Y27.062036 Z-0.125000 I-6.469422 J19.531693
G01 X12.639342 Y27.101670 Z-0.125000
G03 X12.203306 Y27.348782 Z-0.125000 I-0.721202 J-0.764330
G03 X11.338954 Y27.468300 Z-0.125000 I-0.864352 J-3.065728
G03 X11.131283 Y27.406940 Z-0.125000 I0.000000 J-0.382109
G03 X8.974681 Y25.937538 Z-0.125000 I30.159688 J-46.581856
G01 X8.140771 Y25.340166 Z-0.125000
G01 X8.137114 Y22.950684 Z-0.125000
G01 X8.133456 Y20.561204 Z-0.125000
G01 X8.416322 Y19.646635 Z-0.125000
G01 X8.699188 Y18.732065 Z-0.125000
G01 X9.072545 Y18.728961 Z-0.125000
G02 X10.688292 Y18.672978 Z-0.125000 I-0.255408 J-30.715752
G02 X10.809345 Y18.622987 Z-0.125000 I-0.012286 J-0.201308
G01 X10.808989 Y18.606686 Z-0.125000
G02 X10.174639 Y18.111831 Z-0.125000 I-16.253253 J20.180913
G03 X9.523080 Y17.614551 Z-0.125000 I49.952221 J-66.125141
G03 X9.312036 Y17.446704 Z-0.125000 I5.478214 J-7.104676
G01 X9.103499 Y17.275672 Z-0.125000
G01 X9.368039 Y16.404356 Z-0.125000
G02 X9.626575 Y15.532147 Z-0.125000 I-65.944487 J-20.021370
G02 X9.632579 Y15.489781 Z-0.125000 I-0.146468 J-0.042366
G01 X9.615356 Y15.480625 Z-0.125000
G02 X8.941870 Y15.955851 Z-0.125000 I11.033777 J16.351790
G03 X8.248439 Y16.461056 Z-0.125000 I-44.301767 J-60.078978
G03 X8.158449 Y16.519754 Z-0.125000 I-0.683649 J-0.949780
G03 X8.028706 Y16.518301 Z-0.125000 I-0.063669 J-0.108150
G03 X6.883946 Y15.730499 Z-0.125000 I7.579142 J-12.238922
G02 X6.407105 Y15.388391 Z-0.125000 I-6.198370 J8.136114
G02 X6.352060 Y15.371555 Z-0.125000 I-0.055045 J0.081567
G01 X6.329605 Y15.399982 Z-0.125000
G02 X6.578677 Y16.323612 Z-0.125000 I15.658817 J-3.727266
G03 X6.851078 Y17.277824 Z-0.125000 I-31.574573 J9.529636
G03 X6.865198 Y17.387680 Z-0.125000 I-0.396731 J0.106828
G03 X6.823253 Y17.478600 Z-0.125000 I-0.121441 J-0.000890
G03 X6.045945 Y18.097057 Z-0.125000 I-7.824389 J-9.036372
G02 X5.251364 Y18.706611 Z-0.125000 I12.370417 J16.948067
G02 X5.227245 Y18.756737 Z-0.125000 I0.040619 J0.050410
G01 X5.257357 Y18.788181 Z-0.125000
G02 X6.282255 Y18.797812 Z-0.125000 I0.675556 J-17.352420
G01 X7.337538 Y18.776589 Z-0.125000
G01 X7.663674 Y19.696820 Z-0.125000
G01 X7.989811 Y20.617050 Z-0.125000
G01 X7.989811 Y22.879056 Z-0.125000
G03 X7.944481 Y25.108966 Z-0.125000 I-54.870086 J0.000000
G03 X7.896472 Y25.173926 Z-0.125000 I-0.071910 J-0.002925
G02 X7.814895 Y25.368122 Z-0.125000 I0.047197 J0.134059
G02 X8.981023 Y27.496333 Z-0.125000 I17.093114 J-7.982379
G01 X9.212115 Y27.860368 Z-0.125000
G01 X10.203127 Y27.807850 Z-0.125000
G01 X11.194139 Y27.755331 Z-0.125000
G01 X11.533750 Y27.988991 Z-0.125000
G02 X12.202224 Y28.240982 Z-0.125000 I0.844352 J-1.227224
G02 X14.514184 Y28.343361 Z-0.125000 I1.845624 J-15.522588
G02 X15.751455 Y28.194410 Z-0.125000 I-0.206896 J-6.931805
G02 X15.923679 Y28.043257 Z-0.125000 I-0.048827 J-0.229327
G01 X15.963826 Y28.015365 Z-0.125000
G03 X16.373169 Y28.050651 Z-0.125000 I-0.048667 J2.956567
G02 X16.798662 Y28.060274 Z-0.125000 I0.248731 J-1.586206
G02 X17.566656 Y27.918452 Z-0.125000 I-0.595179 J-5.373338
G02 X18.323812 Y27.694910 Z-0.125000 I-3.094369 J-11.874956
G02 X19.078500 Y27.418688 Z-0.125000 I-3.990433 J-12.071626
G03 X19.826061 Y27.120527 Z-0.125000 I50.650366 J125.906490
G03 X19.966575 Y27.067530 Z-0.125000 I1.739377 J4.398901
G02 X20.070783 Y27.008446 Z-0.125000 I-0.118847 J-0.331054
G01 X20.072137 Y26.980964 Z-0.125000
G02 X20.029480 Y26.959039 Z-0.125000 I-0.055477 J0.055477
G02 X19.184060 Y26.833864 Z-0.125000 I-4.073893 J24.597131
G03 X16.867317 Y26.509629 Z-0.125000 I16.470882 J-126.127564
G03 X16.145766 Y26.380118 Z-0.125000 I1.844755 J-12.352615
G03 X16.052584 Y26.288177 Z-0.125000 I0.024856 J-0.118380
G03 X16.025302 Y25.842310 Z-0.125000 I1.374484 J-0.307873
G03 X16.085111 Y25.344641 Z-0.125000 I11.595095 J1.141061
G03 X16.100901 Y25.310019 Z-0.125000 I0.066599 J0.009461
G03 X16.166635 Y25.292656 Z-0.125000 I0.045610 J0.039563
G03 X19.598038 Y26.546288 Z-0.125000 I-58.086401 J164.315305
G02 X20.635091 Y26.915456 Z-0.125000 I10.352817 J-27.441558
G01 X20.673293 Y26.906466 Z-0.125000
G01 X20.682476 Y26.868529 Z-0.125000
G02 X20.476133 Y26.293487 Z-0.125000 I-8.731282 J2.808520
G03 X20.286769 Y25.731933 Z-0.125000 I5.239810 J-2.079642
G01 X20.307742 Y25.691262 Z-0.125000
G03 X20.369134 Y25.690602 Z-0.125000 I0.031644 J0.087809
G03 X21.012253 Y25.928154 Z-0.125000 I-3.709513 J11.032004
G01 X21.654972 Y26.187318 Z-0.125000
G01 X22.308968 Y25.681878 Z-0.125000
G02 X22.946622 Y25.157492 Z-0.125000 I-8.341986 J-10.793743
G02 X23.732731 Y24.436922 Z-0.125000 I-14.981507 J-17.133255
G01 X24.502498 Y23.697407 Z-0.125000
G01 X24.192429 Y23.187149 Z-0.125000
G03 X23.903833 Y22.679476 Z-0.125000 I8.563358 J-5.203859
G01 X23.908076 Y22.651175 Z-0.125000
G03 X23.938617 Y22.634780 Z-0.125000 I0.042471 J0.042471
G03 X24.637177 Y22.503418 Z-0.125000 I5.012437 J24.732146
G02 X25.592317 Y22.094667 Z-0.125000 I-0.385289 J-2.220640
G02 X26.267589 Y21.297245 Z-0.125000 I-1.355960 J-1.832882
G02 X27.487530 Y18.594032 Z-0.125000 I-27.820213 J-14.181937
G02 X27.628363 Y17.854614 Z-0.125000 I-1.870661 J-0.739418
G02 X27.561609 Y17.752627 Z-0.125000 I-0.111285 J0.000000
G02 X27.236340 Y17.683446 Z-0.125000 I-0.331440 J0.759089
G03 X25.757645 Y17.629783 Z-0.125000 I0.191622 J-25.679981
G03 X25.631850 Y17.578860 Z-0.125000 I0.014049 J-0.215542
G01 X25.634212 Y17.568646 Z-0.125000
G03 X26.695636 Y17.307732 Z-0.125000 I15.791074 J61.950260
G02 X27.592569 Y16.772605 Z-0.125000 I-0.400119 J-1.689888
G02 X28.003713 Y15.838472 Z-0.125000 I-1.238543 J-1.102671
G02 X27.861905 Y15.004145 Z-0.125000 I-1.577260 J-0.161133
G02 X27.463825 Y14.687268 Z-0.125000 I-0.518853 J0.243331
G01 X26.998709 Y14.586997 Z-0.125000
G01 X27.518881 Y14.285657 Z-0.125000
G01 X28.039056 Y13.984317 Z-0.125000
G01 X28.021107 Y13.347488 Z-0.125000
G02 X27.869253 Y11.699300 Z-0.125000 I-12.999276 J0.366579
G02 X27.715082 Y11.396150 Z-0.125000 I-0.542378 J0.085057
G02 X27.606929 Y11.379042 Z-0.125000 I-0.065845 J0.065845
G02 X24.834250 Y12.865430 Z-0.125000 I34.923086 J68.474085
G03 X23.028704 Y13.779831 Z-0.125000 I-11.340098 J-20.152003
G03 X22.718732 Y13.822906 Z-0.125000 I-0.227975 J-0.503707
G03 X22.506045 Y13.760678 Z-0.125000 I0.121312 J-0.809215
G03 X22.476049 Y13.714408 Z-0.125000 I0.020689 J-0.046270
G03 X22.525719 Y13.582682 Z-0.125000 I0.199506 J0.000000
G03 X24.793850 Y11.077956 Z-0.125000 I86.324384 J75.890919
G02 X26.107319 Y9.650609 Z-0.125000 I-105.896897 J-98.766094
G02 X26.507272 Y9.190770 Z-0.125000 I-10.584638 J-9.610036
G01 X26.897484 Y8.722340 Z-0.125000
G01 X26.692370 Y8.303105 Z-0.125000
G01 X26.487260 Y7.883869 Z-0.125000
G01 X25.769735 Y7.930092 Z-0.125000
G02 X25.052466 Y7.979887 Z-0.125000 I4.653482 J72.220900
G02 X23.633454 Y8.089079 Z-0.125000 I20.975507 J281.864768
G03 X19.885744 Y8.353778 Z-0.125000 I-16.913602 J-212.806073
G03 X19.810511 Y8.325302 Z-0.125000 I-0.006035 J-0.097674
G01 X19.801577 Y8.287803 Z-0.125000
G03 X19.899448 Y8.054622 Z-0.125000 I1.507443 J0.495573
G03 X20.120774 Y7.831345 Z-0.125000 I0.466818 J0.241404
G03 X22.028022 Y6.930097 Z-0.125000 I11.052221 J20.920312
G02 X24.758553 Y5.755746 Z-0.125000 I-61.637978 J-147.078677
G02 X24.890003 Y5.667477 Z-0.125000 I-0.182650 J-0.414014
G02 X24.930548 Y4.936164 Z-0.125000 I-0.373646 J-0.387495
G02 X23.831989 Y4.392879 Z-0.125000 I-1.159694 J0.962657
G03 X23.788644 Y4.376641 Z-0.125000 I0.003096 J-0.074233
G03 X23.459049 Y4.094195 Z-0.125000 I4.075386 J-5.089230
G02 X23.121503 Y3.832974 Z-0.125000 I-1.735071 J1.893336
G02 X23.001646 Y3.797506 Z-0.125000 I-0.119857 J0.184784
G02 X22.872464 Y3.818703 Z-0.125000 I-0.000000 J0.404249
G02 X22.438723 Y3.987348 Z-0.125000 I1.632543 J4.840837
G03 X22.013804 Y4.153901 Z-0.125000 I-2.155947 J-4.875066
G01 X21.977854 Y4.145585 Z-0.125000
G01 X21.970310 Y4.109976 Z-0.125000
G03 X22.150633 Y3.697247 Z-0.125000 I4.770406 J1.838453
G02 X22.269190 Y3.292592 Z-0.125000 I-1.112597 J-0.545668
G02 X22.215962 Y3.126859 Z-0.125000 I-0.209807 J-0.024031
G02 X21.488915 Y2.514088 Z-0.125000 I-2.620585 J2.371598
G02 X20.632554 Y2.122215 Z-0.125000 I-1.857512 J2.927588
G02 X20.482370 Y2.141576 Z-0.125000 I-0.053481 J0.177316
G02 X19.661828 Y2.716513 Z-0.125000 I4.233481 J6.914967
G03 X18.786506 Y3.344904 Z-0.125000 I-6.670008 J-8.367205
G01 X18.751137 Y3.303151 Z-0.125000
G02 X19.684016 Y2.121740 Z-0.125000 I-8.074338 J-7.334770
G02 X19.787883 Y1.785569 Z-0.125000 I-0.492084 J-0.336171
G02 X19.592939 Y1.518277 Z-0.125000 I-0.280717 J0.000000
G02 X16.315669 Y0.671345 Z-0.125000 I-8.979230 J27.981530
G02 X15.200505 Y0.572648 Z-0.125000 I-1.017036 J5.141976
G02 X14.815866 Y0.699426 Z-0.125000 I0.012842 J0.685839
G01 X14.815872 Y0.699485 Z-0.125000
G00 Z5.000000

(End cutting path id: path4758)


(Start cutting path id: path4758)
(Change tool to Default tool)

G00 Z5.000000
G00 X16.091661 Y0.896953

G01 Z-0.125000 F100.0(Penetrate)
G03 X17.554853 Y1.199967 Z-0.125000 I-2.920334 J17.785948 F400.000000
G03 X18.966506 Y1.617763 Z-0.125000 I-4.255413 J16.971978
G03 X19.337312 Y1.786863 Z-0.125000 I-0.674396 J1.969927
G03 X19.377196 Y1.856128 Z-0.125000 I-0.040201 J0.069264
G03 X19.351096 Y1.945683 Z-0.125000 I-0.166692 J-0.000000
G03 X18.668259 Y2.969071 Z-0.125000 I-24.453806 J-15.576845
G03 X17.890560 Y3.919678 Z-0.125000 I-6.624622 J-4.626231
G03 X16.880926 Y4.842967 Z-0.125000 I-7.255477 J-6.920328
G02 X15.802955 Y5.702214 Z-0.125000 I878.336090 J1103.025475
G02 X15.397973 Y6.026218 Z-0.125000 I123.350729 J154.595018
G03 X14.998027 Y6.297678 Z-0.125000 I-1.898332 J-2.366485
G01 X14.937866 Y6.287567 Z-0.125000
G03 X14.885190 Y6.191593 Z-0.125000 I0.189022 J-0.166187
G03 X14.333823 Y4.208261 Z-0.125000 I85.456217 J-24.825152
G02 X13.888273 Y2.559745 Z-0.125000 I-188.348866 J50.021248
G02 X13.778560 Y2.188972 Z-0.125000 I-9.636293 J2.649793
G03 X13.801953 Y2.054254 Z-0.125000 I0.141407 J-0.044836
G03 X14.388234 Y1.388477 Z-0.125000 I4.967680 J3.783496
G03 X15.131340 Y0.953762 Z-0.125000 I1.228526 J1.247561
G03 X16.091661 Y0.896953 Z-0.125000 I0.606098 J2.100496
G01 X16.091661 Y0.896953 Z-0.125000
G00 Z5.000000

(End cutting path id: path4758)


(Start cutting path id: path4758)
(Change tool to Default tool)

G00 Z5.000000
G00 X13.158124 Y1.165406

G01 Z-0.125000 F100.0(Penetrate)
G03 X13.124098 Y1.787379 Z-0.125000 I-0.627426 J0.277593 F400.000000
G03 X11.848035 Y3.422814 Z-0.125000 I-6.580752 J-3.819146
G03 X10.370337 Y4.765943 Z-0.125000 I-20.636016 J-21.219106
G03 X10.273738 Y4.759599 Z-0.125000 I-0.045025 J-0.053024
G03 X10.190702 Y4.648669 Z-0.125000 I0.552833 J-0.500367
G03 X9.712403 Y3.843051 Z-0.125000 I29.066961 J-17.801976
G01 X9.244577 Y3.029814 Z-0.125000
G01 X9.451109 Y2.312289 Z-0.125000
G03 X9.678575 Y1.606673 Z-0.125000 I11.281368 J3.247250
G03 X9.738456 Y1.508743 Z-0.125000 I0.264989 J0.094760
G03 X10.311965 Y1.182860 Z-0.125000 I0.813754 J0.764504
G03 X12.866325 Y0.819587 Z-0.125000 I3.675335 J16.681053
G03 X12.969317 Y0.863396 Z-0.125000 I0.008130 J0.123856
G03 X13.158124 Y1.165406 Z-0.125000 I-0.960503 J0.810501
G01 X13.158124 Y1.165406 Z-0.125000
G00 Z5.000000

(End cutting path id: path4758)


(Start cutting path id: path4758)
(Change tool to Default tool)

G00 Z5.000000
G00 X8.722551 Y2.664347

G01 Z-0.125000 F100.0(Penetrate)
G01 X8.939830 Y3.061674 Z-0.125000 F400.000000
G01 X8.615308 Y4.082994 Z-0.125000
G02 X8.297058 Y5.106216 Z-0.125000 I83.488027 J26.528192
G02 X8.054512 Y5.925699 Z-0.125000 I53.318426 J16.226527
G03 X7.802803 Y6.738596 Z-0.125000 I-20.256070 J-5.826747
G03 X7.760154 Y6.812557 Z-0.125000 I-0.201343 J-0.066828
G03 X7.574955 Y6.845573 Z-0.125000 I-0.113492 J-0.100684
G03 X7.103873 Y6.460575 Z-0.125000 I0.750018 J-1.398423
G03 X7.078557 Y6.351759 Z-0.125000 I0.096027 J-0.079693
G03 X7.430715 Y5.098725 Z-0.125000 I16.469572 J3.952678
G03 X8.402978 Y2.223340 Z-0.125000 I105.772319 J34.163057
G01 X8.450762 Y2.212512 Z-0.125000
G03 X8.497766 Y2.272645 Z-0.125000 I-0.221862 J0.221862
G03 X8.722551 Y2.664347 Z-0.125000 I-9.413874 J5.662660
G01 X8.722551 Y2.664347 Z-0.125000
G00 Z5.000000

(End cutting path id: path4758)


(Start cutting path id: path4758)
(Change tool to Default tool)

G00 Z5.000000
G00 X7.014879 Y3.106857

G01 Z-0.125000 F100.0(Penetrate)
G02 X6.774663 Y3.537480 Z-0.125000 I40.743294 J23.010381 F400.000000
G02 X6.325784 Y4.357601 Z-0.125000 I147.390595 J81.204464
G03 X5.875375 Y5.176782 Z-0.125000 I-87.368280 J-47.504213
G03 X5.777614 Y5.343579 Z-0.125000 I-3.717425 J-2.066763
G01 X5.676050 Y5.508173 Z-0.125000
G01 X5.235323 Y5.204048 Z-0.125000
G01 X4.794597 Y4.899922 Z-0.125000
G01 X4.943579 Y4.541433 Z-0.125000
G03 X5.117964 Y4.200520 Z-0.125000 I2.241451 J0.931500
G03 X5.262558 Y4.023239 Z-0.125000 I0.737835 J0.454185
G03 X6.721873 Y2.841201 Z-0.125000 I8.769162 J9.334356
G03 X7.194236 Y2.680547 Z-0.125000 I0.515961 J0.742293
G01 X7.211769 Y2.705598 Z-0.125000
G03 X7.014879 Y3.106857 Z-0.125000 I-3.556868 J-1.496349
G01 X7.014879 Y3.106857 Z-0.125000
G00 Z5.000000

(End cutting path id: path4758)


(Start cutting path id: path4758)
(Change tool to Default tool)

G00 Z5.000000
G00 X5.116128 Y5.413573

G01 Z-0.125000 F100.0(Penetrate)
G03 X5.448775 Y5.751940 Z-0.125000 I-0.636106 J0.958047 F400.000000
G03 X5.456309 Y5.945381 Z-0.125000 I-0.161252 J0.103148
G03 X4.816508 Y6.862576 Z-0.125000 I-4.192422 J-2.242729
G03 X4.420059 Y7.110408 Z-0.125000 I-0.620961 J-0.552321
G03 X3.932099 Y7.163078 Z-0.125000 I-0.401139 J-1.429654
G03 X3.885061 Y7.079073 Z-0.125000 I0.003341 J-0.057043
G02 X3.956916 Y6.921447 Z-0.125000 I-1.200083 J-0.642263
G02 X4.062882 Y6.612376 Z-0.125000 I-4.524669 J-1.724000
G03 X4.566073 Y5.214343 Z-0.125000 I14.522618 J4.437515
G03 X4.675068 Y5.141651 Z-0.125000 I0.108995 J0.045369
G03 X4.704101 Y5.149882 Z-0.125000 I0.000000 J0.055322
G03 X5.116128 Y5.413573 Z-0.125000 I-7.630677 J12.376966
G01 X5.116128 Y5.413573 Z-0.125000
G00 Z5.000000

(End cutting path id: path4758)


(Start cutting path id: path4758)
(Change tool to Default tool)

G00 Z5.000000
G00 X4.405602 Y4.978592

G01 Z-0.125000 F100.0(Penetrate)
G03 X4.353757 Y5.257834 Z-0.125000 I-0.777933 J0.000000 F400.000000
G03 X3.550091 Y7.203096 Z-0.125000 I-39.873735 J-15.334805
G03 X3.407262 Y7.398548 Z-0.125000 I-0.519682 J-0.229850
G03 X3.011819 Y7.680048 Z-0.125000 I-1.515186 J-1.709982
G02 X2.585925 Y7.939124 Z-0.125000 I3.561623 J6.334548
G02 X2.352141 Y8.113014 Z-0.125000 I1.362228 J2.075522
G01 X2.128128 Y8.301022 Z-0.125000
G01 X2.104661 Y8.023174 Z-0.125000
G03 X2.146084 Y7.762307 Z-0.125000 I0.549708 J-0.046433
G03 X2.453164 Y7.197096 Z-0.125000 I3.014463 J1.271733
G03 X3.302232 Y6.034572 Z-0.125000 I17.182217 J11.657985
G03 X4.022601 Y5.197656 Z-0.125000 I9.610108 J7.543338
G03 X4.345182 Y4.943544 Z-0.125000 I1.015416 J0.957212
G01 X4.405603 Y4.978592 Z-0.125000
G01 X4.405602 Y4.978592 Z-0.125000
G00 Z5.000000

(End cutting path id: path4758)


(Start cutting path id: path4758)
(Change tool to Default tool)

G00 Z5.000000
G00 X6.225044 Y6.162675

G01 Z-0.125000 F100.0(Penetrate)
G03 X6.606556 Y6.439354 Z-0.125000 I-21.551000 J30.117986 F400.000000
G03 X6.671326 Y6.490679 Z-0.125000 I-0.674440 J0.917641
G03 X6.678857 Y6.641559 Z-0.125000 I-0.067406 J0.078992
G03 X5.804367 Y7.394423 Z-0.125000 I-4.372304 J-4.194341
G02 X4.348249 Y8.495081 Z-0.125000 I16.556412 J23.416856
G02 X3.380913 Y9.350513 Z-0.125000 I9.015275 J11.169261
G03 X2.916596 Y9.759041 Z-0.125000 I-4.527785 J-4.677993
G01 X2.872603 Y9.756589 Z-0.125000
G03 X2.844396 Y9.631770 Z-0.125000 I0.084747 J-0.084747
G03 X3.513074 Y7.951241 Z-0.125000 I22.564410 J8.005023
G03 X3.819317 Y7.598327 Z-0.125000 I0.727135 J0.321645
G03 X4.557439 Y7.299607 Z-0.125000 I1.222313 J1.958985
G02 X4.919171 Y7.106768 Z-0.125000 I-0.156322 J-0.728922
G02 X5.418956 Y6.467066 Z-0.125000 I-2.031714 J-2.102419
G03 X5.763842 Y5.906571 Z-0.125000 I10.298803 J5.950746
G01 X5.797509 Y5.888364 Z-0.125000
G03 X5.837885 Y5.900203 Z-0.125000 I-0.000000 J0.074768
G03 X6.225044 Y6.162675 Z-0.125000 I-4.990342 J7.777766
G01 X6.225044 Y6.162675 Z-0.125000
G00 Z5.000000

(End cutting path id: path4758)


(Start cutting path id: path4758)
(Change tool to Default tool)

G00 Z5.000000
G00 X10.972248 Y6.498709

G01 Z-0.125000 F100.0(Penetrate)
G03 X11.625608 Y7.629004 Z-0.125000 I-41.748021 J24.886158 F400.000000
G01 X11.621631 Y7.657781 Z-0.125000
G01 X11.591566 Y7.664899 Z-0.125000
G03 X10.902831 Y7.419442 Z-0.125000 I5.182584 J-15.630945
G02 X9.613993 Y7.021341 Z-0.125000 I-3.703740 J9.705412
G02 X8.870844 Y6.933763 Z-0.125000 I-0.743149 J3.109200
G01 X8.858096 Y6.907630 Z-0.125000
G03 X9.483250 Y6.149713 Z-0.125000 I14.554451 J11.368184
G03 X10.176487 Y5.389135 Z-0.125000 I17.018499 J14.815492
G03 X10.231319 Y5.365665 Z-0.125000 I0.054832 J0.052316
G03 X10.281436 Y5.392774 Z-0.125000 I0.000000 J0.059881
G03 X10.972248 Y6.498709 Z-0.125000 I-26.245998 J17.163048
G01 X10.972248 Y6.498709 Z-0.125000
G00 Z5.000000

(End cutting path id: path4758)


(Start cutting path id: path4758)
(Change tool to Default tool)

G00 Z5.000000
G00 X14.814259 Y7.051875

G01 Z-0.125000 F100.0(Penetrate)
G03 X14.851510 Y7.171487 Z-0.125000 I-0.907467 J0.348219 F400.000000
G03 X14.859583 Y7.239181 Z-0.125000 I-0.279743 J0.067694
G03 X14.371082 Y8.019469 Z-0.125000 I-0.867433 J-0.000000
G03 X13.540549 Y7.879757 Z-0.125000 I-0.317156 J-0.653082
G03 X13.569745 Y7.350541 Z-0.125000 I0.251532 J-0.251537
G03 X14.720919 Y6.934637 Z-0.125000 I1.185745 J1.480896
G01 X14.756922 Y6.951534 Z-0.125000
G03 X14.814259 Y7.051875 Z-0.125000 I-0.297284 J0.236423
G01 X14.814259 Y7.051875 Z-0.125000
G00 Z5.000000

(End cutting path id: path4758)


(Start cutting path id: path4758)
(Change tool to Default tool)

G00 Z5.000000
G00 X15.359170 Y7.586249

G01 Z-0.125000 F100.0(Penetrate)
G03 X15.268978 Y7.625475 Z-0.125000 I-0.094901 J-0.094903 F400.000000
G01 X15.232940 Y7.590680 Z-0.125000
G03 X15.261221 Y7.488827 Z-0.125000 I0.197550 J-0.000000
G03 X15.326280 Y7.435559 Z-0.125000 I0.107103 J0.064446
G03 X15.392574 Y7.472331 Z-0.125000 I0.016978 J0.047537
G03 X15.359170 Y7.586238 Z-0.125000 I-0.120912 J0.026393
G01 X15.359170 Y7.586249 Z-0.125000
G00 Z5.000000

(End cutting path id: path4758)


(Start cutting path id: path4758)
(Change tool to Default tool)

G00 Z5.000000
G00 X14.486227 Y9.094823

G01 Z-0.125000 F100.0(Penetrate)
G03 X14.393343 Y9.205675 Z-0.125000 I-0.112590 J0.000000 F400.000000
G03 X14.201711 Y9.145400 Z-0.125000 I-0.038022 J-0.213884
G03 X14.194683 Y9.071702 Z-0.125000 I0.041102 J-0.041103
G03 X14.283547 Y9.024558 Z-0.125000 I0.088864 J0.060180
G03 X14.457012 Y9.053774 Z-0.125000 I-0.000000 J0.529567
G01 X14.486227 Y9.094823 Z-0.125000
G01 X14.486227 Y9.094823 Z-0.125000
G00 Z5.000000

(End cutting path id: path4758)


(Start cutting path id: path4758)
(Change tool to Default tool)

G00 Z5.000000
G00 X15.713638 Y10.298647

G01 Z-0.125000 F100.0(Penetrate)
G03 X15.824905 Y10.750981 Z-0.125000 I-6.931524 J1.944904 F400.000000
G01 X15.815921 Y10.781278 Z-0.125000
G01 X15.790869 Y10.781347 Z-0.125000
G03 X15.435065 Y10.404526 Z-0.125000 I5.339990 J-5.398542
G01 X15.080083 Y10.001896 Z-0.125000
G01 X15.286898 Y9.893534 Z-0.125000
G03 X15.492910 Y9.807739 Z-0.125000 I0.589185 J1.124522
G03 X15.539595 Y9.813533 Z-0.125000 I0.017027 J0.053784
G03 X15.571242 Y9.852616 Z-0.125000 I-0.040099 J0.064825
G03 X15.713638 Y10.298647 Z-0.125000 I-6.213797 J2.229505
G01 X15.713638 Y10.298647 Z-0.125000
G00 Z5.000000

(End cutting path id: path4758)


(Start cutting path id: path4758)
(Change tool to Default tool)

G00 Z5.000000
G00 X16.759969 Y8.934433

G01 Z-0.125000 F100.0(Penetrate)
G03 X15.952506 Y9.436653 Z-0.125000 I-2.196373 J-2.631076 F400.000000
G03 X15.726474 Y9.392562 Z-0.125000 I-0.081466 J-0.183783
G03 X15.705752 Y9.355636 Z-0.125000 I0.059924 J-0.057904
G03 X15.669600 Y9.173901 Z-0.125000 I1.543165 J-0.401442
G03 X15.715161 Y9.039253 Z-0.125000 I0.157133 J-0.021864
G03 X15.904982 Y8.941048 Z-0.125000 I0.252217 J0.254959
G03 X16.734522 Y8.865099 Z-0.125000 I0.868140 J4.913850
G01 X16.759969 Y8.934444 Z-0.125000
G01 X16.759969 Y8.934433 Z-0.125000
G00 Z5.000000

(End cutting path id: path4758)


(Start cutting path id: path4758)
(Change tool to Default tool)

G00 Z5.000000
G00 X19.488061 Y8.109836

G01 Z-0.125000 F100.0(Penetrate)
G03 X19.404844 Y8.270401 Z-0.125000 I-0.204613 J-0.004199 F400.000000
G03 X19.091138 Y8.402269 Z-0.125000 I-0.429760 J-0.583293
G03 X19.006021 Y8.327590 Z-0.125000 I-0.011757 J-0.072447
G03 X19.097545 Y8.191678 Z-0.125000 I0.153618 J0.004675
G03 X19.450005 Y8.078293 Z-0.125000 I0.715991 J1.621173
G01 X19.488044 Y8.109836 Z-0.125000
G01 X19.488061 Y8.109836 Z-0.125000
G00 Z5.000000

(End cutting path id: path4758)


(Start cutting path id: path4758)
(Change tool to Default tool)

G00 Z5.000000
G00 X20.450820 Y6.255436

G01 Z-0.125000 F100.0(Penetrate)
G01 X19.753550 Y7.602008 Z-0.125000 F400.000000
G01 X18.763772 Y8.052994 Z-0.125000
G01 X17.773993 Y8.503982 Z-0.125000
G01 X16.671478 Y8.568845 Z-0.125000
G03 X15.573176 Y8.616247 Z-0.125000 I-2.065099 J-35.100804
G03 X15.512958 Y8.600714 Z-0.125000 I-0.003094 J-0.112491
G03 X15.429202 Y8.411189 Z-0.125000 I0.090228 J-0.153144
G03 X15.693439 Y7.737599 Z-0.125000 I2.121549 J0.443623
G03 X16.208983 Y7.213037 Z-0.125000 I1.352319 J0.813448
G03 X18.294464 Y6.110949 Z-0.125000 I8.606498 J13.761861
G02 X19.451055 Y5.601348 Z-0.125000 I-160.069396 J-364.860512
G02 X20.273251 Y5.235332 Z-0.125000 I-81.753209 J-184.752210
G03 X21.092633 Y4.884265 Z-0.125000 I11.198274 J25.004761
G01 X21.121363 Y4.888174 Z-0.125000
G01 X21.127236 Y4.913459 Z-0.125000
G03 X20.450820 Y6.255436 Z-0.125000 I-61.784123 J-30.300499
G01 X20.450820 Y6.255436 Z-0.125000
G00 Z5.000000

(End cutting path id: path4758)


(Start cutting path id: path4758)
(Change tool to Default tool)

G00 Z5.000000
G00 X16.870786 Y5.566737

G01 Z-0.125000 F100.0(Penetrate)
G03 X15.838543 Y6.843798 Z-0.125000 I-11.148096 J-7.955255 F400.000000
G03 X15.497041 Y7.071953 Z-0.125000 I-0.632824 J-0.577552
G03 X15.212153 Y7.055677 Z-0.125000 I-0.123410 J-0.341321
G03 X15.045226 Y6.847496 Z-0.125000 I0.141206 J-0.284239
G03 X15.089457 Y6.682115 Z-0.125000 I0.172290 J-0.042527
G03 X15.879994 Y5.977368 Z-0.125000 I4.900865 J4.701700
G02 X16.758872 Y5.299529 Z-0.125000 I-48.526621 J-63.827741
G02 X17.025051 Y5.081524 Z-0.125000 I-4.745104 J-6.065172
G03 X17.285735 Y4.881069 Z-0.125000 I2.017636 J2.354124
G01 X17.313240 Y4.883314 Z-0.125000
G01 X17.316489 Y4.911275 Z-0.125000
G03 X16.870786 Y5.566737 Z-0.125000 I-14.702368 J-9.518081
G01 X16.870786 Y5.566737 Z-0.125000
G00 Z5.000000

(End cutting path id: path4758)


(Start cutting path id: path4758)
(Change tool to Default tool)

G00 Z5.000000
G00 X21.053088 Y2.606607

G01 Z-0.125000 F100.0(Penetrate)
G03 X21.469171 Y2.851299 Z-0.125000 I-2.708842 J5.082321 F400.000000
G03 X21.751221 Y3.057573 Z-0.125000 I-1.637714 J2.535310
G01 X22.021971 Y3.280749 Z-0.125000
G01 X21.752466 Y3.781840 Z-0.125000
G03 X21.467613 Y4.271489 Z-0.125000 I-7.460519 J-4.012472
G03 X21.363470 Y4.401837 Z-0.125000 I-0.622457 J-0.390539
G03 X21.137601 Y4.557544 Z-0.125000 I-0.542231 J-0.544887
G03 X18.070451 Y5.888840 Z-0.125000 I-46.995273 J-104.072736
G02 X17.140918 Y6.286190 Z-0.125000 I21.380206 J51.301326
G02 X16.857042 Y6.420640 Z-0.125000 I2.154392 J4.915663
G03 X16.592306 Y6.538492 Z-0.125000 I-1.248288 J-2.447818
G01 X16.577024 Y6.527983 Z-0.125000
G03 X16.586794 Y6.495543 Z-0.125000 I0.058741 J0.000000
G03 X17.372089 Y5.327819 Z-0.125000 I84.444391 J55.940974
G03 X18.240603 Y4.233643 Z-0.125000 I8.024791 J5.477979
G03 X19.033525 Y3.518716 Z-0.125000 I4.179852 J3.838676
G02 X19.894472 Y2.867477 Z-0.125000 I-39.839873 J-53.563550
G02 X20.193354 Y2.626566 Z-0.125000 I-5.149575 J-6.694606
G03 X20.493858 Y2.398084 Z-0.125000 I2.385743 J2.825912
G03 X20.556258 Y2.378814 Z-0.125000 I0.062401 J0.091402
G03 X20.622113 Y2.393192 Z-0.125000 I0.000000 J0.158012
G03 X21.053088 Y2.606607 Z-0.125000 I-3.351898 J7.310744
G01 X21.053088 Y2.606607 Z-0.125000
G00 Z5.000000

(End cutting path id: path4758)


(Start cutting path id: path4758)
(Change tool to Default tool)

G00 Z5.000000
G00 X24.492180 Y5.508921

G01 Z-0.125000 F100.0(Penetrate)
G01 X24.467481 Y5.549848 Z-0.125000 F400.000000
G03 X23.876143 Y5.833423 Z-0.125000 I-4.057266 J-7.702260
G03 X22.101373 Y6.602059 Z-0.125000 I-496.735501 J-1144.522120
G03 X20.616403 Y7.242186 Z-0.125000 I-345.955044 J-800.505951
G03 X20.290376 Y7.369185 Z-0.125000 I-1.995649 J-4.641187
G01 X20.268454 Y7.364027 Z-0.125000
G01 X20.265098 Y7.342201 Z-0.125000
G03 X20.961679 Y5.989295 Z-0.125000 I80.444601 J40.563300
G03 X21.715945 Y4.677781 Z-0.125000 I17.627687 J9.265226
G03 X21.869661 Y4.540764 Z-0.125000 I0.312565 J0.195925
G03 X22.067251 Y4.451672 Z-0.125000 I2.164342 J4.536484
G03 X22.588063 Y4.235312 Z-0.125000 I13.298964 J31.277625
G01 X23.110762 Y4.023227 Z-0.125000
G01 X23.801472 Y4.737509 Z-0.125000
G03 X24.473265 Y5.459439 Z-0.125000 I-18.480064 J17.870169
G03 X24.492180 Y5.508921 Z-0.125000 I-0.055264 J0.049482
G01 X24.492180 Y5.508921 Z-0.125000
G00 Z5.000000

(End cutting path id: path4758)


(Start cutting path id: path4758)
(Change tool to Default tool)

G00 Z5.000000
G00 X26.469734 Y8.424799

G01 Z-0.125000 F100.0(Penetrate)
G03 X26.475756 Y8.632929 Z-0.125000 I-0.213347 J0.110326 F400.000000
G03 X26.154300 Y9.132299 Z-0.125000 I-1.784645 J-0.795670
G03 X25.719823 Y9.614139 Z-0.125000 I-26.303872 J-23.281460
G03 X24.828202 Y10.575922 Z-0.125000 I-105.662393 J-97.060142
G02 X23.938022 Y11.539033 Z-0.125000 I78.930226 J73.846302
G02 X23.073426 Y12.497717 Z-0.125000 I77.375670 J70.650928
G03 X22.211946 Y13.459192 Z-0.125000 I-164.731713 J-146.732636
G03 X22.085587 Y13.593756 Z-0.125000 I-3.353789 J-3.022727
G03 X21.918845 Y13.655670 Z-0.125000 I-0.148988 J-0.145755
G03 X20.609274 Y13.467543 Z-0.125000 I0.982295 J-11.489949
G02 X19.748787 Y13.303045 Z-0.125000 I-7.780931 J38.369068
G02 X18.500334 Y13.088784 Z-0.125000 I-14.473370 J80.588831
G03 X17.341253 Y12.850077 Z-0.125000 I2.338545 J-14.288609
G01 X17.323448 Y12.795809 Z-0.125000
G02 X17.521977 Y12.500712 Z-0.125000 I-1.363872 J-1.131887
G02 X18.890506 Y9.869893 Z-0.125000 I-108.610773 J-58.169738
G03 X19.400072 Y8.894038 Z-0.125000 I36.153530 J18.257453
G03 X19.484818 Y8.768492 Z-0.125000 I0.674716 J0.364074
G03 X19.602977 Y8.695528 Z-0.125000 I0.167402 J0.138935
G03 X19.989528 Y8.651203 Z-0.125000 I0.386551 J1.663383
G02 X20.396433 Y8.639821 Z-0.125000 I-0.000000 J-7.278987
G02 X21.305801 Y8.577509 Z-0.125000 I-2.040746 J-36.449101
G02 X23.511427 Y8.394493 Z-0.125000 I-47.376041 J-584.334276
G02 X24.753529 Y8.284870 Z-0.125000 I-15.729728 J-185.321333
G03 X25.426114 Y8.232875 Z-0.125000 I2.163953 J23.615590
G03 X25.890351 Y8.213234 Z-0.125000 I0.707685 J11.230764
G03 X26.308040 Y8.282456 Z-0.125000 I0.024818 J1.145028
G03 X26.469734 Y8.424799 Z-0.125000 I-0.101730 J0.278569
G01 X26.469734 Y8.424799 Z-0.125000
G00 Z5.000000

(End cutting path id: path4758)


(Start cutting path id: path4758)
(Change tool to Default tool)

G00 Z5.000000
G00 X27.581715 Y11.843399

G01 Z-0.125000 F100.0(Penetrate)
G03 X27.612405 Y11.975721 Z-0.125000 I-1.173245 J0.341834 F400.000000
G03 X27.749702 Y12.808740 Z-0.125000 I-46.485648 J8.089541
G03 X27.826811 Y13.628837 Z-0.125000 I-6.712659 J1.044827
G03 X27.781252 Y13.761926 Z-0.125000 I-0.198023 J0.006554
G03 X27.667847 Y13.862205 Z-0.125000 I-0.379626 J-0.315051
G03 X27.089957 Y14.205043 Z-0.125000 I-5.246067 J-8.184343
G01 X26.497028 Y14.529635 Z-0.125000
G01 X26.020239 Y14.429692 Z-0.125000
G02 X25.542204 Y14.336357 Z-0.125000 I-3.617449 J17.256708
G02 X24.588455 Y14.170612 Z-0.125000 I-12.410367 J68.586149
G03 X23.642143 Y13.993719 Z-0.125000 I4.021250 J-24.131779
G03 X23.578963 Y13.961274 Z-0.125000 I0.027040 J-0.130393
G01 X23.582038 Y13.918002 Z-0.125000
G03 X24.176334 Y13.550539 Z-0.125000 I4.076868 J5.929191
G02 X24.827562 Y13.188859 Z-0.125000 I-102.162301 J-184.716869
G02 X26.134951 Y12.458237 Z-0.125000 I-416.811807 J-747.386317
G03 X27.444649 Y11.735303 Z-0.125000 I59.728098 J106.658185
G03 X27.492668 Y11.719597 Z-0.125000 I0.066652 J0.122516
G01 X27.528989 Y11.735233 Z-0.125000
G03 X27.581715 Y11.843399 Z-0.125000 I-0.288621 J0.207624
G01 X27.581715 Y11.843399 Z-0.125000
G00 Z5.000000

(End cutting path id: path4758)


(Start cutting path id: path4758)
(Change tool to Default tool)

G00 Z5.000000
G00 X27.311021 Y15.005157

G01 Z-0.125000 F100.0(Penetrate)
G01 X27.777718 Y15.092364 Z-0.125000 F400.000000
G01 X27.771707 Y15.624017 Z-0.125000
G03 X27.740256 Y16.152232 Z-0.125000 I-5.493257 J-0.062032
G03 X27.678367 Y16.487781 Z-0.125000 I-2.271536 J-0.245480
G01 X27.591039 Y16.819894 Z-0.125000
G01 X26.806992 Y17.016473 Z-0.125000
G02 X26.023819 Y17.216405 Z-0.125000 I22.907271 J91.366580
G02 X25.388236 Y17.385149 Z-0.125000 I15.684318 J60.357106
G03 X24.617295 Y17.491525 Z-0.125000 I-0.799832 J-2.949824
G03 X22.447762 Y17.412948 Z-0.125000 I-0.224821 J-23.782602
G03 X22.076723 Y17.322228 Z-0.125000 I0.099291 J-1.210226
G01 X22.074408 Y17.256094 Z-0.125000
G02 X22.287444 Y17.143861 Z-0.125000 I-3.165033 J-6.266051
G02 X23.670798 Y16.379774 Z-0.125000 I-145.528965 J-265.109641
G03 X26.444229 Y14.915948 Z-0.125000 I35.250030 J63.427046
G03 X26.657649 Y14.884914 Z-0.125000 I0.153592 J0.306890
G03 X26.844211 Y14.918595 Z-0.125000 I-4.850156 J27.398863
G03 X27.311021 Y15.005169 Z-0.125000 I-31.690122 J172.176774
G01 X27.311021 Y15.005157 Z-0.125000
G00 Z5.000000

(End cutting path id: path4758)


(Start cutting path id: path4758)
(Change tool to Default tool)

G00 Z5.000000
G00 X24.484032 Y14.477035

G01 Z-0.125000 F100.0(Penetrate)
G03 X25.632489 Y14.838613 Z-0.125000 I-0.862595 J4.744482 F400.000000
G03 X25.637144 Y15.006128 Z-0.125000 I-0.038958 J0.084905
G03 X25.276080 Y15.196387 Z-0.125000 I-121.847540 J-230.799213
G03 X24.454845 Y15.627946 Z-0.125000 I-627.011287 J-1192.174538
G02 X23.635764 Y16.063362 Z-0.125000 I42.190273 J80.354129
G02 X23.409446 Y16.190539 Z-0.125000 I3.370300 J6.262592
G03 X23.182875 Y16.317232 Z-0.125000 I-3.226237 J-5.503678
G03 X22.149609 Y16.861734 Z-0.125000 I-60.697407 J-113.928965
G01 X21.113783 Y17.401608 Z-0.125000
G01 X20.475238 Y17.327180 Z-0.125000
G03 X19.869132 Y17.196131 Z-0.125000 I0.371017 J-3.183125
G03 X19.707413 Y17.081362 Z-0.125000 I0.099928 J-0.312130
G03 X19.687804 Y16.912512 Z-0.125000 I0.134075 J-0.101134
G03 X20.014914 Y16.383477 Z-0.125000 I2.057677 J0.906646
G03 X21.066838 Y15.328728 Z-0.125000 I6.271701 J5.202976
G03 X22.065363 Y14.673126 Z-0.125000 I3.356438 J4.023862
G03 X22.894781 Y14.291492 Z-0.125000 I5.786088 J11.483007
G03 X23.065276 Y14.255397 Z-0.125000 I0.180577 J0.432242
G03 X23.242558 Y14.267353 Z-0.125000 I0.020461 J1.016962
G03 X24.484032 Y14.477035 Z-0.125000 I-7.748139 J49.654913
G01 X24.484032 Y14.477035 Z-0.125000
G00 Z5.000000

(End cutting path id: path4758)


(Start cutting path id: path4758)
(Change tool to Default tool)

G00 Z5.000000
G00 X22.476055 Y14.146733

G01 Z-0.125000 F100.0(Penetrate)
G03 X22.236367 Y14.519145 Z-0.125000 I-0.409158 J0.000000 F400.000000
G03 X21.822409 Y14.444179 Z-0.125000 I-0.152913 J-0.336029
G03 X21.843955 Y14.170271 Z-0.125000 I0.127752 J-0.127752
G03 X22.323830 Y14.079818 Z-0.125000 I0.335485 J0.461678
G03 X22.464289 Y14.128710 Z-0.125000 I-0.238089 J0.910200
G01 X22.476055 Y14.146733 Z-0.125000
G01 X22.476055 Y14.146733 Z-0.125000
G00 Z5.000000

(End cutting path id: path4758)


(Start cutting path id: path4758)
(Change tool to Default tool)

G00 Z5.000000
G00 X19.818394 Y16.147003

G01 Z-0.125000 F100.0(Penetrate)
G03 X19.441015 Y16.528869 Z-0.125000 I-4.757775 J-4.324474 F400.000000
G03 X19.376490 Y16.558305 Z-0.125000 I-0.076449 J-0.082137
G03 X19.089550 Y16.418569 Z-0.125000 I-0.031944 J-0.298881
G03 X19.161677 Y16.214118 Z-0.125000 I0.117667 J-0.073437
G02 X19.225623 Y16.186166 Z-0.125000 I-0.147383 J-0.424284
G02 X19.675883 Y15.939951 Z-0.125000 I-11.451734 J-21.476884
G03 X20.121391 Y15.711345 Z-0.125000 I3.323632 J5.928719
G01 X20.154413 Y15.716273 Z-0.125000
G01 X20.156936 Y15.745160 Z-0.125000
G03 X19.818394 Y16.147003 Z-0.125000 I-5.506915 J-4.295894
G01 X19.818394 Y16.147003 Z-0.125000
G00 Z5.000000

(End cutting path id: path4758)


(Start cutting path id: path4758)
(Change tool to Default tool)

G00 Z5.000000
G00 X19.414534 Y17.163731

G01 Z-0.125000 F100.0(Penetrate)
G03 X19.392040 Y17.215908 Z-0.125000 I-0.071762 J0.000000 F400.000000
G03 X19.335455 Y17.238402 Z-0.125000 I-0.056585 J-0.059926
G01 X19.299001 Y17.214637 Z-0.125000
G03 X19.302526 Y17.163731 Z-0.125000 I0.050123 J-0.022105
G03 X19.354646 Y17.099773 Z-0.125000 I0.269951 J0.166772
G01 X19.381604 Y17.089058 Z-0.125000
G01 X19.401543 Y17.102059 Z-0.125000
G03 X19.414534 Y17.163731 Z-0.125000 I-0.139898 J0.061673
G01 X19.414534 Y17.163731 Z-0.125000
G00 Z5.000000

(End cutting path id: path4758)


(Start cutting path id: path4758)
(Change tool to Default tool)

G00 Z5.000000
G00 X18.518478 Y17.611759

G01 Z-0.125000 F100.0(Penetrate)
G03 X18.425403 Y17.739148 Z-0.125000 I-0.499849 J-0.267512 F400.000000
G03 X18.373498 Y17.761100 Z-0.125000 I-0.051905 J-0.050390
G01 X18.342360 Y17.734913 Z-0.125000
G03 X18.347505 Y17.611759 Z-0.125000 I0.285786 J-0.049745
G03 X18.412633 Y17.496186 Z-0.125000 I0.252068 J0.065907
G03 X18.492483 Y17.462415 Z-0.125000 I0.079850 J0.077518
G01 X18.536545 Y17.499471 Z-0.125000
G03 X18.518475 Y17.611759 Z-0.125000 I-0.171948 J0.029927
G01 X18.518478 Y17.611759 Z-0.125000
G00 Z5.000000

(End cutting path id: path4758)


(Start cutting path id: path4758)
(Change tool to Default tool)

G00 Z5.000000
G00 X18.430518 Y15.793057

G01 Z-0.125000 F100.0(Penetrate)
G03 X18.655839 Y16.106552 Z-0.125000 I-4.935141 J3.784792 F400.000000
G03 X18.667819 Y16.145826 Z-0.125000 I-0.058385 J0.039274
G01 X18.650861 Y16.178861 Z-0.125000
G03 X18.451397 Y16.301085 Z-0.125000 I-0.941237 J-1.312178
G03 X18.293863 Y16.255404 Z-0.125000 I-0.054711 J-0.105800
G03 X18.104419 Y15.707639 Z-0.125000 I1.283907 J-0.750680
G03 X18.188988 Y15.632603 Z-0.125000 I0.067344 J-0.009275
G03 X18.430518 Y15.793057 Z-0.125000 I-0.113307 J0.432575
G01 X18.430518 Y15.793057 Z-0.125000
G00 Z5.000000

(End cutting path id: path4758)


(Start cutting path id: path4758)
(Change tool to Default tool)

G00 Z5.000000
G00 X20.400195 Y17.776035

G01 Z-0.125000 F100.0(Penetrate)
G03 X20.310588 Y17.813150 Z-0.125000 I-0.089607 J-0.089610 F400.000000
G03 X20.220984 Y17.776035 Z-0.125000 I-0.000000 J-0.126720
G01 X20.220983 Y17.723545 Z-0.125000
G03 X20.310589 Y17.686429 Z-0.125000 I0.089606 J0.089606
G03 X20.400198 Y17.723549 Z-0.125000 I0.000000 J0.126721
G01 X20.400195 Y17.776035 Z-0.125000
G01 X20.400195 Y17.776035 Z-0.125000
G00 Z5.000000

(End cutting path id: path4758)


(Start cutting path id: path4758)
(Change tool to Default tool)

G00 Z5.000000
G00 X20.368990 Y18.434843

G01 Z-0.125000 F100.0(Penetrate)
G03 X20.405881 Y18.564360 Z-0.125000 I-0.206118 J0.128722 F400.000000
G03 X20.368425 Y18.614729 Z-0.125000 I-0.052827 J-0.000173
G03 X19.192568 Y18.929142 Z-0.125000 I-5.286070 J-17.413094
G03 X18.913347 Y18.952097 Z-0.125000 I-0.217770 J-0.939249
G03 X18.850330 Y18.651205 Z-0.125000 I0.010195 J-0.159180
G03 X20.199431 Y18.287554 Z-0.125000 I1.512942 J2.928503
G03 X20.261623 Y18.309091 Z-0.125000 I0.004212 J0.088401
G03 X20.369134 Y18.434843 Z-0.125000 I-0.364833 J0.420745
G01 X20.368990 Y18.434843 Z-0.125000
G00 Z5.000000

(End cutting path id: path4758)


(Start cutting path id: path4758)
(Change tool to Default tool)

G00 Z5.000000
G00 X23.185432 Y17.754925

G01 Z-0.125000 F100.0(Penetrate)
G01 X23.196787 Y17.839083 Z-0.125000 F400.000000
G03 X22.042271 Y18.217337 Z-0.125000 I-3.363479 J-8.315022
G03 X20.898159 Y18.500210 Z-0.125000 I-22.473393 J-88.440999
G03 X20.833948 Y18.507820 Z-0.125000 I-0.064211 J-0.267099
G03 X20.780179 Y18.485720 Z-0.125000 I0.000000 J-0.076459
G03 X20.613566 Y18.289835 Z-0.125000 I1.052335 J-1.063878
G01 X20.458350 Y18.071852 Z-0.125000
G01 X20.776493 Y17.886612 Z-0.125000
G03 X21.112157 Y17.766387 Z-0.125000 I0.492045 J0.845075
G03 X21.916022 Y17.702008 Z-0.125000 I0.799991 J4.938146
G03 X22.736424 Y17.719394 Z-0.125000 I-0.012465 J19.953505
G03 X23.185432 Y17.754925 Z-0.125000 I-0.252650 J6.047615
G01 X23.185432 Y17.754925 Z-0.125000
G00 Z5.000000

(End cutting path id: path4758)


(Start cutting path id: path4758)
(Change tool to Default tool)

G00 Z5.000000
G00 X26.750988 Y17.957605

G01 Z-0.125000 F100.0(Penetrate)
G03 X27.285242 Y18.041926 Z-0.125000 I-0.244185 J3.281819 F400.000000
G03 X27.329690 Y18.098494 Z-0.125000 I-0.013771 J0.056567
G03 X27.213640 Y18.666037 Z-0.125000 I-1.445812 J-0.000000
G03 X25.891305 Y21.468636 Z-0.125000 I-38.052601 J-16.240896
G03 X25.441174 Y21.941497 Z-0.125000 I-1.039712 J-0.539058
G03 X24.518805 Y22.268304 Z-0.125000 I-1.324591 J-2.273443
G03 X23.733308 Y22.342061 Z-0.125000 I-1.008206 J-6.517659
G03 X23.630313 Y22.298321 Z-0.125000 I-0.004480 J-0.132584
G03 X21.243297 Y19.373783 Z-0.125000 I28.448155 J-25.655875
G03 X21.057301 Y18.808028 Z-0.125000 I0.767449 J-0.565755
G03 X21.085900 Y18.756810 Z-0.125000 I0.060163 J0.000000
G03 X21.262646 Y18.681474 Z-0.125000 I0.338647 J0.549500
G03 X21.468198 Y18.629068 Z-0.125000 I6.882065 J26.563790
G03 X23.036091 Y18.236619 Z-0.125000 I386.481042 J1540.722511
G03 X24.762247 Y17.958300 Z-0.125000 I2.498335 J10.002824
G03 X26.750988 Y17.957605 Z-0.125000 I0.999014 J13.301328
G01 X26.750988 Y17.957605 Z-0.125000
G00 Z5.000000

(End cutting path id: path4758)


(Start cutting path id: path4758)
(Change tool to Default tool)

G00 Z5.000000
G00 X23.793056 Y23.046027

G01 Z-0.125000 F100.0(Penetrate)
G03 X23.919628 Y23.653127 Z-0.125000 I-0.695216 J0.461686 F400.000000
G03 X23.575920 Y24.273146 Z-0.125000 I-1.073860 J-0.190018
G03 X21.824170 Y25.750168 Z-0.125000 I-23.203720 J-25.742352
G03 X21.606768 Y25.825064 Z-0.125000 I-0.216037 J-0.274119
G03 X21.471748 Y25.804156 Z-0.125000 I0.001691 J-0.457359
G03 X20.797138 Y25.571490 Z-0.125000 I3.734534 J-11.922518
G01 X20.126281 Y25.318461 Z-0.125000
G01 X19.732460 Y24.328123 Z-0.125000
G03 X19.357657 Y23.341705 Z-0.125000 I31.895172 J-12.683437
G01 X19.364216 Y23.312208 Z-0.125000
G03 X19.394708 Y23.296625 Z-0.125000 I0.039405 J0.039485
G03 X20.018202 Y23.206371 Z-0.125000 I3.009324 J18.590338
G02 X22.353024 Y22.881508 Z-0.125000 I-13.309123 J-104.206503
G02 X22.924083 Y22.768761 Z-0.125000 I-0.953751 J-6.333263
G03 X23.449682 Y22.786764 Z-0.125000 I0.230849 J0.941771
G03 X23.793056 Y23.046027 Z-0.125000 I-0.197287 J0.618311
G01 X23.793056 Y23.046027 Z-0.125000
G00 Z5.000000

(End cutting path id: path4758)


(Start cutting path id: path4758)
(Change tool to Default tool)

G00 Z5.000000
G00 X18.633837 Y22.278718

G01 Z-0.125000 F100.0(Penetrate)
G03 X18.877402 Y22.953273 Z-0.125000 I-17.953328 J6.863770 F400.000000
G03 X18.891299 Y23.035681 Z-0.125000 I-0.247108 J0.084048
G01 X18.851078 Y23.082778 Z-0.125000
G03 X17.902438 Y23.187240 Z-0.125000 I-1.704771 J-11.121760
G03 X16.895837 Y23.184728 Z-0.125000 I-0.485325 J-7.205079
G01 X16.864538 Y23.112123 Z-0.125000
G02 X17.234242 Y22.513416 Z-0.125000 I-2.081696 J-1.698959
G02 X17.691031 Y21.270657 Z-0.125000 I-8.679277 J-3.895484
G03 X17.856792 Y20.711652 Z-0.125000 I49.288781 J14.311409
G03 X17.894471 Y20.598616 Z-0.125000 I2.050858 J0.620831
G01 X17.942839 Y20.597043 Z-0.125000
G03 X18.633837 Y22.278718 Z-0.125000 I-33.690608 J14.826231
G01 X18.633837 Y22.278718 Z-0.125000
G00 Z5.000000

(End cutting path id: path4758)


(Start cutting path id: path4758)
(Change tool to Default tool)

G00 Z5.000000
G00 X17.933821 Y24.771418

G01 Z-0.125000 F100.0(Penetrate)
G02 X19.480792 Y25.360790 Z-0.125000 I43.278862 J-111.272544 F400.000000
G02 X19.678059 Y25.422135 Z-0.125000 I0.649942 J-1.742164
G03 X19.839113 Y25.520592 Z-0.125000 I-0.077040 J0.306974
G03 X20.056640 Y25.854412 Z-0.125000 I-1.060866 J0.929078
G03 X19.977035 Y26.171622 Z-0.125000 I-0.235276 J0.109551
G03 X19.545208 Y26.237802 Z-0.125000 I-0.277772 J-0.370540
G03 X16.363273 Y25.082972 Z-0.125000 I62.386021 J-176.855015
G03 X16.172472 Y24.979164 Z-0.125000 I0.270009 J-0.723534
G03 X15.908883 Y24.369080 Z-0.125000 I0.396576 J-0.533326
G03 X16.270759 Y24.133821 Z-0.125000 I0.278458 J0.032377
G03 X16.389019 Y24.174865 Z-0.125000 I-0.580749 J1.864235
G03 X17.933821 Y24.771418 Z-0.125000 I-122.875086 J320.489196
G01 X17.933821 Y24.771418 Z-0.125000
G00 Z5.000000

(End cutting path id: path4758)


(Start cutting path id: path4758)
(Change tool to Default tool)

G00 Z5.000000
G00 X17.435744 Y26.793690

G01 Z-0.125000 F100.0(Penetrate)
G03 X19.201703 Y27.061632 Z-0.125000 I-5.846308 J44.485471 F400.000000
G01 X19.213394 Y27.099723 Z-0.125000
G03 X19.143970 Y27.142022 Z-0.125000 I-0.129780 J-0.134884
G03 X18.002593 Y27.512182 Z-0.125000 I-13.153276 J-38.612876
G03 X16.847971 Y27.782481 Z-0.125000 I-2.534732 J-8.226269
G03 X16.397158 Y27.772956 Z-0.125000 I-0.199549 J-1.228514
G03 X15.946980 Y27.670476 Z-0.125000 I2.268002 J-11.002991
G03 X15.915627 Y27.652879 Z-0.125000 I0.016481 J-0.066093
G01 X15.903320 Y27.621372 Z-0.125000
G03 X15.941818 Y27.099904 Z-0.125000 I9.919990 J0.470195
G03 X16.056770 Y26.659602 Z-0.125000 I1.463790 J0.147003
G03 X16.155186 Y26.609870 Z-0.125000 I0.079199 J0.034485
G02 X16.316857 Y26.639875 Z-0.125000 I0.447051 J-1.958196
G02 X17.435736 Y26.793690 Z-0.125000 I13.490620 J-93.987174
G01 X17.435744 Y26.793690 Z-0.125000
G00 Z5.000000

(End cutting path id: path4758)


(Start cutting path id: path4758)
(Change tool to Default tool)

G00 Z5.000000
G00 X15.190666 Y26.447115

G01 Z-0.125000 F100.0(Penetrate)
G01 X15.708425 Y26.536755 Z-0.125000 F400.000000
G01 X15.688726 Y27.019346 Z-0.125000
G03 X15.655991 Y27.497948 Z-0.125000 I-8.721075 J-0.356080
G03 X15.637449 Y27.553042 Z-0.125000 I-0.127527 J-0.012251
G03 X14.142890 Y28.124383 Z-0.125000 I-1.121451 J-0.693119
G03 X13.534995 Y26.932656 Z-0.125000 I0.260831 J-0.883954
G03 X13.563674 Y26.890114 Z-0.125000 I0.096743 J0.034279
G03 X13.888854 Y26.619147 Z-0.125000 I4.629786 J5.225466
G03 X14.338733 Y26.430057 Z-0.125000 I0.571256 J0.729408
G03 X15.190663 Y26.447115 Z-0.125000 I0.370064 J2.800390
G01 X15.190666 Y26.447115 Z-0.125000
G00 Z5.000000

(End cutting path id: path4758)


(Start cutting path id: path4758)
(Change tool to Default tool)

G00 Z5.000000
G00 X15.771454 Y25.144169

G01 Z-0.125000 F100.0(Penetrate)
G03 X15.797939 Y25.203119 Z-0.125000 I-0.054769 J0.060032 F400.000000
G03 X15.779300 Y25.733149 Z-0.125000 I-5.473317 J0.072864
G03 X15.540778 Y26.073521 Z-0.125000 I-0.411325 J-0.034484
G03 X14.832572 Y26.169575 Z-0.125000 I-0.510946 J-1.108376
G01 X14.245518 Y26.073425 Z-0.125000
G01 X13.899181 Y26.345970 Z-0.125000
G03 X13.132253 Y26.693654 Z-0.125000 I-1.090502 J-1.385752
G03 X12.255101 Y26.652864 Z-0.125000 I-0.351866 J-1.885002
G03 X11.426295 Y26.400602 Z-0.125000 I6.600838 J-23.174738
G03 X11.105542 Y26.280268 Z-0.125000 I1.161774 J-3.584389
G01 X10.790006 Y26.145225 Z-0.125000
G01 X11.200698 Y26.091157 Z-0.125000
G02 X13.428770 Y25.669078 Z-0.125000 I-2.629503 J-19.972469
G02 X15.232949 Y25.089282 Z-0.125000 I-3.392165 J-13.652524
G03 X15.550018 Y25.045123 Z-0.125000 I0.248778 J0.625880
G03 X15.771463 Y25.144169 Z-0.125000 I-0.039214 J0.384748
G01 X15.771454 Y25.144169 Z-0.125000
G00 Z5.000000

(End cutting path id: path4758)


(Start cutting path id: path4758)
(Change tool to Default tool)

G00 Z5.000000
G00 X13.906631 Y27.384073

G01 Z-0.125000 F100.0(Penetrate)
G02 X14.599266 Y27.594987 Z-0.125000 I21.424921 J-69.116086 F400.000000
G02 X15.106589 Y27.742919 Z-0.125000 I11.036353 J-36.904626
G03 X15.103217 Y27.953990 Z-0.125000 I-0.029862 J0.105086
G03 X13.607753 Y28.117538 Z-0.125000 I-1.345329 J-5.382608
G03 X12.113744 Y28.012410 Z-0.125000 I0.469326 J-17.338211
G03 X11.833844 Y27.915438 Z-0.125000 I0.076801 J-0.674121
G03 X11.720103 Y27.721108 Z-0.125000 I0.126317 J-0.204385
G03 X11.821136 Y27.612018 Z-0.125000 I0.104677 J-0.004384
G02 X11.979602 Y27.583527 Z-0.125000 I-0.019642 J-0.564185
G02 X12.470102 Y27.396245 Z-0.125000 I-1.893677 J-5.695593
G03 X12.959675 Y27.203673 Z-0.125000 I3.099342 J7.160783
G03 X13.085248 Y27.177927 Z-0.125000 I0.154926 J0.436523
G03 X13.212660 Y27.189576 Z-0.125000 I0.026368 J0.414227
G03 X13.906632 Y27.384073 Z-0.125000 I-3.208833 J12.784487
G01 X13.906631 Y27.384073 Z-0.125000
G00 Z5.000000

(End cutting path id: path4758)


(Start cutting path id: path4758)
(Change tool to Default tool)

G00 Z5.000000
G00 X8.897801 Y26.194890

G01 Z-0.125000 F100.0(Penetrate)
G02 X10.368144 Y27.260172 Z-0.125000 I22.321982 J-29.262302 F400.000000
G02 X10.704923 Y27.437374 Z-0.125000 I0.916017 J-1.332297
G01 X10.701102 Y27.529931 Z-0.125000
G03 X10.086854 Y27.617714 Z-0.125000 I-0.614248 J-2.105174
G01 X9.346375 Y27.617714 Z-0.125000
G01 X8.854778 Y26.761550 Z-0.125000
G03 X8.373765 Y25.902565 Z-0.125000 I39.712470 J-22.802271
G03 X8.363181 Y25.861089 Z-0.125000 I0.075971 J-0.041476
G01 X8.391924 Y25.845150 Z-0.125000
G03 X8.897801 Y26.194890 Z-0.125000 I-3.485933 J5.582902
G01 X8.897801 Y26.194890 Z-0.125000
G00 Z5.000000

(End cutting path id: path4758)


(Start cutting path id: path4758)
(Change tool to Default tool)

G00 Z5.000000
G00 X8.437852 Y18.798639

G01 Z-0.125000 F100.0(Penetrate)
G03 X8.407326 Y19.014908 Z-0.125000 I-0.781373 J-0.000000 F400.000000
G03 X8.091458 Y20.001244 Z-0.125000 I-16.881180 J-4.862338
G03 X7.846029 Y20.006852 Z-0.125000 I-0.123777 J-0.043700
G03 X7.616468 Y18.829339 Z-0.125000 I2.905189 J-1.177513
G03 X7.659512 Y18.774878 Z-0.125000 I0.055974 J0.000000
G03 X8.027160 Y18.731834 Z-0.125000 I0.367647 J1.548538
G03 X8.407148 Y18.762538 Z-0.125000 I-0.000000 J2.366728
G01 X8.437852 Y18.798639 Z-0.125000
G01 X8.437852 Y18.798639 Z-0.125000
G00 Z5.000000

(End cutting path id: path4758)


(Start cutting path id: path4758)
(Change tool to Default tool)

G00 Z5.000000
G00 X7.095026 Y17.989784

G01 Z-0.125000 F100.0(Penetrate)
G02 X7.180651 Y18.291857 Z-0.125000 I11.500374 J-3.096691 F400.000000
G02 X7.215263 Y18.393605 Z-0.125000 I1.337854 J-0.398349
G01 X7.186392 Y18.452223 Z-0.125000
G03 X6.704355 Y18.545559 Z-0.125000 I-0.716573 J-2.409345
G03 X6.342867 Y18.385202 Z-0.125000 I-0.037725 J-0.402581
G03 X6.384391 Y18.117888 Z-0.125000 I0.151504 J-0.113348
G03 X6.983132 Y17.694562 Z-0.125000 I43.969144 J61.553629
G01 X6.997552 Y17.688803 Z-0.125000
G01 X7.007691 Y17.694996 Z-0.125000
G03 X7.095026 Y17.989784 Z-0.125000 I-5.852963 J1.894352
G01 X7.095026 Y17.989784 Z-0.125000
G00 Z5.000000

(End cutting path id: path4758)


(Start cutting path id: path4758)
(Change tool to Default tool)

G00 Z5.000000
G00 X7.764216 Y16.787695

G01 Z-0.125000 F100.0(Penetrate)
G03 X7.603074 Y17.089398 Z-0.125000 I-0.392192 J-0.015588 F400.000000
G03 X7.145332 Y17.238402 Z-0.125000 I-0.457742 J-0.628595
G03 X6.898382 Y17.060427 Z-0.125000 I0.000000 J-0.260316
G03 X6.720412 Y15.964044 Z-0.125000 I3.288150 J-1.096383
G01 X6.747113 Y15.949938 Z-0.125000
G03 X7.243111 Y16.320666 Z-0.125000 I-4.047039 J5.931720
G03 X7.750254 Y16.754684 Z-0.125000 I-9.234174 J11.303269
G01 X7.764216 Y16.787695 Z-0.125000
G01 X7.764216 Y16.787695 Z-0.125000
G00 Z5.000000

(End cutting path id: path4758)


(Start cutting path id: path4758)
(Change tool to Default tool)

G00 Z5.000000
G00 X8.446515 Y17.207425

G01 Z-0.125000 F100.0(Penetrate)
G03 X8.805790 Y17.477580 Z-0.125000 I-11.548484 J15.732098 F400.000000
G01 X8.810109 Y17.487443 Z-0.125000
G03 X8.807763 Y17.499508 Z-0.125000 I-0.058575 J-0.005125
G03 X8.669399 Y17.947778 Z-0.125000 I-83.375895 J-25.489479
G03 X8.457605 Y18.312021 Z-0.125000 I-0.903061 J-0.281401
G03 X8.203804 Y18.446276 Z-0.125000 I-0.321007 J-0.299821
G03 X7.631704 Y18.359304 Z-0.125000 I-0.147664 J-0.953792
G03 X7.340064 Y18.023349 Z-0.125000 I0.250864 J-0.512337
G01 X7.182552 Y17.538884 Z-0.125000
G01 X7.604854 Y17.239302 Z-0.125000
G03 X8.029560 Y16.947262 Z-0.125000 I10.185925 J14.358275
G01 X8.054489 Y16.939717 Z-0.125000
G01 X8.079312 Y16.947384 Z-0.125000
G03 X8.446515 Y17.207425 Z-0.125000 I-7.447505 J10.905905
G01 X8.446515 Y17.207425 Z-0.125000
G00 Z5.000000

(End cutting path id: path4758)


(Start cutting path id: path4758)
(Change tool to Default tool)

G00 Z5.000000
G00 X9.216007 Y16.211671

G01 Z-0.125000 F100.0(Penetrate)
G03 X8.910446 Y17.066630 Z-0.125000 I-11.991809 J-3.803783 F400.000000
G01 X8.863328 Y17.096351 Z-0.125000
G03 X8.812704 Y17.081131 Z-0.125000 I0.007727 J-0.117499
G03 X8.556117 Y16.921105 Z-0.125000 I1.911742 J-3.351026
G01 X8.303528 Y16.749466 Z-0.125000
G01 X8.725379 Y16.402849 Z-0.125000
G03 X9.152923 Y16.152525 Z-0.125000 I0.998707 J1.215480
G01 X9.216007 Y16.211671 Z-0.125000
G01 X9.216007 Y16.211671 Z-0.125000
G00 Z5.000000

(End cutting path id: path4758)


(Start cutting path id: path4758)
(Change tool to Default tool)

G00 Z5.000000
G00 X10.080245 Y18.377140

G01 Z-0.125000 F100.0(Penetrate)
G01 X10.053664 Y18.406367 Z-0.125000 F400.000000
G03 X9.445914 Y18.433141 Z-0.125000 I-0.607749 J-6.884207
G03 X8.841388 Y18.402964 Z-0.125000 I0.000000 J-6.070179
G01 X8.811208 Y18.369613 Z-0.125000
G03 X8.819057 Y18.307313 Z-0.125000 I0.251197 J-0.000000
G03 X8.892456 Y18.052260 Z-0.125000 I4.346967 J1.112885
G02 X8.973316 Y17.798315 Z-0.125000 I-83.396332 J-26.694548
G02 X9.003815 Y17.700676 Z-0.125000 I-12.259284 J-3.883011
G01 X9.059433 Y17.676154 Z-0.125000
G03 X9.556898 Y17.962028 Z-0.125000 I-1.531250 J3.240380
G03 X10.058481 Y18.332482 Z-0.125000 I-5.128462 J7.468565
G03 X10.080245 Y18.377140 Z-0.125000 I-0.035728 J0.045044
G01 X10.080245 Y18.377140 Z-0.125000
G00 Z5.000000

(End cutting path id: path4758)


(Start cutting path id: path4758)
(Change tool to Default tool)

G00 Z5.000000
G00 X1.710473 Y9.733935

G01 Z-0.125000 F100.0(Penetrate)
G02 X1.669361 Y10.481115 Z-0.125000 I24.005653 J1.695577 F400.000000
G02 X1.650247 Y11.260963 Z-0.125000 I26.131730 J1.030627
G03 X1.612851 Y11.960166 Z-0.125000 I-7.987098 J-0.076578
G01 X1.581023 Y11.970343 Z-0.125000
G03 X1.531241 Y11.892041 Z-0.125000 I0.234385 J-0.203991
G03 X1.157974 Y11.013878 Z-0.125000 I30.051134 J-13.291780
G03 X0.874268 Y10.134542 Z-0.125000 I5.685678 J-2.319844
G03 X0.902362 Y9.954635 Z-0.125000 I0.231831 J-0.055945
G03 X1.625648 Y8.955859 Z-0.125000 I6.578092 J4.002393
G03 X1.748401 Y8.964185 Z-0.125000 I0.058282 J0.049785
G01 X1.755111 Y8.989298 Z-0.125000
G03 X1.710473 Y9.733935 Z-0.125000 I-35.017292 J-1.725511
G01 X1.710473 Y9.733935 Z-0.125000
G00 Z5.000000

(End cutting path id: path4758)


(Footer)
M5
G00 X0.0000 Y0.0000
M2
(Using default footer. To add your own footer create file "footer" in the output dir.)
(end)
%