%
(Header)
(Generated by gcodetools from Inkscape.)
(Using default header. To add your own header create file "header" in the output dir.)
M3
(Header end.)
G21 (All units in mm)

(Start cutting path id: path4832)
(Change tool to Cylindrical cutter)

G00 Z5.000000
G00 X98.612203 Y40.602555

G01 Z-0.125000 F1000.0(Penetrate)
G02 X98.814905 Y41.075747 Z-0.125000 I2.118835 J-0.627637 F1100.000000
G02 X99.174930 Y41.582052 Z-0.125000 I2.790796 J-1.603328
G03 X99.563658 Y42.073180 Z-0.125000 I-5.228800 J4.538004
G03 X99.649310 Y42.240544 Z-0.125000 I-0.506161 J0.364639
G02 X99.752380 Y42.332225 Z-0.125000 I0.131213 J-0.043736
G02 X99.995706 Y42.312533 Z-0.125000 I0.088139 J-0.424099
G02 X100.155015 Y42.129910 Z-0.125000 I-0.092751 J-0.241708
G02 X100.176055 Y41.543153 Z-0.125000 I-1.479517 J-0.346808
G03 X100.411394 Y40.144686 Z-0.125000 I2.190909 J-0.350341
G03 X102.204999 Y37.757594 Z-0.125000 I8.669099 J4.646371
G03 X104.413201 Y36.122747 Z-0.125000 I7.044563 J7.206410
G03 X106.227162 Y35.557381 Z-0.125000 I2.312896 J4.228161
G03 X111.382685 Y36.892138 Z-0.125000 I0.788713 J7.577607
G03 X113.778408 Y40.839401 Z-0.125000 I-3.282748 J4.693060
G02 X114.119835 Y41.459789 Z-0.125000 I0.964534 J-0.126680
G02 X114.536182 Y41.471435 Z-0.125000 I0.215565 J-0.258450
G02 X115.170107 Y40.693927 Z-0.125000 I-1.221360 J-1.642996
G02 X115.625219 Y39.136946 Z-0.125000 I-4.850929 J-2.262951
G02 X115.591847 Y36.975581 Z-0.125000 I-7.279659 J-0.968540
G02 X114.886949 Y34.652037 Z-0.125000 I-9.143100 J1.505064
G03 X114.564494 Y33.893273 Z-0.125000 I15.579797 J-7.068900
G03 X114.430101 Y33.500729 Z-0.125000 I4.027551 J-1.598163
G02 X113.687146 Y31.914522 Z-0.125000 I-5.411489 J1.567565
G02 X112.474127 Y30.605292 Z-0.125000 I-4.847309 J3.274541
G02 X110.477592 Y29.561694 Z-0.125000 I-3.730204 J4.704736
G02 X107.765349 Y29.185144 Z-0.125000 I-2.561305 J8.492531
G02 X106.426977 Y29.359171 Z-0.125000 I0.102468 J6.021509
G02 X104.967892 Y29.874444 Z-0.125000 I1.894054 J7.686802
G02 X103.575747 Y30.592641 Z-0.125000 I8.526773 J18.236557
G02 X102.896339 Y31.047359 Z-0.125000 I2.701661 J4.771555
G02 X100.716880 Y33.224978 Z-0.125000 I7.899114 J10.085248
G02 X99.540556 Y35.324434 Z-0.125000 I6.149281 J4.824714
G03 X99.071178 Y36.580429 Z-0.125000 I-422.734496 J-157.264474
G03 X98.753059 Y37.422164 Z-0.125000 I-190.267531 J-71.427398
G02 X98.419976 Y39.032972 Z-0.125000 I4.835472 J1.839718
G02 X98.612203 Y40.602555 Z-0.125000 I4.776729 J0.211557
G01 X98.612203 Y40.602555 Z-0.125000
G00 Z5.000000

(End cutting path id: path4832)


(Start cutting path id: path4836)
(Change tool to Cylindrical cutter)

G00 Z5.000000
G00 X83.706843 Y37.598228

G01 Z-0.125000 F1000.0(Penetrate)
G02 X83.979476 Y37.520999 Z-0.125000 I0.100974 J-0.163379 F1100.000000
G02 X84.275880 Y36.464389 Z-0.125000 I-2.574659 J-1.292132
G03 X84.422763 Y35.871505 Z-0.125000 I1.898710 J0.155756
G03 X84.556002 Y35.808903 Z-0.125000 I0.101758 J0.043486
G02 X84.781269 Y35.846898 Z-0.125000 I0.268391 J-0.904451
G02 X86.955249 Y35.918687 Z-0.125000 I3.909591 J-85.440841
G03 X89.131374 Y35.970430 Z-0.125000 I-6.368404 J313.622390
G03 X89.160298 Y35.978789 Z-0.125000 I-0.001631 J0.059858
G01 X89.170508 Y36.001728 Z-0.125000
G03 X88.963429 Y36.956754 Z-0.125000 I-32.194713 J-6.480855
G02 X88.781017 Y37.907051 Z-0.125000 I12.163599 J2.827495
G02 X88.806935 Y37.985988 Z-0.125000 I0.091016 J0.013839
G02 X89.011923 Y37.971213 Z-0.125000 I0.096100 J-0.096100
G02 X89.967218 Y36.432467 Z-0.125000 I-8.456511 J-6.315942
G02 X90.782791 Y33.926451 Z-0.125000 I-7.608484 J-3.861868
G02 X90.572599 Y32.671179 Z-0.125000 I-1.964799 J-0.316235
G02 X90.262182 Y32.530029 Z-0.125000 I-0.247539 J0.132479
G02 X90.055099 Y32.790096 Z-0.125000 I0.059761 J0.260067
G03 X90.030486 Y33.269394 Z-0.125000 I-4.679173 J-0.000000
G03 X89.952847 Y33.783092 Z-0.125000 I-5.454634 J-0.561685
G01 X89.850594 Y34.294352 Z-0.125000
G01 X88.067804 Y34.196037 Z-0.125000
G02 X86.284744 Y34.124247 Z-0.125000 I-3.308378 J59.991811
G02 X85.405325 Y34.128425 Z-0.125000 I-0.370422 J14.586388
G03 X84.560167 Y34.123351 Z-0.125000 I-0.360540 J-10.335984
G01 X84.525638 Y34.087164 Z-0.125000
G03 X84.539584 Y34.018183 Z-0.125000 I0.177569 J0.000000
G03 X85.028315 Y32.894823 Z-0.125000 I49.577088 J20.901101
G02 X85.490276 Y31.765731 Z-0.125000 I-16.673660 J-7.480967
G02 X85.530995 Y31.538725 Z-0.125000 I-0.612400 J-0.227006
G02 X85.190434 Y31.413106 Z-0.125000 I-0.193449 J-0.000000
G02 X83.945084 Y33.395993 Z-0.125000 I6.121445 J5.227079
G02 X83.644273 Y34.427379 Z-0.125000 I3.762296 J1.656861
G02 X83.549632 Y35.964862 Z-0.125000 I8.352688 J1.285813
G02 X83.646335 Y37.500980 Z-0.125000 I23.261620 J-0.693284
G02 X83.706843 Y37.598228 Z-0.125000 I0.128238 J-0.012342
G01 X83.706843 Y37.598228 Z-0.125000
G00 Z5.000000

(End cutting path id: path4836)


(Start cutting path id: path4838)
(Change tool to Cylindrical cutter)

G00 Z5.000000
G00 X80.582793 Y45.985647

G01 Z-0.125000 F1000.0(Penetrate)
G02 X80.970166 Y45.915497 Z-0.125000 I0.135903 J-0.354158 F1100.000000
G02 X81.174444 Y45.461778 Z-0.125000 I-0.401737 J-0.453720
G02 X80.887108 Y45.222027 Z-0.125000 I-0.243691 J0.000000
G02 X80.449262 Y45.593790 Z-0.125000 I0.102820 J0.564815
G02 X80.447441 Y45.845057 Z-0.125000 I0.359177 J0.128244
G02 X80.582787 Y45.985647 Z-0.125000 I0.217785 J-0.074218
G01 X80.582793 Y45.985647 Z-0.125000
G00 Z5.000000

(End cutting path id: path4838)


(Start cutting path id: path4854)
(Change tool to Cylindrical cutter)

G00 Z5.000000
G00 X74.964988 Y46.902042

G01 Z-0.125000 F1000.0(Penetrate)
G01 X75.499852 Y47.436904 Z-0.125000 F1100.000000
G01 X76.871009 Y47.337596 Z-0.125000
G02 X79.268623 Y46.866907 Z-0.125000 I-0.727867 J-10.049514
G02 X79.632619 Y46.436508 Z-0.125000 I-0.166342 J-0.509796
G02 X79.382884 Y46.021447 Z-0.125000 I-0.376185 J-0.056317
G02 X77.255322 Y45.598551 Z-0.125000 I-2.535765 J7.194006
G03 X75.341301 Y45.464510 Z-0.125000 I3.134891 J-58.496780
G01 X75.309877 Y45.430251 Z-0.125000
G03 X75.325538 Y45.370881 Z-0.125000 I0.120366 J-0.000000
G03 X75.579639 Y44.954497 Z-0.125000 I6.608199 J3.746982
G02 X75.759484 Y44.533146 Z-0.125000 I-1.090517 J-0.714521
G02 X75.740277 Y44.258410 Z-0.125000 I-0.459081 J-0.105945
G02 X75.200350 Y44.165071 Z-0.125000 I-0.297786 J0.114272
G02 X74.522457 Y45.678787 Z-0.125000 I2.218591 J1.902209
G02 X74.590504 Y46.312953 Z-0.125000 I1.328482 J0.178187
G02 X74.964988 Y46.902042 Z-0.125000 I1.509741 J-0.546168
G01 X74.964988 Y46.902042 Z-0.125000
G00 Z5.000000

(End cutting path id: path4854)


(Start cutting path id: path4860)
(Change tool to Cylindrical cutter)

G00 Z5.000000
G00 X73.743541 Y41.534035

G01 Z-0.125000 F1000.0(Penetrate)
G02 X75.277211 Y42.440325 Z-0.125000 I2.313237 J-2.163754 F1100.000000
G02 X78.814454 Y42.821679 Z-0.125000 I3.109320 J-12.244939
G02 X82.381506 Y42.267178 Z-0.125000 I-0.509279 J-15.026642
G02 X82.507749 Y41.781397 Z-0.125000 I-0.078803 J-0.279774
G02 X81.997239 Y41.540812 Z-0.125000 I-0.592462 J0.595245
G02 X78.078105 Y41.347079 Z-0.125000 I-3.961699 J40.405542
G03 X74.718730 Y40.716468 Z-0.125000 I0.010113 J-9.317162
G03 X73.647622 Y39.628394 Z-0.125000 I0.672216 J-1.732974
G02 X73.485945 Y39.503969 Z-0.125000 I-0.179946 J0.066567
G02 X73.246494 Y39.590026 Z-0.125000 I-0.028417 J0.297091
G02 X73.057093 Y40.280991 Z-0.125000 I0.511705 J0.511705
G02 X73.743541 Y41.534035 Z-0.125000 I2.788185 J-0.712889
G01 X73.743541 Y41.534035 Z-0.125000
G00 Z5.000000

(End cutting path id: path4860)


(Start cutting path id: path4856)
(Change tool to Cylindrical cutter)

G00 Z5.000000
G00 X74.131732 Y37.450335

G01 Z-0.125000 F1000.0(Penetrate)
G02 X74.625389 Y38.431047 Z-0.125000 I1.825316 J-0.304201 F1100.000000
G02 X75.568514 Y38.939385 Z-0.125000 I1.268019 J-1.223506
G02 X79.511126 Y39.132550 Z-0.125000 I2.674525 J-14.256531
G02 X80.934800 Y38.468452 Z-0.125000 I-0.200848 J-2.288636
G02 X80.969000 Y38.378731 Z-0.125000 I-0.083036 J-0.083030
G02 X80.915468 Y38.129616 Z-0.125000 I-0.825707 J0.047127
G02 X80.565670 Y37.832947 Z-0.125000 I-0.445788 J0.171067
G02 X78.242180 Y37.581002 Z-0.125000 I-2.492256 J12.144230
G03 X75.171542 Y37.007254 Z-0.125000 I0.124882 J-9.172101
G03 X74.639653 Y36.242148 Z-0.125000 I0.284347 J-0.765106
G02 X74.575216 Y35.723990 Z-0.125000 I-2.115565 J0.000000
G02 X74.492474 Y35.659551 Z-0.125000 I-0.082742 J0.020902
G02 X74.157251 Y35.933980 Z-0.125000 I0.000000 J0.341957
G02 X74.131746 Y37.450335 Z-0.125000 I4.107848 J0.827485
G01 X74.131732 Y37.450335 Z-0.125000
G00 Z5.000000

(End cutting path id: path4856)


(Start cutting path id: path4864)
(Change tool to Cylindrical cutter)

G00 Z5.000000
G00 X68.293319 Y40.968549

G01 Z-0.125000 F1000.0(Penetrate)
G03 X68.963176 Y40.001072 Z-0.125000 I4.035363 J2.078350 F1100.000000
G03 X69.306946 Y39.848539 Z-0.125000 I0.343770 J0.311116
G03 X69.388098 Y39.905737 Z-0.125000 I0.000000 J0.086169
G03 X69.445297 Y40.236086 Z-0.125000 I-0.925370 J0.330350
G03 X69.091281 Y41.170112 Z-0.125000 I-1.409162 J0.000000
G03 X68.305102 Y41.524131 Z-0.125000 I-0.786179 J-0.695933
G03 X68.190758 Y41.412184 Z-0.125000 I0.000000 J-0.114369
G03 X68.293333 Y40.968549 Z-0.125000 I0.925820 J-0.019613
G01 X68.293319 Y40.968549 Z-0.125000
G00 Z5.000000

(End cutting path id: path4864)


(Start cutting path id: path4866)
(Change tool to Cylindrical cutter)

G00 Z5.000000
G00 X67.751777 Y43.869963

G01 Z-0.125000 F1000.0(Penetrate)
G03 X67.867861 Y43.918767 Z-0.125000 I0.000000 J0.162458 F1100.000000
G03 X67.997858 Y44.121301 Z-0.125000 I-0.424019 J0.415144
G03 X67.929111 Y44.296606 Z-0.125000 I-0.130345 J0.050017
G03 X67.713849 Y44.260933 Z-0.125000 I-0.082709 J-0.168226
G03 X67.617382 Y43.991951 Z-0.125000 I0.236661 J-0.236665
G03 X67.751777 Y43.869963 Z-0.125000 I0.134395 J0.013038
G01 X67.751777 Y43.869963 Z-0.125000
G00 Z5.000000

(End cutting path id: path4866)


(Start cutting path id: path4868)
(Change tool to Cylindrical cutter)

G00 Z5.000000
G00 X64.262009 Y47.333501

G01 Z-0.125000 F1000.0(Penetrate)
G02 X65.259774 Y48.240526 Z-0.125000 I1.656574 J-0.819996 F1100.000000
G02 X67.988220 Y48.754944 Z-0.125000 I2.793259 J-7.322327
G02 X71.481349 Y48.605697 Z-0.125000 I0.283971 J-34.306518
G02 X72.060918 Y48.372327 Z-0.125000 I-0.102492 J-1.090897
G02 X72.253998 Y47.912170 Z-0.125000 I-0.323017 J-0.406123
G02 X71.928906 Y47.111412 Z-0.125000 I-1.547944 J0.162065
G02 X71.468036 Y46.840054 Z-0.125000 I-0.578516 J0.455497
G02 X66.969598 Y46.308721 Z-0.125000 I-8.439065 J52.139533
G03 X65.333093 Y45.867828 Z-0.125000 I0.337431 J-4.510110
G03 X64.951458 Y45.329740 Z-0.125000 I0.299047 J-0.616477
G03 X65.339949 Y44.215785 Z-0.125000 I1.346632 J-0.155083
G03 X66.580030 Y43.702404 Z-0.125000 I1.240080 J1.241027
G03 X66.962859 Y43.839011 Z-0.125000 I0.000000 J0.604730
G03 X67.099465 Y44.127197 Z-0.125000 I-0.235678 J0.288186
G02 X67.378260 Y45.099203 Z-0.125000 I1.833830 J-0.000000
G02 X67.881303 Y45.377997 Z-0.125000 I0.503043 J-0.314437
G02 X68.450775 Y44.997779 Z-0.125000 I0.000000 J-0.616574
G02 X68.539930 Y43.791112 Z-0.125000 I-1.778141 J-0.738006
G02 X68.374243 Y43.486163 Z-0.125000 I-0.675522 J0.169543
G02 X68.015612 Y43.227740 Z-0.125000 I-0.827098 J0.769763
G03 X67.903182 Y42.925483 Z-0.125000 I0.094383 J-0.207146
G03 X68.259673 Y42.697047 Z-0.125000 I0.356490 J0.163947
G02 X69.511817 Y42.093330 Z-0.125000 I0.000000 J-1.600369
G02 X70.115535 Y40.365431 Z-0.125000 I-2.170846 J-1.727899
G02 X69.758364 Y39.571626 Z-0.125000 I-1.060695 J0.000000
G02 X69.137615 Y39.498733 Z-0.125000 I-0.362713 J0.409259
G02 X68.381033 Y40.083932 Z-0.125000 I1.357956 J2.537328
G02 X67.518365 Y41.252701 Z-0.125000 I4.877242 J4.502641
G03 X67.288471 Y41.400074 Z-0.125000 I-0.258392 J-0.150082
G03 X66.476979 Y41.352473 Z-0.125000 I-0.252527 J-2.635828
G03 X65.693295 Y41.036139 Z-0.125000 I0.524351 J-2.427942
G03 X65.250077 Y40.592465 Z-0.125000 I0.720251 J-1.162727
G03 X65.001007 Y40.008304 Z-0.125000 I1.800896 J-1.113032
G03 X65.010459 Y39.663691 Z-0.125000 I0.604149 J-0.155864
G02 X65.001670 Y39.430004 Z-0.125000 I-0.329602 J-0.104611
G02 X64.896887 Y39.381416 Z-0.125000 I-0.078257 J0.031486
G02 X64.739313 Y39.518894 Z-0.125000 I0.084935 J0.256394
G02 X64.522602 Y40.144714 Z-0.125000 I2.432433 J1.192745
G02 X64.499326 Y40.812937 Z-0.125000 I1.867053 J0.399551
G02 X64.699219 Y41.387347 Z-0.125000 I1.564041 J-0.222297
G02 X65.629711 Y42.408583 Z-0.125000 I2.856881 J-1.668504
G02 X66.527898 Y42.697047 Z-0.125000 I0.898187 J-1.254102
G03 X66.879405 Y42.755736 Z-0.125000 I0.000000 J1.081984
G03 X67.015685 Y42.864608 Z-0.125000 I-0.084204 J0.245132
G03 X66.998744 Y42.964984 Z-0.125000 I-0.065602 J0.040546
G03 X66.809666 Y43.032166 Z-0.125000 I-0.189078 J-0.232480
G02 X65.990399 Y43.231608 Z-0.125000 I0.000000 J1.782409
G02 X64.795550 Y44.074576 Z-0.125000 I2.463925 J4.760734
G02 X63.997484 Y45.567473 Z-0.125000 I1.789880 J1.916587
G02 X64.262009 Y47.333501 Z-0.125000 I2.879805 J0.471473
G01 X64.262009 Y47.333501 Z-0.125000
G00 Z5.000000

(End cutting path id: path4868)


(Start cutting path id: path4880)
(Change tool to Cylindrical cutter)

G00 Z5.000000
G00 X55.484737 Y48.029252

G01 Z-0.125000 F1000.0(Penetrate)
G02 X56.377480 Y49.049677 Z-0.125000 I2.357297 J-1.161605 F1100.000000
G02 X57.526143 Y49.399424 Z-0.125000 I1.148663 J-1.711388
G02 X59.329559 Y48.818190 Z-0.125000 I-0.000000 J-3.088382
G02 X60.088538 Y47.556270 Z-0.125000 I-1.089288 J-1.514352
G02 X59.926686 Y47.345644 Z-0.125000 I-0.185080 J-0.025278
G02 X58.268424 Y47.328173 Z-0.125000 I-0.905335 J7.224139
G03 X57.422387 Y47.293632 Z-0.125000 I-0.304251 J-2.926335
G03 X56.718502 Y47.037797 Z-0.125000 I0.423876 J-2.262448
G03 X56.117918 Y46.611497 Z-0.125000 I1.717407 J-3.055743
G03 X56.040545 Y46.440143 Z-0.125000 I0.151057 J-0.171353
G03 X56.302471 Y46.000445 Z-0.125000 I0.500027 J0.000000
G03 X57.611823 Y45.589277 Z-0.125000 I1.712064 J3.161638
G03 X58.276391 Y45.649212 Z-0.125000 I0.186090 J1.650997
G03 X58.607774 Y45.888777 Z-0.125000 I-0.179701 J0.597553
G03 X58.803688 Y46.272460 Z-0.125000 I-1.274196 J0.892484
G03 X58.788399 Y46.410662 Z-0.125000 I-0.153149 J0.053004
G02 X58.868370 Y46.676469 Z-0.125000 I0.157725 J0.097480
G02 X59.240807 Y46.619640 Z-0.125000 I0.143238 J-0.310091
G02 X59.532580 Y45.869402 Z-0.125000 I-0.603079 J-0.666398
G02 X59.098502 Y45.100790 Z-0.125000 I-1.076031 J0.100815
G02 X57.691553 Y44.636861 Z-0.125000 I-1.409348 J1.908724
G02 X56.144668 Y45.097799 Z-0.125000 I-0.002848 J2.816545
G02 X55.284073 Y46.339658 Z-0.125000 I1.103895 J1.684108
G02 X55.484737 Y48.029249 Z-0.125000 I2.491265 J0.560838
G01 X55.484737 Y48.029252 Z-0.125000
G00 Z5.000000

(End cutting path id: path4880)


(Start cutting path id: path4884)
(Change tool to Cylindrical cutter)

G00 Z5.000000
G00 X54.134318 Y50.908314

G01 Z-0.125000 F1000.0(Penetrate)
G02 X55.314185 Y51.720130 Z-0.125000 I2.297191 J-2.075366 F1100.000000
G02 X57.362398 Y52.157565 Z-0.125000 I2.389503 J-6.174510
G03 X58.134934 Y52.199167 Z-0.125000 I-8.892054 J172.317023
G03 X58.523455 Y52.222691 Z-0.125000 I-2.459388 J43.839642
G01 X58.911874 Y52.247921 Z-0.125000
G01 X58.565345 Y52.734574 Z-0.125000
G02 X58.394510 Y54.285353 Z-0.125000 I1.303865 J0.928433
G02 X59.700516 Y55.424456 Z-0.125000 I1.819494 J-0.767854
G03 X59.799858 Y55.859080 Z-0.125000 I-0.065611 J0.243662
G03 X58.633564 Y56.346098 Z-0.125000 I-1.325689 J-1.534702
G02 X55.568458 Y56.742293 Z-0.125000 I2.436664 J30.905424
G02 X54.937858 Y57.012549 Z-0.125000 I0.271117 J1.503439
G02 X54.660235 Y57.747630 Z-0.125000 I0.424256 J0.580198
G02 X55.166438 Y58.048395 Z-0.125000 I0.394128 J-0.086972
G03 X55.458500 Y57.989716 Z-0.125000 I0.498347 J1.724220
G03 X56.710781 Y57.869717 Z-0.125000 I3.678001 J31.788687
G02 X60.661505 Y57.296716 Z-0.125000 I-2.221739 J-29.224617
G02 X61.611894 Y56.813865 Z-0.125000 I-0.440142 J-2.043071
G02 X62.004724 Y56.043405 Z-0.125000 I-0.792874 J-0.889632
G02 X61.776890 Y55.172314 Z-0.125000 I-1.285267 J-0.129179
G02 X60.859038 Y54.397297 Z-0.125000 I-1.928888 J1.353367
G02 X59.500703 Y54.091072 Z-0.125000 I-1.358336 J2.859501
G03 X59.334010 Y53.894825 Z-0.125000 I0.000000 J-0.168918
G03 X59.643072 Y53.222720 Z-0.125000 I1.375895 J0.225582
G02 X59.846314 Y51.931779 Z-0.125000 I-0.967052 J-0.813719
G02 X58.805273 Y51.168181 Z-0.125000 I-1.142206 J0.465768
G03 X56.344678 Y50.824138 Z-0.125000 I1.794270 J-21.803729
G03 X55.365687 Y50.486205 Z-0.125000 I0.739335 J-3.728886
G03 X54.456063 Y49.787367 Z-0.125000 I1.401364 J-2.765460
G03 X54.170329 Y49.149502 Z-0.125000 I0.858001 J-0.767275
G02 X54.023927 Y48.731475 Z-0.125000 I-0.989810 J0.112003
G02 X53.820382 Y48.592649 Z-0.125000 I-0.260972 J0.164005
G02 X53.652063 Y48.687865 Z-0.125000 I-0.027892 J0.147076
G02 X53.527153 Y49.386642 Z-0.125000 I1.892115 J0.698778
G02 X53.679158 Y50.177746 Z-0.125000 I2.134642 J0.000000
G02 X54.134318 Y50.908300 Z-0.125000 I2.263507 J-0.903175
G01 X54.134318 Y50.908314 Z-0.125000
G00 Z5.000000

(End cutting path id: path4884)


(Start cutting path id: path4900)
(Change tool to Cylindrical cutter)

G00 Z5.000000
G00 X48.947691 Y52.642524

G01 Z-0.125000 F1000.0(Penetrate)
G03 X49.274549 Y52.194138 Z-0.125000 I1.294785 J0.600525 F1100.000000
G03 X49.946374 Y51.720947 Z-0.125000 I2.122860 J2.300473
G01 X50.700644 Y51.326358 Z-0.125000
G01 X51.026887 Y51.724554 Z-0.125000
G03 X51.307298 Y52.145810 Z-0.125000 I-1.978223 J1.620771
G03 X51.455975 Y52.532511 Z-0.125000 I-1.513803 J0.803950
G03 X50.892290 Y54.037299 Z-0.125000 I-1.371484 J0.344220
G03 X48.849345 Y54.346825 Z-0.125000 I-1.335659 J-1.918945
G03 X48.629729 Y54.142377 Z-0.125000 I0.106033 J-0.334078
G03 X48.591696 Y53.699574 Z-0.125000 I0.714458 J-0.284401
G03 X48.733472 Y53.179545 Z-0.125000 I4.496203 J0.946466
G03 X48.947691 Y52.642524 Z-0.125000 I5.010232 J1.687358
G01 X48.947691 Y52.642524 Z-0.125000
G00 Z5.000000

(End cutting path id: path4900)


(Start cutting path id: path4896)
(Change tool to Cylindrical cutter)

G00 Z5.000000
G00 X48.532096 Y48.222789

G01 Z-0.125000 F1000.0(Penetrate)
G03 X49.788286 Y47.536576 Z-0.125000 I3.316429 J4.578194 F1100.000000
G03 X50.112343 Y47.604355 Z-0.125000 I0.110214 J0.281623
G03 X50.137766 Y47.702456 Z-0.125000 I-0.070654 J0.070654
G03 X49.946944 Y48.183345 Z-0.125000 I-2.504250 J-0.715407
G03 X49.607832 Y48.573185 Z-0.125000 I-0.970676 J-0.501955
G03 X48.887344 Y48.933746 Z-0.125000 I-1.535534 J-2.168235
G03 X48.407339 Y48.732043 Z-0.125000 I-0.122575 J-0.380301
G03 X48.532096 Y48.222789 Z-0.125000 I0.362462 J-0.181113
G01 X48.532096 Y48.222789 Z-0.125000
G00 Z5.000000

(End cutting path id: path4896)


(Start cutting path id: path4898)
(Change tool to Cylindrical cutter)

G00 Z5.000000
G00 X45.254952 Y48.982034

G01 Z-0.125000 F1000.0(Penetrate)
G02 X46.068443 Y49.886488 Z-0.125000 I2.046117 J-1.022271 F1100.000000
G02 X47.414756 Y50.363772 Z-0.125000 I1.699541 J-2.656564
G02 X48.916960 Y50.190121 Z-0.125000 I0.375763 J-3.333782
G02 X50.078869 Y49.414136 Z-0.125000 I-0.961621 J-2.697744
G02 X50.768671 Y48.286661 Z-0.125000 I-2.642593 J-2.391519
G02 X51.013761 Y46.949475 Z-0.125000 I-3.525219 J-1.337185
G02 X50.719499 Y46.531138 Z-0.125000 I-0.444495 J0.000000
G02 X49.837377 Y46.527017 Z-0.125000 I-0.446884 J1.244390
G02 X48.541649 Y47.224062 Z-0.125000 I1.537836 J4.411494
G02 X47.555269 Y48.267916 Z-0.125000 I2.699833 J3.539145
G03 X47.221280 Y48.686217 Z-0.125000 I-2.818516 J-1.907938
G03 X47.123836 Y48.728703 Z-0.125000 I-0.097984 J-0.091742
G03 X46.212026 Y48.339741 Z-0.125000 I-0.004943 J-1.251632
G03 X45.819419 Y47.357388 Z-0.125000 I1.032682 J-0.982353
G02 X45.621007 Y47.258831 Z-0.125000 I-0.123684 J0.000000
G02 X45.217890 Y47.813473 Z-0.125000 I0.715797 J0.944060
G02 X44.992091 Y48.473995 Z-0.125000 I59.696803 J20.776193
G01 X44.994861 Y48.477847 Z-0.125000
G01 X45.000825 Y48.481481 Z-0.125000
G03 X45.254952 Y48.982034 Z-0.125000 I-38.684299 J19.954509
G01 X45.254952 Y48.982034 Z-0.125000
G00 Z5.000000

(End cutting path id: path4898)


(Start cutting path id: path4894)
(Change tool to Cylindrical cutter)

G00 Z5.000000
G00 X46.458819 Y45.107129

G01 Z-0.125000 F1000.0(Penetrate)
G02 X48.739707 Y45.364636 Z-0.125000 I2.160046 J-8.902441 F1100.000000
G02 X50.108180 Y45.058985 Z-0.125000 I-0.045095 J-3.418213
G02 X51.464631 Y43.750958 Z-0.125000 I-1.165218 J-2.565703
G02 X51.490327 Y42.287751 Z-0.125000 I-1.520885 J-0.758538
G02 X51.205614 Y42.125593 Z-0.125000 I-0.254607 J0.116007
G02 X51.013761 Y42.339330 Z-0.125000 I0.023133 J0.213738
G03 X50.624414 Y43.212198 Z-0.125000 I-1.173103 J0.000000
G03 X49.298508 Y43.879471 Z-0.125000 I-1.890365 J-2.105294
G03 X48.243604 Y44.050676 Z-0.125000 I-2.668913 J-13.109268
G03 X46.983430 Y44.160829 Z-0.125000 I-2.261362 J-18.607047
G02 X45.785817 Y44.343772 Z-0.125000 I0.330230 J6.173291
G02 X45.528335 Y44.531954 Z-0.125000 I0.105873 J0.415105
G02 X45.576559 Y44.738428 Z-0.125000 I0.126877 J0.079234
G02 X46.458819 Y45.107129 Z-0.125000 I1.599601 J-2.587736
G01 X46.458819 Y45.107129 Z-0.125000
G00 Z5.000000

(End cutting path id: path4894)


(Start cutting path id: path4888)
(Change tool to Cylindrical cutter)

G00 Z5.000000
G00 X46.267906 Y40.382020

G01 Z-0.125000 F1000.0(Penetrate)
G02 X47.332753 Y41.153953 Z-0.125000 I1.004475 J-0.265208 F1100.000000
G02 X48.165253 Y40.271584 Z-0.125000 I-0.051362 J-0.882369
G02 X48.019306 Y40.100348 Z-0.125000 I-0.173427 J0.000000
G02 X47.714075 Y40.199180 Z-0.125000 I-0.055876 J0.348183
G03 X47.142129 Y40.322320 Z-0.125000 I-0.381331 J-0.381336
G03 X46.824776 Y39.863158 Z-0.125000 I0.173493 J-0.459163
G03 X47.265721 Y39.384622 Z-0.125000 I0.480138 J0.000000
G03 X49.223405 Y39.666706 Z-0.125000 I0.362110 J4.421217
G02 X50.266632 Y39.863416 Z-0.125000 I1.057376 J-2.742983
G02 X51.024231 Y39.675370 Z-0.125000 I0.007650 J-1.589308
G02 X51.712382 Y38.918265 Z-0.125000 I-0.720388 J-1.346068
G02 X51.860797 Y37.674682 Z-0.125000 I-2.110651 J-0.882543
G02 X51.070431 Y36.830690 Z-0.125000 I-1.019860 J0.162989
G02 X49.757065 Y37.195238 Z-0.125000 I-0.318892 J1.399245
G02 X49.775656 Y37.341586 Z-0.125000 I0.063689 J0.066264
G02 X50.130307 Y37.405423 Z-0.125000 I0.269078 J-0.477825
G03 X50.734095 Y37.473898 Z-0.125000 I0.177997 J1.126715
G03 X51.016834 Y37.762123 Z-0.125000 I-0.187978 J0.467192
G03 X51.135671 Y38.230638 Z-0.125000 I-1.970137 J0.749046
G03 X51.109640 Y38.453175 Z-0.125000 I-0.448894 J0.060283
G03 X50.685103 Y38.738320 Z-0.125000 I-0.414990 J-0.159249
G03 X49.432921 Y38.417144 Z-0.125000 I0.061006 J-2.839402
G02 X48.059991 Y37.955564 Z-0.125000 I-2.150557 J4.124022
G02 X47.157587 Y38.031293 Z-0.125000 I-0.303961 J1.792431
G02 X46.349010 Y38.818815 Z-0.125000 I0.439146 J1.259745
G02 X46.267906 Y40.382018 Z-0.125000 I2.399695 J0.908208
G01 X46.267906 Y40.382020 Z-0.125000
G00 Z5.000000

(End cutting path id: path4888)


(Start cutting path id: path4892)
(Change tool to Cylindrical cutter)

G00 Z5.000000
G00 X46.120697 Y34.486635

G01 Z-0.125000 F1000.0(Penetrate)
G02 X47.006894 Y35.452557 Z-0.125000 I2.062887 J-1.003136 F1100.000000
G02 X48.363833 Y35.827112 Z-0.125000 I1.356938 J-2.270683
G02 X49.804391 Y35.443250 Z-0.125000 I0.000000 J-2.894999
G02 X50.505363 Y34.598581 Z-0.125000 I-0.780906 J-1.361252
G02 X50.670009 Y33.641013 Z-0.125000 I-2.790279 J-0.972703
G02 X50.511092 Y33.481281 Z-0.125000 I-0.158916 J-0.000814
G02 X50.390770 Y33.528518 Z-0.125000 I0.000000 J0.176859
G02 X50.343531 Y33.636822 Z-0.125000 I0.100533 J0.108303
G03 X50.275135 Y33.737585 Z-0.125000 I-0.108421 J0.000000
G03 X49.446637 Y33.993082 Z-0.125000 I-2.028556 J-5.106939
G03 X48.031581 Y33.998874 Z-0.125000 I-0.720722 J-3.220523
G03 X47.019670 Y33.470776 Z-0.125000 I0.451762 J-2.099171
G03 X46.850005 Y32.976656 Z-0.125000 I0.378344 J-0.406101
G03 X47.177218 Y32.489890 Z-0.125000 I0.690697 J0.110937
G03 X48.416462 Y32.069170 Z-0.125000 I1.564350 J2.572362
G03 X49.838035 Y32.200875 Z-0.125000 I0.386889 J3.561877
G03 X50.440372 Y32.573956 Z-0.125000 I-0.395582 J1.311441
G03 X50.822293 Y33.247603 Z-0.125000 I-1.192078 J1.120931
G02 X51.055768 Y34.067615 Z-0.125000 I797.968248 J-226.755584
G02 X51.124494 Y34.306936 Z-0.125000 I68.449517 J-19.527094
G02 X51.404368 Y34.348862 Z-0.125000 I0.149554 J-0.043234
G02 X51.746805 Y33.354611 Z-0.125000 I-1.799379 J-1.175833
G02 X51.448463 Y32.137122 Z-0.125000 I-1.956453 J-0.165875
G02 X50.560625 Y31.484324 Z-0.125000 I-1.281507 J0.812763
G02 X47.643168 Y31.434397 Z-0.125000 I-1.558443 J5.801819
G02 X46.159643 Y32.506415 Z-0.125000 I0.534736 J2.302507
G02 X45.889252 Y33.434195 Z-0.125000 I1.581480 J0.964196
G02 X46.120705 Y34.486635 Z-0.125000 I2.302615 J0.045279
G01 X46.120697 Y34.486635 Z-0.125000
G00 Z5.000000

(End cutting path id: path4892)


(Start cutting path id: path4886)
(Change tool to Cylindrical cutter)

G00 Z5.000000
G00 X47.536905 Y29.867151

G01 Z-0.125000 F1000.0(Penetrate)
G02 X50.246910 Y29.970658 Z-0.125000 I2.323338 J-25.301089 F1100.000000
G02 X51.055651 Y29.813594 Z-0.125000 I-0.035683 J-2.344420
G02 X51.373266 Y29.537507 Z-0.125000 I-0.222748 J-0.576990
G02 X51.516441 Y28.986102 Z-0.125000 I-0.990215 J-0.551405
G02 X51.089802 Y27.766487 Z-0.125000 I-1.956549 J0.000000
G02 X49.924626 Y26.989297 Z-0.125000 I-1.797657 J1.433058
G03 X48.652441 Y26.292792 Z-0.125000 I0.905312 J-3.163667
G03 X48.332811 Y25.584373 Z-0.125000 I0.625245 J-0.708419
G03 X48.478882 Y25.239709 Z-0.125000 I0.479661 J0.000000
G03 X48.929883 Y25.006483 Z-0.125000 I0.613706 J0.634079
G03 X49.527720 Y24.950877 Z-0.125000 I0.597978 J3.187482
G03 X50.228466 Y25.006427 Z-0.125000 I0.000193 J4.445228
G02 X52.214809 Y25.178235 Z-0.125000 I2.184640 J-13.689124
G02 X52.906213 Y25.044736 Z-0.125000 I0.024736 J-1.729058
G02 X53.609139 Y24.462065 Z-0.125000 I-0.602666 J-1.442381
G02 X53.528931 Y24.099051 Z-0.125000 I-0.216466 J-0.142540
G02 X53.307487 Y24.053373 Z-0.125000 I-0.173262 J0.280347
G02 X52.708607 Y24.220288 Z-0.125000 I0.364247 J2.464717
G03 X52.090305 Y24.357648 Z-0.125000 I-0.690280 J-1.646908
G03 X51.078221 Y24.286057 Z-0.125000 I-0.184702 J-4.578593
G02 X48.687794 Y24.152882 Z-0.125000 I-1.721311 J9.376579
G02 X47.906297 Y24.509236 Z-0.125000 I0.086119 J1.223965
G02 X47.452907 Y25.933489 Z-0.125000 I1.150547 J1.150552
G02 X48.492388 Y27.943838 Z-0.125000 I3.677354 J-0.627517
G01 X49.132883 Y28.584330 Z-0.125000
G01 X48.523398 Y28.685128 Z-0.125000
G03 X47.911815 Y28.760846 Z-0.125000 I-1.234958 J-7.467207
G03 X47.281417 Y28.787773 Z-0.125000 I-0.653574 J-7.908337
G02 X46.742765 Y28.925240 Z-0.125000 I0.003060 J1.136048
G02 X46.485511 Y29.219423 Z-0.125000 I0.267901 J0.493844
G02 X46.330596 Y29.650790 Z-0.125000 I11.554826 J4.393154
G02 X46.322099 Y29.702415 Z-0.125000 I0.152588 J0.051626
G01 X46.347953 Y29.732012 Z-0.125000
G02 X47.536905 Y29.867151 Z-0.125000 I3.720984 J-27.439428
G01 X47.536905 Y29.867151 Z-0.125000
G00 Z5.000000

(End cutting path id: path4886)


(Start cutting path id: path4890)
(Change tool to Cylindrical cutter)

G00 Z5.000000
G00 X46.184050 Y24.265511

G01 Z-0.125000 F1000.0(Penetrate)
G02 X46.374090 Y24.202474 Z-0.125000 I0.000000 J-0.317978 F1100.000000
G02 X46.605027 Y23.951697 Z-0.125000 I-0.550908 J-0.739044
G03 X46.854433 Y23.698486 Z-0.125000 I0.691978 J0.432145
G03 X47.818249 Y23.168257 Z-0.125000 I4.239555 J6.565290
G02 X48.785513 Y22.666658 Z-0.125000 I-4.978848 J-10.784422
G02 X48.835488 Y22.580030 Z-0.125000 I-0.050093 J-0.086628
G02 X48.785844 Y22.502478 Z-0.125000 I-0.085395 J-0.000000
G02 X48.395958 Y22.377405 Z-0.125000 I-0.706926 J1.533454
G02 X47.975935 Y22.400490 Z-0.125000 I-0.163609 J0.855826
G02 X47.235003 Y22.734879 Z-0.125000 I0.957559 J3.109805
G02 X46.581209 Y23.289524 Z-0.125000 I1.455436 J2.378268
G02 X46.020282 Y24.139844 Z-0.125000 I2.977532 J2.574350
G02 X46.038232 Y24.216011 Z-0.125000 I0.055606 J0.027095
G02 X46.184050 Y24.265511 Z-0.125000 I0.145818 J-0.190027
G01 X46.184050 Y24.265511 Z-0.125000
G00 Z5.000000

(End cutting path id: path4890)


(Start cutting path id: path4904)
(Change tool to Cylindrical cutter)

G00 Z5.000000
G00 X39.410273 Y27.389844

G01 Z-0.125000 F1000.0(Penetrate)
G03 X39.882795 Y27.187318 Z-0.125000 I1.734505 J3.394355 F1100.000000
G03 X40.415628 Y27.037109 Z-0.125000 I1.463470 J4.171157
G03 X40.840042 Y27.068622 Z-0.125000 I0.158669 J0.736797
G03 X40.960198 Y27.242298 Z-0.125000 I-0.065440 J0.173677
G03 X40.621058 Y27.870309 Z-0.125000 I-0.751036 J-0.000000
G03 X39.756645 Y28.031680 Z-0.125000 I-0.625229 J-0.953276
G03 X39.313886 Y27.699506 Z-0.125000 I0.138599 J-0.645907
G03 X39.410273 Y27.389844 Z-0.125000 I0.199585 J-0.107708
G01 X39.410273 Y27.389844 Z-0.125000
G00 Z5.000000

(End cutting path id: path4904)


(Start cutting path id: path4906)
(Change tool to Cylindrical cutter)

G00 Z5.000000
G00 X37.673579 Y34.251112

G01 Z-0.125000 F1000.0(Penetrate)
G02 X38.139127 Y34.281542 Z-0.125000 I0.281762 J-0.734257 F1100.000000
G02 X41.743289 Y33.272998 Z-0.125000 I-11.827294 J-49.210579
G02 X43.293844 Y32.589501 Z-0.125000 I-2.456591 J-7.673444
G02 X43.545718 Y32.239712 Z-0.125000 I-0.259279 J-0.452279
G02 X43.596252 Y31.766440 Z-0.125000 I-2.553485 J-0.511987
G02 X43.554297 Y31.662971 Z-0.125000 I-0.143311 J-0.002131
G02 X43.448450 Y31.623972 Z-0.125000 I-0.095175 J0.095175
G02 X42.003207 Y31.786358 Z-0.125000 I1.773366 J22.295513
G03 X40.540670 Y31.994207 Z-0.125000 I-32.957552 J-226.658151
G03 X39.853247 Y32.084825 Z-0.125000 I-6.932070 J-49.933332
G01 X39.165189 Y32.170720 Z-0.125000
G01 X39.067853 Y31.443636 Z-0.125000
G02 X38.873774 Y30.776996 Z-0.125000 I-2.299228 J0.307805
G02 X38.624886 Y30.486663 Z-0.125000 I-0.638614 J0.295606
G03 X38.400670 Y30.191712 Z-0.125000 I0.313057 J-0.470677
G03 X38.279254 Y29.429916 Z-0.125000 I2.329144 J-0.761797
G03 X38.436405 Y28.905076 Z-0.125000 I0.954979 J-0.000000
G03 X38.651657 Y28.863896 Z-0.125000 I0.127627 J0.083958
G02 X39.049509 Y29.044025 Z-0.125000 I0.677901 J-0.967855
G02 X39.720907 Y29.124735 Z-0.125000 I0.671398 J-2.752208
G02 X40.342985 Y28.973675 Z-0.125000 I0.000000 J-1.356413
G02 X40.870144 Y28.531619 Z-0.125000 I-0.718491 J-1.392165
G02 X41.496619 Y27.274862 Z-0.125000 I-2.968865 J-2.264457
G02 X41.389018 Y26.680346 Z-0.125000 I-0.665547 J-0.186539
G02 X41.123401 Y26.515625 Z-0.125000 I-0.336452 J0.246020
G02 X40.308959 Y26.494082 Z-0.125000 I-0.481331 J2.791041
G02 X39.471842 Y26.678614 Z-0.125000 I0.509564 J4.302646
G02 X38.969809 Y26.931995 Z-0.125000 I0.579614 J1.772445
G03 X38.510408 Y27.133928 Z-0.125000 I-0.716182 J-1.005786
G03 X38.305492 Y27.073236 Z-0.125000 I-0.046571 J-0.219037
G03 X38.125662 Y26.523756 Z-0.125000 I0.452146 J-0.452142
G03 X38.525922 Y25.642098 Z-0.125000 I1.772493 J0.273001
G02 X38.754917 Y25.105814 Z-0.125000 I-0.764967 J-0.643676
G02 X38.602237 Y24.935750 Z-0.125000 I-0.152680 J-0.016496
G02 X38.503482 Y24.982461 Z-0.125000 I0.000000 J0.127748
G02 X37.959928 Y25.718493 Z-0.125000 I6.928064 J5.685044
G02 X37.509917 Y26.942922 Z-0.125000 I2.356853 J1.561116
G02 X37.692181 Y27.950631 Z-0.125000 I1.729728 J0.207483
G03 X37.827876 Y28.403645 Z-0.125000 I-1.134404 J0.586628
G03 X37.755379 Y28.551378 Z-0.125000 I-0.153801 J0.016180
G02 X37.656588 Y28.713089 Z-0.125000 I0.110247 J0.178383
G02 X37.647344 Y29.905982 Z-0.125000 I8.283743 J0.660673
G02 X37.847143 Y31.092523 Z-0.125000 I5.854318 J-0.375704
G02 X38.099032 Y31.540867 Z-0.125000 I1.032895 J-0.285371
G01 X38.471224 Y31.937048 Z-0.125000
G01 X38.056510 Y32.332156 Z-0.125000
G02 X37.336614 Y33.639694 Z-0.125000 I1.707118 J1.791841
G02 X37.673588 Y34.251112 Z-0.125000 I0.530942 J0.105948
G01 X37.673579 Y34.251112 Z-0.125000
G00 Z5.000000

(End cutting path id: path4906)


(Start cutting path id: path4910)
(Change tool to Cylindrical cutter)

G00 Z5.000000
G00 X35.269642 Y37.270664

G01 Z-0.125000 F1000.0(Penetrate)
G02 X36.193085 Y38.157794 Z-0.125000 I1.692849 J-0.837958 F1100.000000
G02 X38.231860 Y38.591843 Z-0.125000 I2.038775 J-4.571149
G01 X39.452107 Y38.591843 Z-0.125000
G01 X39.452135 Y39.234152 Z-0.125000
G02 X39.682975 Y39.465355 Z-0.125000 I0.231213 J-0.000009
G02 X39.965684 Y39.234999 Z-0.125000 I0.000466 J-0.288087
G03 X40.316577 Y38.599509 Z-0.125000 I1.192673 J0.243928
G03 X40.945915 Y38.296720 Z-0.125000 I0.779124 J0.813961
G02 X41.591178 Y38.145362 Z-0.125000 I-0.454561 J-3.388964
G02 X42.522959 Y37.760994 Z-0.125000 I-2.543698 J-7.488010
G02 X43.312592 Y37.219340 Z-0.125000 I-1.444112 J-2.951653
G02 X43.533955 Y36.823938 Z-0.125000 I-0.500257 J-0.539730
G02 X43.582423 Y36.337690 Z-0.125000 I-2.447369 J-0.489489
G02 X43.535084 Y36.080358 Z-0.125000 I-0.718011 J-0.000932
G02 X43.147753 Y35.813641 Z-0.125000 I-0.388029 J0.148899
G02 X41.364036 Y36.076718 Z-0.125000 I-0.010262 J6.108971
G03 X40.540301 Y36.318932 Z-0.125000 I-14.572574 J-48.037232
G03 X40.481442 Y36.328059 Z-0.125000 I-0.066162 J-0.232331
G01 X40.457108 Y36.301382 Z-0.125000
G03 X40.539569 Y35.869084 Z-0.125000 I3.493819 J0.442433
G02 X40.732905 Y34.746009 Z-0.125000 I-6.856817 J-1.758573
G02 X40.649071 Y34.654278 Z-0.125000 I-0.083834 J-0.007557
G02 X40.376355 Y34.802940 Z-0.125000 I0.000000 J0.324476
G02 X40.000942 Y35.659633 Z-0.125000 I2.473042 J1.594318
G01 X39.849078 Y36.246090 Z-0.125000
G01 X37.982895 Y36.245526 Z-0.125000
G03 X36.159888 Y36.144722 Z-0.125000 I0.006899 J-16.659372
G03 X35.899494 Y36.015131 Z-0.125000 I0.046368 J-0.419579
G03 X35.818291 Y35.817353 Z-0.125000 I0.216103 J-0.204286
G03 X35.892777 Y35.708200 Z-0.125000 I0.113576 J-0.002486
G02 X36.006688 Y35.597649 Z-0.125000 I-0.067114 J-0.183115
G02 X35.994349 Y35.454815 Z-0.125000 I-0.147668 J-0.059193
G03 X35.992587 Y35.298680 Z-0.125000 I0.128686 J-0.079530
G03 X36.266766 Y34.990927 Z-0.125000 I0.908960 J0.533790
G02 X36.560440 Y34.676027 Z-0.125000 I-0.748756 J-0.992673
G02 X36.582254 Y34.505713 Z-0.125000 I-0.165779 J-0.107787
G02 X36.125170 Y34.367101 Z-0.125000 I-0.277623 J0.092543
G02 X35.145275 Y35.621335 Z-0.125000 I1.992769 J2.566790
G02 X35.019052 Y36.355731 Z-0.125000 I1.401866 J0.618987
G02 X35.269850 Y37.270789 Z-0.125000 I2.477405 J-0.187107
G01 X35.269642 Y37.270664 Z-0.125000
G00 Z5.000000

(End cutting path id: path4910)


(Start cutting path id: path4918)
(Change tool to Cylindrical cutter)

G00 Z5.000000
G00 X27.191657 Y26.584563

G01 Z-0.125000 F1000.0(Penetrate)
G02 X27.727023 Y26.985043 Z-0.125000 I2.095584 J-2.243317 F1100.000000
G02 X28.346767 Y27.266245 Z-0.125000 I1.616651 J-2.739423
G01 X29.004523 Y27.483322 Z-0.125000
G01 X28.684279 Y28.130596 Z-0.125000
G02 X28.490168 Y29.261286 Z-0.125000 I1.801393 J0.891262
G02 X28.928040 Y30.162212 Z-0.125000 I1.521334 J-0.182535
G03 X29.067011 Y30.499070 Z-0.125000 I-0.335508 J0.335508
G03 X28.926065 Y30.857280 Z-0.125000 I-0.529492 J-0.001506
G02 X28.616259 Y31.394598 Z-0.125000 I1.024203 J0.948507
G02 X28.541605 Y32.104567 Z-0.125000 I1.767285 J0.544741
G02 X28.626560 Y32.278166 Z-0.125000 I0.269185 J-0.024146
G02 X29.137892 Y32.660099 Z-0.125000 I2.008914 J-2.156285
G03 X29.448336 Y33.186052 Z-0.125000 I-0.321014 J0.544075
G03 X29.161458 Y33.481281 Z-0.125000 I-0.286878 J0.008233
G02 X28.811371 Y33.539010 Z-0.125000 I0.000000 J1.090372
G02 X28.473584 Y33.714487 Z-0.125000 I0.402904 J1.188434
G02 X28.440625 Y34.152509 Z-0.125000 I0.170429 J0.233075
G02 X29.251656 Y34.486635 Z-0.125000 I0.811031 J-0.817253
G03 X29.827647 Y34.560366 Z-0.125000 I0.000000 J2.286715
G03 X29.901377 Y34.655743 Z-0.125000 I-0.024825 J0.095377
G03 X29.838088 Y34.789487 Z-0.125000 I-0.172963 J0.000000
G03 X29.075324 Y35.333127 Z-0.125000 I-4.395113 J-5.359729
G02 X28.145096 Y36.368770 Z-0.125000 I1.286934 J2.091532
G02 X28.235825 Y37.095910 Z-0.125000 I0.614350 J0.292575
G03 X28.291474 Y37.328098 Z-0.125000 I-0.207980 J0.172609
G03 X28.124977 Y37.586392 Z-0.125000 I-0.436714 J-0.098697
G03 X27.797884 Y37.802328 Z-0.125000 I-1.836842 J-2.426692
G03 X27.694210 Y37.832495 Z-0.125000 I-0.114593 J-0.200580
G02 X27.271898 Y38.175964 Z-0.125000 I0.021687 J0.458027
G02 X27.303956 Y39.345065 Z-0.125000 I2.049460 J0.528792
G02 X28.233055 Y40.108789 Z-0.125000 I1.053217 J-0.334275
G02 X30.208649 Y39.673417 Z-0.125000 I0.351165 J-3.106543
G02 X30.577243 Y39.259737 Z-0.125000 I-0.492533 J-0.809904
G02 X30.739173 Y38.520415 Z-0.125000 I-1.606791 J-0.739322
G02 X30.485760 Y37.926728 Z-0.125000 I-0.822141 J0.000000
G02 X30.189543 Y37.993893 Z-0.125000 I-0.125919 J0.131445
G03 X29.894455 Y38.407474 Z-0.125000 I-0.928661 J-0.350531
G03 X29.352283 Y38.688120 Z-0.125000 I-0.914841 J-1.103331
G03 X28.277332 Y38.750661 Z-0.125000 I-0.687932 J-2.554780
G03 X28.058223 Y38.496770 Z-0.125000 I0.037542 J-0.253890
G03 X28.112215 Y38.394497 Z-0.125000 I0.123861 J0.000000
G03 X28.286967 Y38.340504 Z-0.125000 I0.174752 J0.255801
G02 X28.497912 Y38.289099 Z-0.125000 I0.000000 J-0.458519
G02 X28.957202 Y37.993224 Z-0.125000 I-1.335715 J-2.577864
G02 X29.437599 Y37.124470 Z-0.125000 I-0.789623 J-1.003840
G02 X29.124778 Y36.417775 Z-0.125000 I-0.769706 J-0.081870
G03 X29.081234 Y36.226444 Z-0.125000 I0.088262 J-0.120707
G03 X29.420863 Y35.865192 Z-0.125000 I0.841591 J0.450939
G02 X29.965324 Y35.481640 Z-0.125000 I-2.912670 J-4.712821
G02 X30.377839 Y35.101002 Z-0.125000 I-2.455692 J-3.075194
G02 X30.712189 Y34.180064 Z-0.125000 I-0.904179 J-0.849429
G02 X30.289559 Y33.572026 Z-0.125000 I-0.707474 J0.040848
G03 X30.057131 Y33.342003 Z-0.125000 I0.183370 J-0.417728
G03 X30.013783 Y32.961134 Z-0.125000 I0.571359 J-0.257929
G02 X29.880983 Y32.273740 Z-0.125000 I-0.906730 J-0.181351
G02 X29.242495 Y31.781544 Z-0.125000 I-1.026220 J0.671007
G03 X29.077211 Y31.423166 Z-0.125000 I0.085592 J-0.256778
G03 X29.504149 Y31.135447 Z-0.125000 I0.426938 J0.172900
G02 X30.747205 Y30.640802 Z-0.125000 I0.000000 J-1.809239
G02 X31.241853 Y29.492301 Z-0.125000 I-1.086001 J-1.148501
G03 X31.272789 Y29.237729 Z-0.125000 I1.062906 J-0.000000
G03 X31.443671 Y28.674195 Z-0.125000 I5.441126 J1.342245
G02 X31.513315 Y28.145529 Z-0.125000 I-1.169933 J-0.423044
G02 X31.372884 Y27.843480 Z-0.125000 I-0.483696 J0.041215
G02 X30.841386 Y27.693499 Z-0.125000 I-0.399699 J0.399699
G02 X30.571615 Y28.035600 Z-0.125000 I0.082026 J0.342101
G02 X30.639554 Y28.250757 Z-0.125000 I0.374662 J0.000000
G02 X30.822954 Y28.393903 Z-0.125000 I0.326115 J-0.228761
G03 X30.941825 Y29.011651 Z-0.125000 I-0.132715 J0.345849
G03 X29.703787 Y29.429464 Z-0.125000 I-1.085392 J-1.173022
G03 X29.277559 Y29.243542 Z-0.125000 I0.071535 J-0.745524
G03 X29.091391 Y28.884736 Z-0.125000 I0.376131 J-0.422857
G03 X29.154345 Y28.442862 Z-0.125000 I0.879267 J-0.100150
G03 X29.426510 Y28.084204 Z-0.125000 I0.830617 J0.347712
G03 X30.494793 Y27.434314 Z-0.125000 I3.174557 J4.015347
G03 X31.204259 Y27.281581 Z-0.125000 I0.709466 J1.571413
G02 X31.450962 Y27.237538 Z-0.125000 I0.000000 J-0.712969
G02 X32.368434 Y26.852228 Z-0.125000 I-3.889932 J-10.547373
G03 X33.288033 Y26.498950 Z-0.125000 I2.807626 J5.934862
G03 X33.641298 Y26.470048 Z-0.125000 I0.244413 J0.814025
G02 X34.200385 Y26.315287 Z-0.125000 I0.095746 J-0.741361
G02 X34.425481 Y25.850644 Z-0.125000 I-0.367010 J-0.464643
G02 X34.268840 Y25.621177 Z-0.125000 I-0.246396 J0.000000
G02 X33.629575 Y25.539330 Z-0.125000 I-0.482959 J1.234737
G02 X32.838968 Y25.663359 Z-0.125000 I1.260047 J10.613849
G02 X31.503180 Y25.955021 Z-0.125000 I5.985303 J30.616932
G03 X28.892212 Y26.261449 Z-0.125000 I-2.575517 J-10.668300
G03 X27.764994 Y25.942942 Z-0.125000 I0.007038 J-2.178810
G03 X27.305417 Y25.563190 Z-0.125000 I1.088563 J-1.785354
G03 X27.220427 Y25.343146 Z-0.125000 I0.242359 J-0.220044
G02 X27.010554 Y25.232453 Z-0.125000 I-0.134128 J0.000000
G02 X26.747964 Y25.666446 Z-0.125000 I0.346173 J0.505891
G02 X26.816596 Y26.075223 Z-0.125000 I0.734769 J0.086785
G02 X27.191758 Y26.584563 Z-0.125000 I1.551532 J-0.749969
G01 X27.191657 Y26.584563 Z-0.125000
G00 Z5.000000

(End cutting path id: path4918)


(Start cutting path id: path4914)
(Change tool to Cylindrical cutter)

G00 Z5.000000
G00 X28.032199 Y22.066817

G01 Z-0.125000 F1000.0(Penetrate)
G02 X28.339754 Y22.073120 Z-0.125000 I0.156002 J-0.105399 F1100.000000
G02 X28.480230 Y21.458953 Z-0.125000 I-0.635713 J-0.468553
G03 X28.547835 Y21.063567 Z-0.125000 I0.567426 J-0.106450
G03 X28.758411 Y20.977735 Z-0.125000 I0.160629 J0.092856
G02 X30.159737 Y21.193495 Z-0.125000 I1.596942 J-5.713311
G02 X31.873108 Y21.080495 Z-0.125000 I0.286901 J-8.695911
G02 X33.146593 Y20.814865 Z-0.125000 I-2.605121 J-15.674931
G02 X33.378135 Y20.701671 Z-0.125000 I-0.152235 J-0.604814
G03 X33.498777 Y20.764640 Z-0.125000 I0.045999 J0.058925
G03 X33.336244 Y21.474938 Z-0.125000 I-2.139941 J-0.115925
G02 X33.155010 Y22.158494 Z-0.125000 I2.395645 J1.000970
G02 X33.240182 Y22.254799 Z-0.125000 I0.085171 J0.010491
G02 X33.354645 Y22.191233 Z-0.125000 I-0.000000 J-0.134841
G02 X33.826639 Y21.312973 Z-0.125000 I-6.637842 J-4.133263
G02 X34.225640 Y19.857174 Z-0.125000 I-4.259202 J-1.949928
G02 X34.151788 Y18.247774 Z-0.125000 I-5.306427 J-0.562890
G02 X33.908158 Y18.157427 Z-0.125000 I-0.149667 J0.029933
G02 X33.708535 Y18.594039 Z-0.125000 I0.320749 J0.410591
G01 X33.745709 Y19.337418 Z-0.125000
G01 X31.681144 Y19.268685 Z-0.125000
G02 X29.635861 Y19.282311 Z-0.125000 I-0.852160 J25.595886
G02 X29.278281 Y19.381007 Z-0.125000 I0.039123 J0.838861
G03 X29.034996 Y19.270255 Z-0.125000 I-0.079353 J-0.148272
G03 X29.107506 Y18.634859 Z-0.125000 I0.938309 J-0.214757
G02 X29.338154 Y17.919491 Z-0.125000 I-2.416319 J-1.173935
G02 X29.269154 Y17.701787 Z-0.125000 I-0.244369 J-0.042335
G02 X28.632830 Y17.824585 Z-0.125000 I-0.276627 J0.276627
G02 X27.931088 Y20.830545 Z-0.125000 I8.160448 J3.489950
G02 X27.944425 Y21.817021 Z-0.125000 I7.240659 J0.395432
G02 X28.032199 Y22.066817 Z-0.125000 I0.520462 J-0.042563
G01 X28.032199 Y22.066817 Z-0.125000
G00 Z5.000000

(End cutting path id: path4914)


(Start cutting path id: path4916)
(Change tool to Cylindrical cutter)

G00 Z5.000000
G00 X27.712094 Y15.887542

G01 Z-0.125000 F1000.0(Penetrate)
G02 X27.864368 Y15.864984 Z-0.125000 I0.000000 J-0.525233 F1100.000000
G02 X28.340442 Y15.697200 Z-0.125000 I-1.637466 J-5.405483
G03 X28.820671 Y15.558197 Z-0.125000 I0.920561 J2.281326
G03 X29.254518 Y15.530900 Z-0.125000 I0.332919 J1.829921
G02 X29.638528 Y15.464883 Z-0.125000 I0.047492 J-0.873614
G02 X29.792075 Y15.306912 Z-0.125000 I-0.107579 J-0.258175
G02 X29.503152 Y14.736310 Z-0.125000 I-0.402717 J-0.154534
G02 X28.230223 Y14.879754 Z-0.125000 I-0.456468 J1.669007
G02 X27.530929 Y15.590694 Z-0.125000 I0.790354 J1.476798
G02 X27.712094 Y15.887542 Z-0.125000 I0.181166 J0.093141
G01 X27.712094 Y15.887542 Z-0.125000
G00 Z5.000000

(End cutting path id: path4916)


(Start cutting path id: path4928)
(Change tool to Cylindrical cutter)

G00 Z5.000000
G00 X18.750658 Y35.319417

G01 Z-0.125000 F1000.0(Penetrate)
G02 X19.248088 Y35.604744 Z-0.125000 I0.856655 J-0.917199 F1100.000000
G02 X20.316659 Y35.787220 Z-0.125000 I1.283685 J-4.297215
G02 X21.588047 Y35.521665 Z-0.125000 I0.124011 J-2.582545
G02 X21.914276 Y34.996077 Z-0.125000 I-0.260272 J-0.525587
G02 X21.559562 Y34.344455 Z-0.125000 I-0.775883 J-0.000000
G02 X20.303549 Y33.954999 Z-0.125000 I-1.323153 J2.047149
G03 X19.639428 Y33.710175 Z-0.125000 I0.030467 J-1.105820
G03 X19.683688 Y33.454941 Z-0.125000 I0.093033 J-0.115322
G02 X20.390444 Y32.612484 Z-0.125000 I-0.353599 J-1.014327
G02 X19.987238 Y31.582190 Z-0.125000 I-1.073371 J-0.173980
G01 X19.456527 Y31.166847 Z-0.125000
G01 X20.287539 Y30.655522 Z-0.125000
G02 X21.040334 Y30.069009 Z-0.125000 I-2.272160 J-3.692704
G02 X21.488488 Y29.485982 Z-0.125000 I-1.796189 J-1.844426
G02 X21.919416 Y28.004615 Z-0.125000 I-2.963004 J-1.665298
G02 X21.595822 Y27.505411 Z-0.125000 I-0.504663 J-0.027350
G02 X21.251821 Y27.624818 Z-0.125000 I-0.101190 J0.263703
G02 X20.974547 Y28.550844 Z-0.125000 I1.711105 J1.016869
G03 X20.756746 Y29.204737 Z-0.125000 I-1.263809 J-0.057734
G03 X20.376605 Y29.429749 Z-0.125000 I-0.429707 J-0.292341
G03 X19.508528 Y29.180347 Z-0.125000 I-0.117504 J-1.226441
G03 X19.177474 Y28.508565 Z-0.125000 I0.516071 J-0.671783
G03 X19.580117 Y27.539320 Z-0.125000 I1.367908 J-0.000000
G03 X21.586546 Y26.109379 Z-0.125000 I5.319441 J5.341367
G03 X22.634780 Y25.669263 Z-0.125000 I4.345988 J8.882576
G03 X23.869136 Y25.301950 Z-0.125000 I4.231687 J11.962906
G02 X25.004566 Y24.885901 Z-0.125000 I-1.269165 J-5.221014
G02 X25.177237 Y24.647324 Z-0.125000 I-0.142624 J-0.284998
G02 X25.080301 Y24.406401 Z-0.125000 I-0.254674 J-0.037495
G02 X24.590779 Y24.192582 Z-0.125000 I-0.667426 J0.860753
G02 X23.950299 Y24.137313 Z-0.125000 I-0.673906 J4.070749
G02 X22.482852 Y24.175508 Z-0.125000 I-0.174281 J21.512665
G01 X21.012788 Y24.264030 Z-0.125000
G01 X21.268047 Y23.770415 Z-0.125000
G02 X21.379530 Y22.663993 Z-0.125000 I-1.342184 J-0.694066
G02 X20.838118 Y22.254799 Z-0.125000 I-0.541413 J0.153580
G03 X20.575361 Y22.197511 Z-0.125000 I-0.000000 J-0.631214
G03 X20.186867 Y21.956643 Z-0.125000 I0.759134 J-1.658135
G03 X19.959234 Y21.606796 Z-0.125000 I0.426130 J-0.526249
G03 X19.936675 Y21.029405 Z-0.125000 I1.253002 J-0.338092
G03 X20.118876 Y20.426768 Z-0.125000 I2.866084 J0.537673
G03 X20.453878 Y19.812084 Z-0.125000 I3.318455 J1.409922
G02 X20.772955 Y19.168524 Z-0.125000 I-2.192720 J-1.488028
G02 X20.702976 Y19.071169 Z-0.125000 I-0.069979 J-0.023527
G02 X20.066589 Y19.450340 Z-0.125000 I0.000000 J0.723629
G02 X19.407897 Y21.463824 Z-0.125000 I5.204667 J2.817140
G02 X19.468792 Y22.181240 Z-0.125000 I1.627843 J0.223121
G02 X19.813239 Y22.748782 Z-0.125000 I1.332238 J-0.420256
G02 X20.353817 Y23.189651 Z-0.125000 I2.439977 J-2.439953
G02 X20.588839 Y23.260157 Z-0.125000 I0.235023 J-0.356459
G03 X20.791122 Y23.322101 Z-0.125000 I0.000000 J0.361256
G03 X20.853067 Y23.438730 Z-0.125000 I-0.078821 J0.116629
G03 X20.655833 Y24.068282 Z-0.125000 I-1.103354 J0.000000
G03 X20.278643 Y24.265511 Z-0.125000 I-0.377190 J-0.262063
G02 X20.015402 Y24.433203 Z-0.125000 I0.000000 J0.290463
G02 X19.847710 Y25.189501 Z-0.125000 I1.621623 J0.756298
G02 X20.133783 Y25.694455 Z-0.125000 I0.588689 J-0.000000
G02 X20.684008 Y25.690694 Z-0.125000 I0.272023 J-0.453904
G03 X20.805601 Y25.671345 Z-0.125000 I0.083952 J0.135839
G03 X20.853067 Y25.731701 Z-0.125000 I-0.014639 J0.060356
G03 X20.803169 Y25.854347 Z-0.125000 I-0.175675 J0.000000
G03 X19.956069 Y26.651602 Z-0.125000 I-9.707966 J-9.466258
G02 X19.131123 Y27.480877 Z-0.125000 I5.045240 J5.843853
G02 X18.764812 Y28.046118 Z-0.125000 I1.946423 J1.662722
G02 X18.545670 Y29.327465 Z-0.125000 I2.172643 J1.030987
G02 X18.984000 Y30.140091 Z-0.125000 I1.206584 J-0.126299
G03 X19.144830 Y30.421650 Z-0.125000 I-0.286840 J0.350561
G03 X19.072874 Y30.716685 Z-0.125000 I-0.392669 J0.060525
G02 X18.828823 Y31.471843 Z-0.125000 I1.021996 J0.747302
G02 X19.082300 Y32.234448 Z-0.125000 I1.298149 J-0.008055
G03 X19.137206 Y32.535691 Z-0.125000 I-0.280203 J0.206695
G03 X18.893231 Y32.904576 Z-0.125000 I-0.699086 J-0.197240
G02 X18.582157 Y33.312960 Z-0.125000 I0.669157 J0.832379
G02 X18.385889 Y34.077492 Z-0.125000 I2.317336 J1.002357
G02 X18.459816 Y34.847771 Z-0.125000 I2.039376 J0.192959
G02 X18.750675 Y35.319417 Z-0.125000 I1.007902 J-0.296055
G01 X18.750658 Y35.319417 Z-0.125000
G00 Z5.000000

(End cutting path id: path4928)


(Start cutting path id: path4934)
(Change tool to Cylindrical cutter)

G00 Z5.000000
G00 X16.487366 Y36.413570

G01 Z-0.125000 F1000.0(Penetrate)
G02 X16.661758 Y36.722476 Z-0.125000 I1.311964 J-0.536987 F1100.000000
G02 X16.962574 Y37.052639 Z-0.125000 I1.803524 J-1.341094
G02 X17.920833 Y37.584862 Z-0.125000 I1.639922 J-1.823876
G02 X19.669611 Y37.835837 Z-0.125000 I1.770782 J-6.120526
G01 X20.245527 Y37.837812 Z-0.125000
G01 X19.795281 Y38.307769 Z-0.125000
G02 X19.301182 Y39.322492 Z-0.125000 I1.332235 J1.276364
G02 X19.555418 Y39.982097 Z-0.125000 I0.716476 J0.102642
G02 X19.784437 Y40.118808 Z-0.125000 I0.553282 J-0.666680
G02 X20.267546 Y40.269527 Z-0.125000 I1.167418 J-2.892382
G03 X21.144114 Y40.607701 Z-0.125000 I-0.703571 J3.128843
G03 X21.176491 Y40.784193 Z-0.125000 I-0.057635 J0.101788
G03 X20.958445 Y40.976405 Z-0.125000 I-0.721851 J-0.599089
G03 X20.803856 Y41.021440 Z-0.125000 I-0.154589 J-0.242804
G02 X20.644454 Y41.063847 Z-0.125000 I-0.000000 J0.320787
G02 X20.325374 Y41.295419 Z-0.125000 I0.910739 J1.590516
G03 X19.996209 Y41.510607 Z-0.125000 I-0.846162 J-0.934989
G03 X19.616736 Y41.613951 Z-0.125000 I-0.517117 J-1.150442
G02 X18.121858 Y42.064611 Z-0.125000 I0.466871 J4.253302
G02 X17.836998 Y42.532102 Z-0.125000 I0.241174 J0.467491
G02 X18.099557 Y42.814846 Z-0.125000 I0.283520 J0.000000
G02 X20.151798 Y42.703707 Z-0.125000 I0.594695 J-8.022077
G02 X21.609790 Y42.004031 Z-0.125000 I-0.558949 J-3.033669
G02 X22.215712 Y40.920156 Z-0.125000 I-1.189149 J-1.376077
G02 X21.856621 Y39.641269 Z-0.125000 I-1.555251 J-0.253168
G02 X20.702214 Y39.155167 Z-0.125000 I-1.063596 J0.912045
G01 X20.132461 Y39.192174 Z-0.125000
G01 X20.576543 Y38.609950 Z-0.125000
G02 X20.686438 Y37.305176 Z-0.125000 I-0.968318 J-0.738572
G02 X19.417671 Y36.403125 Z-0.125000 I-1.524053 J0.800326
G03 X18.606830 Y36.242505 Z-0.125000 I1.312770 J-8.754081
G03 X18.091119 Y36.075309 Z-0.125000 I0.913527 J-3.696703
G02 X17.584726 Y35.925171 Z-0.125000 I-1.028435 J2.539698
G02 X17.395255 Y35.940255 Z-0.125000 I-0.067605 J0.348338
G03 X17.022264 Y35.754967 Z-0.125000 I-0.098589 J-0.269602
G03 X17.000090 Y34.654179 Z-0.125000 I1.917714 J-0.589247
G02 X17.019776 Y33.971433 Z-0.125000 I-1.454726 J-0.383600
G02 X16.830108 Y33.816383 Z-0.125000 I-0.189668 J0.038482
G02 X16.220537 Y34.350798 Z-0.125000 I0.000000 J0.614856
G02 X16.487366 Y36.413553 Z-0.125000 I4.012853 J0.529550
G01 X16.487366 Y36.413570 Z-0.125000
G00 Z5.000000

(End cutting path id: path4934)


(Start cutting path id: path4936)
(Change tool to Cylindrical cutter)

G00 Z5.000000
G00 X13.485851 Y38.340504

G01 Z-0.125000 F1000.0(Penetrate)
G03 X13.904573 Y38.617063 Z-0.125000 I-0.000000 J0.455262 F1100.000000
G03 X13.864762 Y39.228327 Z-0.125000 I-0.623952 J0.266291
G03 X13.769848 Y39.270827 Z-0.125000 I-0.077456 J-0.045747
G03 X13.549314 Y39.165919 Z-0.125000 I0.096271 J-0.486632
G03 X13.252607 Y38.592369 Z-0.125000 I0.528668 J-0.637010
G03 X13.485851 Y38.340504 Z-0.125000 I0.233244 J-0.017933
G01 X13.485851 Y38.340504 Z-0.125000
G00 Z5.000000

(End cutting path id: path4936)


(Start cutting path id: path4938)
(Change tool to Cylindrical cutter)

G00 Z5.000000
G00 X12.792290 Y43.032166

G01 Z-0.125000 F1000.0(Penetrate)
G03 X13.148902 Y43.262041 Z-0.125000 I-0.000000 J0.391549 F1100.000000
G03 X13.076648 Y43.659385 Z-0.125000 I-0.323111 J0.146487
G03 X12.994400 Y43.687257 Z-0.125000 I-0.069346 J-0.069346
G03 X12.821364 Y43.625513 Z-0.125000 I0.057759 J-0.435207
G03 X12.594076 Y43.240331 Z-0.125000 I0.252587 J-0.408697
G03 X12.792290 Y43.032166 Z-0.125000 I0.198214 J-0.009713
G01 X12.792290 Y43.032166 Z-0.125000
G00 Z5.000000

(End cutting path id: path4938)


(Start cutting path id: path4940)
(Change tool to Cylindrical cutter)

G00 Z5.000000
G00 X9.394230 Y48.507845

G01 Z-0.125000 F1000.0(Penetrate)
G02 X10.185093 Y49.235465 Z-0.125000 I1.336592 J-0.659154 F1100.000000
G02 X12.028094 Y49.544334 Z-0.125000 I1.650119 J-4.193186
G03 X12.806278 Y49.885854 Z-0.125000 I0.041269 J0.963305
G03 X13.036875 Y50.739901 Z-0.125000 I-0.798509 J0.673755
G02 X13.169022 Y50.800743 Z-0.125000 I0.074103 J0.012982
G02 X13.473224 Y50.210700 Z-0.125000 I-1.208596 J-0.996541
G03 X13.819629 Y49.577792 Z-0.125000 I1.476054 J0.396626
G03 X14.288042 Y49.316648 Z-0.125000 I0.624112 J0.568800
G02 X14.879501 Y49.163516 Z-0.125000 I-0.830189 J-4.425313
G02 X15.369619 Y48.956733 Z-0.125000 I-1.077738 J-3.238697
G02 X15.701490 Y48.631599 Z-0.125000 I-0.363551 J-0.703024
G02 X15.794307 Y48.175189 Z-0.125000 I-0.698881 J-0.379770
G02 X15.577818 Y47.823698 Z-0.125000 I-0.466974 J0.045202
G02 X14.961963 Y47.649618 Z-0.125000 I-0.602036 J0.953446
G01 X14.181424 Y47.659185 Z-0.125000
G01 X14.274021 Y46.434815 Z-0.125000
G02 X14.109619 Y46.015156 Z-0.125000 I-0.517846 J-0.039165
G02 X13.902955 Y46.090129 Z-0.125000 I-0.084090 J0.090526
G03 X13.387222 Y47.139628 Z-0.125000 I-1.787199 J-0.226778
G03 X12.449088 Y47.538513 Z-0.125000 I-0.966272 J-0.969929
G02 X11.269765 Y47.598267 Z-0.125000 I0.404122 J19.643461
G02 X11.125762 Y47.645529 Z-0.125000 I0.026072 J0.322454
G03 X10.988510 Y47.670027 Z-0.125000 I-0.099570 J-0.161116
G03 X10.557962 Y47.530249 Z-0.125000 I0.397150 J-1.956305
G01 X10.123746 Y47.332406 Z-0.125000
G01 X10.503515 Y46.923884 Z-0.125000
G03 X10.913180 Y46.559507 Z-0.125000 I2.118773 J1.969634
G03 X11.260291 Y46.369726 Z-0.125000 I0.889817 J1.215160
G02 X11.611801 Y45.783136 Z-0.125000 I-0.200359 J-0.518678
G02 X11.086276 Y44.955638 Z-0.125000 I-1.133990 J0.139546
G03 X10.684469 Y44.210334 Z-0.125000 I0.457971 J-0.727863
G03 X11.117510 Y43.415850 Z-0.125000 I0.981867 J0.019917
G03 X11.746013 Y43.265716 Z-0.125000 I0.514590 J0.763607
G03 X12.030016 Y43.529611 Z-0.125000 I-0.041002 J0.328895
G02 X12.494391 Y44.428740 Z-0.125000 I1.799495 J-0.359907
G02 X13.141032 Y44.707762 Z-0.125000 I0.646640 J-0.609791
G02 X13.674047 Y44.398678 Z-0.125000 I-0.000000 J-0.614135
G02 X13.983132 Y43.236360 Z-0.125000 I-2.030917 J-1.162319
G02 X13.779731 Y42.784026 Z-0.125000 I-0.604663 J-0.000000
G02 X12.918502 Y42.291931 Z-0.125000 I-1.605003 J1.809284
G03 X12.725698 Y42.135231 Z-0.125000 I0.105676 J-0.326986
G03 X12.709765 Y41.926053 Z-0.125000 I0.212801 J-0.121405
G02 X12.717790 Y41.093563 Z-0.125000 I-1.112766 J-0.427010
G02 X12.228364 Y40.595409 Z-0.125000 I-0.788632 J0.285311
G03 X11.254179 Y39.916021 Z-0.125000 I0.876421 J-2.294858
G03 X10.967062 Y39.150518 Z-0.125000 I0.876923 J-0.765503
G03 X11.291971 Y38.497850 Z-0.125000 I0.817986 J-0.000000
G03 X12.261040 Y38.172943 Z-0.125000 I0.969069 J1.282720
G03 X12.669909 Y38.313250 Z-0.125000 I0.000000 J0.665895
G03 X12.810216 Y38.600162 Z-0.125000 I-0.223197 J0.286912
G02 X13.146323 Y39.679992 Z-0.125000 I1.902672 J-0.000000
G02 X13.786214 Y40.016097 Z-0.125000 I0.639892 J-0.441076
G02 X14.156019 Y39.880854 Z-0.125000 I0.000000 J-0.573212
G02 X14.455182 Y39.451246 Z-0.125000 I-0.653674 J-0.774163
G02 X14.583125 Y38.886737 Z-0.125000 I-2.198818 J-0.795101
G02 X14.542364 Y38.571559 Z-0.125000 I-0.701413 J-0.069513
G02 X14.068059 Y37.870476 Z-0.125000 I-1.677122 J0.623642
G02 X13.549723 Y37.670266 Z-0.125000 I-0.518336 J0.570870
G03 X13.405407 Y37.590680 Z-0.125000 I0.000000 J-0.170640
G03 X13.282134 Y37.246156 Z-0.125000 I0.711422 J-0.448867
G02 X13.058819 Y37.007545 Z-0.125000 I-0.276003 J0.034505
G02 X12.840451 Y37.160950 Z-0.125000 I-0.035132 J0.182114
G03 X12.685020 Y37.383613 Z-0.125000 I-0.305847 J-0.047917
G03 X12.225683 Y37.502705 Z-0.125000 I-0.459337 J-0.826288
G02 X11.118336 Y37.825940 Z-0.125000 I-0.000000 J2.058406
G02 X10.377709 Y38.682038 Z-0.125000 I1.066358 J1.670941
G02 X10.255509 Y39.284233 Z-0.125000 I1.264066 J0.570006
G02 X10.412614 Y40.185266 Z-0.125000 I3.071388 J-0.071318
G02 X10.848107 Y40.976629 Z-0.125000 I2.379400 J-0.793892
G02 X11.431442 Y41.434596 Z-0.125000 I1.310411 J-1.068639
G03 X11.922534 Y41.997135 Z-0.125000 I-0.404045 J0.848357
G03 X11.719998 Y42.338306 Z-0.125000 I-0.252700 J0.080687
G02 X11.406915 Y42.448326 Z-0.125000 I0.213244 J1.107304
G02 X10.692548 Y42.880551 Z-0.125000 I3.332025 J6.313516
G02 X9.719352 Y44.255262 Z-0.125000 I1.384045 J2.011634
G02 X9.919815 Y45.740427 Z-0.125000 I1.866135 J0.504227
G03 X10.042363 Y46.192276 Z-0.125000 I-0.763423 J0.449594
G03 X9.918122 Y46.403850 Z-0.125000 I-0.243323 J-0.000619
G02 X9.330049 Y47.002031 Z-0.125000 I0.736812 J1.312518
G02 X9.127634 Y47.869963 Z-0.125000 I1.495549 J0.806354
G02 X9.149611 Y47.970560 Z-0.125000 I0.285896 J-0.009761
G02 X9.394139 Y48.507845 Z-0.125000 I8.772025 J-3.668017
G01 X9.394230 Y48.507845 Z-0.125000
G00 Z5.000000

(End cutting path id: path4940)


(Start cutting path id: path4950)
(Change tool to Cylindrical cutter)

G00 Z5.000000
G00 X2.128303 Y47.953269

G01 Z-0.125000 F1000.0(Penetrate)
G02 X2.902069 Y48.595283 Z-0.125000 I3.276550 J-3.161673 F1100.000000
G02 X3.720880 Y49.001169 Z-0.125000 I2.067800 J-3.142606
G03 X4.499917 Y49.360719 Z-0.125000 I-1.517959 J4.312711
G03 X4.545008 Y49.480030 Z-0.125000 I-0.050761 J0.087360
G03 X3.939763 Y50.026761 Z-0.125000 I-0.786316 J-0.262095
G03 X2.371601 Y49.966598 Z-0.125000 I-0.670354 J-2.994399
G02 X1.813051 Y50.035504 Z-0.125000 I-0.202058 J0.660362
G02 X1.583735 Y50.441470 Z-0.125000 I0.244691 J0.405966
G02 X1.661226 Y50.524295 Z-0.125000 I0.083008 J0.000000
G02 X3.162362 Y50.546624 Z-0.125000 I0.966570 J-14.510225
G02 X4.681112 Y50.345216 Z-0.125000 I-0.296593 J-8.063428
G02 X5.173074 Y50.082345 Z-0.125000 I-0.240626 J-1.042119
G02 X5.579216 Y49.297669 Z-0.125000 I-0.910915 J-0.968928
G02 X5.361488 Y48.735550 Z-0.125000 I-0.613065 J-0.085766
G02 X4.294350 Y48.029876 Z-0.125000 I-3.773904 J4.547285
G02 X3.723251 Y47.891389 Z-0.125000 I-0.571099 J1.108320
G03 X2.601586 Y47.543768 Z-0.125000 I0.000000 J-1.983442
G03 X2.253973 Y46.883932 Z-0.125000 I0.452443 J-0.659836
G03 X2.328313 Y46.792813 Z-0.125000 I0.093013 J0.000000
G03 X3.061358 Y46.718474 Z-0.125000 I0.733045 J3.577028
G02 X5.715804 Y46.114984 Z-0.125000 I-0.000000 J-6.139526
G02 X6.044836 Y45.287940 Z-0.125000 I-0.283797 J-0.591879
G02 X5.891586 Y45.197817 Z-0.125000 I-0.133179 J0.051106
G02 X5.499241 Y45.365481 Z-0.125000 I0.115596 J0.813393
G03 X5.012063 Y45.582467 Z-0.125000 I-0.672965 J-0.855545
G03 X3.492373 Y45.713116 Z-0.125000 I-1.519690 J-8.773031
G02 X2.044912 Y45.906180 Z-0.125000 I-0.000000 J5.522562
G02 X1.671817 Y46.207474 Z-0.125000 I0.156181 J0.575052
G02 X1.585227 Y46.986137 Z-0.125000 I0.971008 J0.502125
G02 X2.128303 Y47.953269 Z-0.125000 I2.119763 J-0.554271
G01 X2.128303 Y47.953269 Z-0.125000
G00 Z5.000000

(End cutting path id: path4950)


(Start cutting path id: path4952)
(Change tool to Cylindrical cutter)

G00 Z5.000000
G00 X0.231098 Y54.258647

G01 Z-0.125000 F1000.0(Penetrate)
G02 X0.362680 Y54.209615 Z-0.125000 I-0.000000 J-0.201074 F1100.000000
G02 X0.717866 Y53.837380 Z-0.125000 I-1.766509 J-2.041174
G03 X1.132260 Y53.580559 Z-0.125000 I0.559566 J0.440155
G03 X3.033968 Y53.354963 Z-0.125000 I2.239995 J10.754310
G02 X5.014101 Y53.253799 Z-0.125000 I-1.508112 J-48.948667
G02 X5.641377 Y53.168767 Z-0.125000 I-0.355571 J-4.979218
G01 X6.264052 Y53.043723 Z-0.125000
G01 X6.102167 Y53.608190 Z-0.125000
G02 X5.982860 Y54.339160 Z-0.125000 I3.036330 J0.870803
G02 X6.065949 Y54.425579 Z-0.125000 I0.082675 J0.003664
G02 X7.404967 Y53.377340 Z-0.125000 I-0.006477 J-1.387622
G02 X7.059154 Y50.488559 Z-0.125000 I-3.938985 J-0.993557
G02 X6.910743 Y50.424971 Z-0.125000 I-0.113472 J0.059852
G02 X6.763156 Y50.572340 Z-0.125000 I0.058299 J0.205972
G02 X6.669827 Y50.995355 Z-0.125000 I3.465587 J0.986408
G02 X6.627218 Y51.431083 Z-0.125000 I3.634518 J0.575360
G03 X6.355826 Y51.745791 Z-0.125000 I-0.332827 J-0.012644
G03 X3.594447 Y52.000240 Z-0.125000 I-2.735583 J-14.576589
G01 X1.499955 Y51.996599 Z-0.125000
G01 X1.448432 Y51.284474 Z-0.125000
G02 X1.229421 Y50.810144 Z-0.125000 I-0.738944 J0.053465
G02 X1.023199 Y50.865574 Z-0.125000 I-0.086860 J0.088173
G02 X0.947757 Y51.160055 Z-0.125000 I8.645127 J2.371680
G02 X0.738028 Y52.062783 Z-0.125000 I81.079900 J19.312855
G03 X0.494285 Y52.952446 Z-0.125000 I-10.068301 J-2.280213
G03 X0.305531 Y53.403257 Z-0.125000 I-2.758120 J-0.889902
G02 X0.098249 Y54.113733 Z-0.125000 I1.675525 J0.874312
G02 X0.231098 Y54.258644 Z-0.125000 I0.132849 J0.011560
G01 X0.231098 Y54.258647 Z-0.125000
G00 Z5.000000

(End cutting path id: path4952)


(Start cutting path id: path4948)
(Change tool to Cylindrical cutter)

G00 Z5.000000
G00 X2.228763 Y40.854460

G01 Z-0.125000 F1000.0(Penetrate)
G02 X3.167409 Y41.324028 Z-0.125000 I1.174160 J-1.174155 F1100.000000
G02 X6.024059 Y41.398255 Z-0.125000 I1.745905 J-12.185197
G02 X8.432186 Y40.990248 Z-0.125000 I-1.423750 J-15.713827
G02 X8.621231 Y40.748040 Z-0.125000 I-0.060638 J-0.242208
G02 X8.377619 Y40.441824 Z-0.125000 I-0.314260 J0.000000
G02 X5.878878 Y40.115343 Z-0.125000 I-2.930073 J12.700109
G03 X2.934516 Y39.806948 Z-0.125000 I0.688001 J-20.778272
G03 X2.507595 Y39.517111 Z-0.125000 I0.110353 J-0.621885
G03 X2.446364 Y39.351871 Z-0.125000 I0.379695 J-0.234666
G03 X2.389590 Y38.767647 Z-0.125000 I4.891995 J-0.770266
G02 X2.068593 Y38.675280 Z-0.125000 I-0.175688 J0.006605
G02 X1.751293 Y39.704775 Z-0.125000 I1.511475 J1.029495
G02 X1.875106 Y40.325711 Z-0.125000 I1.618947 J-0.000000
G02 X2.228763 Y40.854460 Z-0.125000 I1.509158 J-0.626760
G01 X2.228763 Y40.854460 Z-0.125000
G00 Z5.000000

(End cutting path id: path4948)


(Start cutting path id: path4946)
(Change tool to Cylindrical cutter)

G00 Z5.000000
G00 X4.014848 Y37.100544

G01 Z-0.125000 F1000.0(Penetrate)
G02 X4.486991 Y37.383749 Z-0.125000 I0.802180 J-0.802180 F1100.000000
G02 X5.229654 Y37.469936 Z-0.125000 I0.608613 J-2.001532
G02 X5.882261 Y37.269700 Z-0.125000 I-0.094497 J-1.471588
G02 X6.075666 Y36.972779 Z-0.125000 I-0.201315 J-0.342579
G02 X5.945551 Y36.711690 Z-0.125000 I-0.265406 J-0.030699
G02 X5.466771 Y36.615223 Z-0.125000 I-0.379225 J0.645784
G03 X4.849789 Y36.575106 Z-0.125000 I-0.208649 J-1.555600
G03 X4.441393 Y36.338939 Z-0.125000 I0.237722 J-0.882279
G03 X4.323822 Y35.642655 Z-0.125000 I0.430816 J-0.430814
G03 X5.144372 Y34.886781 Z-0.125000 I1.368834 J0.662641
G01 X6.107839 Y34.514383 Z-0.125000
G01 X6.107839 Y35.248632 Z-0.125000
G02 X6.223043 Y35.913872 Z-0.125000 I1.978311 J-0.000000
G02 X6.431943 Y36.156335 Z-0.125000 I0.418664 J-0.149488
G02 X7.130967 Y36.211203 Z-0.125000 I0.412106 J-0.770028
G02 X7.675169 Y35.723914 Z-0.125000 I-0.311406 J-0.895303
G02 X7.818501 Y35.127886 Z-0.125000 I-1.333610 J-0.635952
G02 X7.702347 Y34.718560 Z-0.125000 I-0.711532 J-0.019234
G02 X7.401671 Y34.391118 Z-0.125000 I-1.147243 J0.751694
G02 X7.193122 Y34.319077 Z-0.125000 I-0.208549 J0.265842
G03 X7.056332 Y34.181675 Z-0.125000 I0.000000 J-0.136791
G03 X7.197412 Y33.359070 Z-0.125000 I2.534790 J0.011325
G02 X7.138291 Y32.262027 Z-0.125000 I-1.367533 J-0.476416
G02 X6.418919 Y31.717843 Z-0.125000 I-0.881993 J0.418361
G03 X5.861227 Y31.000882 Z-0.125000 I0.111919 J-0.662439
G03 X6.550764 Y30.098593 Z-0.125000 I1.046625 J0.085221
G02 X6.984346 Y29.804779 Z-0.125000 I-0.361948 J-1.000951
G02 X7.113208 Y29.465845 Z-0.125000 I-0.381301 J-0.338934
G03 X7.268260 Y29.159016 Z-0.125000 I0.381115 J-0.000000
G03 X7.973260 Y28.832183 Z-0.125000 I1.155033 J1.567700
G02 X9.858663 Y27.696215 Z-0.125000 I-0.836315 J-3.520674
G02 X10.486692 Y25.963544 Z-0.125000 I-1.907977 J-1.671725
G02 X9.866908 Y25.219751 Z-0.125000 I-0.778654 J0.018711
G02 X8.511932 Y25.552098 Z-0.125000 I-0.329890 J1.583327
G02 X7.826386 Y26.222103 Z-0.125000 I3.477536 J4.243923
G02 X7.433081 Y26.808794 Z-0.125000 I2.260374 J1.940483
G03 X6.840552 Y27.279612 Z-0.125000 I-0.812810 J-0.414669
G03 X5.845102 Y27.203831 Z-0.125000 I-0.383311 J-1.540835
G03 X5.082084 Y26.543946 Z-0.125000 I0.623323 J-1.491818
G03 X4.767377 Y25.407905 Z-0.125000 I1.893110 J-1.136042
G02 X4.675108 Y25.254255 Z-0.125000 I-0.174066 J0.000000
G02 X4.521739 Y25.277137 Z-0.125000 I-0.061231 J0.115018
G02 X4.167426 Y26.104888 Z-0.125000 I0.856184 J0.856189
G02 X4.470710 Y27.449142 Z-0.125000 I2.835472 J0.066615
G02 X4.956248 Y28.095663 Z-0.125000 I2.051514 J-1.035108
G02 X5.730249 Y28.622057 Z-0.125000 I2.098809 J-2.253815
G03 X6.385062 Y29.177519 Z-0.125000 I-0.721632 J1.514404
G03 X6.338508 Y29.495137 Z-0.125000 I-0.192375 J0.134024
G02 X5.239094 Y31.103942 Z-0.125000 I2.049905 J2.580907
G02 X5.527226 Y32.123447 Z-0.125000 I0.930962 J0.287360
G02 X6.142569 Y32.582262 Z-0.125000 I3.174692 J-3.615725
G02 X6.355128 Y32.643481 Z-0.125000 I0.212559 J-0.338398
G03 X6.628731 Y32.850225 Z-0.125000 I0.000000 J0.284414
G03 X6.613869 Y33.554932 Z-0.125000 I-1.155894 J0.328133
G03 X5.996159 Y34.318465 Z-0.125000 I-1.318698 J-0.435212
G03 X5.196674 Y34.383664 Z-0.125000 I-0.467614 J-0.799657
G02 X4.487230 Y34.427822 Z-0.125000 I-0.306397 J0.798454
G02 X3.766984 Y35.147594 Z-0.125000 I0.827083 J1.547875
G02 X3.572864 Y36.198987 Z-0.125000 I1.550733 J0.829931
G02 X4.014857 Y37.100544 Z-0.125000 I1.538876 J-0.195319
G01 X4.014848 Y37.100544 Z-0.125000
G00 Z5.000000

(End cutting path id: path4946)


(Start cutting path id: path4944)
(Change tool to Cylindrical cutter)

G00 Z5.000000
G00 X6.672066 Y34.672645

G01 Z-0.125000 F1000.0(Penetrate)
G03 X6.954873 Y34.670303 Z-0.125000 I0.142838 J0.172110 F1100.000000
G03 X7.335701 Y35.205105 Z-0.125000 I-0.754288 J0.940114
G03 X7.184054 Y35.558453 Z-0.125000 I-0.266100 J0.095012
G03 X6.692163 Y35.490220 Z-0.125000 I-0.190906 J-0.430897
G03 X6.489987 Y35.073096 Z-0.125000 I0.357600 J-0.430884
G03 X6.672069 Y34.672645 Z-0.125000 I0.504140 J-0.012392
G01 X6.672066 Y34.672645 Z-0.125000
G00 Z5.000000

(End cutting path id: path4944)


(Start cutting path id: path4942)
(Change tool to Cylindrical cutter)

G00 Z5.000000
G00 X8.549908 Y26.206444

G01 Z-0.125000 F1000.0(Penetrate)
G03 X9.342122 Y25.613804 Z-0.125000 I2.452288 J2.452288 F1100.000000
G03 X9.639043 Y25.612654 Z-0.125000 I0.149525 J0.274260
G03 X9.898097 Y25.823444 Z-0.125000 I-0.413698 J0.772999
G03 X9.961705 Y25.998754 Z-0.125000 I-0.209780 J0.175310
G03 X9.637104 Y26.664726 Z-0.125000 I-0.845476 J0.000000
G03 X8.244222 Y27.342047 Z-0.125000 I-2.276480 J-2.910623
G03 X8.023670 Y27.116704 Z-0.125000 I-0.043776 J-0.177757
G03 X8.549908 Y26.206444 Z-0.125000 I1.965619 J0.529117
G01 X8.549908 Y26.206444 Z-0.125000
G00 Z5.000000

(End cutting path id: path4942)


(Start cutting path id: path4932)
(Change tool to Cylindrical cutter)

G00 Z5.000000
G00 X17.445838 Y48.142728

G01 Z-0.125000 F1000.0(Penetrate)
G03 X17.621030 Y48.828691 Z-0.125000 I-2.627587 J1.036431 F1100.000000
G03 X17.678521 Y50.003580 Z-0.125000 I-7.736839 J0.967439
G02 X17.817918 Y51.125938 Z-0.125000 I3.778471 J0.100550
G02 X18.155898 Y51.703258 Z-0.125000 I1.272290 J-0.357243
G02 X18.711121 Y52.129552 Z-0.125000 I1.900269 J-1.900269
G02 X19.293597 Y52.360988 Z-0.125000 I1.078314 J-1.865190
G01 X19.922242 Y52.509660 Z-0.125000
G01 X19.327439 Y52.877268 Z-0.125000
G02 X18.236650 Y54.021230 Z-0.125000 I1.643332 J2.658971
G02 X17.836998 Y55.567052 Z-0.125000 I2.789727 J1.545822
G02 X17.950054 Y56.202410 Z-0.125000 I1.841836 J-0.000000
G02 X18.278486 Y56.768325 Z-0.125000 I1.777224 J-0.653163
G01 X18.719972 Y57.293005 Z-0.125000
G01 X18.272204 Y57.760373 Z-0.125000
G02 X17.616506 Y58.972978 Z-0.125000 I1.877623 J1.798879
G02 X17.779653 Y59.888715 Z-0.125000 I1.153368 J0.266919
G02 X18.155435 Y60.157320 Z-0.125000 I0.533975 J-0.349874
G02 X19.130134 Y60.234138 Z-0.125000 I0.708767 J-2.771027
G02 X20.766810 Y59.587102 Z-0.125000 I-0.292631 J-3.133708
G02 X21.519958 Y58.379972 Z-0.125000 I-1.260969 J-1.625255
G02 X21.506147 Y57.224036 Z-0.125000 I-2.632906 J-0.546593
G02 X21.139850 Y56.746168 Z-0.125000 I-0.710514 J0.165304
G02 X20.827793 Y56.702394 Z-0.125000 I-0.215614 J0.402879
G02 X20.571440 Y56.868901 Z-0.125000 I0.090758 J0.420321
G02 X20.491093 Y57.144360 Z-0.125000 I0.340022 J0.248627
G02 X20.600066 Y57.317341 Z-0.125000 I0.213401 J-0.013622
G03 X20.785486 Y57.498553 Z-0.125000 I-0.242862 J0.433970
G03 X20.853067 Y57.746031 Z-0.125000 I-0.419335 J0.247477
G03 X20.736024 Y57.947315 Z-0.125000 I-0.231600 J0.000000
G03 X19.722042 Y58.389734 Z-0.125000 I-2.586173 J-4.544072
G03 X18.599947 Y58.706813 Z-0.125000 I-5.838689 J-18.518280
G03 X18.528939 Y58.688503 Z-0.125000 I-0.018655 J-0.074499
G03 X18.520059 Y58.625692 Z-0.125000 I0.034367 J-0.036892
G03 X18.989726 Y57.919685 Z-0.125000 I7.727015 J4.631123
G02 X19.439877 Y56.571233 Z-0.125000 I-1.866042 J-1.372300
G02 X19.009905 Y55.959349 Z-0.125000 I-0.640972 J-0.006600
G03 X18.738690 Y55.407399 Z-0.125000 I0.144123 J-0.413428
G03 X19.680143 Y53.949747 Z-0.125000 I3.306706 J1.102847
G02 X20.772883 Y52.482675 Z-0.125000 I-3.377214 J-3.655994
G02 X20.724825 Y51.816418 Z-0.125000 I-0.596023 J-0.291871
G02 X20.247734 Y51.394984 Z-0.125000 I-1.071131 J0.731825
G02 X19.140410 Y51.000284 Z-0.125000 I-2.025962 J3.933171
G03 X18.496054 Y50.551998 Z-0.125000 I0.209924 J-0.988973
G03 X18.479959 Y49.956776 Z-0.125000 I0.491568 J-0.311121
G03 X18.699165 Y49.789347 Z-0.125000 I0.303103 J0.169625
G03 X19.649065 Y49.665766 Z-0.125000 I1.011850 J4.065056
G02 X20.603593 Y49.504272 Z-0.125000 I-0.047019 J-3.179582
G02 X21.177284 Y49.158626 Z-0.125000 I-0.479382 J-1.444583
G02 X21.550362 Y48.606533 Z-0.125000 I-1.093236 J-1.140856
G02 X21.690855 Y47.879584 Z-0.125000 I-1.810466 J-0.726949
G02 X21.552347 Y47.198956 Z-0.125000 I-1.741553 J0.000000
G02 X21.313849 Y46.991645 Z-0.125000 I-0.331808 J0.140881
G02 X19.946372 Y47.047937 Z-0.125000 I-0.593701 J2.215383
G02 X18.643261 Y47.948734 Z-0.125000 I1.036642 J2.892578
G03 X18.185823 Y48.313529 Z-0.125000 I-1.165235 J-0.991957
G03 X17.998234 Y48.285233 Z-0.125000 I-0.074413 J-0.142639
G03 X17.774602 Y47.796576 Z-0.125000 I0.534692 J-0.540200
G03 X17.911677 Y47.011703 Z-0.125000 I1.666867 J-0.113296
G02 X17.751755 Y46.780708 Z-0.125000 I-0.151024 J-0.066299
G02 X17.340205 Y47.042578 Z-0.125000 I0.026823 J0.496481
G02 X17.268051 Y47.402521 Z-0.125000 I0.559290 J0.299318
G02 X17.445829 Y48.142728 Z-0.125000 I2.715323 J-0.260697
G01 X17.445838 Y48.142728 Z-0.125000
G00 Z5.000000

(End cutting path id: path4932)


(Start cutting path id: path4930)
(Change tool to Cylindrical cutter)

G00 Z5.000000
G00 X20.046547 Y47.625753

G01 Z-0.125000 F1000.0(Penetrate)
G03 X20.501131 Y47.468335 Z-0.125000 I0.758243 J1.454544 F1100.000000
G03 X20.758672 Y47.491605 Z-0.125000 I0.087739 J0.465760
G03 X21.119637 Y47.995327 Z-0.125000 I-0.201757 J0.525772
G03 X20.805973 Y48.698740 Z-0.125000 I-0.869178 J0.034059
G03 X20.187199 Y48.983806 Z-0.125000 I-0.843004 J-1.015750
G03 X19.357193 Y48.948475 Z-0.125000 I-0.333419 J-1.934247
G03 X19.211713 Y48.776369 Z-0.125000 I0.049531 J-0.189409
G03 X19.304937 Y48.359511 Z-0.125000 I0.700643 J-0.062164
G03 X19.649086 Y47.915732 Z-0.125000 I1.854895 J1.083133
G03 X20.046547 Y47.625753 Z-0.125000 I1.159547 J1.171955
G01 X20.046547 Y47.625753 Z-0.125000
G00 Z5.000000

(End cutting path id: path4930)


(Start cutting path id: path4924)
(Change tool to Cylindrical cutter)

G00 Z5.000000
G00 X25.161822 Y46.940278

G01 Z-0.125000 F1000.0(Penetrate)
G02 X25.320797 Y46.994460 Z-0.125000 I0.197816 J-0.320093 F1100.000000
G02 X27.178903 Y47.149596 Z-0.125000 I4.786078 J-46.119053
G02 X29.733636 Y46.639596 Z-0.125000 I0.319692 J-5.052250
G02 X30.403953 Y45.562692 Z-0.125000 I-0.529897 J-1.076904
G02 X29.988911 Y44.637496 Z-0.125000 I-1.238727 J0.000000
G02 X28.570699 Y43.930590 Z-0.125000 I-2.011454 J2.259345
G03 X27.831853 Y43.535032 Z-0.125000 I0.283449 J-1.417252
G03 X27.831903 Y43.191362 Z-0.125000 I0.171911 J-0.171809
G03 X28.022439 Y43.095018 Z-0.125000 I0.241985 J0.241985
G03 X29.273898 Y42.972075 Z-0.125000 I1.784701 J11.735939
G02 X30.965880 Y42.573224 Z-0.125000 I-0.210471 J-4.681079
G02 X31.611720 Y41.933458 Z-0.125000 I-0.520273 J-1.171081
G02 X31.479812 Y41.630974 Z-0.125000 I-0.201862 J-0.091975
G02 X30.875780 Y41.688898 Z-0.125000 I-0.236535 J0.711790
G03 X30.147737 Y41.975117 Z-0.125000 I-1.398569 J-2.488435
G03 X28.992610 Y42.143985 Z-0.125000 I-1.493199 J-6.178892
G02 X27.615537 Y42.586456 Z-0.125000 I0.150942 J2.833885
G02 X27.192515 Y43.294170 Z-0.125000 I0.496512 J0.777064
G02 X27.480379 Y44.401579 Z-0.125000 I1.762652 J0.132928
G02 X28.537925 Y45.330324 Z-0.125000 I2.231487 J-1.474479
G01 X29.482378 Y45.791673 Z-0.125000
G01 X28.393241 Y45.892042 Z-0.125000
G03 X27.304121 Y45.953779 Z-0.125000 I-1.419398 J-15.402423
G03 X26.629877 Y45.929705 Z-0.125000 I-0.126339 J-5.915403
G02 X26.009910 Y46.012452 Z-0.125000 I-0.129566 J1.393121
G02 X25.485113 Y46.358135 Z-0.125000 I0.495015 J1.322705
G02 X25.134117 Y46.834053 Z-0.125000 I1.665802 J1.595943
G02 X25.161822 Y46.940278 Z-0.125000 I0.069502 J0.038598
G01 X25.161822 Y46.940278 Z-0.125000
G00 Z5.000000

(End cutting path id: path4924)


(Start cutting path id: path4920)
(Change tool to Cylindrical cutter)

G00 Z5.000000
G00 X26.844763 Y50.238976

G01 Z-0.125000 F1000.0(Penetrate)
G02 X28.969225 Y51.430338 Z-0.125000 I1.938859 J-0.967541 F1100.000000
G02 X30.511290 Y49.923762 Z-0.125000 I-0.145403 J-1.691311
G02 X30.412237 Y49.621823 Z-0.125000 I-0.382178 J-0.041840
G02 X30.200953 Y49.585950 Z-0.125000 I-0.128773 J0.118300
G03 X28.672205 Y49.942211 Z-0.125000 I-1.427459 J-2.667230
G03 X27.572473 Y49.497897 Z-0.125000 I0.057832 J-1.726281
G03 X27.401452 Y49.168198 Z-0.125000 I0.355343 J-0.393529
G03 X27.496276 Y48.869549 Z-0.125000 I0.374628 J-0.045430
G03 X28.483280 Y48.440825 Z-0.125000 I0.966572 J0.874735
G03 X29.231037 Y48.896755 Z-0.125000 I-0.013533 J0.863348
G02 X29.666000 Y49.195671 Z-0.125000 I0.506469 J-0.271057
G02 X30.003217 Y48.993628 Z-0.125000 I0.039672 J-0.316222
G02 X30.027400 Y48.759589 Z-0.125000 I-0.421771 J-0.161850
G02 X29.908283 Y48.407170 Z-0.125000 I-1.114796 J0.180459
G02 X29.643407 Y48.190034 Z-0.125000 I-0.394528 J0.211144
G02 X28.758024 Y48.058956 Z-0.125000 I-0.885383 J2.924685
G02 X27.845997 Y48.196807 Z-0.125000 I-0.000000 J3.085921
G02 X27.268548 Y48.519746 Z-0.125000 I0.469241 J1.516792
G02 X26.748769 Y49.374548 Z-0.125000 I1.099342 J1.253908
G02 X26.844763 Y50.238984 Z-0.125000 I1.223760 J0.301651
G01 X26.844763 Y50.238976 Z-0.125000
G00 Z5.000000

(End cutting path id: path4920)


(Start cutting path id: path4922)
(Change tool to Cylindrical cutter)

G00 Z5.000000
G00 X25.480490 Y55.073491

G01 Z-0.125000 F1000.0(Penetrate)
G02 X25.803726 Y55.395788 Z-0.125000 I1.068596 J-0.748472 F1100.000000
G02 X26.492355 Y55.777847 Z-0.125000 I2.218565 J-3.187149
G02 X27.245523 Y55.970098 Z-0.125000 I0.991615 J-2.313338
G02 X28.031420 Y55.924314 Z-0.125000 I0.244569 J-2.569912
G02 X29.493850 Y55.271666 Z-0.125000 I-0.811206 J-3.782522
G02 X29.973310 Y54.513666 Z-0.125000 I-0.713163 J-0.981736
G03 X30.104319 Y53.904212 Z-0.125000 I11.650156 J2.185530
G03 X30.180365 Y53.660291 Z-0.125000 I1.935802 J0.469700
G02 X30.012300 Y53.437527 Z-0.125000 I-0.153560 J-0.058927
G02 X29.586970 Y53.712827 Z-0.125000 I0.047816 J0.540084
G03 X29.359961 Y53.921436 Z-0.125000 I-0.431012 J-0.241208
G03 X28.363839 Y54.267546 Z-0.125000 I-2.386736 J-5.262646
G03 X27.312489 Y54.400302 Z-0.125000 I-1.088336 J-4.389553
G03 X26.665998 Y54.281431 Z-0.125000 I-0.014231 J-1.740035
G03 X26.311859 Y53.527158 Z-0.125000 I0.219735 J-0.563441
G03 X27.161772 Y52.790527 Z-0.125000 I1.045506 J0.347665
G03 X28.284134 Y52.869202 Z-0.125000 I0.406122 J2.251395
G03 X28.560802 Y53.251718 Z-0.125000 I-0.126097 J0.382516
G02 X28.768643 Y53.565366 Z-0.125000 I0.340580 J0.000000
G02 X29.133749 Y53.494192 Z-0.125000 I0.129732 J-0.306546
G02 X29.366410 Y52.961957 Z-0.125000 I-0.563132 J-0.563137
G02 X29.178343 Y52.345878 Z-0.125000 I-0.978638 J-0.038002
G02 X28.900471 Y52.147762 Z-0.125000 I-0.437811 J0.320138
G02 X27.938025 Y51.963103 Z-0.125000 I-1.318913 J4.273709
G02 X25.950680 Y52.547637 Z-0.125000 I-0.230755 J2.886092
G02 X25.209613 Y54.045476 Z-0.125000 I1.143178 J1.497839
G02 X25.289423 Y54.661585 Z-0.125000 I2.418002 J-0.000000
G02 X25.480490 Y55.073485 Z-0.125000 I1.249013 J-0.329112
G01 X25.480490 Y55.073491 Z-0.125000
G00 Z5.000000

(End cutting path id: path4922)


(Start cutting path id: path4926)
(Change tool to Cylindrical cutter)

G00 Z5.000000
G00 X24.162365 Y63.736773

G01 Z-0.125000 F1000.0(Penetrate)
G02 X26.136382 Y64.144987 Z-0.125000 I3.388909 J-11.410865 F1100.000000
G02 X28.225682 Y64.223206 Z-0.125000 I1.522133 J-12.714893
G02 X30.233900 Y63.752767 Z-0.125000 I-0.247262 J-5.577092
G02 X30.914134 Y63.035784 Z-0.125000 I-0.517861 J-1.172495
G02 X30.810481 Y62.373191 Z-0.125000 I-0.632466 J-0.240464
G02 X29.664725 Y61.470616 Z-0.125000 I-2.501247 J1.996644
G03 X28.853679 Y60.575344 Z-0.125000 I0.661025 J-1.413845
G03 X29.054651 Y59.738802 Z-0.125000 I0.746667 J-0.263032
G02 X29.599077 Y59.034932 Z-0.125000 I-2.026995 J-2.130318
G02 X29.733717 Y58.514666 Z-0.125000 I-0.937871 J-0.520267
G02 X29.418970 Y57.988119 Z-0.125000 I-0.597809 J0.000000
G02 X27.667568 Y57.403938 Z-0.125000 I-2.563986 J4.769468
G03 X26.593018 Y57.094161 Z-0.125000 I0.647062 J-4.263104
G03 X25.976507 Y56.667510 Z-0.125000 I0.773828 J-1.776938
G02 X25.428541 Y56.417522 Z-0.125000 I-0.594334 J0.577208
G02 X25.209613 Y56.624522 Z-0.125000 I-0.011603 J0.206999
G02 X25.777842 Y57.854014 Z-0.125000 I1.614258 J0.000000
G02 X27.662257 Y58.711183 Z-0.125000 I2.443677 J-2.872274
G03 X28.327950 Y58.877033 Z-0.125000 I-0.534521 J3.564371
G03 X28.393241 Y58.969334 Z-0.125000 I-0.032597 J0.092301
G03 X28.347703 Y59.072332 Z-0.125000 I-0.139249 J-0.000000
G03 X28.229983 Y59.117871 Z-0.125000 I-0.117719 J-0.129385
G02 X27.938068 Y59.296002 Z-0.125000 I0.000000 J0.328256
G02 X27.480429 Y60.575373 Z-0.125000 I4.608466 J2.370011
G02 X27.531726 Y61.065832 Z-0.125000 I0.775038 J0.166852
G02 X28.054495 Y61.859259 Z-0.125000 I2.686882 J-1.201388
G03 X28.599713 Y62.587438 Z-0.125000 I-3.283810 J3.026932
G03 X28.568588 Y62.715583 Z-0.125000 I-0.080467 J0.048308
G03 X28.393242 Y62.772048 Z-0.125000 I-0.202023 J-0.326872
G03 X28.253394 Y62.737512 Z-0.125000 I-0.016310 J-0.234369
G02 X28.102649 Y62.685184 Z-0.125000 I-0.192677 J0.311768
G02 X26.718057 Y62.560688 Z-0.125000 I-3.182782 J27.635887
G03 X25.335152 Y62.442492 Z-0.125000 I2.180165 J-33.657405
G03 X25.257831 Y62.405559 Z-0.125000 I0.013581 J-0.127835
G02 X25.181922 Y62.379355 Z-0.125000 I-0.064870 J0.064870
G02 X24.491702 Y62.498413 Z-0.125000 I0.839776 J6.928737
G02 X23.401835 Y62.951284 Z-0.125000 I0.752341 J3.348418
G02 X23.198898 Y63.320924 Z-0.125000 I0.235173 J0.369640
G02 X23.256111 Y63.407932 Z-0.125000 I0.094766 J0.000000
G02 X24.162365 Y63.736762 Z-0.125000 I3.218696 J-7.457493
G01 X24.162365 Y63.736773 Z-0.125000
G00 Z5.000000

(End cutting path id: path4926)


(Start cutting path id: path4912)
(Change tool to Cylindrical cutter)

G00 Z5.000000
G00 X34.613593 Y57.533825

G01 Z-0.125000 F1000.0(Penetrate)
G02 X35.849398 Y57.430584 Z-0.125000 I-22.583216 J-277.772177 F1100.000000
G02 X36.833683 Y57.343379 Z-0.125000 I-15.109819 J-176.141886
G01 X37.817730 Y57.253417 Z-0.125000
G01 X37.742388 Y57.766746 Z-0.125000
G02 X37.928437 Y57.986434 Z-0.125000 I0.189831 J0.027861
G02 X38.195846 Y57.775692 Z-0.125000 I0.005290 J-0.268315
G03 X38.610236 Y57.013239 Z-0.125000 I1.524835 J0.334906
G03 X39.187651 Y56.772059 Z-0.125000 I0.577414 J0.570610
G02 X40.220279 Y56.412499 Z-0.125000 I0.000000 J-1.662595
G02 X41.290765 Y55.105385 Z-0.125000 I-2.465383 J-3.110975
G02 X41.734539 Y53.540933 Z-0.125000 I-3.731421 J-1.903624
G02 X41.461693 Y53.001240 Z-0.125000 I-0.577404 J-0.046906
G02 X41.335070 Y53.007701 Z-0.125000 I-0.058635 J0.094881
G02 X41.202162 Y53.200802 Z-0.125000 I0.232414 J0.302256
G03 X40.625575 Y54.372090 Z-0.125000 I-3.760518 J-1.123618
G03 X39.871060 Y55.047560 Z-0.125000 I-1.915838 J-1.380893
G03 X39.194049 Y55.401436 Z-0.125000 I-5.789863 J-10.252213
G03 X39.080164 Y55.428828 Z-0.125000 I-0.120218 J-0.249380
G03 X39.017653 Y55.375509 Z-0.125000 I-0.001313 J-0.061763
G03 X38.996383 Y54.821492 Z-0.125000 I2.785476 J-0.384356
G02 X38.773303 Y54.587607 Z-0.125000 I-0.220191 J-0.013310
G02 X38.468492 Y54.828406 Z-0.125000 I0.004174 J0.318602
G03 X38.221316 Y55.536866 Z-0.125000 I-4.092415 J-1.030459
G03 X38.069890 Y55.709840 Z-0.125000 I-0.360979 J-0.163244
G03 X37.766096 Y55.823218 Z-0.125000 I-0.431355 J-0.692111
G03 X34.970390 Y56.200695 Z-0.125000 I-9.655426 J-60.969337
G02 X33.910301 Y56.581219 Z-0.125000 I0.270726 J2.421098
G02 X33.496036 Y57.162234 Z-0.125000 I0.534172 J0.819059
G01 X33.377550 Y57.634324 Z-0.125000
G01 X34.613593 Y57.533836 Z-0.125000
G01 X34.613593 Y57.533825 Z-0.125000
G00 Z5.000000

(End cutting path id: path4912)


(Start cutting path id: path4908)
(Change tool to Cylindrical cutter)

G00 Z5.000000
G00 X35.358457 Y53.001951

G01 Z-0.125000 F1000.0(Penetrate)
G02 X35.856700 Y53.605483 Z-0.125000 I1.654095 J-0.858102 F1100.000000
G02 X36.525420 Y53.924778 Z-0.125000 I1.036282 J-1.310432
G02 X37.151018 Y53.965696 Z-0.125000 I0.442446 J-1.961735
G02 X37.844493 Y53.804142 Z-0.125000 I-0.236254 J-2.583291
G02 X38.865013 Y53.142733 Z-0.125000 I-1.052898 J-2.742575
G02 X39.165011 Y52.488541 Z-0.125000 I-0.726178 J-0.728891
G02 X39.071791 Y52.130735 Z-0.125000 I-0.573148 J-0.041723
G02 X38.865703 Y52.034096 Z-0.125000 I-0.181871 J0.119781
G03 X36.423953 Y52.166319 Z-0.125000 I-2.372563 J-21.201914
G03 X36.124724 Y52.025206 Z-0.125000 I0.001266 J-0.390497
G03 X36.125781 Y51.494608 Z-0.125000 I0.318903 J-0.264665
G03 X37.168371 Y50.777831 Z-0.125000 I1.807212 J1.512047
G03 X38.424383 Y50.653785 Z-0.125000 I0.890485 J2.595675
G03 X38.657900 Y50.978023 Z-0.125000 I-0.036636 J0.272594
G02 X38.658454 Y51.341356 Z-0.125000 I0.942801 J0.180231
G02 X38.741875 Y51.410128 Z-0.125000 I0.083422 J-0.016211
G02 X39.353957 Y50.952718 Z-0.125000 I0.000000 J-0.638233
G02 X39.299532 Y49.522464 Z-0.125000 I-2.147566 J-0.634442
G03 X39.278086 Y49.093658 Z-0.125000 I0.650960 J-0.247496
G03 X39.711512 Y47.994590 Z-0.125000 I5.091658 J1.372935
G02 X40.140947 Y46.591751 Z-0.125000 I-3.416312 J-1.812946
G02 X39.951285 Y45.746134 Z-0.125000 I-1.341920 J-0.143101
G01 X39.613863 Y45.192699 Z-0.125000
G01 X38.234428 Y45.243456 Z-0.125000
G03 X36.987321 Y45.135860 Z-0.125000 I-0.187808 J-5.104345
G03 X36.804476 Y44.940310 Z-0.125000 I0.048455 J-0.228564
G03 X36.849263 Y44.613693 Z-0.125000 I0.594546 J-0.084853
G03 X37.185809 Y44.073182 Z-0.125000 I2.050666 J0.901806
G02 X37.213050 Y43.681984 Z-0.125000 I-0.254657 J-0.214281
G02 X36.914379 Y43.640691 Z-0.125000 I-0.166650 J0.104589
G02 X36.265070 Y44.651926 Z-0.125000 I1.542647 J1.704603
G02 X36.254885 Y45.725565 Z-0.125000 I1.749683 J0.553466
G02 X36.862311 Y46.433379 Z-0.125000 I1.092335 J-0.322866
G02 X38.474870 Y46.770013 Z-0.125000 I1.512568 J-3.214979
G03 X39.323597 Y46.968906 Z-0.125000 I0.048016 J1.705421
G03 X39.350925 Y47.235632 Z-0.125000 I-0.075751 J0.142524
G02 X38.985143 Y47.723037 Z-0.125000 I0.838262 J1.010045
G02 X38.630626 Y48.895034 Z-0.125000 I4.861013 J2.110023
G03 X38.376094 Y49.324983 Z-0.125000 I-0.704400 J-0.126691
G03 X37.774003 Y49.587342 Z-0.125000 I-0.777299 J-0.961784
G02 X36.174171 Y50.127030 Z-0.125000 I0.656571 J4.587399
G02 X35.440606 Y50.888101 Z-0.125000 I0.884391 J1.586490
G02 X35.141871 Y52.032734 Z-0.125000 I2.453310 J1.251584
G02 X35.358457 Y53.001943 Z-0.125000 I1.939563 J0.075376
G01 X35.358457 Y53.001951 Z-0.125000
G00 Z5.000000

(End cutting path id: path4908)


(Start cutting path id: path4902)
(Change tool to Cylindrical cutter)

G00 Z5.000000
G00 X45.274851 Y55.344314

G01 Z-0.125000 F1000.0(Penetrate)
G02 X48.113600 Y55.784396 Z-0.125000 I3.703415 J-14.513176 F1100.000000
G02 X49.817811 Y55.607012 Z-0.125000 I0.307618 J-5.319845
G02 X51.340145 Y54.752437 Z-0.125000 I-0.938167 J-3.454471
G02 X51.957165 Y53.582358 Z-0.125000 I-1.412615 J-1.492643
G02 X51.896528 Y52.312361 Z-0.125000 I-3.079416 J-0.489418
G02 X51.336152 Y51.180672 Z-0.125000 I-2.978035 J0.770044
G02 X50.923628 Y50.875397 Z-0.125000 I-0.763863 J0.600859
G02 X50.199364 Y50.739901 Z-0.125000 I-0.724265 J1.867940
G02 X48.947459 Y51.229747 Z-0.125000 I0.000000 J1.844676
G02 X48.073897 Y52.703899 Z-0.125000 I2.034003 J2.201227
G02 X47.861839 Y53.748214 Z-0.125000 I11.567329 J2.892544
G02 X47.863568 Y54.044376 Z-0.125000 I0.909942 J0.142773
G03 X47.753211 Y54.208446 Z-0.125000 I-0.141586 J0.023916
G03 X46.436153 Y54.362420 Z-0.125000 I-1.404423 J-6.303195
G02 X44.990198 Y54.457759 Z-0.125000 I0.187079 J13.850049
G02 X44.782032 Y54.558774 Z-0.125000 I0.041653 J0.350834
G03 X44.590370 Y54.663182 Z-0.125000 I-0.272970 J-0.272970
G03 X44.374746 Y54.646525 Z-0.125000 I-0.079833 J-0.370530
G02 X44.217764 Y54.665482 Z-0.125000 I-0.060573 J0.157852
G02 X44.143826 Y54.806807 Z-0.125000 I0.098095 J0.141325
G02 X44.249322 Y54.973746 Z-0.125000 I0.184832 J0.000000
G02 X45.274851 Y55.344314 Z-0.125000 I2.418910 J-5.089891
G01 X45.274851 Y55.344314 Z-0.125000
G00 Z5.000000

(End cutting path id: path4902)


(Start cutting path id: path4878)
(Change tool to Cylindrical cutter)

G00 Z5.000000
G00 X55.342666 Y43.803265

G01 Z-0.125000 F1000.0(Penetrate)
G03 X55.493364 Y43.764938 Z-0.125000 I0.136325 J0.220586 F1100.000000
G03 X57.105327 Y43.901123 Z-0.125000 I-1.555439 J28.019178
G02 X58.706898 Y43.950212 Z-0.125000 I1.097736 J-9.663753
G02 X59.400912 Y43.782042 Z-0.125000 I-0.100068 J-1.929105
G02 X60.887865 Y42.730850 Z-0.125000 I-1.964029 J-4.355472
G02 X61.234885 Y41.866650 Z-0.125000 I-0.902568 J-0.864200
G02 X60.997880 Y40.876003 Z-0.125000 I-2.188889 J0.000000
G02 X60.661446 Y40.736808 Z-0.125000 I-0.249378 J0.126568
G02 X60.542080 Y40.845858 Z-0.125000 I0.061202 J0.186845
G02 X60.424961 Y41.285716 Z-0.125000 I1.431166 J0.616594
G03 X59.718919 Y42.275367 Z-0.125000 I-1.245986 J-0.142238
G03 X57.115112 Y42.864608 Z-0.125000 I-2.603807 J-5.458381
G02 X55.631755 Y43.001663 Z-0.125000 I0.000000 J8.095776
G02 X55.376200 Y43.188709 Z-0.125000 I0.067041 J0.359697
G02 X55.223904 Y43.732741 Z-0.125000 I1.149238 J0.615050
G02 X55.342666 Y43.803265 Z-0.125000 I0.077800 J0.004245
G01 X55.342666 Y43.803265 Z-0.125000
G00 Z5.000000

(End cutting path id: path4878)


(Start cutting path id: path4876)
(Change tool to Cylindrical cutter)

G00 Z5.000000
G00 X55.998655 Y40.651661

G01 Z-0.125000 F1000.0(Penetrate)
G02 X58.537105 Y40.449218 Z-0.125000 I0.479945 J-9.998049 F1100.000000
G02 X59.722820 Y39.869042 Z-0.125000 I-0.553144 J-2.632190
G02 X60.416973 Y38.367254 Z-0.125000 I-1.269469 J-1.498090
G02 X59.718671 Y37.670266 Z-0.125000 I-0.698302 J0.001315
G03 X59.397308 Y37.630253 Z-0.125000 I-0.000000 J-1.310542
G03 X59.096219 Y37.512825 Z-0.125000 I0.320045 J-1.265318
G02 X58.795620 Y37.381668 Z-0.125000 I-0.923867 J1.707357
G02 X58.348099 Y37.259206 Z-0.125000 I-1.247453 J3.679734
G03 X56.704166 Y36.476502 Z-0.125000 I0.798336 J-3.794514
G03 X56.220431 Y35.533883 Z-0.125000 I0.826966 J-1.019815
G03 X56.330757 Y35.400570 Z-0.125000 I0.126683 J-0.007469
G03 X58.415265 Y35.248610 Z-0.125000 I2.386130 J18.358564
G02 X60.469005 Y34.951915 Z-0.125000 I-0.133281 J-8.178992
G02 X60.732199 Y34.605753 Z-0.125000 I-0.096046 J-0.346162
G02 X60.690147 Y34.532307 Z-0.125000 I-0.085165 J-0.000000
G02 X60.621946 Y34.541036 Z-0.125000 I-0.028454 J0.048474
G03 X60.508266 Y34.577340 Z-0.125000 I-0.092025 J-0.092025
G03 X60.316805 Y34.489545 Z-0.125000 I0.067461 J-0.399782
G02 X60.096003 Y34.394310 Z-0.125000 I-0.272619 J0.328483
G02 X58.199156 Y34.230575 Z-0.125000 I-3.248249 J26.561321
G02 X56.322954 Y34.279701 Z-0.125000 I-0.618496 J12.230764
G02 X55.843602 Y34.473777 Z-0.125000 I0.095489 J0.924868
G02 X55.461177 Y35.666813 Z-0.125000 I0.691890 J0.879595
G02 X56.818787 Y37.816211 Z-0.125000 I4.423665 J-1.290643
G03 X57.708865 Y38.668062 Z-0.125000 I-11.554800 J12.964262
G01 X57.704767 Y38.726502 Z-0.125000
G03 X57.625132 Y38.768396 Z-0.125000 I-0.158503 J-0.204661
G03 X56.543214 Y39.098056 Z-0.125000 I-12.459360 J-38.950357
G02 X55.454093 Y39.669256 Z-0.125000 I0.856504 J2.957046
G02 X55.205303 Y40.189105 Z-0.125000 I0.427264 J0.523938
G02 X55.361589 Y40.462985 Z-0.125000 I0.314923 J0.001825
G02 X55.998647 Y40.651661 Z-0.125000 I0.704085 J-1.207480
G01 X55.998655 Y40.651661 Z-0.125000
G00 Z5.000000

(End cutting path id: path4876)


(Start cutting path id: path4872)
(Change tool to Cylindrical cutter)

G00 Z5.000000
G00 X56.585113 Y32.657502

G01 Z-0.125000 F1000.0(Penetrate)
G02 X57.810451 Y33.243841 Z-0.125000 I1.580037 J-1.728447 F1100.000000
G02 X59.481966 Y33.101395 Z-0.125000 I0.540969 J-3.530394
G02 X60.505498 Y32.603603 Z-0.125000 I-1.383400 J-4.145630
G02 X60.781644 Y32.243835 Z-0.125000 I-0.382177 J-0.579211
G02 X60.608332 Y31.785407 Z-0.125000 I-0.368258 J-0.122753
G02 X59.454568 Y31.473131 Z-0.125000 I-1.159537 J1.996599
G03 X57.684195 Y31.227732 Z-0.125000 I0.016559 J-6.628132
G03 X56.883323 Y30.753278 Z-0.125000 I0.484714 J-1.731347
G01 X56.387106 Y30.245738 Z-0.125000
G01 X56.213827 Y30.701502 Z-0.125000
G02 X56.115641 Y31.816043 Z-0.125000 I1.922580 J0.730966
G02 X56.585113 Y32.657502 Z-0.125000 I1.498727 J-0.284484
G01 X56.585113 Y32.657502 Z-0.125000
G00 Z5.000000

(End cutting path id: path4872)


(Start cutting path id: path4882)
(Change tool to Cylindrical cutter)

G00 Z5.000000
G00 X55.514003 Y29.603423

G01 Z-0.125000 F1000.0(Penetrate)
G02 X59.259559 Y29.631291 Z-0.125000 I1.968560 J-12.859518 F1100.000000
G02 X59.862497 Y29.003822 Z-0.125000 I-0.095911 J-0.695580
G02 X59.764135 Y28.529513 Z-0.125000 I-0.811418 J-0.079082
G02 X59.214501 Y27.834728 Z-0.125000 I-2.384992 J1.321936
G02 X58.494219 Y27.226616 Z-0.125000 I-8.531530 J9.374607
G02 X58.147512 Y26.999833 Z-0.125000 I-1.508785 J1.928216
G03 X57.444989 Y26.314508 Z-0.125000 I0.847315 J-1.571316
G03 X57.503935 Y25.874043 Z-0.125000 I0.317759 J-0.181652
G03 X57.623603 Y25.819669 Z-0.125000 I0.132307 J0.132314
G03 X59.042650 Y25.769866 Z-0.125000 I1.474983 J21.785683
G02 X61.416808 Y25.406800 Z-0.125000 I-0.020689 J-8.079357
G02 X62.013705 Y24.847756 Z-0.125000 I-0.277664 J-0.894643
G02 X61.892156 Y24.435540 Z-0.125000 I-0.330130 J-0.126683
G02 X61.467221 Y24.448550 Z-0.125000 I-0.204112 J0.279415
G03 X61.146386 Y24.581013 Z-0.125000 I-0.374096 J-0.451311
G03 X59.243288 Y24.651450 Z-0.125000 I-1.603259 J-17.572919
G02 X57.195840 Y25.058488 Z-0.125000 I-0.083812 J4.931390
G02 X56.624556 Y25.788016 Z-0.125000 I0.386886 J0.891412
G02 X56.656991 Y26.415045 Z-0.125000 I1.424503 J0.240666
G02 X57.046597 Y27.308587 Z-0.125000 I3.355105 J-0.931196
G02 X57.617366 Y28.141853 Z-0.125000 I8.784982 J-5.405406
G02 X57.940934 Y28.486136 Z-0.125000 I1.797747 J-1.365384
G03 X57.898417 Y28.636478 Z-0.125000 I-0.056276 J0.065267
G03 X56.543223 Y28.712199 Z-0.125000 I-1.038469 J-6.420671
G02 X54.673140 Y28.845118 Z-0.125000 I-0.382359 J7.842365
G02 X54.326313 Y29.140003 Z-0.125000 I0.087721 J0.454573
G02 X54.400605 Y29.304896 Z-0.125000 I0.121245 J0.044556
G02 X55.514003 Y29.603423 Z-0.125000 I1.907444 J-4.888529
G01 X55.514003 Y29.603423 Z-0.125000
G00 Z5.000000

(End cutting path id: path4882)


(Start cutting path id: path4870)
(Change tool to Cylindrical cutter)

G00 Z5.000000
G00 X61.877680 Y31.848933

G01 Z-0.125000 F1000.0(Penetrate)
G02 X62.046301 Y31.970018 Z-0.125000 I0.178505 J-0.070632 F1100.000000
G02 X62.377995 Y31.874728 Z-0.125000 I0.027318 J-0.529849
G02 X62.640534 Y31.550295 Z-0.125000 I-0.434036 J-0.619676
G02 X62.710447 Y31.090367 Z-0.125000 I-0.865500 J-0.366842
G02 X62.404727 Y30.753437 Z-0.125000 I-0.380223 J0.037837
G02 X61.998733 Y30.948881 Z-0.125000 I-0.073078 J0.367600
G02 X61.753975 Y31.455962 Z-0.125000 I9.077076 J4.693936
G02 X61.749342 Y31.504136 Z-0.125000 I0.068873 J0.030934
G02 X61.764224 Y31.553358 Z-0.125000 I0.399906 J-0.094047
G02 X61.877680 Y31.848933 Z-0.125000 I14.436474 J-5.371858
G01 X61.877680 Y31.848933 Z-0.125000
G00 Z5.000000

(End cutting path id: path4870)


(Start cutting path id: path4862)
(Change tool to Cylindrical cutter)

G00 Z5.000000
G00 X65.658024 Y34.803912

G01 Z-0.125000 F1000.0(Penetrate)
G02 X66.893649 Y35.522850 Z-0.125000 I1.220565 J-0.676470 F1100.000000
G02 X68.754284 Y34.770494 Z-0.125000 I-0.029683 J-2.750336
G02 X69.899890 Y33.197946 Z-0.125000 I-3.664312 J-3.873026
G02 X69.796130 Y32.592173 Z-0.125000 I-0.479973 J-0.229560
G03 X69.671471 Y32.384414 Z-0.125000 I0.353210 J-0.353210
G03 X69.610292 Y31.981622 Z-0.125000 I1.351209 J-0.411273
G02 X69.563214 Y31.567406 Z-0.125000 I-1.948721 J0.011701
G02 X69.463678 Y31.327008 Z-0.125000 I-0.740797 J0.165919
G02 X69.223663 Y31.330020 Z-0.125000 I-0.119079 J0.075453
G02 X69.076635 Y31.973144 Z-0.125000 I0.913539 J0.547217
G03 X68.977623 Y32.442119 Z-0.125000 I-0.812256 J0.073452
G03 X68.481042 Y33.047175 Z-0.125000 I-1.902118 J-1.054801
G03 X67.018464 Y33.733117 Z-0.125000 I-1.999671 J-2.361496
G03 X66.596788 Y33.379260 Z-0.125000 I-0.062365 J-0.353857
G03 X66.650353 Y33.192878 Z-0.125000 I0.351050 J-0.000000
G03 X66.816351 Y33.028816 Z-0.125000 I0.430879 J0.269957
G02 X67.408046 Y32.090086 Z-0.125000 I-0.650465 J-1.065839
G02 X67.047669 Y30.768290 Z-0.125000 I-1.893548 J-0.193765
G03 X66.844417 Y30.283348 Z-0.125000 I0.900324 J-0.662415
G03 X66.825363 Y29.385926 Z-0.125000 I3.216068 J-0.517197
G02 X66.653801 Y28.813664 Z-0.125000 I-0.747252 J-0.087824
G02 X66.354949 Y28.826900 Z-0.125000 I-0.144340 J0.121460
G02 X65.998410 Y29.963031 Z-0.125000 I1.614063 J1.130534
G02 X66.361948 Y31.285798 Z-0.125000 I2.615301 J-0.007429
G03 X66.410326 Y31.711416 Z-0.125000 I-0.451867 J0.266919
G03 X66.026829 Y32.342141 Z-0.125000 I-1.485479 J-0.471257
G02 X65.570062 Y33.004945 Z-0.125000 I1.572400 J1.572400
G02 X65.429819 Y33.673974 Z-0.125000 I1.463356 J0.655966
G02 X65.503828 Y34.384957 Z-0.125000 I3.745982 J-0.030591
G02 X65.658032 Y34.803912 Z-0.125000 I1.431897 J-0.289179
G01 X65.658024 Y34.803912 Z-0.125000
G00 Z5.000000

(End cutting path id: path4862)


(Start cutting path id: path4858)
(Change tool to Cylindrical cutter)

G00 Z5.000000
G00 X74.016202 Y29.287264

G01 Z-0.125000 F1000.0(Penetrate)
G02 X74.278700 Y29.654288 Z-0.125000 I1.325959 J-0.670953 F1100.000000
G02 X74.794031 Y30.084186 Z-0.125000 I2.352214 J-2.295849
G02 X76.688835 Y31.020872 Z-0.125000 I4.424743 J-6.565903
G02 X78.408485 Y31.303008 Z-0.125000 I1.719650 J-5.099660
G03 X78.775699 Y31.362459 Z-0.125000 I-0.000000 J1.163816
G03 X78.912404 Y31.470566 Z-0.125000 I-0.080607 J0.242418
G03 X78.877457 Y31.560906 Z-0.125000 I-0.051679 J0.031938
G03 X78.327513 Y31.638127 Z-0.125000 I-0.549944 J-1.919657
G02 X77.655009 Y31.704941 Z-0.125000 I-0.000000 J3.417858
G02 X77.186599 Y31.867091 Z-0.125000 I0.361783 J1.802740
G03 X76.716519 Y32.036757 Z-0.125000 I-0.926466 J-1.830840
G03 X75.675572 Y32.211808 Z-0.125000 I-2.035950 J-8.924295
G02 X74.287912 Y32.515404 Z-0.125000 I0.726523 J6.643882
G02 X74.136962 Y32.724860 Z-0.125000 I0.069844 J0.209456
G02 X74.410729 Y33.068428 Z-0.125000 I0.352466 J0.000000
G02 X76.859537 Y33.348504 Z-0.125000 I2.477395 J-10.815343
G02 X78.981099 Y33.081715 Z-0.125000 I0.021578 J-8.397358
G02 X80.023911 Y32.531194 Z-0.125000 I-0.638645 J-2.472662
G02 X80.279179 Y31.352127 Z-0.125000 I-0.666030 J-0.761361
G02 X79.163190 Y30.632769 Z-0.125000 I-1.115989 J0.505976
G03 X78.901493 Y30.589324 Z-0.125000 I-0.000000 J-0.809888
G03 X78.231749 Y30.314733 Z-0.125000 I1.948355 J-5.706239
G02 X76.077230 Y29.438074 Z-0.125000 I-8.057337 J16.716249
G02 X75.184460 Y29.292296 Z-0.125000 I-0.892769 J2.660833
G03 X75.041619 Y29.223828 Z-0.125000 I-0.000000 J-0.183236
G03 X75.016171 Y29.082844 Z-0.125000 I0.116841 J-0.093878
G03 X75.153534 Y28.964172 Z-0.125000 I0.167994 J0.055617
G03 X76.487929 Y28.824188 Z-0.125000 I1.673402 J9.521636
G02 X78.125519 Y28.566177 Z-0.125000 I-0.240417 J-6.851795
G02 X78.325947 Y28.300694 Z-0.125000 I-0.075613 J-0.265483
G02 X78.272010 Y28.239414 Z-0.125000 I-0.061780 J0.000000
G02 X76.943580 Y28.123760 Z-0.125000 I-2.092666 J16.349770
G02 X74.385625 Y28.174447 Z-0.125000 I-0.896671 J19.318758
G02 X74.029308 Y28.375028 Z-0.125000 I0.042433 J0.492154
G02 X73.896892 Y28.770806 Z-0.125000 I0.554745 J0.405642
G02 X74.016213 Y29.287264 Z-0.125000 I1.108483 J0.015912
G01 X74.016202 Y29.287264 Z-0.125000
G00 Z5.000000

(End cutting path id: path4858)


(Start cutting path id: path4850)
(Change tool to Cylindrical cutter)

G00 Z5.000000
G00 X75.376894 Y26.711879

G01 Z-0.125000 F1000.0(Penetrate)
G02 X76.008201 Y27.132446 Z-0.125000 I1.365248 J-1.365248 F1100.000000
G02 X76.759260 Y27.280009 Z-0.125000 I0.747257 J-1.818217
G02 X78.901924 Y26.576972 Z-0.125000 I-0.007140 J-3.638406
G02 X79.939942 Y24.950485 Z-0.125000 I-1.573772 J-2.148848
G02 X79.683885 Y24.374736 Z-0.125000 I-0.534813 J-0.106963
G02 X78.595014 Y24.150749 Z-0.125000 I-0.867613 J1.459073
G02 X77.976451 Y24.375219 Z-0.125000 I0.198804 J1.512343
G02 X77.133925 Y25.078049 Z-0.125000 I2.272427 J3.580514
G01 X76.360811 Y25.914908 Z-0.125000
G01 X75.835341 Y25.595351 Z-0.125000
G03 X75.436388 Y25.204658 Z-0.125000 I0.640262 J-1.052840
G03 X75.309872 Y24.770653 Z-0.125000 I0.681156 J-0.434006
G02 X75.213739 Y24.361645 Z-0.125000 I-0.918151 J0.000000
G02 X75.058530 Y24.265511 Z-0.125000 I-0.155209 J0.077226
G02 X74.916323 Y24.374640 Z-0.125000 I0.000000 J0.147221
G02 X74.807191 Y25.203844 Z-0.125000 I3.095668 J0.829203
G02 X74.966476 Y26.076199 Z-0.125000 I2.468457 J0.000000
G02 X75.376894 Y26.711879 Z-0.125000 I1.681229 J-0.635132
G01 X75.376894 Y26.711879 Z-0.125000
G00 Z5.000000

(End cutting path id: path4850)


(Start cutting path id: path4848)
(Change tool to Cylindrical cutter)

G00 Z5.000000
G00 X78.626293 Y25.177408

G01 Z-0.125000 F1000.0(Penetrate)
G03 X79.240934 Y25.018527 Z-0.125000 I0.859751 J2.057665 F1100.000000
G03 X79.331296 Y25.099447 Z-0.125000 I0.008948 J0.080920
G03 X79.149976 Y25.424145 Z-0.125000 I-0.381385 J-0.000000
G03 X78.074599 Y25.873772 Z-0.125000 I-1.965272 J-3.189549
G03 X77.830444 Y25.834365 Z-0.125000 I-0.075455 J-0.308568
G03 X77.809923 Y25.707882 Z-0.125000 I0.045286 J-0.072254
G03 X78.081988 Y25.464947 Z-0.125000 I0.925494 J0.762659
G03 X78.626293 Y25.177408 Z-0.125000 I1.861273 J2.864405
G01 X78.626293 Y25.177408 Z-0.125000
G00 Z5.000000

(End cutting path id: path4848)


(Start cutting path id: path4846)
(Change tool to Cylindrical cutter)

G00 Z5.000000
G00 X75.438511 Y21.871228

G01 Z-0.125000 F1000.0(Penetrate)
G02 X76.043757 Y22.329728 Z-0.125000 I1.171872 J-0.918208 F1100.000000
G02 X78.634828 Y23.186773 Z-0.125000 I7.320131 J-17.785398
G02 X81.157485 Y23.636119 Z-0.125000 I4.369664 J-17.225737
G02 X81.341381 Y23.469605 Z-0.125000 I0.017313 J-0.165683
G02 X81.313612 Y23.351644 Z-0.125000 I-0.269097 J0.001099
G02 X81.019845 Y22.817652 Z-0.125000 I-6.125600 J3.022094
G02 X80.605222 Y22.409083 Z-0.125000 I-1.023737 J0.624237
G02 X79.386196 Y21.854185 Z-0.125000 I-3.224790 J5.467917
G02 X78.067004 Y21.456809 Z-0.125000 I-7.533526 J22.621093
G02 X77.766836 Y21.417003 Z-0.125000 I-0.300168 J1.111848
G03 X77.614887 Y21.207764 Z-0.125000 I0.000000 J-0.159792
G03 X77.920927 Y20.943496 Z-0.125000 I0.371516 J0.120899
G02 X80.008219 Y20.096332 Z-0.125000 I-0.876049 J-5.153438
G02 X80.830720 Y18.941138 Z-0.125000 I-1.174355 J-1.706551
G02 X80.955385 Y18.347191 Z-0.125000 I-4.682429 J-1.292868
G02 X80.928744 Y18.266935 Z-0.125000 I-0.093328 J-0.013569
G02 X80.860509 Y18.264279 Z-0.125000 I-0.035553 J0.035550
G02 X80.205214 Y18.885859 Z-0.125000 I5.717699 J6.684046
G03 X79.389971 Y19.395845 Z-0.125000 I-1.400637 J-1.332400
G03 X78.024838 Y19.578644 Z-0.125000 I-1.200912 J-3.779581
G02 X75.813849 Y19.991423 Z-0.125000 I-0.207826 J5.014615
G02 X75.309872 Y20.760458 Z-0.125000 I0.334758 J0.769035
G03 X75.287347 Y21.050522 Z-0.125000 I-1.878912 J-0.000000
G03 X75.229063 Y21.277628 Z-0.125000 I-1.205664 J-0.188387
G02 X75.228199 Y21.487996 Z-0.125000 I0.293809 J0.106393
G02 X75.438511 Y21.871228 Z-0.125000 I1.272494 J-0.449002
G01 X75.438511 Y21.871228 Z-0.125000
G00 Z5.000000

(End cutting path id: path4846)


(Start cutting path id: path4842)
(Change tool to Cylindrical cutter)

G00 Z5.000000
G00 X76.526557 Y18.363347

G01 Z-0.125000 F1000.0(Penetrate)
G02 X77.610637 Y18.845644 Z-0.125000 I1.233434 J-1.312929 F1100.000000
G02 X79.067116 Y18.574709 Z-0.125000 I0.232834 J-2.798649
G02 X79.702178 Y18.101715 Z-0.125000 I-0.916681 J-1.893604
G02 X80.005005 Y17.550243 Z-0.125000 I-0.979563 J-0.896782
G02 X79.487277 Y16.656817 Z-0.125000 I-0.703051 J-0.189312
G02 X78.135613 Y17.058216 Z-0.125000 I-0.345552 J1.312879
G03 X77.502436 Y17.676678 Z-0.125000 I-5.374057 J-4.868571
G03 X77.357295 Y17.730695 Z-0.125000 I-0.145141 J-0.167984
G03 X77.209148 Y17.681948 Z-0.125000 I0.000000 J-0.249488
G03 X76.793601 Y17.314691 Z-0.125000 I1.873328 J-2.538371
G02 X76.366037 Y17.181236 Z-0.125000 I-0.333282 J0.316129
G02 X76.147668 Y17.450150 Z-0.125000 I0.056393 J0.268913
G02 X76.249873 Y17.963181 Z-0.125000 I1.338716 J0.000000
G02 X76.526557 Y18.363347 Z-0.125000 I1.069493 J-0.443736
G01 X76.526557 Y18.363347 Z-0.125000
G00 Z5.000000

(End cutting path id: path4842)


(Start cutting path id: path4844)
(Change tool to Cylindrical cutter)

G00 Z5.000000
G00 X77.265048 Y15.496376

G01 Z-0.125000 F1000.0(Penetrate)
G02 X78.742229 Y15.369093 Z-0.125000 I-4.161621 J-56.933069 F1100.000000
G02 X79.125290 Y15.311715 Z-0.125000 I-0.384746 J-3.875966
G02 X80.090796 Y14.831892 Z-0.125000 I-0.409041 J-2.034389
G02 X80.865419 Y13.773099 Z-0.125000 I-2.035167 J-2.301705
