%
(Header)
(Generated by gcodetools from Inkscape.)
(Using default header. To add your own header create file "header" in the output dir.)
M3
(Header end.)
G21 (All units in mm)

(Start cutting path id: path4966)
(Change tool to Cylindrical cutter)

G00 Z5.000000
G00 X61.665068 Y1.502335

G01 Z-0.125000 F1000.0(Penetrate)
G02 X39.624679 Y7.763705 Z-0.125000 I7.098318 J66.908900 F1100.000000
G02 X21.046556 Y21.017900 Z-0.125000 I28.907642 J60.166608
G02 X8.636871 Y38.334745 Z-0.125000 I48.304223 J47.720982
G02 X1.832617 Y59.386141 Z-0.125000 I65.474169 J32.787968
G02 X1.133324 Y68.477642 Z-0.125000 I53.504447 J8.688056
G02 X1.972306 Y78.153769 Z-0.125000 I61.496767 J-0.457727
G02 X3.305891 Y84.560709 Z-0.125000 I81.358161 J-13.592183
G02 X4.920469 Y89.950565 Z-0.125000 I59.153423 J-14.783166
G02 X23.063798 Y117.046744 Z-0.125000 I61.513839 J-21.566664
G02 X52.867958 Y132.683520 Z-0.125000 I46.201563 J-51.839359
G02 X60.236668 Y133.961717 Z-0.125000 I13.261132 J-54.570275
G02 X69.574283 Y134.446158 Z-0.125000 I9.210319 J-87.295558
G02 X76.796021 Y134.235772 Z-0.125000 I-0.189461 J-130.555698
G02 X80.298643 Y133.836380 Z-0.125000 I-1.764459 J-31.032631
G02 X97.488932 Y128.667766 Z-0.125000 I-12.517997 J-72.804481
G02 X112.069559 Y119.881369 Z-0.125000 I-26.718760 J-60.829713
G02 X117.686529 Y114.933654 Z-0.125000 I-45.341394 J-57.136751
G02 X121.580236 Y110.594957 Z-0.125000 I-30.908513 J-31.654969
G03 X122.651107 Y109.271624 Z-0.125000 I45.022397 J35.338156
G03 X122.922067 Y108.986302 Z-0.125000 I2.348452 J1.958925
G02 X124.696299 Y106.875322 Z-0.125000 I-7.510276 J-8.113311
G02 X128.901936 Y99.736542 Z-0.125000 I-83.820004 J-54.188707
G02 X133.504056 Y88.990337 Z-0.125000 I-59.846613 J-31.988178
G02 X136.103874 Y77.885661 Z-0.125000 I-61.342052 J-20.218028
G02 X136.779606 Y67.843381 Z-0.125000 I-67.039401 J-9.554866
G02 X135.967818 Y58.983977 Z-0.125000 I-52.905160 J0.380812
G02 X132.721964 Y46.523360 Z-0.125000 I-80.049643 J14.198988
G02 X127.964300 Y35.926605 Z-0.125000 I-62.501260 J21.695009
G02 X99.903136 Y8.721850 Z-0.125000 I-59.448272 J33.245068
G02 X61.665068 Y1.502335 Z-0.125000 I-31.114716 J59.925212
G01 X61.665068 Y1.502335 Z-0.125000
G00 Z5.000000

(End cutting path id: path4966)


(Start cutting path id: path4966)
(Change tool to Cylindrical cutter)

G00 Z5.000000
G00 X59.401914 Y4.985315

G01 Z-0.125000 F1000.0(Penetrate)
G02 X64.610330 Y7.437039 Z-0.125000 I14.334131 J-23.693059 F1100.000000
G02 X68.154514 Y8.040368 Z-0.125000 I3.559354 J-10.197396
G02 X71.451197 Y7.494242 Z-0.125000 I0.014200 J-10.137543
G02 X75.829053 Y5.413887 Z-0.125000 I-6.906024 J-20.179404
G03 X78.113004 Y4.199190 Z-0.125000 I9.969840 J15.991376
G03 X78.945822 Y4.021636 Z-0.125000 I0.832818 J1.864395
G03 X80.655338 Y4.652022 Z-0.125000 I-0.000000 J2.633176
G03 X80.499724 Y5.347996 Z-0.125000 I-0.261897 J0.306826
G02 X79.540284 Y5.724189 Z-0.125000 I1.270537 J4.651941
G02 X77.687196 Y6.814843 Z-0.125000 I9.707927 J18.613941
G03 X71.832991 Y9.529542 Z-0.125000 I-11.969482 J-18.142400
G03 X66.641007 Y10.053572 Z-0.125000 I-3.999077 J-13.639471
G03 X63.489568 Y9.369361 Z-0.125000 I1.045748 J-12.416435
G03 X59.520196 Y7.506113 Z-0.125000 I7.760029 J-21.691291
G02 X57.197210 Y6.256445 Z-0.125000 I-16.529347 J27.942198
G02 X55.828249 Y5.709410 Z-0.125000 I-4.437319 J9.118002
G03 X54.585216 Y5.173476 Z-0.125000 I2.058303 J-6.483483
G03 X54.507630 Y4.976363 Z-0.125000 I0.080845 J-0.145648
G03 X55.000709 Y4.483826 Z-0.125000 I0.729122 J0.236846
G03 X57.391097 Y4.043212 Z-0.125000 I2.871150 J8.871968
G03 X57.784263 Y4.120154 Z-0.125000 I0.042648 J0.825067
G03 X59.401914 Y4.985315 Z-0.125000 I-7.351077 J15.689703
G01 X59.401914 Y4.985315 Z-0.125000
G00 Z5.000000

(End cutting path id: path4966)


(Start cutting path id: path4966)
(Change tool to Cylindrical cutter)

G00 Z5.000000
G00 X45.846636 Y7.607896

G01 Z-0.125000 F1000.0(Penetrate)
G03 X45.207431 Y8.670506 Z-0.125000 I-1.202840 J-0.000000 F1100.000000
G03 X41.221756 Y10.061048 Z-0.125000 I-6.531415 J-12.313537
G03 X40.376747 Y10.054878 Z-0.125000 I-0.406547 J-2.188507
G03 X40.216348 Y9.859048 Z-0.125000 I0.039345 J-0.195830
G03 X40.377438 Y9.575424 Z-0.125000 I0.330225 J-0.000000
G03 X42.696356 Y8.380121 Z-0.125000 I10.820223 J18.144471
G03 X45.582192 Y7.400446 Z-0.125000 I7.066741 J16.076293
G03 X45.846636 Y7.607896 Z-0.125000 I0.050852 J0.207451
G01 X45.846636 Y7.607896 Z-0.125000
G00 Z5.000000

(End cutting path id: path4966)


(Start cutting path id: path4966)
(Change tool to Cylindrical cutter)

G00 Z5.000000
G00 X51.132325 Y21.611467

G01 Z-0.125000 F1000.0(Penetrate)
G03 X51.515248 Y21.847126 Z-0.125000 I-0.114909 J0.615651 F1100.000000
G03 X51.572965 Y22.188752 Z-0.125000 I-0.295599 J0.225629
G03 X50.432871 Y25.300445 Z-0.125000 I-46.348141 J-15.216794
G03 X50.133812 Y25.738464 Z-0.125000 I-1.157841 J-0.469418
G02 X50.028197 Y25.895639 Z-0.125000 I0.296526 J0.313325
G02 X49.353019 Y27.749281 Z-0.125000 I43.644998 J16.947224
G03 X48.675014 Y29.605710 Z-0.125000 I-42.657312 J-14.527281
G03 X48.515922 Y29.894153 Z-0.125000 I-1.166325 J-0.455194
G02 X48.353327 Y30.180882 Z-0.125000 I1.106301 J0.816815
G02 X47.899904 Y31.368753 Z-0.125000 I18.879270 J7.886886
G03 X46.466299 Y35.391928 Z-0.125000 I-230.863815 J-79.998285
G03 X45.936177 Y36.730933 Z-0.125000 I-26.084770 J-9.552711
G02 X43.419546 Y43.018786 Z-0.125000 I140.399321 J59.840540
G02 X43.150119 Y44.166069 Z-0.125000 I4.327270 J1.621491
G03 X43.134627 Y44.225761 Z-0.125000 I-0.202762 J-0.020764
G03 X42.642770 Y45.347087 Z-0.125000 I-74.159838 J-31.860848
G02 X42.263437 Y46.469285 Z-0.125000 I5.700110 J2.552004
G02 X42.289265 Y46.850166 Z-0.125000 I0.631412 J0.148500
G03 X42.216742 Y47.059240 Z-0.125000 I-0.160297 J0.061513
G03 X41.795714 Y47.143747 Z-0.125000 I-0.330524 J-0.555658
G03 X41.248972 Y46.963870 Z-0.125000 I0.228283 J-1.614730
G03 X41.131572 Y46.785017 Z-0.125000 I0.107081 J-0.198246
G02 X41.086235 Y46.521954 Z-0.125000 I-1.574391 J0.135897
G02 X40.956696 Y46.114745 Z-0.125000 I-3.920122 J1.022839
G03 X40.817767 Y45.708252 Z-0.125000 I6.397622 J-2.413536
G03 X39.392570 Y41.020676 Z-0.125000 I850.061369 J-261.010672
G02 X37.955392 Y36.336508 Z-0.125000 I-442.881676 J133.320575
G02 X36.417166 Y31.503056 Z-0.125000 I-473.137695 J147.912696
G03 X34.906477 Y26.669081 Z-0.125000 I233.238783 J-75.543608
G03 X34.854168 Y26.314054 Z-0.125000 I1.178657 J-0.355027
G03 X35.020881 Y26.132883 Z-0.125000 I0.181798 J0.000000
G03 X36.968997 Y26.137967 Z-0.125000 I0.944462 J11.343278
G02 X40.547263 Y26.085811 Z-0.125000 I1.536514 J-17.357627
G02 X42.613346 Y25.472030 Z-0.125000 I-0.740613 J-6.277283
G03 X43.033885 Y25.269869 Z-0.125000 I8.633363 J17.420863
G03 X43.835820 Y24.902319 Z-0.125000 I29.371730 J63.025665
G02 X46.948671 Y23.177890 Z-0.125000 I-8.873935 J-19.690572
G02 X47.038469 Y22.765550 Z-0.125000 I-0.168571 J-0.252659
G03 X47.083014 Y22.630203 Z-0.125000 I0.079190 J-0.048941
G03 X47.647993 Y22.521156 Z-0.125000 I0.564979 J1.409079
G02 X48.342513 Y22.377663 Z-0.125000 I-0.000000 J-1.752518
G02 X48.854439 Y22.000406 Z-0.125000 I-0.558424 J-1.293725
G03 X49.561566 Y21.599365 Z-0.125000 I0.908409 J0.777801
G03 X51.132325 Y21.611467 Z-0.125000 I0.751517 J4.401388
G01 X51.132325 Y21.611467 Z-0.125000
G00 Z5.000000

(End cutting path id: path4966)


(Start cutting path id: path4966)
(Change tool to Cylindrical cutter)

G00 Z5.000000
G00 X57.911543 Y22.369815

G01 Z-0.125000 F1000.0(Penetrate)
G03 X58.550751 Y22.656883 Z-0.125000 I-1.209980 J3.549427 F1100.000000
G03 X59.386140 Y23.205647 Z-0.125000 I-3.762855 J6.638471
G02 X60.224324 Y23.756949 Z-0.125000 I4.656582 J-6.166902
G02 X61.732095 Y24.539006 Z-0.125000 I10.944747 J-19.256518
G03 X63.256460 Y25.275083 Z-0.125000 I-37.089468 J78.756171
G01 X63.271039 Y25.300659 Z-0.125000
G03 X63.167696 Y25.795932 Z-0.125000 I-1.939564 J-0.146287
G03 X60.776135 Y32.441189 Z-0.125000 I-357.495474 J-124.906050
G02 X60.101207 Y34.342102 Z-0.125000 I69.493902 J25.744409
G02 X55.917302 Y46.740209 Z-0.125000 I2952.695302 J1003.331193
G03 X52.994717 Y54.552645 Z-0.125000 I-114.275444 J-38.296865
G03 X52.654257 Y54.620387 Z-0.125000 I-0.192859 J-0.079860
G03 X52.472785 Y54.305898 Z-0.125000 I0.495541 J-0.495548
G03 X49.605670 Y43.221180 Z-0.125000 I673.189727 J-180.036902
G01 X47.978007 Y36.708140 Z-0.125000
G01 X50.134407 Y31.022220 Z-0.125000
G03 X53.464623 Y22.475671 Z-0.125000 I473.129311 J179.435637
G03 X53.643245 Y22.253045 Z-0.125000 I0.454913 J0.182026
G03 X55.017088 Y21.849249 Z-0.125000 I1.310297 J1.919023
G03 X57.911543 Y22.369815 Z-0.125000 I-0.268033 J9.797490
G01 X57.911543 Y22.369815 Z-0.125000
G00 Z5.000000

(End cutting path id: path4966)


(Start cutting path id: path4966)
(Change tool to Cylindrical cutter)

G00 Z5.000000
G00 X71.787298 Y26.073600

G01 Z-0.125000 F1000.0(Penetrate)
G03 X71.991177 Y26.443266 Z-0.125000 I-0.973171 J0.777783 F1100.000000
G03 X74.510548 Y33.927735 Z-0.125000 I-411.853161 J142.801420
G03 X75.997632 Y41.492725 Z-0.125000 I-30.223935 J9.869913
G03 X75.329590 Y45.196092 Z-0.125000 I-7.554883 J0.549128
G02 X74.560286 Y46.938171 Z-0.125000 I63.440098 J29.056144
G02 X74.534299 Y47.065645 Z-0.125000 I0.299664 J0.127474
G03 X74.507507 Y47.192847 Z-0.125000 I-0.315358 J-0.000000
G03 X73.461863 Y49.498533 Z-0.125000 I-109.461921 J-48.251759
G02 X72.409934 Y51.802826 Z-0.125000 I141.802512 J66.126350
G02 X72.389428 Y51.898997 Z-0.125000 I0.215262 J0.096171
G03 X72.369355 Y51.995320 Z-0.125000 I-0.241156 J0.000000
G03 X71.554143 Y53.816166 Z-0.125000 I-90.891760 J-39.600310
G01 X70.071683 Y57.040186 Z-0.125000
G03 X69.368329 Y58.360086 Z-0.125000 I-11.590632 J-5.329111
G03 X69.212054 Y58.447760 Z-0.125000 I-0.156275 J-0.095439
G03 X69.057842 Y58.359153 Z-0.125000 I-0.000000 J-0.178498
G03 X68.391580 Y57.040186 Z-0.125000 I10.644407 J-6.204667
G02 X67.779603 Y55.634360 Z-0.125000 I-249.472314 J107.763018
G02 X67.421272 Y54.828289 Z-0.125000 I-82.304266 J36.104836
G03 X67.072196 Y54.018369 Z-0.125000 I24.717971 J-11.133644
G03 X66.261869 Y52.013145 Z-0.125000 I150.756047 J-62.088045
G02 X65.459979 Y50.004236 Z-0.125000 I-423.121699 J167.731858
G02 X63.150254 Y44.271363 Z-0.125000 I-3446.626932 J1385.284413
G01 X60.835755 Y38.540400 Z-0.125000
G01 X62.350684 Y34.217275 Z-0.125000
G02 X63.861184 Y29.892619 Z-0.125000 I-2114.885116 J-741.105220
G02 X64.529299 Y27.959217 Z-0.125000 I-421.822394 J-146.848976
G01 X65.192987 Y26.024282 Z-0.125000
G01 X68.053907 Y25.938314 Z-0.125000
G02 X70.912491 Y25.830797 Z-0.125000 I-5.687475 J-189.268602
G02 X71.217136 Y25.795406 Z-0.125000 I-0.098241 J-2.174506
G03 X71.484944 Y25.831476 Z-0.125000 I0.079492 J0.422026
G03 X71.787298 Y26.073600 Z-0.125000 I-0.386940 J0.793036
G01 X71.787298 Y26.073600 Z-0.125000
G00 Z5.000000

(End cutting path id: path4966)


(Start cutting path id: path4966)
(Change tool to Cylindrical cutter)

G00 Z5.000000
G00 X87.076853 Y17.411080

G01 Z-0.125000 F1000.0(Penetrate)
G03 X88.572752 Y18.016006 Z-0.125000 I-4.537215 J13.371942 F1100.000000
G03 X91.291111 Y19.402544 Z-0.125000 I-21.578099 J45.662651
G02 X94.017922 Y20.762627 Z-0.125000 I18.697612 J-34.073060
G02 X95.566854 Y21.329752 Z-0.125000 I4.679825 J-10.382753
G02 X99.762103 Y21.456841 Z-0.125000 I2.348352 J-8.213085
G02 X105.634943 Y19.100217 Z-0.125000 I-4.198224 J-18.958243
G03 X108.952263 Y17.589883 Z-0.125000 I8.026505 J13.231265
G03 X110.049201 Y17.690088 Z-0.125000 I0.430064 J1.346270
G03 X110.583214 Y18.531695 Z-0.125000 I-0.478303 J0.893715
G03 X110.125767 Y19.177574 Z-0.125000 I-0.638299 J0.032856
G02 X109.545623 Y19.408983 Z-0.125000 I0.955066 J3.237277
G02 X107.762360 Y20.384655 Z-0.125000 I16.260410 J31.837097
G03 X100.533329 Y23.396834 Z-0.125000 I-14.764022 J-25.251987
G03 X95.967232 Y23.529141 Z-0.125000 I-2.563605 J-9.616221
G03 X92.489984 Y22.461314 Z-0.125000 I3.843922 J-18.712779
G03 X89.476171 Y20.835897 Z-0.125000 I6.487622 J-15.635995
G02 X86.678019 Y19.503621 Z-0.125000 I-5.760791 J8.494679
G02 X83.505122 Y19.035737 Z-0.125000 I-3.172897 J10.524372
G02 X80.896621 Y19.390605 Z-0.125000 I-0.000000 J9.764511
G02 X78.555935 Y20.407727 Z-0.125000 I2.451617 J8.843714
G03 X71.954915 Y23.457234 Z-0.125000 I-16.311748 J-26.639613
G03 X67.429411 Y24.046997 Z-0.125000 I-3.825313 J-11.695331
G03 X63.753962 Y23.359578 Z-0.125000 I0.833672 J-14.626983
G03 X59.810577 Y21.582482 Z-0.125000 I6.033568 J-18.652264
G02 X55.596006 Y19.707241 Z-0.125000 I-10.203299 J17.258022
G02 X52.711791 Y19.360555 Z-0.125000 I-2.375015 J7.587888
G02 X50.625671 Y19.840421 Z-0.125000 I0.424970 J6.621907
G02 X43.974281 Y22.932769 Z-0.125000 I29.484978 J72.119259
G01 X41.431653 Y24.263865 Z-0.125000
G01 X38.284686 Y24.263865 Z-0.125000
G01 X35.137720 Y24.263865 Z-0.125000
G01 X31.041335 Y22.207675 Z-0.125000
G02 X26.931692 Y20.181482 Z-0.125000 I-143.736970 J286.354791
G02 X26.212939 Y19.869876 Z-0.125000 I-4.081831 J8.430458
G03 X25.676833 Y19.501116 Z-0.125000 I0.501116 J-1.302602
G03 X25.623913 Y19.215643 Z-0.125000 I0.206505 J-0.185923
G03 X26.384909 Y18.385222 Z-0.125000 I1.434115 J0.550323
G03 X27.722898 Y18.192376 Z-0.125000 I0.969537 J1.988773
G03 X28.260577 Y18.361772 Z-0.125000 I-0.341430 J2.021743
G03 X32.101068 Y20.270220 Z-0.125000 I-50.876456 J107.200386
G02 X35.994669 Y21.933671 Z-0.125000 I12.941802 J-24.904024
G02 X37.923069 Y22.253045 Z-0.125000 I1.928400 J-5.662201
G02 X40.741136 Y21.787945 Z-0.125000 I0.000000 J-8.769954
G02 X45.391045 Y19.718955 Z-0.125000 I-8.947818 J-26.369255
G03 X48.534401 Y18.124746 Z-0.125000 I21.100207 J37.707963
G03 X50.084384 Y17.574611 Z-0.125000 I3.910212 J8.558284
G03 X53.797056 Y17.125066 Z-0.125000 I3.535730 J13.644914
G03 X56.864160 Y17.659732 Z-0.125000 I-0.122628 J9.767992
G03 X58.412453 Y18.318551 Z-0.125000 I-3.945396 J11.420826
G03 X61.799123 Y20.178887 Z-0.125000 I-28.970292 J56.752117
G02 X65.261833 Y21.587825 Z-0.125000 I6.515186 J-11.052630
G02 X68.889220 Y21.915615 Z-0.125000 I2.897381 J-11.828402
G02 X72.203345 Y21.252637 Z-0.125000 I-0.739246 J-12.310274
G02 X75.828703 Y19.500611 Z-0.125000 I-5.753054 J-16.531311
G03 X80.007446 Y17.487744 Z-0.125000 I10.685065 J16.838359
G03 X83.323329 Y16.913912 Z-0.125000 I3.424821 J9.922976
G03 X85.518707 Y17.047240 Z-0.125000 I0.160667 J15.495688
G03 X87.076853 Y17.411080 Z-0.125000 I-1.076709 J8.129303
G01 X87.076853 Y17.411080 Z-0.125000
G00 Z5.000000

(End cutting path id: path4966)


(Start cutting path id: path4966)
(Change tool to Cylindrical cutter)

G00 Z5.000000
G00 X85.392715 Y12.331331

G01 Z-0.125000 F1000.0(Penetrate)
G03 X86.945147 Y12.767670 Z-0.125000 I-1.168007 J7.135442 F1100.000000
G03 X91.023003 Y14.617735 Z-0.125000 I-20.976994 J51.656023
G02 X96.633667 Y16.755589 Z-0.125000 I13.245140 J-26.329688
G02 X99.535463 Y16.900622 Z-0.125000 I1.787688 J-6.665957
G02 X102.081927 Y16.229234 Z-0.125000 I-2.225764 J-13.606817
G02 X104.615266 Y15.026545 Z-0.125000 I-5.411480 J-14.668164
G03 X105.883514 Y14.788132 Z-0.125000 I0.963522 J1.633040
G03 X106.970294 Y15.410009 Z-0.125000 I-0.286892 J1.761926
G03 X106.921578 Y15.894078 Z-0.125000 I-0.262730 J0.218045
G03 X104.160343 Y17.670578 Z-0.125000 I-9.747176 J-12.115995
G03 X100.423952 Y18.900003 Z-0.125000 I-5.989914 J-11.911753
G03 X96.404752 Y19.000547 Z-0.125000 I-2.354298 J-13.728835
G03 X94.001084 Y18.394491 Z-0.125000 I1.168026 J-9.702090
G03 X89.548403 Y16.308299 Z-0.125000 I14.053631 J-35.790389
G02 X83.376990 Y15.001029 Z-0.125000 I-5.249244 J9.560080
G02 X75.505155 Y17.499966 Z-0.125000 I1.580628 J18.626993
G03 X70.538333 Y19.297333 Z-0.125000 I-7.341682 J-12.526602
G03 X65.234123 Y19.202861 Z-0.125000 I-2.395597 J-14.449050
G03 X62.881870 Y18.454672 Z-0.125000 I2.273106 J-11.218235
G03 X58.451539 Y16.206513 Z-0.125000 I18.737100 J-42.413639
G02 X56.219139 Y15.213333 Z-0.125000 I-5.847047 J10.137064
G02 X54.174537 Y14.817517 Z-0.125000 I-2.625965 J8.085888
G02 X50.920020 Y15.166937 Z-0.125000 I-0.641369 J9.357326
G02 X46.114747 Y17.155618 Z-0.125000 I6.596457 J22.738959
G03 X40.807639 Y19.368268 Z-0.125000 I-12.911940 J-23.498730
G03 X37.287880 Y19.766402 Z-0.125000 I-2.886148 J-9.757857
G03 X35.073708 Y19.362138 Z-0.125000 I0.593793 J-9.517927
G03 X32.246960 Y18.213271 Z-0.125000 I5.160590 J-16.749449
G03 X29.889983 Y16.393997 Z-0.125000 I3.705017 J-7.236505
G03 X29.961180 Y15.655435 Z-0.125000 I0.376463 J-0.336422
G03 X30.877886 Y15.431900 Z-0.125000 I0.715416 J0.942437
G03 X33.133826 Y16.203149 Z-0.125000 I-1.285112 J7.444005
G02 X37.958079 Y17.562923 Z-0.125000 I5.553371 J-10.464730
G02 X42.156939 Y16.759530 Z-0.125000 I0.530415 J-8.602019
G02 X43.552324 Y16.065882 Z-0.125000 I-15.324090 J-32.577214
G02 X45.980692 Y14.754390 Z-0.125000 I-52.450123 J-100.020904
G03 X50.118156 Y13.043570 Z-0.125000 I9.453363 J17.003665
G03 X53.721009 Y12.555732 Z-0.125000 I3.505444 J12.340826
G03 X56.329957 Y13.046997 Z-0.125000 I-0.056788 J7.474843
G03 X62.474258 Y15.896989 Z-0.125000 I-17.350803 J45.454871
G02 X67.107072 Y17.298982 Z-0.125000 I5.603552 J-10.161203
G02 X72.082694 Y16.703625 Z-0.125000 I1.040461 J-12.393721
G02 X73.213202 Y16.233918 Z-0.125000 I-2.697912 J-8.088761
G02 X75.031894 Y15.221710 Z-0.125000 I-11.066564 J-22.023903
G03 X81.124413 Y12.565906 Z-0.125000 I12.536386 J20.442819
G03 X85.392715 Y12.331331 Z-0.125000 I2.665747 J9.555614
G01 X85.392715 Y12.331331 Z-0.125000
G00 Z5.000000

(End cutting path id: path4966)


(Start cutting path id: path4966)
(Change tool to Cylindrical cutter)

G00 Z5.000000
G00 X86.465148 Y7.914613

G01 Z-0.125000 F1000.0(Penetrate)
G03 X87.771291 Y8.402651 Z-0.125000 I-3.016306 J10.064420 F1100.000000
G03 X91.592022 Y10.228708 Z-0.125000 I-39.868255 J88.328091
G02 X95.450139 Y11.877440 Z-0.125000 I14.824734 J-29.352174
G02 X97.356815 Y12.268015 Z-0.125000 I2.359859 J-6.670951
G02 X99.323426 Y12.279721 Z-0.125000 I1.083871 J-16.889134
G02 X100.363179 Y12.111167 Z-0.125000 I-0.253616 J-4.855690
G03 X101.374737 Y12.013048 Z-0.125000 I0.787010 J2.850304
G03 X102.294733 Y12.258272 Z-0.125000 I-0.197079 J2.587738
G03 X102.775559 Y13.071623 Z-0.125000 I-0.364445 J0.764247
G03 X102.201794 Y13.858103 Z-0.125000 I-0.897367 J-0.052131
G03 X100.911342 Y14.173676 Z-0.125000 I-1.866992 J-4.838294
G03 X97.859695 Y14.343832 Z-0.125000 I-3.051647 J-27.279603
G01 X94.776358 Y14.343832 Z-0.125000
G01 X90.234209 Y12.064905 Z-0.125000
G01 X85.692062 Y9.785977 Z-0.125000
G01 X83.397517 Y9.795545 Z-0.125000
G02 X80.791811 Y10.264688 Z-0.125000 I0.031896 J7.648002
G02 X76.142952 Y12.460959 Z-0.125000 I9.947032 J27.073210
G03 X71.034130 Y14.477412 Z-0.125000 I-9.020856 J-15.374950
G03 X66.107751 Y14.718282 Z-0.125000 I-3.154820 J-14.025120
G03 X63.366107 Y14.017627 Z-0.125000 I1.380344 J-11.115571
G03 X58.929835 Y11.877422 Z-0.125000 I12.488568 J-31.554527
G02 X53.113071 Y10.459114 Z-0.125000 I-5.347270 J9.293215
G02 X46.323326 Y12.429976 Z-0.125000 I0.654672 J14.936364
G03 X43.241480 Y14.091888 Z-0.125000 I-32.711417 J-56.971561
G03 X41.949449 Y14.640250 Z-0.125000 I-4.761204 J-9.421868
G03 X38.031609 Y15.306877 Z-0.125000 I-3.944555 J-11.336487
G03 X34.519032 Y14.656789 Z-0.125000 I-0.021585 J-9.698047
G03 X33.615263 Y13.779247 Z-0.125000 I0.578881 J-1.500343
G03 X33.833243 Y13.024190 Z-0.125000 I0.577061 J-0.242400
G03 X34.472749 Y12.796059 Z-0.125000 I0.734559 J1.048739
G03 X37.133609 Y12.778501 Z-0.125000 I1.459894 J19.611060
G02 X40.477359 Y12.421031 Z-0.125000 I0.615522 J-10.059793
G02 X44.881476 Y10.599855 Z-0.125000 I-5.479644 J-19.487108
G03 X49.813033 Y8.451281 Z-0.125000 I13.258242 J23.697325
G03 X53.219635 Y7.913577 Z-0.125000 I3.422602 J10.623704
G03 X56.536516 Y8.397363 Z-0.125000 I0.016491 J11.499248
G03 X60.235262 Y10.015557 Z-0.125000 I-4.787770 J15.979779
G02 X64.544600 Y11.901463 Z-0.125000 I9.897143 J-16.748776
G02 X68.367792 Y12.454180 Z-0.125000 I3.768360 J-12.567045
G02 X71.384371 Y12.167326 Z-0.125000 I-0.069897 J-16.739788
G02 X73.193755 Y11.548867 Z-0.125000 I-1.229108 J-6.551946
G02 X74.915615 Y10.621904 Z-0.125000 I-21.657279 J-42.291703
G02 X75.606735 Y10.185062 Z-0.125000 I-4.086784 J-7.230751
G03 X78.170826 Y8.644387 Z-0.125000 I11.984203 J17.040875
G03 X80.164588 Y7.874413 Z-0.125000 I4.808794 J9.485540
G03 X83.377786 Y7.451856 Z-0.125000 I3.137571 J11.430492
G03 X86.465148 Y7.914610 Z-0.125000 I-0.070176 J10.998561
G01 X86.465148 Y7.914613 Z-0.125000
G00 Z5.000000

(End cutting path id: path4966)


(Start cutting path id: path4966)
(Change tool to Cylindrical cutter)

G00 Z5.000000
G00 X93.106619 Y7.661877

G01 Z-0.125000 F1000.0(Penetrate)
G03 X95.511471 Y8.726423 Z-0.125000 I-10.133747 J26.141155 F1100.000000
G03 X96.117072 Y9.167143 Z-0.125000 I-1.016945 J2.033843
G01 X96.653291 Y9.713257 Z-0.125000
G01 X95.419111 Y9.585902 Z-0.125000
G03 X90.382031 Y8.228073 Z-0.125000 I1.675492 J-16.237336
G03 X89.548403 Y6.937469 Z-0.125000 I0.582228 J-1.290604
G03 X89.836032 Y6.702498 Z-0.125000 I0.239791 J0.000000
G03 X93.106619 Y7.661877 Z-0.125000 I-4.028744 J19.788768
G01 X93.106619 Y7.661877 Z-0.125000
G00 Z5.000000

(End cutting path id: path4966)


(Start cutting path id: path4966)
(Change tool to Cylindrical cutter)

G00 Z5.000000
G00 X89.461394 Y22.912381

G01 Z-0.125000 F1000.0(Penetrate)
G02 X93.042518 Y24.651359 Z-0.125000 I120.303182 J-243.186751 F1100.000000
G02 X93.702596 Y24.933567 Z-0.125000 I3.794709 J-7.962694
G03 X94.276952 Y25.256153 Z-0.125000 I-0.791543 J2.081922
G03 X94.374364 Y25.455105 Z-0.125000 I-0.154460 J0.198951
G03 X94.316906 Y25.707623 Z-0.125000 I-0.583617 J0.000000
G03 X91.443878 Y31.561220 Z-0.125000 I-333.586231 J-160.096953
G02 X88.521653 Y37.405320 Z-0.125000 I2065.675307 J1036.552058
G02 X85.661853 Y43.165548 Z-0.125000 I2004.749131 J998.894614
G03 X82.237798 Y49.549422 Z-0.125000 I-98.624857 J-48.788236
G03 X81.942020 Y49.584205 Z-0.125000 I-0.160900 J-0.093247
G03 X81.859952 Y49.448150 Z-0.125000 I0.268110 J-0.254504
G03 X79.090726 Y41.154729 Z-0.125000 I1060.469751 J-358.706585
G02 X76.337549 Y32.848050 Z-0.125000 I-2464.972547 J812.384476
G02 X75.163181 Y29.371384 Z-0.125000 I-433.061142 J144.345158
G03 X74.082241 Y25.890040 Z-0.125000 I60.060890 J-20.557093
G03 X74.053480 Y25.397960 Z-0.125000 I1.117945 J-0.312221
G03 X74.281148 Y25.001682 Z-0.125000 I0.630983 J0.098971
G03 X75.740791 Y24.023866 Z-0.125000 I5.960239 J7.318837
G02 X77.337199 Y23.130304 Z-0.125000 I-32.924524 J-60.694694
G02 X78.421880 Y22.476179 Z-0.125000 I-16.550473 J-28.670634
G03 X81.094450 Y21.315568 Z-0.125000 I5.121917 J8.136971
G03 X83.899627 Y21.033128 Z-0.125000 I2.293290 J8.705201
G03 X85.823505 Y21.405860 Z-0.125000 I-0.415568 J7.296465
G03 X89.461394 Y22.912381 Z-0.125000 I-9.444884 J27.952711
G01 X89.461394 Y22.912381 Z-0.125000
G00 Z5.000000

(End cutting path id: path4966)


(Start cutting path id: path4966)
(Change tool to Cylindrical cutter)

G00 Z5.000000
G00 X91.985285 Y38.733466

G01 Z-0.125000 F1000.0(Penetrate)
G02 X92.292267 Y39.806497 Z-0.125000 I22.291305 J-5.796863 F1100.000000
G02 X93.160811 Y42.495273 Z-0.125000 I140.925933 J-44.038032
G03 X94.016942 Y45.186705 Z-0.125000 I-95.406402 J31.830193
G03 X94.236134 Y46.047717 Z-0.125000 I-9.525056 J2.883244
G02 X94.507869 Y46.807372 Z-0.125000 I2.852773 J-0.592034
G02 X94.692459 Y46.919073 Z-0.125000 I0.184590 J-0.096670
G03 X94.825821 Y47.016771 Z-0.125000 I0.000000 J0.139871
G03 X94.816922 Y47.312649 Z-0.125000 I-0.427578 J0.135213
G02 X94.789342 Y47.664576 Z-0.125000 I0.579774 J0.222481
G02 X94.936443 Y47.873438 Z-0.125000 I0.318085 J-0.067794
G03 X95.098704 Y48.078514 Z-0.125000 I-0.201650 J0.326281
G03 X95.095574 Y48.351215 Z-0.125000 I-0.395797 J0.131825
G02 X95.082034 Y48.655719 Z-0.125000 I0.485373 J0.174136
G02 X95.382622 Y49.449757 Z-0.125000 I3.871204 J-1.011557
G03 X95.612540 Y50.270212 Z-0.125000 I-1.962459 J0.992385
G03 X95.603391 Y52.264901 Z-0.125000 I-12.015275 J0.942255
G02 X95.426540 Y54.292142 Z-0.125000 I2412.806008 J211.507326
G02 X95.369214 Y54.962341 Z-0.125000 I264.005549 J22.919394
G03 X95.243375 Y55.593968 Z-0.125000 I-2.855487 J-0.240551
G03 X95.106059 Y55.785956 Z-0.125000 I-0.366683 J-0.117163
G02 X94.979844 Y55.986090 Z-0.125000 I0.195009 J0.262849
G02 X94.608783 Y58.332992 Z-0.125000 I32.393574 J6.324421
G03 X94.251558 Y60.708421 Z-0.125000 I-41.900986 J-5.086643
G03 X94.082512 Y61.262905 Z-0.125000 I-2.419224 J-0.434540
G02 X93.888447 Y61.812584 Z-0.125000 I3.574470 J1.571071
G02 X93.501185 Y63.407777 Z-0.125000 I29.883028 J8.099242
G03 X93.032482 Y64.864119 Z-0.125000 I-7.512192 J-1.614098
G03 X92.799933 Y65.016429 Z-0.125000 I-0.232549 J-0.101374
G03 X92.563626 Y64.870937 Z-0.125000 I-0.000000 J-0.264650
G03 X91.044112 Y61.677191 Z-0.125000 I68.775777 J-34.680358
G03 X89.681437 Y58.451983 Z-0.125000 I74.787466 J-33.498743
G03 X89.548403 Y57.757242 Z-0.125000 I1.747554 J-0.694741
G02 X89.456704 Y57.467022 Z-0.125000 I-0.505111 J-0.000000
G02 X89.280295 Y57.375324 Z-0.125000 I-0.176409 J0.123841
G03 X89.106015 Y57.281494 Z-0.125000 I-0.000000 J-0.208768
G03 X89.012184 Y56.968786 Z-0.125000 I0.474160 J-0.312707
G02 X88.623789 Y54.963807 Z-0.125000 I-5.369261 J-0.000000
G02 X85.921461 Y49.290688 Z-0.125000 I-47.155077 J18.981626
G03 X85.614316 Y48.556432 Z-0.125000 I3.164382 J-1.755052
G03 X85.527273 Y47.950144 Z-0.125000 I2.056040 J-0.604574
G03 X85.750811 Y46.974826 Z-0.125000 I2.248298 J0.002023
G03 X89.357452 Y40.015350 Z-0.125000 I124.206293 J59.953714
G02 X90.539388 Y37.784023 Z-0.125000 I-56.836780 J-31.535201
G02 X90.770773 Y37.217111 Z-0.125000 I-3.411603 J-1.723119
G03 X91.018707 Y37.008843 Z-0.125000 I0.288308 J0.091507
G03 X91.330569 Y37.141718 Z-0.125000 I0.044250 J0.328556
G03 X91.635285 Y37.685452 Z-0.125000 I-2.091364 J1.529279
G03 X91.985285 Y38.733466 Z-0.125000 I-7.530019 J3.097216
G01 X91.985285 Y38.733466 Z-0.125000
G00 Z5.000000

(End cutting path id: path4966)


(Start cutting path id: path4966)
(Change tool to Cylindrical cutter)

G00 Z5.000000
G00 X104.721387 Y44.975281

G01 Z-0.125000 F1000.0(Penetrate)
G03 X107.376989 Y51.459957 Z-0.125000 I-169.533122 J73.213254 F1100.000000
G03 X107.511187 Y52.174178 Z-0.125000 I-1.851950 J0.717689
G03 X107.473339 Y52.463742 Z-0.125000 I-1.112549 J0.001838
G03 X106.685685 Y55.257430 Z-0.125000 I-106.084984 J-28.401810
G02 X105.867541 Y58.047855 Z-0.125000 I494.545872 J146.514413
G02 X105.487784 Y59.386141 Z-0.125000 I113.427385 J32.909609
G03 X103.194445 Y67.273923 Z-0.125000 I-320.747555 J-88.978696
G03 X102.976257 Y67.642939 Z-0.125000 I-0.867358 J-0.263830
G03 X102.722172 Y67.588441 Z-0.125000 I-0.109906 J-0.107145
G03 X100.816811 Y61.729139 Z-0.125000 I81.050533 J-29.595911
G01 X99.722771 Y57.905631 Z-0.125000
G01 X100.547704 Y55.160470 Z-0.125000
G03 X101.378455 Y52.417087 Z-0.125000 I646.377330 J194.238331
G03 X101.998939 Y50.404489 Z-0.125000 I348.638021 J106.383206
G03 X103.782462 Y44.683367 Z-0.125000 I11369.155984 J3541.123755
G03 X103.902093 Y44.305009 Z-0.125000 I49.950502 J15.585539
G03 X104.158454 Y44.229195 Z-0.125000 I0.153979 J0.049330
G03 X104.721387 Y44.975281 Z-0.125000 I-1.251369 J1.529590
G01 X104.721387 Y44.975281 Z-0.125000
G00 Z5.000000

(End cutting path id: path4966)


(Start cutting path id: path4966)
(Change tool to Cylindrical cutter)

G00 Z5.000000
G00 X109.656248 Y35.591469

G01 Z-0.125000 F1000.0(Penetrate)
G03 X111.083416 Y39.278669 Z-0.125000 I-3753.897306 J1455.102325 F1100.000000
G03 X112.531780 Y43.031493 Z-0.125000 I-3877.988043 J1498.826202
G02 X116.556380 Y51.886029 Z-0.125000 I77.263230 J-29.776099
G02 X117.277916 Y52.029550 Z-0.125000 I0.419003 J-0.221008
G02 X117.651638 Y51.475356 Z-0.125000 I-0.759764 J-0.915455
G02 X118.930906 Y46.843152 Z-0.125000 I-58.585590 J-18.672231
G03 X119.555766 Y44.965860 Z-0.125000 I10.604396 J2.487050
G03 X119.810294 Y44.832336 Z-0.125000 I0.210604 J0.092103
G03 X120.077567 Y45.049284 Z-0.125000 I-0.069939 J0.359272
G03 X121.766037 Y49.466109 Z-0.125000 I-63.626680 J26.854453
G02 X123.332051 Y54.023874 Z-0.125000 I39288.812219 J-13492.791569
G02 X123.991870 Y55.943010 Z-0.125000 I7001.757693 J-2406.507095
G01 X124.651957 Y57.862062 Z-0.125000
G01 X123.319436 Y63.852226 Z-0.125000
G02 X121.998490 Y69.844887 Z-0.125000 I1552.357726 J345.323880
G02 X121.454870 Y72.389425 Z-0.125000 I279.302277 J61.001019
G03 X120.324614 Y76.728042 Z-0.125000 I-44.874627 J-9.373790
G03 X120.026137 Y76.947278 Z-0.125000 I-0.298477 J-0.093563
G03 X119.675015 Y76.712308 Z-0.125000 I0.000000 J-0.379831
G03 X111.398367 Y56.034777 Z-0.125000 I975.805788 J-402.583516
G02 X109.871133 Y52.154981 Z-0.125000 I-403.358981 J156.536735
G02 X109.525297 Y51.342872 Z-0.125000 I-18.008909 J7.189394
G03 X105.729563 Y42.125220 Z-0.125000 I130.776550 J-59.242785
G03 X105.359793 Y40.137284 Z-0.125000 I5.536918 J-2.058262
G03 X106.400905 Y33.030627 Z-0.125000 I22.915498 J-0.272513
G03 X107.931907 Y31.904969 Z-0.125000 I1.531003 J0.478326
G03 X108.137625 Y32.035855 Z-0.125000 I-0.000000 J0.227110
G03 X109.656248 Y35.591469 Z-0.125000 I-51.726761 J24.194914
G01 X109.656248 Y35.591469 Z-0.125000
G00 Z5.000000

(End cutting path id: path4966)


(Start cutting path id: path4966)
(Change tool to Cylindrical cutter)

G00 Z5.000000
G00 X108.091250 Y23.090887

G01 Z-0.125000 F1000.0(Penetrate)
G03 X107.992551 Y23.457367 Z-0.125000 I-8.467420 J-2.083884 F1100.000000
G03 X107.080536 Y26.542789 Z-0.125000 I-601.667963 J-176.168547
G02 X106.161950 Y29.626461 Z-0.125000 I3391.893110 J1012.079233
G02 X105.485859 Y31.904969 Z-0.125000 I1859.157035 J552.898806
G03 X104.804625 Y34.181916 Z-0.125000 I-395.815430 J-117.182657
G03 X104.148431 Y36.328769 Z-0.125000 I-352.730653 J-106.639883
G02 X102.836296 Y40.735019 Z-0.125000 I214.145365 J66.168694
G02 X101.881198 Y44.237984 Z-0.125000 I134.376953 J38.520121
G03 X100.734458 Y48.275276 Z-0.125000 I-86.277283 J-22.324446
G03 X100.515460 Y48.648376 Z-0.125000 I-0.904498 J-0.280089
G02 X100.348873 Y48.933533 Z-0.125000 I0.518730 J0.494276
G02 X100.272763 Y49.443740 Z-0.125000 I1.672036 J0.510206
G03 X99.820994 Y51.829478 Z-0.125000 I-6.525278 J-0.000000
G03 X99.158152 Y52.281253 Z-0.125000 I-0.662842 J-0.260371
G03 X98.978989 Y52.194929 Z-0.125000 I0.000000 J-0.229087
G03 X98.677462 Y51.678009 Z-0.125000 I1.622316 J-1.292719
G03 X97.954213 Y49.568571 Z-0.125000 I19.521351 J-7.871874
G03 X95.949215 Y42.093112 Z-0.125000 I243.860132 J-69.412504
G02 X95.415429 Y40.090730 Z-0.125000 I-73.139988 J18.424979
G02 X95.194905 Y39.412021 Z-0.125000 I-8.610621 J2.422552
G03 X94.971081 Y38.734050 Z-0.125000 I9.516719 J-3.517770
G03 X94.079712 Y35.586916 Z-0.125000 I204.486017 J-59.616728
G01 X93.212277 Y32.432081 Z-0.125000
G01 X94.856529 Y29.134614 Z-0.125000
G01 X96.500778 Y25.837146 Z-0.125000
G01 X99.392179 Y25.507883 Z-0.125000
G02 X102.211789 Y24.934225 Z-0.125000 I-1.866405 J-16.389870
G02 X104.964671 Y23.856869 Z-0.125000 I-4.946231 J-16.694491
G03 X107.818549 Y22.817898 Z-0.125000 I6.179136 J12.534000
G03 X108.091250 Y23.090887 Z-0.125000 I0.053674 J0.219084
G01 X108.091250 Y23.090887 Z-0.125000
G00 Z5.000000

(End cutting path id: path4966)


(Start cutting path id: path4966)
(Change tool to Cylindrical cutter)

G00 Z5.000000
G00 X115.983417 Y23.124401

G01 Z-0.125000 F1000.0(Penetrate)
G03 X119.719997 Y27.176650 Z-0.125000 I-65.541303 J64.184528 F1100.000000
G03 X120.751632 Y28.617820 Z-0.125000 I-7.162585 J6.217028
G03 X120.868075 Y29.312032 Z-0.125000 I-0.859715 J0.501075
G03 X119.040332 Y37.267149 Z-0.125000 I-131.258699 J-25.970057
G02 X118.535678 Y39.283429 Z-0.125000 I90.641940 J23.758027
G02 X117.681757 Y42.962636 Z-0.125000 I300.941032 J71.785281
G03 X116.774853 Y46.593536 Z-0.125000 I-80.016737 J-18.057379
G03 X116.635150 Y46.780239 Z-0.125000 I-0.307143 J-0.084205
G03 X116.336876 Y46.692888 Z-0.125000 I-0.109866 J-0.177771
G03 X114.514408 Y42.361221 Z-0.125000 I43.074364 J-20.671950
G02 X113.079875 Y38.481263 Z-0.125000 I-381.799255 J138.957131
G02 X112.601441 Y37.267149 Z-0.125000 I-37.841074 J14.210332
G03 X112.117981 Y36.054916 Z-0.125000 I50.146807 J-20.701930
G03 X111.001743 Y33.111461 Z-0.125000 I294.585043 J-113.398041
G02 X109.883674 Y30.168838 Z-0.125000 I-262.071611 J97.892123
G02 X109.498402 Y29.220898 Z-0.125000 I-27.582570 J10.658148
G03 X109.289116 Y27.639493 Z-0.125000 I2.732843 J-1.166219
G03 X110.442807 Y22.528551 Z-0.125000 I31.741068 J4.479216
G03 X111.066931 Y21.230680 Z-0.125000 I4.774390 J1.496922
G03 X111.553216 Y20.879594 Z-0.125000 I0.719862 J0.484756
G03 X113.132692 Y21.035280 Z-0.125000 I0.589484 J2.109469
G03 X115.983417 Y23.124401 Z-0.125000 I-4.909122 J9.688326
G01 X115.983417 Y23.124401 Z-0.125000
G00 Z5.000000

(End cutting path id: path4966)


(Start cutting path id: path4966)
(Change tool to Cylindrical cutter)

G00 Z5.000000
G00 X124.875734 Y34.473877

G01 Z-0.125000 F1000.0(Penetrate)
G03 X129.325621 Y42.368021 Z-0.125000 I-76.558376 J48.356813 F1100.000000
G03 X129.756945 Y44.246316 Z-0.125000 I-3.663749 J1.829999
G03 X129.682580 Y44.898348 Z-0.125000 I-3.229345 J-0.038051
G03 X129.201673 Y46.785017 Z-0.125000 I-27.775590 J-6.075309
G02 X128.682523 Y48.668780 Z-0.125000 I62.875720 J18.341467
G02 X128.436041 Y49.734217 Z-0.125000 I19.857762 J5.155199
G03 X127.548827 Y53.465258 Z-0.125000 I-57.351993 J-11.666873
G03 X126.827549 Y55.632614 Z-0.125000 I-20.030821 J-5.462393
G03 X126.483881 Y56.051353 Z-0.125000 I-0.823321 J-0.325319
G03 X126.263200 Y55.996415 Z-0.125000 I-0.084533 J-0.131132
G03 X125.841111 Y55.055618 Z-0.125000 I5.091516 J-2.849395
G03 X121.831679 Y43.194510 Z-0.125000 I812.853452 J-281.378556
G01 X120.647018 Y39.604003 Z-0.125000
G01 X121.183971 Y37.296114 Z-0.125000
G03 X122.656092 Y31.844656 Z-0.125000 I78.231223 J18.201205
G03 X122.902992 Y31.717435 Z-0.125000 I0.185713 J0.057226
G03 X123.137167 Y31.889964 Z-0.125000 I-0.147962 J0.446019
G03 X124.875734 Y34.473877 Z-0.125000 I-43.808661 J31.353183
G01 X124.875734 Y34.473877 Z-0.125000
G00 Z5.000000

(End cutting path id: path4966)


(Start cutting path id: path4966)
(Change tool to Cylindrical cutter)

G00 Z5.000000
G00 X131.762399 Y48.862864

G01 Z-0.125000 F1000.0(Penetrate)
G03 X132.327328 Y50.811021 Z-0.125000 I-74.980441 J22.798888 F1100.000000
G03 X132.705882 Y52.281253 Z-0.125000 I-42.317258 J11.679681
G02 X132.940352 Y53.217038 Z-0.125000 I43.476870 J-10.396286
G02 X133.373357 Y54.828289 Z-0.125000 I129.325646 J-33.890984
G03 X134.554445 Y60.579978 Z-0.125000 I-42.759861 J11.777688
G03 X134.458014 Y62.737502 Z-0.125000 I-5.944520 J0.815223
G03 X133.963045 Y64.732879 Z-0.125000 I-57.165257 J-13.121210
G03 X132.509168 Y70.043473 Z-0.125000 I-406.427330 J-108.412976
G03 X131.844863 Y71.202187 Z-0.125000 I-2.631797 J-0.739056
G03 X131.474736 Y71.115909 Z-0.125000 I-0.159302 J-0.153656
G02 X131.311296 Y70.651844 Z-0.125000 I-8.002073 J2.557439
G02 X131.087188 Y70.110501 Z-0.125000 I-11.116125 J4.284857
G03 X128.312264 Y62.800563 Z-0.125000 I65.870192 J-29.186639
G03 X127.887988 Y60.071989 Z-0.125000 I8.561771 J-2.728574
G03 X128.048853 Y58.642634 Z-0.125000 I6.430622 J0.000000
G03 X129.205675 Y54.292069 Z-0.125000 I61.412334 J14.000545
G02 X129.682845 Y52.679725 Z-0.125000 I-101.911991 J-31.037456
G02 X130.303646 Y50.471517 Z-0.125000 I-190.568911 J-54.766650
G03 X131.250607 Y48.748045 Z-0.125000 I4.086282 J1.123315
G03 X131.762399 Y48.862864 Z-0.125000 I0.223339 J0.202528
G01 X131.762399 Y48.862864 Z-0.125000
G00 Z5.000000

(End cutting path id: path4966)


(Start cutting path id: path4966)
(Change tool to Cylindrical cutter)

G00 Z5.000000
G00 X126.883330 Y64.279129

G01 Z-0.125000 F1000.0(Penetrate)
G03 X129.032470 Y70.477690 Z-0.125000 I-102.584675 J39.039592 F1100.000000
G03 X129.228535 Y71.758255 Z-0.125000 I-4.083869 J1.280565
G03 X129.024921 Y72.270161 Z-0.125000 I-0.745300 J-0.000000
G03 X126.293801 Y74.993673 Z-0.125000 I-47.275019 J-44.675947
G03 X123.408282 Y77.549605 Z-0.125000 I-44.827562 J-47.701307
G03 X122.850970 Y77.751605 Z-0.125000 I-0.557312 J-0.667802
G03 X122.647842 Y77.517943 Z-0.125000 I0.000000 J-0.205123
G03 X123.585530 Y72.523481 Z-0.125000 I54.721255 J7.688413
G02 X124.331469 Y69.303271 Z-0.125000 I-406.761971 J-95.920039
G02 X125.095015 Y65.887785 Z-0.125000 I-456.768324 J-103.905578
G03 X125.912258 Y62.552016 Z-0.125000 I69.718403 J15.312591
G03 X126.020215 Y62.469393 Z-0.125000 I0.107958 J0.029219
G03 X126.141751 Y62.546079 Z-0.125000 I0.000000 J0.134650
G03 X126.883330 Y64.279129 Z-0.125000 I-20.911264 J9.973206
G01 X126.883330 Y64.279129 Z-0.125000
G00 Z5.000000

(End cutting path id: path4966)


(Start cutting path id: path4966)
(Change tool to Cylindrical cutter)

G00 Z5.000000
G00 X134.628487 Y74.199125

G01 Z-0.125000 F1000.0(Penetrate)
G03 X134.441604 Y76.493465 Z-0.125000 I-28.573784 J-1.172663 F1100.000000
G03 X134.325595 Y76.679169 Z-0.125000 I-0.256857 J-0.031371
G02 X134.200004 Y76.862860 Z-0.125000 I0.157171 J0.242238
G02 X133.936998 Y78.555933 Z-0.125000 I16.764777 J3.471248
G03 X133.306000 Y82.327309 Z-0.125000 I-30.825529 J-3.219016
G03 X131.733931 Y88.071942 Z-0.125000 I-73.253901 J-16.959145
G03 X128.148943 Y97.593073 Z-0.125000 I-90.896828 J-28.789864
G03 X126.771717 Y99.380959 Z-0.125000 I-4.296458 J-1.885215
G03 X123.906446 Y100.450858 Z-0.125000 I-3.078992 J-3.874118
G03 X116.132441 Y99.840882 Z-0.125000 I-1.389273 J-32.137987
G03 X115.514830 Y99.476167 Z-0.125000 I0.217372 J-1.073392
G03 X115.385295 Y98.960574 Z-0.125000 I0.458694 J-0.389308
G03 X115.537602 Y98.262455 Z-0.125000 I104.903155 J22.520855
G03 X115.985866 Y96.251125 Z-0.125000 I871.997465 J193.286127
G02 X116.303239 Y94.224978 Z-0.125000 I-15.389599 J-3.448537
G02 X116.464905 Y90.961310 Z-0.125000 I-39.876108 J-3.611095
G01 X116.493356 Y87.682314 Z-0.125000
G01 X119.884298 Y84.258586 Z-0.125000
G03 X124.486423 Y79.708713 Z-0.125000 I218.529208 J216.436427
G03 X128.714656 Y75.710303 Z-0.125000 I172.988087 J178.696390
G03 X130.043239 Y75.210166 Z-0.125000 I1.280108 J1.385809
G03 X130.732455 Y75.762164 Z-0.125000 I-0.018755 J0.729688
G02 X131.025867 Y76.346331 Z-0.125000 I1.455599 J-0.365341
G02 X131.467102 Y76.661358 Z-0.125000 I0.799346 J-0.653067
G02 X132.216284 Y76.429597 Z-0.125000 I0.223521 J-0.604225
G02 X133.499505 Y73.793010 Z-0.125000 I-7.349373 J-5.207487
G03 X134.212641 Y71.946651 Z-0.125000 I11.997421 J3.572975
G03 X134.413235 Y71.864458 Z-0.125000 I0.145834 J0.070037
G03 X134.569222 Y72.065023 Z-0.125000 I-0.080381 J0.223456
G03 X134.628487 Y74.199125 Z-0.125000 I-15.459489 J1.497195
G01 X134.628487 Y74.199125 Z-0.125000
G00 Z5.000000

(End cutting path id: path4966)


(Start cutting path id: path4966)
(Change tool to Cylindrical cutter)

G00 Z5.000000
G00 X108.733969 Y87.047396

G01 Z-0.125000 F1000.0(Penetrate)
G02 X110.380707 Y87.833798 Z-0.125000 I4.449024 J-7.198974 F1100.000000
G02 X111.466312 Y88.006251 Z-0.125000 I1.016756 J-2.897341
G03 X112.420744 Y88.167533 Z-0.125000 I0.057486 J2.564514
G03 X112.600069 Y88.429410 Z-0.125000 I-0.096429 J0.258368
G03 X112.459665 Y88.803887 Z-0.125000 I-0.589562 J-0.007486
G03 X110.350285 Y91.168929 Z-0.125000 I-51.158710 J-43.505257
G03 X108.129538 Y93.433249 Z-0.125000 I-48.742249 J-45.583120
G03 X107.792628 Y93.570037 Z-0.125000 I-0.336910 J-0.346512
G03 X107.587550 Y93.399990 Z-0.125000 I0.000000 J-0.208686
G03 X106.567642 Y87.068393 Z-0.125000 I118.843935 J-22.391586
G03 X107.003827 Y86.564966 Z-0.125000 I0.440492 J-0.059019
G03 X108.733969 Y87.047396 Z-0.125000 I0.031319 J3.231308
G01 X108.733969 Y87.047396 Z-0.125000
G00 Z5.000000

(End cutting path id: path4966)


(Start cutting path id: path4966)
(Change tool to Cylindrical cutter)

G00 Z5.000000
G00 X104.947548 Y86.803358

G01 Z-0.125000 F1000.0(Penetrate)
G03 X105.859828 Y92.633712 Z-0.125000 I-50.636709 J10.909708 F1100.000000
G03 X105.578137 Y93.202979 Z-0.125000 I-0.597150 J0.058840
G03 X105.168499 Y93.174874 Z-0.125000 I-0.185221 J-0.299695
G03 X101.621917 Y90.080031 Z-0.125000 I55.721840 J-67.434837
G03 X98.252373 Y86.803152 Z-0.125000 I58.837560 J-63.872263
G03 X98.209809 Y86.415455 Z-0.125000 I0.226986 J-0.221105
G03 X98.437334 Y86.296560 Z-0.125000 I0.213911 J0.132202
G03 X100.521446 Y86.540796 Z-0.125000 I-0.909606 J16.776036
G02 X102.620030 Y86.673300 Z-0.125000 I1.617425 J-8.931768
G02 X103.537473 Y86.380694 Z-0.125000 I-0.100910 J-1.900984
G03 X104.442127 Y86.256334 Z-0.125000 I0.588686 J0.929761
G03 X104.947548 Y86.803358 Z-0.125000 I-0.210182 J0.701200
G01 X104.947548 Y86.803358 Z-0.125000
G00 Z5.000000

(End cutting path id: path4966)


(Start cutting path id: path4966)
(Change tool to Cylindrical cutter)

G00 Z5.000000
G00 X96.078368 Y87.029644

G01 Z-0.125000 F1000.0(Penetrate)
G03 X96.900814 Y87.751416 Z-0.125000 I-12.324086 J14.872549 F1100.000000
G03 X100.943035 Y91.549080 Z-0.125000 I-337.735026 J363.534101
G02 X106.530666 Y96.601714 Z-0.125000 I105.288904 J-110.821433
G02 X107.031012 Y96.787342 Z-0.125000 I0.500346 J-0.581508
G02 X107.359964 Y96.662473 Z-0.125000 I0.000000 J-0.495729
G02 X110.704585 Y93.528889 Z-0.125000 I-55.815010 J-62.925698
G03 X113.340816 Y91.026370 Z-0.125000 I61.765215 J62.425581
G03 X113.952562 Y90.694867 Z-0.125000 I0.977127 J1.072959
G03 X114.315722 Y90.922384 Z-0.125000 I0.074190 J0.285174
G03 X114.478433 Y92.547094 Z-0.125000 I-8.256641 J1.647384
G03 X112.088984 Y102.211405 Z-0.125000 I-20.515158 J0.055283
G03 X105.366832 Y109.734521 Z-0.125000 I-18.615247 J-9.868548
G02 X104.179957 Y110.580532 Z-0.125000 I21.126972 J30.894711
G02 X104.026288 Y110.729995 Z-0.125000 I0.482677 J0.649992
G03 X103.864622 Y110.866522 Z-0.125000 I-0.412466 J-0.324431
G03 X101.747363 Y111.969924 Z-0.125000 I-31.930157 J-58.686030
G03 X91.807884 Y114.570111 Z-0.125000 I-11.170221 J-22.401873
G03 X81.371079 Y112.972959 Z-0.125000 I-1.299809 J-26.405143
G03 X77.394848 Y111.059976 Z-0.125000 I7.994245 J-21.705333
G03 X74.496231 Y108.815029 Z-0.125000 I8.264274 J-13.664403
G03 X73.838259 Y107.987365 Z-0.125000 I2.961898 J-3.029998
G03 X73.778991 Y107.636139 Z-0.125000 I0.410808 J-0.249936
G03 X74.000696 Y107.223346 Z-0.125000 I0.826889 J0.178175
G03 X84.270180 Y96.802146 Z-0.125000 I1149.854223 J1122.843624
G03 X94.647685 Y86.461710 Z-0.125000 I1136.551659 J1130.248566
G03 X94.965887 Y86.331090 Z-0.125000 I0.318203 J0.322275
G03 X95.210001 Y86.401379 Z-0.125000 I-0.000000 J0.459050
G03 X96.078368 Y87.029653 Z-0.125000 I-4.345479 J6.920337
G01 X96.078368 Y87.029644 Z-0.125000
G00 Z5.000000

(End cutting path id: path4966)


(Start cutting path id: path4966)
(Change tool to Cylindrical cutter)

G00 Z5.000000
G00 X71.661246 Y96.267517

G01 Z-0.125000 F1000.0(Penetrate)
G02 X73.340628 Y98.005743 Z-0.125000 I3.909708 J-2.096975 F1100.000000
G02 X75.782345 Y98.664106 Z-0.125000 I2.441718 J-4.198703
G03 X78.130672 Y98.820560 Z-0.125000 I-0.000000 J17.701958
G03 X78.286325 Y98.999242 Z-0.125000 I-0.023807 J0.177877
G03 X78.188615 Y99.296336 Z-0.125000 I-0.507610 J-0.002332
G03 X77.146864 Y100.559053 Z-0.125000 I-11.225746 J-8.200235
G03 X64.895945 Y113.539158 Z-0.125000 I-839.180353 J-779.766178
G03 X64.570015 Y113.678209 Z-0.125000 I-0.325930 J-0.312457
G03 X64.456162 Y113.581725 Z-0.125000 I0.000000 J-0.115416
G03 X64.469707 Y113.074965 Z-0.125000 I1.313726 J-0.218447
G02 X64.601545 Y112.471298 Z-0.125000 I-94.342845 J-20.920225
G02 X65.291313 Y109.254413 Z-0.125000 I-2684.425521 J-577.279566
G03 X67.367989 Y99.983913 Z-0.125000 I476.502600 J101.873085
G03 X67.550318 Y99.611667 Z-0.125000 I0.903100 J0.211569
G02 X67.750998 Y99.318478 Z-0.125000 I-1.715151 J-1.389248
G02 X68.782667 Y97.457617 Z-0.125000 I-68.716303 J-39.313016
G03 X70.093377 Y95.115620 Z-0.125000 I67.763197 J36.386230
G03 X70.469740 Y94.787134 Z-0.125000 I0.674749 J0.393241
G03 X70.835908 Y94.897706 Z-0.125000 I0.115452 J0.279253
G03 X71.661246 Y96.267517 Z-0.125000 I-13.283554 J8.937153
G01 X71.661246 Y96.267517 Z-0.125000
G00 Z5.000000

(End cutting path id: path4966)


(Start cutting path id: path4966)
(Change tool to Cylindrical cutter)

G00 Z5.000000
G00 X52.227136 Y95.086815

G01 Z-0.125000 F1000.0(Penetrate)
G03 X55.620184 Y97.159013 Z-0.125000 I-178.487091 J296.071438 F1100.000000
G03 X56.344276 Y97.633851 Z-0.125000 I-8.626581 J13.944393
G02 X57.635239 Y98.062093 Z-0.125000 I1.372221 J-1.976682
G02 X59.310016 Y97.734056 Z-0.125000 I0.127927 J-3.786151
G03 X67.335013 Y94.434311 Z-0.125000 I58.081420 J129.846029
G03 X68.108150 Y94.426375 Z-0.125000 I0.397461 J1.057213
G03 X68.174675 Y94.575066 Z-0.125000 I-0.037369 J0.105946
G03 X66.916151 Y97.323561 Z-0.125000 I-35.779987 J-14.721113
G02 X65.750663 Y100.231047 Z-0.125000 I16.040428 J8.117266
G02 X63.980470 Y107.018990 Z-0.125000 I86.294148 J26.129012
G02 X62.509329 Y113.903610 Z-0.125000 I606.112553 J133.116726
G02 X62.469395 Y114.292130 Z-0.125000 I1.870034 J0.388520
G03 X62.383017 Y114.644425 Z-0.125000 I-0.761606 J0.000000
G03 X62.107894 Y114.985006 Z-0.125000 I-0.983745 J-0.513260
G03 X61.620793 Y114.984616 Z-0.125000 I-0.243316 J-0.293178
G03 X54.560180 Y108.700521 Z-0.125000 I91.795967 J-110.247672
G03 X46.118690 Y100.266725 Z-0.125000 I166.341236 J-174.934481
G03 X45.980215 Y99.693771 Z-0.125000 I0.426500 J-0.406290
G03 X48.158643 Y93.319772 Z-0.125000 I76.095733 J22.447820
G03 X48.577066 Y93.033817 Z-0.125000 I0.418423 J0.163151
G03 X48.805047 Y93.093533 Z-0.125000 I0.000000 J0.465049
G03 X52.227136 Y95.086815 Z-0.125000 I-64.380667 J114.463653
G01 X52.227136 Y95.086815 Z-0.125000
G00 Z5.000000

(End cutting path id: path4966)


(Start cutting path id: path4966)
(Change tool to Cylindrical cutter)

G00 Z5.000000
G00 X40.015547 Y97.888260

G01 Z-0.125000 F1000.0(Penetrate)
G03 X42.046121 Y100.241702 Z-0.125000 I-13.428529 J13.638991 F1100.000000
G03 X41.959056 Y100.550507 Z-0.125000 I-0.164705 J0.120239
G03 X41.200722 Y100.713601 Z-0.125000 I-0.830518 J-2.017083
G03 X36.642255 Y100.788979 Z-0.125000 I-4.554530 J-137.561816
G03 X32.055846 Y100.706626 Z-0.125000 I0.003661 J-127.959283
G03 X31.904971 Y100.550239 Z-0.125000 I0.005613 J-0.156387
G03 X32.106526 Y100.008897 Z-0.125000 I0.827754 J0.000000
G03 X34.216114 Y97.746216 Z-0.125000 I31.167583 J26.944020
G03 X36.489379 Y95.648231 Z-0.125000 I29.078200 J29.227010
G03 X37.034487 Y95.446840 Z-0.125000 I0.545108 J0.637028
G03 X37.471814 Y95.603069 Z-0.125000 I0.000000 J0.690212
G03 X40.015547 Y97.888302 Z-0.125000 I-23.711209 J28.951714
G01 X40.015547 Y97.888260 Z-0.125000
G00 Z5.000000

(End cutting path id: path4966)


(Start cutting path id: path4966)
(Change tool to Cylindrical cutter)

G00 Z5.000000
G00 X33.396849 Y90.388213

G01 Z-0.125000 F1000.0(Penetrate)
G02 X34.012795 Y90.726838 Z-0.125000 I1.022304 J-1.130029 F1100.000000
G02 X35.206585 Y90.888945 Z-0.125000 I1.193790 J-4.314582
G03 X36.301310 Y91.050459 Z-0.125000 I-0.000000 J3.790732
G03 X36.462823 Y91.267880 Z-0.125000 I-0.065583 J0.217420
G03 X36.320315 Y91.626041 Z-0.125000 I-0.521331 J0.000000
G03 X34.289977 Y93.657765 Z-0.125000 I-37.696211 J-35.640152
G03 X32.151721 Y95.573336 Z-0.125000 I-35.850095 J-37.866462
G03 X31.765675 Y95.714909 Z-0.125000 I-0.386046 J-0.455558
G03 X31.513694 Y95.499624 Z-0.125000 I0.000000 J-0.255109
G03 X31.179398 Y92.618085 Z-0.125000 I34.741702 J-5.490647
G03 X31.074353 Y89.685381 Z-0.125000 I38.070671 J-2.831865
G03 X31.280320 Y89.189982 Z-0.125000 I0.703227 J0.001858
G03 X31.664624 Y89.137735 Z-0.125000 I0.226497 J0.226500
G03 X33.396849 Y90.388213 Z-0.125000 I-4.788420 J8.458179
G01 X33.396849 Y90.388213 Z-0.125000
G00 Z5.000000

(End cutting path id: path4966)


(Start cutting path id: path4966)
(Change tool to Cylindrical cutter)

G00 Z5.000000
G00 X29.163182 Y92.988876

G01 Z-0.125000 F1000.0(Penetrate)
G03 X29.104839 Y97.462049 Z-0.125000 I-77.186839 J1.230222 F1100.000000
G03 X28.969654 Y97.591670 Z-0.125000 I-0.135185 J-0.005684
G03 X28.722096 Y97.494453 Z-0.125000 I0.000000 J-0.363805
G03 X21.409526 Y90.571217 Z-0.125000 I354.887934 J-382.168879
G03 X20.443845 Y89.133275 Z-0.125000 I2.862525 J-2.965623
G03 X20.711419 Y88.821837 Z-0.125000 I0.215116 J-0.085844
G02 X24.211915 Y89.259233 Z-0.125000 I3.842257 J-16.523733
G02 X26.408735 Y88.936639 Z-0.125000 I0.135393 J-6.719325
G03 X28.555535 Y88.315129 Z-0.125000 I11.444262 J35.511884
G03 X28.821716 Y88.315753 Z-0.125000 I0.131888 J0.512567
G03 X28.962933 Y88.485606 Z-0.125000 I-0.048186 J0.183692
G03 X29.163182 Y92.988876 Z-0.125000 I-78.874772 J5.763461
G01 X29.163182 Y92.988876 Z-0.125000
G00 Z5.000000

(End cutting path id: path4966)


(Start cutting path id: path4966)
(Change tool to Cylindrical cutter)

G00 Z5.000000
G00 X5.671949 Y78.185274

G01 Z-0.125000 F1000.0(Penetrate)
G03 X6.806466 Y79.189025 Z-0.125000 I-16.164055 J19.412901 F1100.000000
G03 X12.448338 Y84.552865 Z-0.125000 I-456.823127 J486.151406
G02 X19.655993 Y91.469231 Z-0.125000 I2890.831508 J-3005.367245
G02 X24.248437 Y95.848962 Z-0.125000 I1163.817600 J-1215.744108
G03 X28.623498 Y100.345733 Z-0.125000 I-54.984373 J57.872871
G03 X28.614000 Y100.703901 Z-0.125000 I-0.193590 J0.174076
G03 X28.473104 Y100.765301 Z-0.125000 I-0.148572 J-0.148572
G03 X20.830148 Y100.988420 Z-0.125000 I-18.996152 J-519.697345
G03 X13.218940 Y100.962459 Z-0.125000 I-3.291503 J-150.735553
G03 X12.547125 Y100.751009 Z-0.125000 I0.036988 J-1.290483
G03 X10.876016 Y98.816392 Z-0.125000 I2.564869 J-3.904572
G03 X6.313561 Y87.347037 Z-0.125000 I98.756041 J-45.926818
G03 X3.836377 Y77.865257 Z-0.125000 I70.096698 J-23.377759
G03 X4.373618 Y77.215389 Z-0.125000 I0.537241 J-0.102868
G03 X4.492792 Y77.254987 Z-0.125000 I0.000000 J0.199130
G03 X5.671949 Y78.185274 Z-0.125000 I-17.047022 J22.819898
G01 X5.671949 Y78.185274 Z-0.125000
G00 Z5.000000

(End cutting path id: path4966)


(Start cutting path id: path4966)
(Change tool to Cylindrical cutter)

G00 Z5.000000
G00 X4.354308 Y65.217510

G01 Z-0.125000 F1000.0(Penetrate)
G03 X4.763404 Y66.631173 Z-0.125000 I-46.347658 J14.178435 F1100.000000
G03 X5.763307 Y70.378609 Z-0.125000 I-324.756247 J88.659690
G02 X6.776346 Y74.120680 Z-0.125000 I199.730419 J-52.062106
G02 X6.990326 Y74.747993 Z-0.125000 I5.808535 J-1.631163
G03 X6.583844 Y75.276508 Z-0.125000 I-0.358606 J0.144766
G03 X4.936810 Y74.491800 Z-0.125000 I0.358457 J-2.873217
G01 X3.217308 Y72.840651 Z-0.125000
G01 X3.217308 Y68.504033 Z-0.125000
G03 X3.302409 Y64.202665 Z-0.125000 I108.747184 J0.000000
G03 X3.396047 Y63.988680 Z-0.125000 I0.320295 J0.012679
G03 X3.725767 Y64.008998 Z-0.125000 I0.155881 J0.155880
G03 X4.354308 Y65.217510 Z-0.125000 I-2.955885 J2.305045
G01 X4.354308 Y65.217510 Z-0.125000
G00 Z5.000000

(End cutting path id: path4966)


(Start cutting path id: path4966)
(Change tool to Cylindrical cutter)

G00 Z5.000000
G00 X18.921913 Y62.939271

G01 Z-0.125000 F1000.0(Penetrate)
G03 X19.603539 Y65.554292 Z-0.125000 I-506.488864 J133.416705 F1100.000000
G03 X19.699634 Y65.954810 Z-0.125000 I-11.781531 J3.038513
G02 X22.261139 Y76.314740 Z-0.125000 I218.510673 J-48.530388
G02 X22.815678 Y77.381271 Z-0.125000 I2.739951 J-0.747197
G02 X23.646384 Y77.667027 Z-0.125000 I0.650098 J-0.539535
G02 X24.492537 Y77.014305 Z-0.125000 I-0.267267 J-1.221283
G02 X24.817945 Y76.256406 Z-0.125000 I-5.521160 J-2.819351
G02 X25.585661 Y73.914052 Z-0.125000 I-52.218464 J-18.411804
G03 X26.792844 Y72.630727 Z-0.125000 I1.897484 J0.575461
G03 X27.883335 Y73.060759 Z-0.125000 I0.305566 J0.822804
G02 X28.583414 Y74.376571 Z-0.125000 I26.668332 J-13.344760
G02 X28.715234 Y74.534297 Z-0.125000 I0.493922 J-0.278847
G03 X28.860531 Y74.684008 Z-0.125000 I-0.618083 J0.745225
G03 X31.061189 Y77.541547 Z-0.125000 I-228.131971 J177.965936
G03 X32.927001 Y81.105041 Z-0.125000 I-9.593011 J7.293019
G03 X32.642268 Y82.399354 Z-0.125000 I-1.243860 J0.404842
G02 X32.064340 Y83.070915 Z-0.125000 I8.749884 J8.114391
G02 X30.832535 Y84.667427 Z-0.125000 I48.313070 J38.549870
G03 X29.470976 Y86.074836 Z-0.125000 I-6.148567 J-4.585957
G03 X28.151444 Y86.808864 Z-0.125000 I-2.846230 J-3.563499
G03 X24.051219 Y87.644347 Z-0.125000 I-5.007424 J-14.095594
G03 X20.833223 Y87.253511 Z-0.125000 I-0.544438 J-8.960601
G03 X16.862867 Y85.528780 Z-0.125000 I6.013398 J-19.275206
G03 X13.797510 Y83.251177 Z-0.125000 I7.770208 J-13.659273
G02 X11.100075 Y80.772730 Z-0.125000 I-71.320681 J74.915276
G02 X10.925441 Y80.704578 Z-0.125000 I-0.179713 J0.202682
G03 X10.710215 Y80.421015 Z-0.125000 I0.004254 J-0.226689
G03 X13.809606 Y69.574281 Z-0.125000 I220.394609 J57.110286
G02 X15.063786 Y65.551544 Z-0.125000 I-2280.406952 J-713.175547
G02 X16.017845 Y62.469393 Z-0.125000 I-1337.909943 J-415.829852
G03 X17.034938 Y59.421044 Z-0.125000 I66.761074 J20.581214
G03 X17.258641 Y59.017155 Z-0.125000 I1.357106 J0.487768
G03 X17.596882 Y59.062322 Z-0.125000 I0.155772 J0.122547
G03 X18.921913 Y62.939271 Z-0.125000 I-26.303888 J11.154826
G01 X18.921913 Y62.939271 Z-0.125000
G00 Z5.000000

(End cutting path id: path4966)


(Start cutting path id: path4966)
(Change tool to Cylindrical cutter)

G00 Z5.000000
G00 X8.872905 Y46.785017

G01 Z-0.125000 F1000.0(Penetrate)
G03 X9.189465 Y47.866148 Z-0.125000 I-14.247384 J4.758615 F1100.000000
G03 X9.279100 Y48.393673 Z-0.125000 I-3.285848 J0.829696
G02 X9.356259 Y48.925201 Z-0.125000 I4.877067 J-0.436607
G02 X9.765797 Y50.806653 Z-0.125000 I61.686705 J-12.442126
G03 X10.189682 Y52.686631 Z-0.125000 I-119.336810 J27.895057
G03 X10.581157 Y54.560178 Z-0.125000 I-118.126893 J25.660175
G02 X11.404875 Y57.059522 Z-0.125000 I10.750155 J-2.157556
G02 X11.901860 Y57.375324 Z-0.125000 I0.496985 J-0.233156
G02 X12.341503 Y57.144067 Z-0.125000 I0.000000 J-0.533532
G02 X13.929566 Y54.426125 Z-0.125000 I-17.654388 J-12.138170
G03 X15.458281 Y51.613052 Z-0.125000 I33.815081 J16.554308
G03 X15.698679 Y51.476925 Z-0.125000 I0.240398 J0.144206
G03 X16.658210 Y52.331137 Z-0.125000 I0.000000 J0.966024
G03 X16.230269 Y56.038808 Z-0.125000 I-8.098898 J0.943753
G02 X15.806702 Y57.244409 Z-0.125000 I75.440760 J27.182020
G02 X15.680837 Y57.643433 Z-0.125000 I8.132312 J2.784554
G02 X15.564985 Y58.045687 Z-0.125000 I251.437023 J72.633264
G02 X15.064958 Y59.788305 Z-0.125000 I4709.567600 J1352.307351
G03 X14.549610 Y61.525712 Z-0.125000 I-95.682401 J-27.436081
G03 X14.407447 Y61.933177 Z-0.125000 I-5.396870 J-1.654412
G02 X13.905301 Y63.331295 Z-0.125000 I23.749514 J9.319075
G02 X11.955533 Y69.440229 Z-0.125000 I451.866774 J147.586481
G03 X11.237845 Y71.716827 Z-0.125000 I-358.136353 J-111.649474
G03 X10.819040 Y73.005734 Z-0.125000 I-115.224893 J-36.727571
G02 X10.491588 Y74.268934 Z-0.125000 I9.372881 J3.103722
G02 X10.545915 Y74.445225 Z-0.125000 I0.193846 J0.036780
G03 X10.576615 Y74.598134 Z-0.125000 I-0.099515 J0.099516
G03 X10.333367 Y74.963591 Z-0.125000 I-1.031759 J-0.423055
G02 X10.007807 Y75.354288 Z-0.125000 I1.985283 J1.985288
G02 X9.846622 Y75.668972 Z-0.125000 I1.116905 J0.770717
G03 X9.588161 Y75.672260 Z-0.125000 I-0.129840 J-0.046328
G03 X7.889627 Y70.595824 Z-0.125000 I55.163742 J-21.279722
G02 X6.445962 Y65.554590 Z-0.125000 I-1928.046016 J549.409662
G02 X6.206793 Y64.748321 Z-0.125000 I-49.558301 J14.262229
G02 X5.960858 Y63.944051 Z-0.125000 I-1719.600080 J525.381988
G02 X5.345241 Y61.933177 Z-0.125000 I-10797.975524 J3304.764399
G02 X4.677845 Y59.958573 Z-0.125000 I-34.654296 J10.612719
G02 X4.550872 Y59.788305 Z-0.125000 I-0.352928 J0.130710
G03 X3.943803 Y58.779422 Z-0.125000 I0.940806 J-1.253191
G03 X4.277050 Y58.053440 Z-0.125000 I0.712437 J-0.112447
G02 X4.414613 Y57.853941 Z-0.125000 I-0.158509 J-0.256475
G02 X4.383404 Y57.500789 Z-0.125000 I-0.633709 J-0.121953
G03 X4.369425 Y57.201418 Z-0.125000 I0.445078 J-0.170795
G03 X4.493641 Y57.107213 Z-0.125000 I0.124216 J0.034791
G02 X4.664552 Y56.994480 Z-0.125000 I-0.000000 J-0.185923
G02 X5.039004 Y55.833697 Z-0.125000 I-6.065329 J-2.597378
G03 X5.335828 Y54.563334 Z-0.125000 I63.360512 J14.134480
G03 X5.579314 Y53.621797 Z-0.125000 I35.047866 J8.561295
G02 X5.833861 Y52.682967 Z-0.125000 I-264.762664 J-72.289863
G02 X6.409424 Y50.538545 Z-0.125000 I-1381.403824 J-371.917737
G03 X8.014829 Y45.554107 Z-0.125000 I50.457713 J13.500839
G03 X8.317377 Y45.496267 Z-0.125000 I0.169031 J0.063960
G03 X8.472884 Y45.737143 Z-0.125000 I-0.639892 J0.583740
G03 X8.872905 Y46.785017 Z-0.125000 I-12.172873 J5.247225
G01 X8.872905 Y46.785017 Z-0.125000
G00 Z5.000000

(End cutting path id: path4966)


(Start cutting path id: path4966)
(Change tool to Cylindrical cutter)

G00 Z5.000000
G00 X21.923848 Y42.227165

G01 Z-0.125000 F1000.0(Penetrate)
G03 X22.447176 Y43.840345 Z-0.125000 I-91.243082 J30.491450 F1100.000000
G03 X23.147243 Y46.114745 Z-0.125000 I-180.679206 J56.858525
G03 X23.832920 Y48.393717 Z-0.125000 I-18479.907945 J5566.886855
G03 X25.082802 Y52.549361 Z-0.125000 R64256.761342
G03 X27.184296 Y60.063093 Z-0.125000 I-192.498958 J57.890221
G03 X27.342522 Y61.278489 Z-0.125000 I-4.802344 J1.243190
G03 X27.060126 Y63.194083 Z-0.125000 I-6.394508 J0.035938
G03 X24.138923 Y71.695785 Z-0.125000 I-131.754569 J-40.518441
G03 X23.701598 Y71.759043 Z-0.125000 I-0.236239 J-0.089887
G03 X22.829492 Y69.976445 Z-0.125000 I4.055850 J-3.088887
G02 X22.291451 Y67.966978 Z-0.125000 I-402.323259 J106.646588
G02 X21.306876 Y64.346157 Z-0.125000 I-1307.289453 J353.534435
G03 X19.441399 Y57.341598 Z-0.125000 I529.335997 J-144.725154
G03 X17.826003 Y50.920104 Z-0.125000 I443.273623 J-114.924205
G01 X17.134400 Y48.084354 Z-0.125000
G01 X19.064534 Y44.137812 Z-0.125000
G03 X21.028179 Y40.423160 Z-0.125000 I60.081917 J29.384260
G03 X21.190469 Y40.404890 Z-0.125000 I0.087803 J0.050004
G03 X21.341635 Y40.644797 Z-0.125000 I-0.584959 J0.536162
G03 X21.923848 Y42.227165 Z-0.125000 I-26.026742 J10.474521
G01 X21.923848 Y42.227165 Z-0.125000
G00 Z5.000000

(End cutting path id: path4966)


(Start cutting path id: path4966)
(Change tool to Cylindrical cutter)

G00 Z5.000000
G00 X38.609521 Y50.822618

G01 Z-0.125000 F1000.0(Penetrate)
G02 X39.024190 Y51.605225 Z-0.125000 I28.764027 J-14.739603 F1100.000000
G02 X39.883038 Y53.148544 Z-0.125000 I112.777076 J-61.749172
G03 X40.656957 Y54.711273 Z-0.125000 I-13.843498 J7.828790
G03 X40.752567 Y55.176983 Z-0.125000 I-1.086403 J0.465709
G03 X39.899212 Y62.647248 Z-0.125000 I-33.123985 J-0.000000
G03 X38.135278 Y66.483265 Z-0.125000 I-10.175613 J-2.355533
G03 X37.925273 Y66.461621 Z-0.125000 I-0.098635 J-0.072602
G03 X36.973434 Y63.943993 Z-0.125000 I18.101999 J-8.282562
G02 X36.393813 Y62.070958 Z-0.125000 I-148.802417 J45.021492
G02 X35.763940 Y60.121067 Z-0.125000 I-161.866016 J51.210950
G03 X35.209250 Y58.160939 Z-0.125000 I22.657779 J-7.470391
G03 X35.122276 Y57.417988 Z-0.125000 I3.129747 J-0.742951
G03 X35.224904 Y56.678658 Z-0.125000 I2.714373 J0.000000
G03 X36.203120 Y53.599806 Z-0.125000 I48.924126 J13.849390
G02 X37.283798 Y50.538488 Z-0.125000 I-28401.985041 J-10027.143511
G02 X37.409752 Y50.181113 Z-0.125000 I-397.242158 J-140.207933
G03 X37.821759 Y50.020979 Z-0.125000 I0.274696 J0.096671
G03 X38.609521 Y50.822618 Z-0.125000 I-0.887704 J1.660219
G01 X38.609521 Y50.822618 Z-0.125000
G00 Z5.000000

(End cutting path id: path4966)


(Start cutting path id: path4966)
(Change tool to Cylindrical cutter)

G00 Z5.000000
G00 X43.060417 Y59.453169

G01 Z-0.125000 F1000.0(Penetrate)
G03 X43.338088 Y59.930567 Z-0.125000 I-7.858968 J4.890496 F1100.000000
G03 X44.769050 Y62.603449 Z-0.125000 I-245.260301 J133.022710
G02 X46.192748 Y65.280753 Z-0.125000 I509.088522 J-268.998588
G02 X46.921223 Y66.625085 Z-0.125000 I129.048695 J-69.060171
G03 X47.649452 Y67.969541 Z-0.125000 I-124.002721 J68.035913
G03 X48.999849 Y70.512665 Z-0.125000 I-442.577287 J236.638329
G02 X50.345134 Y73.058547 Z-0.125000 I1493.024882 J-787.309840
G02 X51.044001 Y74.373149 Z-0.125000 I399.239600 J-211.400411
G03 X51.682159 Y75.702331 Z-0.125000 I-15.251027 J8.140002
G03 X51.745036 Y76.008612 Z-0.125000 I-0.714533 J0.306281
G03 X51.634880 Y76.283959 Z-0.125000 I-0.399206 J0.000000
G03 X47.790428 Y80.160045 Z-0.125000 I-97.952825 J-93.308813
G02 X43.839853 Y83.993605 Z-0.125000 I1823.314240 J1882.920646
G02 X41.374097 Y86.399425 Z-0.125000 I715.431580 J735.721704
G03 X38.793082 Y88.581830 Z-0.125000 I-16.240091 J-16.588882
G03 X37.754625 Y89.033162 Z-0.125000 I-1.532860 J-2.106567
G03 X35.205036 Y89.043381 Z-0.125000 I-1.301809 J-6.735148
G03 X33.178482 Y88.186654 Z-0.125000 I0.929219 J-5.023259
G03 X31.684275 Y87.068519 Z-0.125000 I21.250936 J-29.955913
G03 X31.636860 Y86.970733 Z-0.125000 I0.077127 J-0.097786
G03 X31.823480 Y86.321370 Z-0.125000 I1.223068 J0.000000
G03 X32.709516 Y85.258657 Z-0.125000 I4.346657 J2.723298
G02 X35.232837 Y82.375516 Z-0.125000 I-11.633724 J-12.727594
G02 X35.658496 Y81.017811 Z-0.125000 I-1.952480 J-1.357705
G02 X35.512536 Y80.520635 Z-0.125000 I-0.919735 J-0.000000
G02 X33.012756 Y76.900138 Z-0.125000 I-55.785934 J35.844290
G03 X30.490875 Y73.250789 Z-0.125000 I54.388605 J-40.281264
G03 X28.987578 Y70.646717 Z-0.125000 I26.148194 J-16.830966
G03 X27.912819 Y67.939655 Z-0.125000 I13.336765 J-6.861847
G03 X27.924777 Y66.960221 Z-0.125000 I1.629894 J-0.469892
G03 X28.308499 Y66.046277 Z-0.125000 I5.122922 J1.613353
G03 X28.460937 Y65.954810 Z-0.125000 I0.152438 J0.081291
G03 X28.622219 Y66.042274 Z-0.125000 I0.000000 J0.192432
G03 X29.074121 Y66.896960 Z-0.125000 I-4.478442 J2.914719
G02 X29.971692 Y67.925183 Z-0.125000 I1.990454 J-0.831665
G02 X30.801948 Y67.912244 Z-0.125000 I0.404501 J-0.688386
G02 X31.123453 Y67.549357 Z-0.125000 I-0.462300 J-0.733446
G02 X32.311481 Y64.719294 Z-0.125000 I-31.414959 J-14.852038
G03 X33.469747 Y61.916013 Z-0.125000 I36.922993 J13.614992
G03 X33.652028 Y61.799121 Z-0.125000 I0.182282 J0.083679
G03 X33.994797 Y62.040960 Z-0.125000 I0.000000 J0.363829
G03 X36.454027 Y69.672212 Z-0.125000 I-125.208979 J44.561440
G02 X37.584813 Y72.302051 Z-0.125000 I11.072153 J-3.202813
G02 X38.205532 Y72.657537 Z-0.125000 I0.620718 J-0.364179
G02 X38.813130 Y72.257942 Z-0.125000 I0.000000 J-0.661736
G02 X40.056297 Y68.367793 Z-0.125000 I-19.162288 J-8.267363
G03 X41.997375 Y59.826297 Z-0.125000 I352.500934 J75.615493
G03 X42.255770 Y59.205804 Z-0.125000 I2.064112 J0.495520
G03 X42.580635 Y59.083715 Z-0.125000 I0.241456 J0.149229
G03 X43.060417 Y59.453169 Z-0.125000 I-0.253936 J0.826023
G01 X43.060417 Y59.453169 Z-0.125000
G00 Z5.000000

(End cutting path id: path4966)


(Start cutting path id: path4966)
(Change tool to Cylindrical cutter)

G00 Z5.000000
G00 X60.271751 Y64.834370

G01 Z-0.125000 F1000.0(Penetrate)
G03 X60.806130 Y66.671701 Z-0.125000 I-31.906706 J10.276296 F1100.000000
G03 X60.860740 Y67.098552 Z-0.125000 I-1.640899 J0.426850
G03 X59.992808 Y69.245359 Z-0.125000 I-3.089002 J0.000000
G03 X56.826512 Y71.272305 Z-0.125000 I-5.854395 J-5.658649
G03 X56.672157 Y71.219125 Z-0.125000 I-0.043495 J-0.124352
G03 X56.570996 Y70.874307 Z-0.125000 I0.537095 J-0.344818
G03 X57.733353 Y64.167986 Z-0.125000 I19.927530 J0.000000
G03 X59.383137 Y63.005613 Z-0.125000 I1.649784 J0.589602
G03 X59.588926 Y63.134414 Z-0.125000 I-0.000000 J0.228796
G03 X60.271751 Y64.834370 Z-0.125000 I-11.718128 J5.693960
G01 X60.271751 Y64.834370 Z-0.125000
G00 Z5.000000

(End cutting path id: path4966)


(Start cutting path id: path4966)
(Change tool to Cylindrical cutter)

G00 Z5.000000
G00 X68.905549 Y63.608857

G01 Z-0.125000 F1000.0(Penetrate)
G03 X68.817658 Y64.288266 Z-0.125000 I-2.577797 J0.011914 F1100.000000
G03 X66.911048 Y71.048881 Z-0.125000 I-261.833904 J-70.192511
G02 X66.560742 Y72.257324 Z-0.125000 I106.137974 J31.422524
G02 X66.226414 Y73.461861 Z-0.125000 I105.060120 J29.808868
G03 X65.877029 Y74.661119 Z-0.125000 I-32.637148 J-8.857808
G03 X65.658783 Y75.284213 Z-0.125000 I-9.019550 J-2.809430
G02 X65.522857 Y76.837913 Z-0.125000 I2.587594 J1.009173
G02 X67.936903 Y86.678503 Z-0.125000 I114.949329 J-22.982424
G03 X68.957187 Y91.787468 Z-0.125000 I-28.884646 J8.424754
G03 X68.568875 Y92.378212 Z-0.125000 I-0.550630 J0.061053
G02 X65.787468 Y93.337369 Z-0.125000 I12.415994 J40.516875
G02 X62.335340 Y94.773032 Z-0.125000 I24.540979 J63.878365
G03 X57.641359 Y96.396081 Z-0.125000 I-11.489068 J-25.628059
G03 X56.857291 Y96.138987 Z-0.125000 I-0.187552 J-0.752163
G02 X56.496119 Y95.812444 Z-0.125000 I-1.314614 J1.091017
G02 X54.612566 Y94.629197 Z-0.125000 I-19.899196 J29.585758
G03 X52.694653 Y93.481573 Z-0.125000 I59.287740 J-101.258287
G03 X51.610980 Y92.794092 Z-0.125000 I20.182951 J-33.012124
G02 X50.521374 Y92.117696 Z-0.125000 I-13.368661 J20.319727
G02 X49.265812 Y91.422583 Z-0.125000 I-15.375164 J26.290202
G02 X47.753354 Y91.297223 Z-0.125000 I-0.904743 J1.729138
G02 X46.779990 Y92.237180 Z-0.125000 I0.483102 J1.474228
G03 X46.438223 Y93.167740 Z-0.125000 I-1201.866866 J-440.883401
G03 X45.427254 Y95.915989 Z-0.125000 I-10445.635243 J-3840.933683
G03 X44.323647 Y98.531822 Z-0.125000 I-28.591915 J-10.522073
G03 X44.113806 Y98.664106 Z-0.125000 I-0.209841 J-0.100292
G03 X43.831980 Y98.557021 Z-0.125000 I0.000000 J-0.424400
G03 X40.965552 Y95.934890 Z-0.125000 I87.847075 J-98.909310
G03 X38.176057 Y93.228186 Z-0.125000 I90.447630 J-96.004971
G03 X38.070183 Y92.970326 Z-0.125000 I0.255334 J-0.255502
G03 X38.224698 Y92.581919 Z-0.125000 I0.575281 J0.003918
G03 X41.760891 Y89.012185 Z-0.125000 I60.762661 J56.655392
G02 X42.743933 Y88.069116 Z-0.125000 I-98.343390 J-103.495725
G02 X47.313766 Y83.633997 Z-0.125000 I-2170.133916 J-2240.622042
G03 X51.883430 Y79.198680 Z-0.125000 I2265.244744 J2329.287856
G03 X55.340163 Y75.858837 Z-0.125000 I1287.578523 J1329.183360
G02 X58.797624 Y72.519770 Z-0.125000 I-1547.780150 J-1606.119544
G02 X60.119018 Y71.233666 Z-0.125000 I-228.414656 J-236.004176
G03 X61.516325 Y70.778889 Z-0.125000 I1.157586 J1.182688
G03 X62.466850 Y71.577385 Z-0.125000 I-0.171090 J1.168661
G02 X63.812550 Y72.963355 Z-0.125000 I2.100569 J-0.693250
G02 X64.907093 Y72.463325 Z-0.125000 I0.292911 J-0.806798
G02 X65.158162 Y71.708296 Z-0.125000 I-8.360559 J-3.199387
G02 X66.145687 Y68.099682 Z-0.125000 I-190.398552 J-54.043460
G03 X67.288943 Y64.598860 Z-0.125000 I30.726029 J8.097046
G03 X67.800675 Y63.878297 Z-0.125000 I1.703650 J0.667913
G03 X68.675632 Y63.429122 Z-0.125000 I1.375143 J1.601906
G03 X68.905549 Y63.608857 Z-0.125000 I0.044039 J0.180588
G01 X68.905549 Y63.608857 Z-0.125000
G00 Z5.000000

(End cutting path id: path4966)


(Start cutting path id: path4966)
(Change tool to Cylindrical cutter)

G00 Z5.000000
G00 X73.110697 Y63.149131

G01 Z-0.125000 F1000.0(Penetrate)
G03 X73.768927 Y64.750882 Z-0.125000 I-204.652393 J85.036742 F1100.000000
G03 X76.593427 Y71.719153 Z-0.125000 I-3874.719823 J1574.624923
G02 X79.464998 Y78.658315 Z-0.125000 I426.380716 J-172.381611
G02 X79.686901 Y79.025125 Z-0.125000 I1.380027 J-0.584326
G02 X80.431662 Y79.371987 Z-0.125000 I0.733846 J-0.602686
G02 X81.195788 Y79.007768 Z-0.125000 I-0.011587 J-1.007981
G02 X81.403049 Y78.613970 Z-0.125000 I-0.828140 J-0.687302
G02 X82.069794 Y75.924516 Z-0.125000 I-40.142475 J-11.379124
G03 X82.762024 Y73.333738 Z-0.125000 I25.579871 J5.446824
G03 X82.949557 Y73.200419 Z-0.125000 I0.183221 J0.059172
G03 X83.193759 Y73.311874 Z-0.125000 I-0.007602 J0.339913
G03 X84.588387 Y75.006718 Z-0.125000 I-16.834990 J15.274145
G02 X86.005359 Y76.741198 Z-0.125000 I20.072574 J-14.952126
G02 X89.280295 Y80.252264 Z-0.125000 I85.734199 J-76.685427
G03 X92.591329 Y83.728446 Z-0.125000 I-165.212848 J160.678744
G03 X92.844070 Y84.072697 Z-0.125000 I-1.333574 J1.243986
G03 X92.931303 Y84.447788 Z-0.125000 I-0.590774 J0.335082
G03 X92.794077 Y84.919954 Z-0.125000 I-1.105360 J-0.065227
G03 X92.475150 Y85.350010 Z-0.125000 I-1.786860 J-0.991840
G03 X86.897544 Y91.007408 Z-0.125000 I-323.235007 J-313.097950
G01 X81.263420 Y96.622112 Z-0.125000
G01 X79.708593 Y96.816151 Z-0.125000
G03 X78.150369 Y96.959912 Z-0.125000 I-3.013289 J-24.144399
G03 X76.092079 Y97.032816 Z-0.125000 I-2.520835 J-42.078148
G01 X74.030392 Y97.055450 Z-0.125000
G01 X72.937517 Y94.977606 Z-0.125000
G03 X71.925739 Y92.868421 Z-0.125000 I28.041583 J-14.748847
G03 X71.566987 Y91.827326 Z-0.125000 I6.437825 J-2.800775
G02 X70.295526 Y87.152690 Z-0.125000 I-191.784157 J49.653416
G02 X68.279380 Y80.298638 Z-0.125000 I-414.361292 J118.162421
G03 X67.981979 Y77.127272 Z-0.125000 I7.638872 J-2.315977
G03 X69.406378 Y69.842387 Z-0.125000 I43.098390 J4.645243
G03 X71.958617 Y61.575565 Z-0.125000 I201.576174 J57.705769
G03 X72.184125 Y61.462574 Z-0.125000 I0.169156 J0.056072
G03 X72.377475 Y61.623815 Z-0.125000 I-0.109148 J0.327431
G03 X73.110697 Y63.149128 Z-0.125000 I-13.668997 J7.509609
G01 X73.110697 Y63.149131 Z-0.125000
G00 Z5.000000

(End cutting path id: path4966)


(Start cutting path id: path4966)
(Change tool to Cylindrical cutter)

G00 Z5.000000
G00 X88.029427 Y59.205268

G01 Z-0.125000 F1000.0(Penetrate)
G03 X89.244197 Y62.091842 Z-0.125000 I-124.593819 J54.132278 F1100.000000
G03 X89.280295 Y62.276153 Z-0.125000 I-0.452484 J0.184311
G02 X89.316580 Y62.460054 Z-0.125000 I0.484167 J0.000000
G02 X90.047383 Y64.144360 Z-0.125000 I42.968662 J-17.642973
G03 X90.773758 Y65.837093 Z-0.125000 I-35.202873 J16.108246
G03 X91.419195 Y67.563465 Z-0.125000 I-35.971533 J14.432478
G02 X92.930640 Y69.898722 Z-0.125000 I5.518340 J-1.914873
G02 X93.837408 Y69.843284 Z-0.125000 I0.427364 J-0.453307
G02 X94.068913 Y69.393047 Z-0.125000 I-0.901561 J-0.748205
G02 X95.053628 Y65.218404 Z-0.125000 I-81.324185 J-21.386208
G03 X96.220062 Y59.705635 Z-0.125000 I1161.760682 J242.934595
G03 X96.663194 Y57.699493 Z-0.125000 I154.282618 J33.027141
G03 X96.877699 Y57.263467 Z-0.125000 I1.024775 J0.233365
G03 X97.046382 Y57.235661 Z-0.125000 I0.100291 J0.082854
G03 X97.548057 Y57.864616 Z-0.125000 I-0.627191 J1.014821
G03 X99.157379 Y63.411451 Z-0.125000 I-58.178176 J19.886308
G02 X99.441379 Y64.472502 Z-0.125000 I20.438749 J-4.902093
G02 X100.266842 Y67.161301 Z-0.125000 I132.142618 J-39.096766
G03 X101.098077 Y69.848805 Z-0.125000 I-165.332233 J52.608961
G03 X101.510745 Y71.301628 Z-0.125000 I-47.895018 J14.389379
G02 X102.332816 Y73.144028 Z-0.125000 I6.191575 J-1.658052
G02 X102.919652 Y73.462815 Z-0.125000 I0.588370 J-0.383566
G03 X103.394313 Y73.621096 Z-0.125000 I-0.001709 J0.795984
G03 X106.531778 Y76.161091 Z-0.125000 I-31.008071 J41.509666
G03 X107.008692 Y76.935471 Z-0.125000 I-1.016436 J1.160036
G03 X106.981832 Y77.903799 Z-0.125000 I-1.694258 J0.437540
G03 X104.929861 Y82.882003 Z-0.125000 I-31.025998 J-9.876631
G03 X103.525256 Y84.645772 Z-0.125000 I-5.080443 J-2.604717
G03 X102.363047 Y85.086942 Z-0.125000 I-1.211275 J-1.439522
G03 X98.641143 Y84.773198 Z-0.125000 I-0.442957 J-16.978359
G03 X96.437400 Y84.124287 Z-0.125000 I2.411538 J-12.256209
G03 X95.423835 Y83.493933 Z-0.125000 I1.245861 J-3.133304
G03 X88.776359 Y76.980521 Z-0.125000 I76.244356 J-84.462537
G03 X85.989954 Y73.461861 Z-0.125000 I19.279660 J-18.130044
G02 X84.971628 Y72.020438 Z-0.125000 I-24.383639 J16.145935
G02 X84.342795 Y71.273558 Z-0.125000 I-7.151425 J5.382965
G03 X83.695728 Y69.847300 Z-0.125000 I1.768964 J-1.662456
G03 X83.895695 Y66.700285 Z-0.125000 I9.794262 J-0.957515
G02 X85.965079 Y57.192316 Z-0.125000 I-471.449964 J-107.588968
G02 X86.062987 Y56.236911 Z-0.125000 I-4.612545 J-0.955406
G03 X86.134313 Y56.155375 Z-0.125000 I0.082266 J0.000000
G03 X86.420771 Y56.188905 Z-0.125000 I0.077546 J0.577927
G03 X86.685809 Y56.423068 Z-0.125000 I-0.181171 J0.472130
G03 X88.029427 Y59.205268 Z-0.125000 I-34.055320 J18.162004
G01 X88.029427 Y59.205268 Z-0.125000
G00 Z5.000000

(End cutting path id: path4966)


(Start cutting path id: path4966)
(Change tool to Cylindrical cutter)

G00 Z5.000000
G00 X79.454725 Y48.728809

G01 Z-0.125000 F1000.0(Penetrate)
G02 X81.366123 Y53.290863 Z-0.125000 I34.972290 J-11.971157 F1100.000000
G02 X81.901626 Y53.621797 Z-0.125000 I0.535503 J-0.267796
G02 X82.449074 Y53.403921 Z-0.125000 I0.000000 J-0.796714
G02 X83.314947 Y52.285116 Z-0.125000 I-3.156053 J-3.337017
G03 X84.126085 Y51.071983 Z-0.125000 I7.495564 J4.134018
G03 X84.387304 Y50.944572 Z-0.125000 I0.265128 J0.212087
G03 X84.665893 Y51.249424 Z-0.125000 I0.003192 J0.276804
G03 X83.770177 Y57.004036 Z-0.125000 I-54.770769 J-5.578160
G02 X82.828618 Y61.533191 Z-0.125000 I958.427490 J201.608451
G02 X82.316992 Y64.078049 Z-0.125000 I302.045745 J62.048033
G03 X81.814350 Y66.624744 Z-0.125000 I-1887.262816 J-371.167341
G03 X81.124383 Y70.099147 Z-0.125000 I-3512.365129 J-695.698621
G02 X80.440184 Y73.573953 Z-0.125000 I821.543982 J163.569079
G02 X80.432696 Y73.651591 Z-0.125000 I0.398738 J0.077637
G01 X80.398022 Y73.695238 Z-0.125000
G03 X80.097560 Y73.729397 Z-0.125000 I-0.298200 J-1.284453
G03 X79.859101 Y73.586313 Z-0.125000 I0.000394 J-0.270902
G03 X78.770376 Y71.249389 Z-0.125000 I20.533063 J-10.988003
G02 X77.775179 Y68.771224 Z-0.125000 I-975.338620 J390.243672
G02 X75.351988 Y62.768368 Z-0.125000 I-5721.059562 J2305.947117
G03 X73.031267 Y56.746233 Z-0.125000 I182.791223 J-73.899571
G03 X72.925644 Y56.151378 Z-0.125000 I1.622260 J-0.594855
G03 X73.051940 Y55.505765 Z-0.125000 I1.713297 J0.000000
G03 X75.215959 Y50.521470 Z-0.125000 I108.277566 J44.048681
G02 X75.826593 Y49.156639 Z-0.125000 I-55.812177 J-25.789729
G02 X76.376576 Y47.840382 Z-0.125000 I-51.355795 J-22.231435
G03 X77.617201 Y45.216589 Z-0.125000 I22.967415 J9.254633
G03 X77.905187 Y45.044401 Z-0.125000 I0.290396 J0.158765
G03 X78.100199 Y45.172941 Z-0.125000 I0.001498 J0.209926
G03 X79.454725 Y48.728809 Z-0.125000 I-51.355836 J21.598752
G01 X79.454725 Y48.728809 Z-0.125000
G00 Z5.000000

(End cutting path id: path4966)


(Start cutting path id: path4966)
(Change tool to Cylindrical cutter)

G00 Z5.000000
G00 X60.330292 Y42.913397

G01 Z-0.125000 F1000.0(Penetrate)
G02 X60.510665 Y43.298549 Z-0.125000 I33.252826 J-15.338078 F1100.000000
G02 X61.087494 Y44.506093 Z-0.125000 I326.683906 J-155.311315
G03 X61.627711 Y45.721345 Z-0.125000 I-20.540883 J9.858747
G03 X61.665813 Y45.916586 Z-0.125000 I-0.471648 J0.193381
G02 X61.701371 Y46.112858 Z-0.125000 I0.544342 J0.002738
G02 X62.175458 Y47.257133 Z-0.125000 I19.758639 J-7.515890
G03 X65.657050 Y55.444472 Z-0.125000 I-202.829697 J91.085412
G03 X66.373824 Y57.705725 Z-0.125000 I-14.667396 J5.893516
G03 X66.395227 Y58.738938 Z-0.125000 I-2.399547 J0.566534
G03 X65.248813 Y63.541829 Z-0.125000 I-55.268940 J-10.654012
G03 X63.909005 Y67.651537 Z-0.125000 I-56.239319 J-16.061365
G03 X63.702286 Y67.751004 Z-0.125000 I-0.154627 J-0.056813
G03 X63.501357 Y67.573371 Z-0.125000 I0.108332 J-0.324995
G03 X62.964252 Y66.202135 Z-0.125000 I9.325051 J-4.443375
G02 X62.509522 Y64.748902 Z-0.125000 I-569.014498 J177.252413
G02 X59.946518 Y56.601087 Z-0.125000 I-17876.264883 J5618.743227
G01 X57.381662 Y48.453848 Z-0.125000
G01 X58.159552 Y46.144836 Z-0.125000
G03 X58.949902 Y43.840321 Z-0.125000 I212.259338 J71.508151
G03 X59.230466 Y43.076727 Z-0.125000 I23.578284 J8.229935
G03 X59.795691 Y42.624388 Z-0.125000 I0.670859 J0.258967
G03 X60.330292 Y42.913397 Z-0.125000 I0.074440 J0.501253
G01 X60.330292 Y42.913397 Z-0.125000
G00 Z5.000000

(End cutting path id: path4966)


(Start cutting path id: path4966)
(Change tool to Cylindrical cutter)

G00 Z5.000000
G00 X47.159748 Y41.892029

G01 Z-0.125000 F1000.0(Penetrate)
G03 X47.418331 Y42.770005 Z-0.125000 I-16.214815 J5.252668 F1100.000000
G03 X47.853947 Y44.506093 Z-0.125000 I-63.015579 J16.734478
G02 X48.285866 Y46.243605 Z-0.125000 I75.568427 J-17.862676
G02 X48.798130 Y48.125564 Z-0.125000 I89.154060 J-23.256822
G03 X49.314004 Y50.006748 Z-0.125000 I-107.906393 J30.602297
G03 X50.396132 Y54.158017 Z-0.125000 I-524.475281 J138.933773
G02 X51.469275 Y58.311696 Z-0.125000 I1163.365924 J-298.351442
G02 X51.632409 Y58.908071 Z-0.125000 I24.140154 J-6.282858
G02 X52.360932 Y59.664370 Z-0.125000 I1.077853 J-0.309233
G02 X53.274316 Y59.446364 Z-0.125000 I0.279341 J-0.852052
G02 X53.578851 Y58.991401 Z-0.125000 I-0.996267 J-0.996267
G02 X54.814499 Y55.745167 Z-0.125000 I-52.360867 J-21.788940
G03 X56.036873 Y52.521161 Z-0.125000 I55.572926 J19.226625
G03 X56.214750 Y52.355316 Z-0.125000 I0.270386 J0.111688
G03 X57.569071 Y53.039893 Z-0.125000 I0.337854 J1.013551
G03 X58.235249 Y58.598244 Z-0.125000 I-13.833163 J4.477026
G03 X57.691951 Y61.336202 Z-0.125000 I-11.488859 J-0.856871
G03 X54.454293 Y70.110501 Z-0.125000 I-122.875450 J-40.355751
G02 X54.247336 Y70.651616 Z-0.125000 I11.000737 J4.517504
G02 X53.836000 Y71.853209 Z-0.125000 I53.845794 J19.104002
G03 X53.342196 Y72.927330 Z-0.125000 I-5.013276 J-1.654177
G03 X53.107672 Y73.059698 Z-0.125000 I-0.234524 J-0.141577
G03 X52.858687 Y72.924814 Z-0.125000 I0.000000 J-0.297247
G03 X51.359342 Y70.378609 Z-0.125000 I27.109883 J-17.678330
G02 X49.937877 Y67.699307 Z-0.125000 I-1067.037359 J564.384349
G02 X46.722459 Y61.665066 Z-0.125000 I-5412.988397 J2880.502676
G03 X42.133207 Y52.284991 Z-0.125000 I131.143104 J-69.975173
G03 X42.178619 Y51.486910 Z-0.125000 I0.795363 J-0.355075
G02 X44.625406 Y46.525132 Z-0.125000 I-31.604875 J-18.669394
G02 X45.042311 Y44.373064 Z-0.125000 I-5.346040 J-2.152067
G03 X45.670560 Y41.648925 Z-0.125000 I6.220175 J0.000000
G03 X46.675447 Y41.020676 Z-0.125000 I1.004887 J0.489536
G03 X46.816951 Y41.103920 Z-0.125000 I-0.000000 J0.161892
G03 X47.159748 Y41.892029 Z-0.125000 I-3.877700 J2.155258
G01 X47.159748 Y41.892029 Z-0.125000
G00 Z5.000000

(End cutting path id: path4966)


(Start cutting path id: path4966)
(Change tool to Cylindrical cutter)

G00 Z5.000000
G00 X30.482072 Y23.907757

G01 Z-0.125000 F1000.0(Penetrate)
G03 X32.093587 Y25.159416 Z-0.125000 I-3.572927 J6.263401 F1100.000000
G03 X32.594135 Y26.092600 Z-0.125000 I-1.396314 J1.349801
G02 X32.815959 Y26.913213 Z-0.125000 I8.687694 J-1.908122
G02 X32.995653 Y27.338317 Z-0.125000 I2.495730 J-0.804429
G03 X33.177153 Y27.764448 Z-0.125000 I-2.398272 J1.273205
G03 X34.319055 Y31.368753 Z-0.125000 I-171.896959 J56.442768
G02 X35.684046 Y35.766364 Z-0.125000 I478.509225 J-146.115657
G02 X36.999291 Y39.865411 Z-0.125000 I417.076878 J-131.565257
G03 X37.624121 Y42.826407 Z-0.125000 I-13.414148 J4.377077
G03 X37.422735 Y44.063410 Z-0.125000 I-2.407920 J0.242882
G02 X37.077261 Y44.922154 Z-0.125000 I10.341630 J4.659308
G02 X35.024692 Y50.806653 Z-0.125000 I484.468491 J172.287432
G03 X30.635554 Y62.777390 Z-0.125000 I-275.692258 J-94.294090
G03 X30.314054 Y62.833313 Z-0.125000 I-0.177722 J-0.069611
G03 X29.987879 Y62.245435 Z-0.125000 I1.207852 J-1.054583
G03 X25.350033 Y46.516909 Z-0.125000 I912.623925 J-277.652010
G02 X23.890461 Y41.424275 Z-0.125000 I-2610.727158 J745.491080
G02 X23.229877 Y39.146566 Z-0.125000 I-523.046025 J150.459784
G01 X22.564328 Y36.870294 Z-0.125000
G01 X23.186688 Y35.527097 Z-0.125000
G03 X23.814965 Y34.186681 Z-0.125000 I152.039055 J70.446011
G03 X25.857364 Y29.894153 Z-0.125000 I1560.918833 J740.058176
G02 X27.902978 Y25.603135 Z-0.125000 I-3414.734073 J-1630.505112
G02 X28.218080 Y24.934137 Z-0.125000 I-82.670503 J-39.346971
G03 X29.069987 Y23.485777 Z-0.125000 I7.982554 J3.720517
G03 X29.384162 Y23.325481 Z-0.125000 I0.314175 J0.227740
G03 X29.456566 Y23.343493 Z-0.125000 I0.000000 J0.154533
G03 X30.482072 Y23.907757 Z-0.125000 I-17.820036 J33.600552
G01 X30.482072 Y23.907757 Z-0.125000
G00 Z5.000000

(End cutting path id: path4966)


(Start cutting path id: path4966)
(Change tool to Cylindrical cutter)

G00 Z5.000000
G00 X26.447078 Y21.973261

G01 Z-0.125000 F1000.0(Penetrate)
G03 X26.785743 Y22.381414 Z-0.125000 I-0.013556 J0.355829 F1100.000000
G03 X26.020270 Y24.846371 Z-0.125000 I-8.342140 J-1.239254
G02 X22.445681 Y32.213799 Z-0.125000 I1226.649768 J599.706710
G02 X19.975262 Y37.401205 Z-0.125000 I605.549712 J291.565419
G03 X18.837476 Y39.813587 Z-0.125000 I-2295.665678 J-1081.262911
G03 X17.569400 Y42.495273 Z-0.125000 I-2835.051303 J-1338.955309
G02 X16.302652 Y45.177586 Z-0.125000 I1385.673855 J656.038125
G02 X15.359151 Y47.187181 Z-0.125000 I776.733015 J365.901116
G03 X12.742063 Y52.379575 Z-0.125000 I-90.181806 J-42.198007
G03 X12.457117 Y52.549361 Z-0.125000 I-0.284946 J-0.154214
G03 X12.182400 Y52.440090 Z-0.125000 I0.000000 J-0.399965
G03 X11.960638 Y52.080170 Z-0.125000 I0.561695 J-0.594361
G03 X9.973682 Y44.105138 Z-0.125000 I84.543431 J-25.298794
G03 X9.671210 Y40.644711 Z-0.125000 I15.456569 J-3.094473
G03 X9.831541 Y39.852721 Z-0.125000 I2.300073 J0.053404
G03 X10.740834 Y37.937421 Z-0.125000 I14.731138 J5.820148
G02 X11.777371 Y36.053682 Z-0.125000 I-130.548419 J-73.061955
G02 X11.973573 Y35.658497 Z-0.125000 I-5.541168 J-2.997382
G03 X13.607789 Y32.837111 Z-0.125000 I14.990802 J6.799063
G03 X17.746548 Y27.447490 Z-0.125000 I89.931509 J64.775644
G03 X22.344484 Y22.223402 Z-0.125000 I74.411132 J60.856853
G03 X23.423483 Y21.658414 Z-0.125000 I1.362925 J1.290062
G03 X23.994860 Y21.633687 Z-0.125000 I0.399061 J2.607380
G03 X25.068191 Y21.766206 Z-0.125000 I-0.615008 J9.394182
G02 X26.142479 Y21.944679 Z-0.125000 I6.264602 J-34.386258
G02 X26.447078 Y21.973261 Z-0.125000 I0.409594 J-2.727678
G01 X26.447078 Y21.973261 Z-0.125000
G00 Z5.000000

(End cutting path id: path4966)


(Start cutting path id: path4966)
(Change tool to Cylindrical cutter)

G00 Z5.000000
G00 X74.400244 Y3.717996

G01 Z-0.125000 F1000.0(Penetrate)
G03 X74.257829 Y3.989918 Z-0.125000 I-0.330806 J0.000000 F1100.000000
G03 X73.059700 Y4.646742 Z-0.125000 I-3.732693 J-5.387721
G03 X71.678078 Y5.006025 Z-0.125000 I-1.941671 J-4.630532
G03 X67.965628 Y5.218493 Z-0.125000 I-3.799892 J-33.855479
G03 X64.259594 Y5.010712 Z-0.125000 I-0.081350 J-31.703739
G03 X62.938584 Y4.639957 Z-0.125000 I0.495249 J-4.303362
G03 X61.770351 Y3.984448 Z-0.125000 I3.573267 J-7.736941
G03 X61.665068 Y3.787248 Z-0.125000 I0.132038 J-0.197199
G03 X61.886993 Y3.550660 Z-0.125000 I0.237073 J-0.000000
G03 X68.635900 Y3.340939 Z-0.125000 I6.563122 J102.507995
G03 X74.222761 Y3.528525 Z-0.125000 I-0.159401 J88.037644
G03 X74.400244 Y3.717996 Z-0.125000 I-0.012393 J0.189471
G01 X74.400244 Y3.717996 Z-0.125000
G00 Z5.000000

(End cutting path id: path4966)


(Start cutting path id: path4966)
(Change tool to Cylindrical cutter)

G00 Z5.000000
G00 X109.729714 Y57.844513

G01 Z-0.125000 F1000.0(Penetrate)
G03 X110.386145 Y59.397094 Z-0.125000 I-45.827215 J20.290824 F1100.000000
G03 X113.539491 Y67.295357 Z-0.125000 I-1183.315837 J477.012067
G02 X116.677405 Y75.200269 Z-0.125000 I2911.431165 J-1151.139183
G02 X117.853537 Y78.120253 Z-0.125000 I398.657466 J-158.877237
G03 X118.986111 Y81.046561 Z-0.125000 I-83.998344 J34.192338
G03 X119.040391 Y81.351804 Z-0.125000 I-0.831115 J0.305244
G03 X118.812127 Y81.892570 Z-0.125000 I-0.754679 J0.000000
G03 X114.999644 Y85.285319 Z-0.125000 I-39.795895 J-40.880809
G03 X113.733025 Y86.061140 Z-0.125000 I-3.534998 J-4.349434
G03 X112.486119 Y86.397780 Z-0.125000 I-1.715126 J-3.875216
G03 X111.217104 Y86.274251 Z-0.125000 I-0.341488 J-3.071978
G03 X109.041035 Y85.314018 Z-0.125000 I3.227789 J-10.260583
G03 X107.263320 Y83.921453 Z-0.125000 I4.119408 J-7.089712
G03 X107.055780 Y83.259079 Z-0.125000 I0.557174 J-0.538280
G03 X107.273340 Y82.461229 Z-0.125000 I3.882122 J0.630004
G03 X108.302457 Y80.059509 Z-0.125000 I36.582649 J14.254006
G02 X109.515107 Y76.627650 Z-0.125000 I-16.766647 J-7.854686
G02 X109.338088 Y75.849552 Z-0.125000 I-0.864175 J-0.212583
G02 X108.954305 Y75.454084 Z-0.125000 I-2.603231 J2.142359
G02 X106.640351 Y73.490253 Z-0.125000 I-67.320417 J76.977509
G03 X104.337949 Y71.537852 Z-0.125000 I66.500224 J-80.755306
G03 X104.294396 Y71.442008 Z-0.125000 I0.083681 J-0.095844
G03 X104.310092 Y71.327813 Z-0.125000 I0.423248 J-0.000000
G03 X105.661667 Y66.562361 Z-0.125000 I752.674222 J210.898555
G02 X107.016779 Y61.795775 Z-0.125000 I-935.990602 J-268.672456
G02 X107.417907 Y60.324521 Z-0.125000 I-88.782068 J-24.996230
G03 X108.605197 Y56.467027 Z-0.125000 I47.981487 J12.656653
G03 X108.837183 Y56.302889 Z-0.125000 I0.231986 J0.081870
G03 X108.989844 Y56.390905 Z-0.125000 I0.000000 J0.176400
G03 X109.729714 Y57.844513 Z-0.125000 I-13.079059 J7.572188
G01 X109.729714 Y57.844513 Z-0.125000
G00 Z5.000000

(End cutting path id: path4966)


(Start cutting path id: path4966)
(Change tool to Cylindrical cutter)

G00 Z5.000000
G00 X124.670680 Y102.696598

G01 Z-0.125000 F1000.0(Penetrate)
G03 X124.565714 Y103.210696 Z-0.125000 I-1.311449 J-0.000000 F1100.000000
G03 X124.070892 Y104.104170 Z-0.125000 I-4.571168 J-1.947834
G03 X121.307793 Y107.944933 Z-0.125000 I-130.181697 J-90.740284
G03 X119.849909 Y109.790629 Z-0.125000 I-31.485884 J-23.371532
G03 X116.058706 Y113.896971 Z-0.125000 I-45.565249 J-38.265081
G03 X112.099537 Y117.431737 Z-0.125000 I-37.674438 J-38.213189
G02 X110.942446 Y118.375949 Z-0.125000 I92.289947 J114.278283
G02 X110.364110 Y118.862637 Z-0.125000 I23.952634 J29.050139
G03 X109.770024 Y119.327954 Z-0.125000 I-5.445297 J-6.340290
G03 X108.033908 Y120.523665 Z-0.125000 I-37.856639 J-53.107843
G01 X106.277188 Y121.692172 Z-0.125000
G01 X101.867403 Y121.838659 Z-0.125000
G03 X94.305583 Y122.007886 Z-0.125000 I-11.592680 J-348.981013
G03 X53.085580 Y122.401837 Z-0.125000 I-119.727925 J-10370.749937
G01 X33.647679 Y122.548979 Z-0.125000
G01 X32.679731 Y121.934146 Z-0.125000
G03 X29.504082 Y119.800624 Z-0.125000 I39.940519 J-62.879766
G03 X27.983420 Y118.600825 Z-0.125000 I11.052571 J-15.571935
G02 X27.407969 Y118.108222 Z-0.125000 I-23.199534 J26.518898
G02 X26.107454 Y117.029573 Z-0.125000 I-112.517024 J134.337102
G03 X20.757169 Y112.063755 Z-0.125000 I38.278907 J-46.607733
G03 X15.871583 Y106.305213 Z-0.125000 I46.695291 J-44.568356
G03 X14.882016 Y104.034129 Z-0.125000 I4.266511 J-3.210154
G03 X15.349240 Y103.381597 Z-0.125000 I0.551634 J-0.098557
G03 X16.225320 Y103.307769 Z-0.125000 I0.987012 J6.477513
G03 X30.763190 Y103.120595 Z-0.125000 I30.337892 J1791.676067
G01 X45.305786 Y102.992367 Z-0.125000
G01 X46.411007 Y103.915750 Z-0.125000
G03 X47.498280 Y104.858785 Z-0.125000 I-24.978962 J29.897826
G03 X48.250992 Y105.572172 Z-0.125000 I-13.535082 J15.034986
G02 X48.995302 Y106.295336 Z-0.125000 I27.692980 J-27.758114
G02 X52.426004 Y109.522521 Z-0.125000 I555.085363 J-586.653842
G03 X55.862487 Y112.743804 Z-0.125000 I-1384.780072 J1480.734838
G03 X56.706330 Y113.544154 Z-0.125000 I-84.656623 J90.102158
G02 X61.940983 Y118.369381 Z-0.125000 I130.022972 J-135.803557
G02 X62.295970 Y118.504173 Z-0.125000 I0.354986 J-0.400048
G02 X62.575032 Y118.394224 Z-0.125000 I0.000000 J-0.409121
G02 X67.035833 Y114.082927 Z-0.125000 I-119.377733 J-127.980807
G03 X71.524266 Y109.837251 Z-0.125000 I76.788852 J76.684071
G03 X71.987264 Y109.659455 Z-0.125000 I0.465902 J0.521509
G03 X72.478574 Y109.778329 Z-0.125000 I0.004050 J1.058007
G03 X73.327808 Y110.355147 Z-0.125000 I-2.007375 J3.868962
G02 X75.427244 Y111.916162 Z-0.125000 I11.391623 J-13.128497
G02 X78.784656 Y113.807002 Z-0.125000 I20.157452 J-31.865818
G02 X88.460928 Y116.459315 Z-0.125000 I11.578862 J-23.265621
G02 X98.578120 Y115.260006 Z-0.125000 I1.961766 J-26.724053
G02 X104.217105 Y112.694027 Z-0.125000 I-8.023104 J-25.110631
G02 X109.062766 Y108.906297 Z-0.125000 I-13.464522 J-22.218636
G02 X112.548339 Y104.984677 Z-0.125000 I-29.798385 J-29.994901
G02 X112.873884 Y104.041198 Z-0.125000 I-1.204402 J-0.943479
G03 X112.939574 Y103.840795 Z-0.125000 I0.338530 J-0.000000
G03 X113.651725 Y102.982204 Z-0.125000 I7.633162 J5.606618
G01 X114.429566 Y102.149525 Z-0.125000
G01 X119.550124 Y102.149525 Z-0.125000
G03 X124.411708 Y102.408485 Z-0.125000 I-0.000000 J45.763812
G03 X124.670680 Y102.696598 Z-0.125000 I-0.030781 J0.288113
G01 X124.670680 Y102.696598 Z-0.125000
G00 Z5.000000

(End cutting path id: path4966)


(Start cutting path id: path4966)
(Change tool to Cylindrical cutter)

G00 Z5.000000
G00 X101.077091 Y124.473074

G01 Z-0.125000 F1000.0(Penetrate)
G03 X100.730853 Y125.043615 Z-0.125000 I-0.643195 J-0.000000 F1100.000000
G03 X94.540717 Y127.875156 Z-0.125000 I-30.892794 J-59.353860
G03 X87.519168 Y130.280316 Z-0.125000 I-28.485954 J-71.709172
G03 X82.041351 Y131.495124 Z-0.125000 I-12.266970 J-42.356556
G02 X80.709095 Y131.710394 Z-0.125000 I18.471055 J118.543376
G02 X77.617552 Y132.235489 Z-0.125000 I106.912299 J638.818908
G03 X70.309278 Y132.828401 Z-0.125000 I-6.949735 J-40.325328
G03 X60.592632 Y132.086315 Z-0.125000 I0.633312 J-72.276837
G03 X52.688682 Y130.514778 Z-0.125000 I10.977869 J-75.874520
G03 X44.640147 Y128.032480 Z-0.125000 I20.625843 J-81.165996
G03 X39.189753 Y125.712069 Z-0.125000 I19.135398 J-52.508379
G03 X38.875804 Y125.208678 Z-0.125000 I0.246599 J-0.503392
G03 X39.126980 Y124.949975 Z-0.125000 I0.258816 J0.000000
G03 X63.809940 Y124.472343 Z-0.125000 I35.812945 J1212.715433
G02 X86.465103 Y124.259795 Z-0.125000 I-500.509627 J-54548.546653
G02 X93.771119 Y124.185027 Z-0.125000 I-54.384704 J-5671.473159
G03 X100.897909 Y124.286689 Z-0.125000 I1.542026 J141.754246
G03 X101.077091 Y124.473074 Z-0.125000 I-0.007348 J0.186385
G01 X101.077091 Y124.473074 Z-0.125000
G00 Z5.000000

(End cutting path id: path4966)


(Footer)
M5
G00 X0.0000 Y0.0000
M2
(Using default footer. To add your own footer create file "footer" in the output dir.)
(end)
%