%
(Header)
(Generated by gcodetools from Inkscape.)
(Using default header. To add your own header create file "header" in the output dir.)
M3
(Header end.)
G21 (All units in mm)

(Start cutting path id: path4835)
(Change tool to Cylindrical cutter)

G00 Z5.000000
G00 X105.275044 Y61.405757

G01 Z-0.125000 F1000.0(Penetrate)
G03 X105.112831 Y61.535560 Z-0.125000 I-0.703435 J-0.712821 F1100.000000
G03 X104.718851 Y61.763003 Z-0.125000 I-2.594999 J-4.040129
G02 X102.362783 Y63.582822 Z-0.125000 I3.779546 J7.328348
G02 X100.298535 Y66.686527 Z-0.125000 I9.618675 J8.635608
G02 X99.915905 Y67.815267 Z-0.125000 I4.677613 J2.214881
G02 X99.792665 Y69.043350 Z-0.125000 I5.426744 J1.164807
G02 X99.845896 Y69.869347 Z-0.125000 I2.284414 J0.267496
G02 X100.774735 Y73.177528 Z-0.125000 I58.595145 J-14.667301
G02 X101.901856 Y76.421560 Z-0.125000 I50.878271 J-15.859546
G02 X102.226450 Y76.671115 Z-0.125000 I0.366394 J-0.140689
G02 X103.314576 Y76.226787 Z-0.125000 I0.000000 J-1.554535
G02 X105.232846 Y73.724518 Z-0.125000 I-7.830417 J-7.989311
G02 X107.227077 Y69.078006 Z-0.125000 I-20.583855 J-11.585566
G02 X107.638248 Y65.897881 Z-0.125000 I-9.080128 J-2.790649
G02 X107.509091 Y64.496165 Z-0.125000 I-13.821070 J0.566694
G02 X107.335866 Y63.794230 Z-0.125000 I-3.614353 J0.519615
G03 X107.123557 Y63.100564 Z-0.125000 I7.751774 J-2.751888
G03 X107.091993 Y62.850589 Z-0.125000 I0.960756 J-0.248296
G02 X107.047121 Y62.606368 Z-0.125000 I-0.678758 J-0.001522
G02 X106.738396 Y61.926724 Z-0.125000 I-5.743767 J2.199144
G02 X106.300589 Y61.397482 Z-0.125000 I-1.497794 J0.793319
G02 X105.904411 Y61.258311 Z-0.125000 I-0.396177 J0.494316
G02 X105.446183 Y61.311269 Z-0.125000 I-0.000000 J2.008935
G02 X105.275044 Y61.405757 Z-0.125000 I0.082296 J0.351286
G01 X105.275044 Y61.405757 Z-0.125000
G00 Z5.000000

(End cutting path id: path4835)


(Start cutting path id: path5114)
(Change tool to Cylindrical cutter)

G00 Z5.000000
G00 X112.896875 Y58.859888

G01 Z-0.125000 F1000.0(Penetrate)
G02 X112.690115 Y60.998947 Z-0.125000 I9.211936 J1.969940 F1100.000000
G02 X112.985830 Y63.814006 Z-0.125000 I16.339788 J-0.293391
G02 X113.369259 Y65.242752 Z-0.125000 I10.262881 J-1.988400
G02 X113.516220 Y65.347424 Z-0.125000 I0.146961 J-0.050831
G02 X113.731536 Y65.288607 Z-0.125000 I-0.000000 J-0.423519
G02 X115.380960 Y64.246506 Z-0.125000 I-16.451542 J-27.865673
G03 X117.023200 Y63.180901 Z-0.125000 I30.363620 J44.996169
G03 X117.146556 Y63.145593 Z-0.125000 I0.123356 J0.197832
G02 X117.360678 Y62.944409 Z-0.125000 I0.000000 J-0.214538
G02 X117.215503 Y62.040009 Z-0.125000 I-2.081130 J-0.129787
G02 X116.929917 Y61.468376 Z-0.125000 I-3.590748 J1.436775
G02 X116.836060 Y61.415583 Z-0.125000 I-0.093856 J0.057032
G03 X116.740281 Y61.369231 Z-0.125000 I0.000000 J-0.122132
G03 X116.618294 Y61.140355 Z-0.125000 I0.569094 J-0.450263
G02 X115.064672 Y58.686570 Z-0.125000 I-5.494303 J1.760004
G02 X113.212792 Y57.955568 Z-0.125000 I-1.851880 J1.980224
G02 X113.134956 Y58.010826 Z-0.125000 I0.000000 J0.082449
G02 X112.896875 Y58.859888 Z-0.125000 I6.642632 J2.320532
G01 X112.896875 Y58.859888 Z-0.125000
G00 Z5.000000

(End cutting path id: path5114)


(Start cutting path id: path5108)
(Change tool to Cylindrical cutter)

G00 Z5.000000
G00 X118.153933 Y60.335089

G01 Z-0.125000 F1000.0(Penetrate)
G03 X118.221048 Y60.712196 Z-0.125000 I-2.170216 J0.580764 F1100.000000
G03 X118.255852 Y61.454904 Z-0.125000 I-8.426859 J0.767068
G02 X118.379824 Y62.079758 Z-0.125000 I1.660301 J-0.004679
G02 X118.561949 Y62.201952 Z-0.125000 I0.182126 J-0.074629
G03 X118.807624 Y62.280407 Z-0.125000 I-0.000000 J0.423883
G03 X118.948935 Y62.477181 Z-0.125000 I-0.216786 J0.304810
G03 X119.437379 Y64.615191 Z-0.125000 I-15.358529 J4.633568
G03 X119.421268 Y65.476467 Z-0.125000 I-2.445095 J0.385050
G02 X119.526699 Y65.975288 Z-0.125000 I0.639485 J0.125391
G02 X121.215825 Y68.042926 Z-0.125000 I14.645700 J-10.240816
G02 X123.459410 Y69.520775 Z-0.125000 I4.298002 J-4.083013
G02 X127.812386 Y70.479974 Z-0.125000 I5.655277 J-15.307615
G01 X129.109894 Y70.583852 Z-0.125000
G01 X129.109894 Y69.755360 Z-0.125000
G02 X128.836759 Y67.390437 Z-0.125000 I-10.374861 J-0.000000
G02 X127.988180 Y64.964018 Z-0.125000 I-11.777056 J2.757136
G02 X126.770886 Y62.879850 Z-0.125000 I-6.025863 J2.121934
G02 X124.856498 Y61.273963 Z-0.125000 I-6.124904 J5.357515
G02 X124.468552 Y61.071413 Z-0.125000 I-2.433210 J4.187567
G02 X123.372954 Y60.582807 Z-0.125000 I-15.369335 J32.989935
G02 X122.237840 Y60.249432 Z-0.125000 I-1.981339 J4.647120
G02 X120.161322 Y60.037118 Z-0.125000 I-2.634428 J15.505042
G01 X118.054154 Y59.962328 Z-0.125000
G01 X118.153933 Y60.335089 Z-0.125000
G00 Z5.000000

(End cutting path id: path5108)


(Start cutting path id: path5120)
(Change tool to Cylindrical cutter)

G00 Z5.000000
G00 X121.107919 Y54.328450

G01 Z-0.125000 F1000.0(Penetrate)
G02 X120.613980 Y54.515234 Z-0.125000 I0.586665 J2.297882 F1100.000000
G02 X120.453189 Y54.663578 Z-0.125000 I0.185480 J0.362360
G02 X120.420464 Y55.897458 Z-0.125000 I1.043718 J0.645055
G02 X122.574189 Y58.541000 Z-0.125000 I8.214767 J-4.493564
G02 X123.793890 Y59.469321 Z-0.125000 I9.281054 J-10.928752
G02 X124.692616 Y59.981272 Z-0.125000 I3.670767 J-5.399162
G02 X125.602051 Y60.255011 Z-0.125000 I1.384654 J-2.952633
G02 X127.490014 Y60.393306 Z-0.125000 I1.887963 J-12.817824
G02 X129.375817 Y60.313712 Z-0.125000 I0.000000 J-22.379573
G02 X129.586001 Y60.216062 Z-0.125000 I-0.028433 J-0.336229
G02 X128.446352 Y57.325476 Z-0.125000 I-9.667692 J2.141652
G02 X126.066352 Y55.017388 Z-0.125000 I-5.398443 J3.185520
G02 X123.479972 Y54.195585 Z-0.125000 I-3.692765 J7.141051
G02 X121.107919 Y54.328450 Z-0.125000 I-0.847923 J6.102655
G01 X121.107919 Y54.328450 Z-0.125000
G00 Z5.000000

(End cutting path id: path5120)


(Start cutting path id: path5122)
(Change tool to Cylindrical cutter)

G00 Z5.000000
G00 X131.311730 Y52.880331

G01 Z-0.125000 F1000.0(Penetrate)
G02 X129.150073 Y53.500193 Z-0.125000 I2.063389 J11.274816 F1100.000000
G02 X128.166251 Y54.127631 Z-0.125000 I1.137526 J2.868675
G02 X128.118360 Y54.346337 Z-0.125000 I0.136821 J0.144556
G02 X128.426970 Y54.777100 Z-0.125000 I1.034728 J-0.415376
G03 X130.813287 Y56.586676 Z-0.125000 I-47.826421 J65.547696
G02 X133.552881 Y57.639818 Z-0.125000 I3.070515 J-3.897593
G02 X133.613269 Y57.582808 Z-0.125000 I0.000549 J-0.059907
G02 X133.670838 Y55.203281 Z-0.125000 I-49.148802 J-2.379527
G01 X133.670838 Y52.765543 Z-0.125000
G01 X132.687873 Y52.786942 Z-0.125000
G02 X131.707204 Y52.830867 Z-0.125000 I0.464611 J21.341662
G02 X131.311730 Y52.880313 Z-0.125000 I0.238393 J3.512971
G01 X131.311730 Y52.880331 Z-0.125000
G00 Z5.000000

(End cutting path id: path5122)


(Start cutting path id: path5132)
(Change tool to Cylindrical cutter)

G00 Z5.000000
G00 X132.842619 Y47.643406

G01 Z-0.125000 F1000.0(Penetrate)
G02 X130.051411 Y49.138054 Z-0.125000 I3.586300 J10.050875 F1100.000000
G02 X129.581715 Y50.073963 Z-0.125000 I0.697594 J0.935910
G02 X129.790504 Y50.380030 Z-0.125000 I0.328728 J-0.000000
G02 X132.412645 Y51.183340 Z-0.125000 I6.571681 J-16.769858
G02 X133.200298 Y50.878086 Z-0.125000 I0.166268 J-0.739802
G02 X133.670838 Y49.384175 Z-0.125000 I-2.136233 J-1.493911
G02 X133.613531 Y47.479010 Z-0.125000 I-31.697626 J-0.000000
G02 X133.552881 Y47.425159 Z-0.125000 I-0.057296 J0.003450
G02 X133.437750 Y47.445727 Z-0.125000 I0.026405 J0.480306
G02 X132.842619 Y47.643406 Z-0.125000 I4.186271 J13.597859
G01 X132.842619 Y47.643406 Z-0.125000
G00 Z5.000000

(End cutting path id: path5132)


(Start cutting path id: path5142)
(Change tool to Cylindrical cutter)

G00 Z5.000000
G00 X129.364431 Y42.235983

G01 Z-0.125000 F1000.0(Penetrate)
G02 X126.181642 Y43.582836 Z-0.125000 I2.733133 J10.892848 F1100.000000
G02 X125.649871 Y44.537998 Z-0.125000 I0.591940 J0.955162
G02 X125.852617 Y44.946899 Z-0.125000 I0.513714 J0.000000
G02 X127.608316 Y46.027393 Z-0.125000 I6.344599 J-8.342700
G02 X130.209116 Y46.847937 Z-0.125000 I4.060490 J-8.338118
G02 X132.366036 Y46.785664 Z-0.125000 I0.913820 J-5.733669
G02 X133.235516 Y46.149429 Z-0.125000 I-0.285460 J-1.302343
G02 X133.670838 Y44.523315 Z-0.125000 I-2.819457 J-1.626114
G01 X133.670838 Y42.593235 Z-0.125000
G01 X133.238337 Y42.391026 Z-0.125000
G02 X131.636608 Y42.001305 Z-0.125000 I-1.768724 J3.782991
G02 X129.364431 Y42.235983 Z-0.125000 I-0.320662 J8.012390
G01 X129.364431 Y42.235983 Z-0.125000
G00 Z5.000000

(End cutting path id: path5142)


(Start cutting path id: path5154)
(Change tool to Cylindrical cutter)

G00 Z5.000000
G00 X132.205109 Y38.159466

G01 Z-0.125000 F1000.0(Penetrate)
G02 X131.215262 Y39.150198 Z-0.125000 I10.904247 J11.884344 F1100.000000
G02 X131.154458 Y39.306612 Z-0.125000 I0.170779 J0.156414
G02 X131.608378 Y40.044314 Z-0.125000 I0.826409 J-0.000000
G02 X133.514321 Y40.498210 Z-0.125000 I1.905943 J-3.774653
G02 X133.596279 Y40.423652 Z-0.125000 I0.000000 J-0.082325
G02 X133.670838 Y38.846835 Z-0.125000 I-16.636451 J-1.576817
G02 X133.573556 Y37.292731 Z-0.125000 I-12.462334 J-0.000000
G02 X133.463301 Y37.195466 Z-0.125000 I-0.110255 J0.013857
G02 X133.279959 Y37.257629 Z-0.125000 I0.000000 J0.301456
G02 X132.205109 Y38.159466 Z-0.125000 I9.630768 J12.569830
G01 X132.205109 Y38.159466 Z-0.125000
G00 Z5.000000

(End cutting path id: path5154)


(Start cutting path id: path5168)
(Change tool to Cylindrical cutter)

G00 Z5.000000
G00 X128.402165 Y32.273233

G01 Z-0.125000 F1000.0(Penetrate)
G02 X127.175128 Y32.710472 Z-0.125000 I1.345392 J5.715964 F1100.000000
G02 X125.366760 Y33.752463 Z-0.125000 I6.603118 J13.549856
G03 X124.679597 Y34.171643 Z-0.125000 I-5.074309 J-7.545523
G03 X124.541068 Y34.207272 Z-0.125000 I-0.138528 J-0.251493
G02 X124.631000 Y34.799464 Z-0.125000 I0.219198 J0.269637
G03 X125.138729 Y35.016895 Z-0.125000 I-4.380502 J10.930553
G02 X127.264336 Y35.757166 Z-0.125000 I2.825832 J-4.692203
G02 X128.805640 Y35.856441 Z-0.125000 I1.546770 J-12.000119
G01 X130.781857 Y35.854063 Z-0.125000
G01 X132.226347 Y35.156114 Z-0.125000
G02 X133.472845 Y34.333933 Z-0.125000 I-2.449751 J-5.070026
G02 X133.670838 Y33.899196 Z-0.125000 I-0.378285 J-0.434737
G02 X133.461479 Y33.476925 Z-0.125000 I-0.530535 J-0.000000
G02 X132.098101 Y32.702986 Z-0.125000 I-3.553457 J4.671966
G02 X130.036811 Y32.178668 Z-0.125000 I-2.986011 J7.425116
G02 X128.402165 Y32.273048 Z-0.125000 I-0.548034 J4.711222
G01 X128.402165 Y32.273233 Z-0.125000
G00 Z5.000000

(End cutting path id: path5168)


(Start cutting path id: path5170)
(Change tool to Cylindrical cutter)

G00 Z5.000000
G00 X133.144757 Y30.720318

G01 Z-0.125000 F1000.0(Penetrate)
G02 X132.954970 Y31.225184 Z-0.125000 I0.544537 J0.492805 F1100.000000
G02 X133.159677 Y31.629233 Z-0.125000 I0.517897 J-0.008507
G02 X133.469462 Y31.611595 Z-0.125000 I0.144553 J-0.190425
G02 X133.670820 Y31.140435 Z-0.125000 I-0.450558 J-0.471160
G02 X133.456544 Y30.695105 Z-0.125000 I-0.569903 J-0.000000
G02 X133.144733 Y30.720318 Z-0.125000 I-0.142496 J0.178439
G01 X133.144757 Y30.720318 Z-0.125000
G00 Z5.000000

(End cutting path id: path5170)


(Start cutting path id: path5180)
(Change tool to Cylindrical cutter)

G00 Z5.000000
G00 X127.294759 Y24.583495

G01 Z-0.125000 F1000.0(Penetrate)
G02 X125.179878 Y25.523348 Z-0.125000 I2.568865 J8.629922 F1100.000000
G02 X123.167712 Y27.097128 Z-0.125000 I5.706530 J9.369341
G02 X120.800342 Y29.699013 Z-0.125000 I23.757234 J23.993870
G02 X120.617106 Y30.212012 Z-0.125000 I0.626491 J0.512998
G02 X120.973117 Y30.673992 Z-0.125000 I0.477752 J0.000000
G02 X125.694649 Y31.550044 Z-0.125000 I8.252851 J-31.317714
G02 X129.400286 Y31.343386 Z-0.125000 I1.232137 J-11.232908
G02 X132.778861 Y29.960887 Z-0.125000 I-2.393108 J-10.667886
G01 X133.664406 Y29.410425 Z-0.125000
G01 X133.667378 Y26.946401 Z-0.125000
G01 X133.670350 Y24.482378 Z-0.125000
G01 X132.876240 Y24.312071 Z-0.125000
G02 X132.076026 Y24.200855 Z-0.125000 I-1.158806 J5.403335
G02 X130.399175 Y24.150995 Z-0.125000 I-1.546176 J23.777594
G02 X128.732686 Y24.271102 Z-0.125000 I0.069182 J12.581295
G02 X127.294265 Y24.583495 Z-0.125000 I1.346756 J9.668988
G01 X127.294759 Y24.583495 Z-0.125000
G00 Z5.000000

(End cutting path id: path5180)


(Start cutting path id: path5182)
(Change tool to Cylindrical cutter)

G00 Z5.000000
G00 X121.953935 Y22.988602

G01 Z-0.125000 F1000.0(Penetrate)
G02 X120.123002 Y23.315381 Z-0.125000 I2.078152 J16.936509 F1100.000000
G02 X118.179362 Y23.876944 Z-0.125000 I4.625550 J19.653992
G02 X116.226142 Y25.102031 Z-0.125000 I1.653617 J4.806051
G02 X114.208197 Y27.876805 Z-0.125000 I7.986898 J7.929605
G02 X113.586639 Y29.185470 Z-0.125000 I19.912132 J10.259326
G02 X113.539783 Y29.410223 Z-0.125000 I0.515606 J0.224753
G02 X113.648331 Y29.537648 Z-0.125000 I0.129066 J0.000000
G02 X114.994568 Y29.644472 Z-0.125000 I1.335451 J-8.293568
G02 X118.060182 Y29.065500 Z-0.125000 I-0.010565 J-8.461533
G02 X120.690743 Y27.421640 Z-0.125000 I-3.041602 J-7.793961
G02 X122.548694 Y25.259884 Z-0.125000 I-8.360033 J-9.064445
G02 X123.517351 Y23.237444 Z-0.125000 I-6.323822 J-4.272015
G02 X123.442312 Y23.025182 Z-0.125000 I-0.180357 J-0.055634
G02 X123.026133 Y22.907142 Z-0.125000 I-0.388846 J0.578282
G02 X122.426640 Y22.941676 Z-0.125000 I0.642740 J16.378418
G02 X121.953935 Y22.988602 Z-0.125000 I0.779808 J10.259827
G01 X121.953935 Y22.988602 Z-0.125000
G00 Z5.000000

(End cutting path id: path5182)


(Start cutting path id: path5196)
(Change tool to Cylindrical cutter)

G00 Z5.000000
G00 X119.594827 Y14.953470

G01 Z-0.125000 F1000.0(Penetrate)
G02 X116.082532 Y15.637420 Z-0.125000 I4.039540 J30.104658 F1100.000000
G02 X114.069661 Y16.371690 Z-0.125000 I2.707715 J10.548811
G02 X111.959813 Y17.787504 Z-0.125000 I3.871542 J8.049335
G02 X110.027059 Y20.016861 Z-0.125000 I8.065768 J8.945151
G03 X108.609762 Y22.632836 Z-0.125000 I-64.401514 J-33.199865
G02 X107.984278 Y25.600136 Z-0.125000 I4.330164 J2.462339
G02 X113.687283 Y25.368763 Z-0.125000 I2.487638 J-9.084423
G02 X118.632151 Y22.584581 Z-0.125000 I-5.917616 J-16.293300
G02 X120.963297 Y19.697785 Z-0.125000 I-5.601118 J-6.907638
G02 X122.254165 Y16.671271 Z-0.125000 I-22.251930 J-11.279439
G02 X122.779893 Y15.093606 Z-0.125000 I-49.225613 J-17.279964
G02 X122.812593 Y14.901946 Z-0.125000 I-0.680144 J-0.214664
G02 X122.639128 Y14.725643 Z-0.125000 I-0.170731 J-0.005506
G02 X119.594827 Y14.953482 Z-0.125000 I0.416673 J26.019682
G01 X119.594827 Y14.953470 Z-0.125000
G00 Z5.000000

(End cutting path id: path5196)


(Start cutting path id: path5198)
(Change tool to Cylindrical cutter)

G00 Z5.000000
G00 X129.896265 Y14.855201

G01 Z-0.125000 F1000.0(Penetrate)
G02 X127.286891 Y15.630283 Z-0.125000 I3.382277 J16.166575 F1100.000000
G02 X125.917937 Y16.403896 Z-0.125000 I1.999377 J5.136047
G02 X124.702053 Y17.476499 Z-0.125000 I7.584748 J9.823391
G02 X123.605313 Y18.729681 Z-0.125000 I9.284935 J9.232347
G02 X122.540061 Y20.174202 Z-0.125000 I35.808044 J27.521442
G02 X122.504392 Y20.286412 Z-0.125000 I0.158667 J0.112210
G03 X122.480121 Y20.376430 Z-0.125000 I-0.179063 J-0.000000
G03 X122.111213 Y20.962511 Z-0.125000 I-8.540391 J-4.966596
G02 X121.740866 Y21.548159 Z-0.125000 I8.690934 J5.905816
G02 X121.718027 Y21.632166 Z-0.125000 I0.143081 J0.084007
G02 X121.814879 Y21.754235 Z-0.125000 I0.125352 J0.000000
G02 X124.408833 Y22.260390 Z-0.125000 I8.197977 J-35.113306
G02 X128.322962 Y22.489440 Z-0.125000 I3.126753 J-19.873740
G02 X130.839908 Y22.008511 Z-0.125000 I-0.336325 J-8.586852
G02 X132.211065 Y21.371535 Z-0.125000 I-1.839554 J-5.754100
G03 X133.474245 Y20.681939 Z-0.125000 I6.309768 J10.056299
G02 X133.575693 Y20.586691 Z-0.125000 I-0.000100 J-0.101757
G02 X133.670838 Y17.614912 Z-0.125000 I-46.363120 J-2.971779
G01 X133.670838 Y14.548082 Z-0.125000
G01 X132.451966 Y14.561813 Z-0.125000
G02 X131.239913 Y14.638006 Z-0.125000 I0.132775 J11.790718
G02 X129.896265 Y14.855213 Z-0.125000 I1.689076 J14.713209
G01 X129.896265 Y14.855201 Z-0.125000
G00 Z5.000000

(End cutting path id: path5198)


(Start cutting path id: path5212)
(Change tool to Cylindrical cutter)

G00 Z5.000000
G00 X131.676455 Y5.955005

G01 Z-0.125000 F1000.0(Penetrate)
G02 X130.880917 Y6.168781 Z-0.125000 I1.907149 J8.684302 F1100.000000
G02 X130.745918 Y6.251906 Z-0.125000 I0.100118 J0.313782
G03 X130.614760 Y6.333390 Z-0.125000 I-0.232712 J-0.228278
G03 X130.381194 Y6.371485 Z-0.125000 I-0.238585 J-0.727738
G02 X130.144008 Y6.418921 Z-0.125000 I0.005596 J0.644683
G02 X129.424444 Y6.760931 Z-0.125000 I2.605959 J6.410706
G03 X128.710030 Y7.134020 Z-0.125000 I-9.675072 J-17.655886
G03 X128.441480 Y7.249472 Z-0.125000 I-1.178351 J-2.370859
G02 X128.214232 Y7.383724 Z-0.125000 I0.249549 J0.681869
G02 X128.166251 Y7.489119 Z-0.125000 I0.091764 J0.105395
G03 X128.116153 Y7.577943 Z-0.125000 I-0.103792 J0.000000
G03 X127.936418 Y7.628046 Z-0.125000 I-0.179735 J-0.297328
G02 X126.433585 Y8.254498 Z-0.125000 I0.000000 J2.115844
G02 X125.807143 Y9.776522 Z-0.125000 I1.535759 J1.522025
G03 X125.787218 Y9.873539 Z-0.125000 I-0.246150 J0.000000
G03 X125.335322 Y10.876662 Z-0.125000 I-27.882802 J-11.957555
G02 X124.919046 Y11.888195 Z-0.125000 I9.703549 J4.584721
G02 X124.857930 Y12.228717 Z-0.125000 I1.012285 J0.357426
G03 X124.803955 Y12.568878 Z-0.125000 I-1.216040 J-0.018592
G03 X124.627592 Y12.975343 Z-0.125000 I-1.929277 J-0.595609
G02 X124.457166 Y13.383341 Z-0.125000 I1.556497 J0.889765
G02 X124.397254 Y13.801034 Z-0.125000 I1.572548 J0.438701
G02 X124.613357 Y14.059724 Z-0.125000 I0.258901 J0.003329
G02 X125.946285 Y14.060652 Z-0.125000 I0.669245 J-3.993133
G02 X130.295092 Y12.817431 Z-0.125000 I-3.264884 J-19.648326
G02 X132.501980 Y11.348744 Z-0.125000 I-2.615387 J-6.322357
G01 X133.670838 Y10.187450 Z-0.125000
G01 X133.670838 Y7.964107 Z-0.125000
G01 X133.670838 Y5.740764 Z-0.125000
G01 X133.081059 Y5.758419 Z-0.125000
G02 X132.495239 Y5.808022 Z-0.125000 I0.160790 J5.383026
G02 X131.676455 Y5.955011 Z-0.125000 I1.496354 J10.689236
G01 X131.676455 Y5.955005 Z-0.125000
G00 Z5.000000

(End cutting path id: path5212)


(Start cutting path id: path5226)
(Change tool to Cylindrical cutter)

G00 Z5.000000
G00 X132.910942 Y1.175955

G01 Z-0.125000 F1000.0(Penetrate)
G02 X132.089913 Y1.782184 Z-0.125000 I1.969373 J3.526249 F1100.000000
G02 X130.761272 Y3.230216 Z-0.125000 I10.345533 J10.826099
G02 X130.026295 Y4.352752 Z-0.125000 I5.397089 J4.335607
G02 X129.896265 Y4.881073 Z-0.125000 I1.008288 J0.528321
G02 X130.284328 Y5.266232 Z-0.125000 I0.385170 J0.000000
G02 X133.316973 Y4.855216 Z-0.125000 I-0.090593 J-12.061978
G02 X133.513733 Y4.639840 Z-0.125000 I-0.070107 J-0.261613
G02 X133.670838 Y2.812808 Z-0.125000 I-10.545126 J-1.827032
G02 X133.613519 Y0.927098 Z-0.125000 I-31.047432 J-0.000000
G02 X133.552881 Y0.874258 Z-0.125000 I-0.056328 J0.003428
G02 X133.441103 Y0.903572 Z-0.125000 I0.023172 J0.316119
G02 X132.910942 Y1.175926 Z-0.125000 I3.649729 J7.756716
G01 X132.910942 Y1.175955 Z-0.125000
G00 Z5.000000

(End cutting path id: path5226)


(Start cutting path id: path5228)
(Change tool to Cylindrical cutter)

G00 Z5.000000
G00 X125.352126 Y0.590036

G01 Z-0.125000 F1000.0(Penetrate)
G02 X125.210375 Y1.106651 Z-0.125000 I5.768258 J1.860473 F1100.000000
G02 X125.083917 Y1.769584 Z-0.125000 I9.377807 J2.132389
G02 X125.133471 Y2.306921 Z-0.125000 I1.097741 J0.169719
G02 X125.318345 Y2.437997 Z-0.125000 I0.184874 J-0.064839
G02 X125.646673 Y2.389624 Z-0.125000 I-0.000000 J-1.138439
G02 X126.623752 Y2.044812 Z-0.125000 I-3.200664 J-10.626355
G03 X127.595690 Y1.673619 Z-0.125000 I9.266012 J22.804171
G03 X127.722403 Y1.651628 Z-0.125000 I0.126713 J0.354062
G02 X129.263415 Y1.176060 Z-0.125000 I0.000000 J-2.734503
G02 X129.738993 Y0.275927 Z-0.125000 I-0.614057 J-0.900133
G02 X129.645066 Y0.172824 Z-0.125000 I-0.103551 J0.000000
G02 X127.627991 Y0.078895 Z-0.125000 I-2.017075 J21.610688
G01 X125.516988 Y0.078895 Z-0.125000
G01 X125.352126 Y0.590036 Z-0.125000
G00 Z5.000000

(End cutting path id: path5228)


(Start cutting path id: path5216)
(Change tool to Cylindrical cutter)

G00 Z5.000000
G00 X123.762585 Y4.330676

G01 Z-0.125000 F1000.0(Penetrate)
G02 X121.759310 Y4.742518 Z-0.125000 I1.000530 J9.944841 F1100.000000
G02 X119.476311 Y5.681257 Z-0.125000 I4.375987 J13.887809
G02 X116.891995 Y7.435186 Z-0.125000 I5.902582 J11.478012
G02 X116.123397 Y8.607596 Z-0.125000 I1.709773 J1.959017
G03 X116.001352 Y8.840267 Z-0.125000 I-0.715856 J-0.227151
G03 X115.907664 Y8.886212 Z-0.125000 I-0.093688 J-0.072548
G02 X115.225894 Y9.367941 Z-0.125000 I0.000000 J0.723305
G02 X114.214058 Y13.665839 Z-0.125000 I19.073673 J6.758488
G01 X114.119831 Y14.434994 Z-0.125000
G01 X114.734135 Y14.318238 Z-0.125000
G03 X115.349371 Y14.206849 Z-0.125000 I6.700871 J35.256102
G03 X116.213440 Y14.063696 Z-0.125000 I11.942493 J69.405420
G02 X120.754074 Y12.753117 Z-0.125000 I-3.028815 J-19.014674
G02 X123.308394 Y11.030218 Z-0.125000 I-3.217184 J-7.524633
G02 X123.905496 Y10.415972 Z-0.125000 I-18.016602 J-18.111076
G02 X123.919857 Y10.379727 Z-0.125000 I-0.038558 J-0.036244
G03 X123.931051 Y10.340815 Z-0.125000 I0.073232 J0.000000
G03 X124.524769 Y9.415270 Z-0.125000 I45.847508 J28.757057
G02 X125.599318 Y7.272387 Z-0.125000 I-8.680944 J-5.693918
G02 X126.074829 Y5.156914 Z-0.125000 I-7.981094 J-2.905148
G01 X126.167178 Y4.168008 Z-0.125000
G01 X125.554657 Y4.190001 Z-0.125000
G02 X124.943028 Y4.224991 Z-0.125000 I0.520648 J14.464359
G02 X123.762585 Y4.330676 Z-0.125000 I4.221045 J53.791612
G01 X123.762585 Y4.330676 Z-0.125000
G00 Z5.000000

(End cutting path id: path5216)


(Start cutting path id: path5230)
(Change tool to Cylindrical cutter)

G00 Z5.000000
G00 X112.590808 Y0.668672

G01 Z-0.125000 F1000.0(Penetrate)
G03 X112.378629 Y1.246993 Z-0.125000 I-6.584678 J-2.087747 F1100.000000
G03 X112.212465 Y1.572992 Z-0.125000 I-2.248204 J-0.940583
G02 X111.689041 Y2.737084 Z-0.125000 I4.409357 J2.682350
G02 X111.111199 Y5.150963 Z-0.125000 I18.654762 J5.741738
G01 X111.009149 Y5.740741 Z-0.125000
G01 X111.841962 Y5.729268 Z-0.125000
G02 X117.254791 Y4.769790 Z-0.125000 I-0.235364 J-17.075581
G02 X120.720345 Y2.617684 Z-0.125000 I-3.110474 J-8.875179
G02 X122.535682 Y0.665808 Z-0.125000 I-19.715799 J-20.156730
G02 X122.661670 Y0.321667 Z-0.125000 I-0.407020 J-0.344140
G02 X122.543266 Y0.197304 Z-0.125000 I-0.124513 J-0.000000
G02 X117.719738 Y0.078901 Z-0.125000 I-4.823528 J98.191378
G01 X112.777807 Y0.078901 Z-0.125000
G01 X112.590808 Y0.668672 Z-0.125000
G00 Z5.000000

(End cutting path id: path5230)


(Start cutting path id: path5210)
(Change tool to Cylindrical cutter)

G00 Z5.000000
G00 X111.781337 Y7.324577

G01 Z-0.125000 F1000.0(Penetrate)
G02 X108.788343 Y8.258671 Z-0.125000 I5.114659 J21.650309 F1100.000000
G02 X108.192474 Y8.729149 Z-0.125000 I0.475374 J1.214648
G03 X108.096030 Y8.822016 Z-0.125000 I-0.281005 J-0.195314
G03 X107.623738 Y9.093356 Z-0.125000 I-3.051568 J-4.764838
G02 X106.168078 Y10.092517 Z-0.125000 I3.147661 J6.145715
G02 X104.415238 Y11.963195 Z-0.125000 I9.704615 J10.849845
G02 X103.717502 Y13.143655 Z-0.125000 I4.134473 J3.240206
G02 X103.091386 Y15.068978 Z-0.125000 I10.533769 J4.490057
G02 X102.574735 Y19.423679 Z-0.125000 I19.859249 J4.564142
G02 X103.041752 Y19.895284 Z-0.125000 I0.466783 J0.004798
G02 X104.850011 Y19.573195 Z-0.125000 I-0.002836 J-5.252888
G02 X108.192468 Y18.003324 Z-0.125000 I-7.318910 J-19.926099
G03 X108.431198 Y17.871521 Z-0.125000 I3.155371 J5.433114
G03 X109.081002 Y17.537632 Z-0.125000 I20.934578 J39.942937
G02 X109.689529 Y17.147493 Z-0.125000 I-1.572436 J-3.122284
G02 X110.761478 Y16.196170 Z-0.125000 I-8.573250 J-10.739918
G02 X111.675542 Y15.101850 Z-0.125000 I-5.172271 J-5.249210
G02 X112.609157 Y13.489587 Z-0.125000 I-10.391709 J-7.093989
G01 X113.428989 Y11.795795 Z-0.125000
G02 X114.417213 Y8.408191 Z-0.125000 I-277.421584 J-82.766770
G02 X114.461358 Y7.390149 Z-0.125000 I-2.109492 J-0.601450
G02 X113.961671 Y6.974905 Z-0.125000 I-0.503280 J0.097353
G02 X111.781331 Y7.324589 Z-0.125000 I-0.046832 J6.680228
G01 X111.781337 Y7.324577 Z-0.125000
G00 Z5.000000

(End cutting path id: path5210)


(Start cutting path id: path5232)
(Change tool to Cylindrical cutter)

G00 Z5.000000
G00 X102.325201 Y0.550715

G01 Z-0.125000 F1000.0(Penetrate)
G03 X102.113351 Y0.973713 Z-0.125000 I-2.144610 J-0.809536 F1100.000000
G03 X102.024311 Y1.022536 Z-0.125000 I-0.089040 J-0.056781
G02 X101.942669 Y1.063681 Z-0.125000 I0.000000 J0.101570
G02 X101.901522 Y1.188444 Z-0.125000 I0.168571 J0.124763
G03 X101.873123 Y1.348160 Z-0.125000 I-0.463330 J-0.000000
G03 X101.587335 Y2.044022 Z-0.125000 I-9.352727 J-3.434525
G02 X101.001615 Y4.677447 Z-0.125000 I5.927173 J2.700156
G02 X101.525010 Y8.126895 Z-0.125000 I10.892984 J0.111608
G02 X102.570493 Y10.734576 Z-0.125000 I19.148641 J-6.163742
G02 X102.883559 Y10.930766 Z-0.125000 I0.313065 J-0.151688
G02 X103.108684 Y10.879702 Z-0.125000 I-0.000000 J-0.521787
G02 X103.159709 Y10.798739 Z-0.125000 I-0.038721 J-0.080963
G03 X103.206989 Y10.696561 Z-0.125000 I0.134050 J-0.000000
G03 X103.513579 Y10.498237 Z-0.125000 I0.912657 J1.074739
G02 X104.189421 Y10.060410 Z-0.125000 I-1.330028 J-2.793604
G02 X106.145645 Y8.257115 Z-0.125000 I-21.896205 J-25.715829
G02 X108.677586 Y4.655090 Z-0.125000 I-8.981722 J-9.004337
G02 X109.447932 Y1.219128 Z-0.125000 I-7.364411 J-3.455447
G01 X109.450904 Y0.078895 Z-0.125000
G01 X105.977216 Y0.078895 Z-0.125000
G01 X102.503527 Y0.078895 Z-0.125000
G01 X102.325201 Y0.550715 Z-0.125000
G00 Z5.000000

(End cutting path id: path5232)


(Start cutting path id: path5234)
(Change tool to Cylindrical cutter)

G00 Z5.000000
G00 X97.655128 Y0.230697

G01 Z-0.125000 F1000.0(Penetrate)
G02 X97.733341 Y0.457044 Z-0.125000 I0.366628 J-0.000000 F1100.000000
G02 X98.862765 Y1.769495 Z-0.125000 I15.077881 J-11.833023
G02 X99.277861 Y1.827709 Z-0.125000 I0.243861 J-0.229825
G02 X99.837592 Y1.189972 Z-0.125000 I-0.701727 J-1.180395
G02 X100.143736 Y0.408063 Z-0.125000 I-11.663123 J-5.017400
G02 X100.171507 Y0.246331 Z-0.125000 I-0.457047 J-0.161732
G02 X100.093336 Y0.157067 Z-0.125000 I-0.090051 J-0.000000
G02 X98.913315 Y0.078895 Z-0.125000 I-1.180021 J8.867191
G02 X97.726465 Y0.150236 Z-0.125000 I0.000000 J9.908036
G02 X97.655128 Y0.230697 Z-0.125000 I0.009708 J0.080462
G01 X97.655128 Y0.230697 Z-0.125000
G00 Z5.000000

(End cutting path id: path5234)


(Start cutting path id: path5218)
(Change tool to Cylindrical cutter)

G00 Z5.000000
G00 X96.519029 Y3.434458

G01 Z-0.125000 F1000.0(Penetrate)
G02 X94.801353 Y5.349384 Z-0.125000 I19.352938 J19.087297 F1100.000000
G02 X94.671462 Y5.701420 Z-0.125000 I0.448367 J0.365415
G03 X94.617321 Y5.847214 Z-0.125000 I-0.237431 J-0.005221
G03 X94.509649 Y5.898012 Z-0.125000 I-0.107672 J-0.088712
G02 X94.399521 Y5.945159 Z-0.125000 I-0.000000 J0.152194
G02 X94.352377 Y6.062886 Z-0.125000 I0.123421 J0.117727
G03 X94.322033 Y6.220604 Z-0.125000 I-0.425052 J-0.000000
G03 X94.022456 Y6.888571 Z-0.125000 I-8.201833 J-3.277289
G02 X93.270238 Y9.725264 Z-0.125000 I6.485071 J3.237753
G02 X93.713315 Y12.467174 Z-0.125000 I6.482444 J0.359230
G02 X95.089228 Y15.215846 Z-0.125000 I16.206714 J-6.393944
G02 X95.576967 Y15.490320 Z-0.125000 I0.491663 J-0.303092
G02 X96.548211 Y15.045243 Z-0.125000 I0.008941 J-1.262746
G02 X98.983777 Y11.481222 Z-0.125000 I-15.717603 J-13.355248
G02 X99.423529 Y10.337446 Z-0.125000 I-4.238042 J-2.285839
G02 X99.657506 Y8.721683 Z-0.125000 I-8.303298 J-2.027214
G02 X99.631764 Y7.075826 Z-0.125000 I-12.893956 J-0.621462
G02 X99.447800 Y6.087352 Z-0.125000 I-4.801355 J0.382219
G02 X99.117624 Y5.165957 Z-0.125000 I-8.456505 J2.510476
G02 X99.035736 Y5.111649 Z-0.125000 I-0.081889 J0.034583
G03 X98.956960 Y5.068005 Z-0.125000 I0.000000 J-0.092916
G03 X98.913315 Y4.915924 Z-0.125000 I0.243140 J-0.152081
G02 X98.391917 Y3.273957 Z-0.125000 I-2.846111 J-0.000000
G02 X97.385285 Y2.752546 Z-0.125000 I-1.006632 J0.710994
G02 X97.216092 Y2.811150 Z-0.125000 I-0.000000 J0.273537
G02 X96.519029 Y3.434458 Z-0.125000 I4.614122 J5.861524
G01 X96.519029 Y3.434458 Z-0.125000
G00 Z5.000000

(End cutting path id: path5218)


(Start cutting path id: path5236)
(Change tool to Cylindrical cutter)

G00 Z5.000000
G00 X88.703548 Y0.872997

G01 Z-0.125000 F1000.0(Penetrate)
G02 X88.825995 Y4.213114 Z-0.125000 I6.659337 J1.428176 F1100.000000
G02 X90.513191 Y7.060138 Z-0.125000 I6.408639 J-1.874429
G02 X91.099043 Y7.584652 Z-0.125000 I5.040491 J-5.040502
G02 X91.222626 Y7.628023 Z-0.125000 I0.123583 J-0.154388
G03 X91.320557 Y7.671638 Z-0.125000 I0.000000 J0.131750
G03 X91.364170 Y7.785294 Z-0.125000 I-0.126288 J0.113656
G02 X91.422918 Y7.883820 Z-0.125000 I0.111993 J0.000000
G02 X91.655210 Y7.942571 Z-0.125000 I0.232292 J-0.429845
G02 X92.226272 Y7.610945 Z-0.125000 I0.000000 J-0.657499
G02 X93.350320 Y4.972037 Z-0.125000 I-10.773738 J-6.147944
G02 X93.633897 Y3.604500 Z-0.125000 I-8.143963 J-2.401926
G02 X93.670992 Y2.359361 Z-0.125000 I-6.704083 J-0.822853
G02 X93.538950 Y1.112272 Z-0.125000 I-14.575254 J0.912700
G02 X93.406433 Y0.590036 Z-0.125000 I-2.666988 J0.398813
G01 X93.220689 Y0.078895 Z-0.125000
G01 X91.047272 Y0.078895 Z-0.125000
G01 X88.873856 Y0.078895 Z-0.125000
G01 X88.703548 Y0.872997 Z-0.125000
G00 Z5.000000

(End cutting path id: path5236)


(Start cutting path id: path5208)
(Change tool to Cylindrical cutter)

G00 Z5.000000
G00 X88.645788 Y8.556637

G01 Z-0.125000 F1000.0(Penetrate)
G02 X88.419971 Y9.025426 Z-0.125000 I2.648726 J1.564684 F1100.000000
G02 X88.375969 Y9.264364 Z-0.125000 I0.626737 J0.238938
G03 X88.329931 Y9.469270 Z-0.125000 I-0.479022 J0.000000
G03 X88.257180 Y9.515328 Z-0.125000 I-0.072752 J-0.034429
G02 X88.172421 Y9.563692 Z-0.125000 I0.000000 J0.098452
G02 X87.955119 Y10.026470 Z-0.125000 I2.326364 J1.374778
G03 X87.771237 Y10.537384 Z-0.125000 I-211.951700 J-75.994278
G03 X87.431030 Y11.477168 Z-0.125000 I-721.338533 J-260.597323
G02 X86.649155 Y14.080899 Z-0.125000 I22.725481 J8.243494
G02 X86.491096 Y15.394952 Z-0.125000 I5.571579 J1.336704
G02 X86.676462 Y17.253921 Z-0.125000 I9.045983 J0.036711
G02 X87.215172 Y18.916721 Z-0.125000 I7.764291 J-1.596791
G03 X87.573365 Y19.750199 Z-0.125000 I-23.098032 J10.420245
G03 X87.589597 Y19.832823 Z-0.125000 I-0.202157 J0.082623
G02 X87.611616 Y19.912457 Z-0.125000 I0.155015 J0.000000
G02 X88.282425 Y20.989931 Z-0.125000 I31.403238 J-18.803316
G02 X90.203352 Y23.340909 Z-0.125000 I11.518745 J-7.451430
G02 X91.018473 Y23.668867 Z-0.125000 I0.803858 J-0.820993
G02 X91.260969 Y23.532298 Z-0.125000 I-0.002901 J-0.288728
G02 X92.286937 Y21.623012 Z-0.125000 I-14.878722 J-9.225485
G02 X93.381649 Y18.000034 Z-0.125000 I-12.523703 J-5.761016
G02 X93.404555 Y14.504291 Z-0.125000 I-11.618619 J-1.824077
G02 X92.902120 Y12.777763 Z-0.125000 I-6.352115 J0.912150
G02 X91.768626 Y10.877607 Z-0.125000 I-8.856585 J3.995035
G03 X91.224376 Y10.135796 Z-0.125000 I19.255841 J-14.698123
G03 X91.206898 Y10.080663 Z-0.125000 I0.078218 J-0.055133
G02 X90.606718 Y8.700066 Z-0.125000 I-1.887988 J-0.000000
G02 X89.083353 Y8.099867 Z-0.125000 I-1.523365 J1.633126
G02 X88.948469 Y8.157442 Z-0.125000 I0.000000 J0.186788
G02 X88.645788 Y8.556637 Z-0.125000 I1.573896 J1.507720
G01 X88.645788 Y8.556637 Z-0.125000
G00 Z5.000000

(End cutting path id: path5208)


(Start cutting path id: path5220)
(Change tool to Cylindrical cutter)

G00 Z5.000000
G00 X78.813396 Y3.106410

G01 Z-0.125000 F1000.0(Penetrate)
G02 X77.809099 Y7.870873 Z-0.125000 I29.717360 J8.752173 F1100.000000
G02 X77.827364 Y10.702860 Z-0.125000 I10.392975 J1.349021
G02 X78.988787 Y13.880924 Z-0.125000 I8.095280 J-1.157164
G02 X81.865301 Y17.161222 Z-0.125000 I11.527976 J-7.207590
G02 X82.526790 Y17.648441 Z-0.125000 I4.762886 J-5.773826
G02 X82.677886 Y17.693524 Z-0.125000 I0.151096 J-0.230658
G03 X82.821672 Y17.729682 Z-0.125000 I0.000000 J0.303973
G03 X82.897596 Y17.811481 Z-0.125000 I-0.081477 J0.151761
G02 X83.486725 Y18.408503 Z-0.125000 I1.086362 J-0.482818
G02 X84.289991 Y18.452634 Z-0.125000 I0.457421 J-0.993379
G02 X84.441084 Y18.312936 Z-0.125000 I-0.078992 J-0.236993
G02 X85.276046 Y16.120791 Z-0.125000 I-29.899295 J-12.643380
G02 X85.499793 Y15.078101 Z-0.125000 I-4.346536 J-1.478060
G02 X85.620632 Y12.503499 Z-0.125000 I-26.696463 J-2.543131
G02 X85.324137 Y8.975584 Z-0.125000 I-21.422031 J0.023946
G02 X84.838291 Y7.849176 Z-0.125000 I-2.538000 J0.426717
G03 X84.658395 Y7.533119 Z-0.125000 I1.115170 J-0.843967
G03 X84.606395 Y7.280275 Z-0.125000 I0.652407 J-0.265942
G02 X84.401372 Y6.672979 Z-0.125000 I-1.059337 J0.019376
G02 X82.958114 Y5.033013 Z-0.125000 I-9.931072 J7.284822
G02 X82.074763 Y4.296228 Z-0.125000 I-6.089111 J6.402469
G02 X80.284890 Y3.083763 Z-0.125000 I-18.388899 J25.218800
G02 X79.230982 Y2.789035 Z-0.125000 I-1.024271 J1.630978
G02 X78.813396 Y3.106410 Z-0.125000 I0.006808 J0.442366
G01 X78.813396 Y3.106410 Z-0.125000
G00 Z5.000000

(End cutting path id: path5220)


(Start cutting path id: path5238)
(Change tool to Cylindrical cutter)

G00 Z5.000000
G00 X79.839853 Y0.174644

G01 Z-0.125000 F1000.0(Penetrate)
G02 X79.809748 Y0.519202 Z-0.125000 I0.190214 J0.190214 F1100.000000
G02 X81.275986 Y2.224672 Z-0.125000 I9.316759 J-6.526851
G02 X81.995957 Y2.830115 Z-0.125000 I5.201790 J-5.454977
G02 X82.712238 Y3.286798 Z-0.125000 I3.654042 J-4.941081
G02 X84.107011 Y3.887807 Z-0.125000 I3.969712 J-7.293652
G02 X86.606639 Y4.557002 Z-0.125000 I7.474783 J-22.917386
G01 X87.117776 Y4.664817 Z-0.125000
G01 X87.117776 Y3.338566 Z-0.125000
G02 X87.088600 Y2.013837 Z-0.125000 I-30.089329 J0.000000
G02 X87.016736 Y1.045605 Z-0.125000 I-16.144046 J0.711457
G01 X86.915697 Y0.078895 Z-0.125000
G01 X83.425650 Y0.078895 Z-0.125000
G02 X79.954794 Y0.125233 Z-0.125000 I0.000000 J130.009319
G02 X79.839853 Y0.174644 Z-0.125000 I0.004510 J0.168889
G01 X79.839853 Y0.174644 Z-0.125000
G00 Z5.000000

(End cutting path id: path5238)


(Start cutting path id: path5240)
(Change tool to Cylindrical cutter)

G00 Z5.000000
G00 X73.749501 Y0.233551

G01 Z-0.125000 F1000.0(Penetrate)
G02 X74.104918 Y0.824379 Z-0.125000 I0.668792 J-0.000000 F1100.000000
G02 X75.533667 Y1.179831 Z-0.125000 I1.428749 J-2.693727
G03 X75.731165 Y1.231753 Z-0.125000 I-0.000000 J0.401573
G03 X75.951337 Y1.415744 Z-0.125000 I-0.389941 J0.690350
G02 X76.423218 Y1.531349 Z-0.125000 I0.313931 J-0.260539
G02 X76.794029 Y1.061880 Z-0.125000 I-0.239501 J-0.570347
G02 X76.526149 Y0.443980 Z-0.125000 I-0.612898 J-0.101306
G02 X75.322237 Y0.078918 Z-0.125000 I-1.203911 J1.802617
G02 X73.823029 Y0.152439 Z-0.125000 I0.000000 J15.322425
G02 X73.749501 Y0.233551 Z-0.125000 I0.007975 J0.081112
G01 X73.749501 Y0.233551 Z-0.125000
G00 Z5.000000

(End cutting path id: path5240)


(Start cutting path id: path5222)
(Change tool to Cylindrical cutter)

G00 Z5.000000
G00 X71.914458 Y1.926856

G01 Z-0.125000 F1000.0(Penetrate)
G02 X71.199388 Y5.012281 Z-0.125000 I8.618675 J3.623016 F1100.000000
G02 X71.572264 Y7.868156 Z-0.125000 I7.718273 J0.444546
G02 X72.029493 Y8.829960 Z-0.125000 I4.007884 J-1.315714
G02 X72.869776 Y9.890978 Z-0.125000 I5.734962 J-3.678610
G02 X74.711980 Y11.542706 Z-0.125000 I12.606738 J-12.207353
G02 X75.220912 Y11.717135 Z-0.125000 I0.508932 J-0.655238
G02 X75.919314 Y11.155068 Z-0.125000 I0.000000 J-0.714936
G02 X76.228479 Y7.113921 Z-0.125000 I-14.274539 J-3.124463
G02 X75.326077 Y4.177695 Z-0.125000 I-6.572342 J0.413122
G02 X73.163099 Y1.924704 Z-0.125000 I-5.861401 J3.462448
G02 X72.299665 Y1.670592 Z-0.125000 I-0.860449 J1.329709
G02 X71.914458 Y1.927082 Z-0.125000 I0.000789 J0.418690
G01 X71.914458 Y1.926856 Z-0.125000
G00 Z5.000000

(End cutting path id: path5222)


(Start cutting path id: path5242)
(Change tool to Cylindrical cutter)

G00 Z5.000000
G00 X63.998522 Y0.233551

G01 Z-0.125000 F1000.0(Penetrate)
G02 X64.602744 Y1.047428 Z-0.125000 I0.850251 J0.000000 F1100.000000
G02 X68.689676 Y1.651651 Z-0.125000 I4.086932 J-13.519781
G02 X69.011562 Y1.474665 Z-0.125000 I0.000000 J-0.381202
G02 X69.188559 Y0.865288 Z-0.125000 I-0.960504 J-0.609378
G01 X69.188559 Y0.078918 Z-0.125000
G00 Z5.000000

(End cutting path id: path5242)


(Start cutting path id: path5224)
(Change tool to Cylindrical cutter)

G00 Z5.000000
G00 X61.329129 Y1.533677

G01 Z-0.125000 F1000.0(Penetrate)
G02 X61.492138 Y4.099936 Z-0.125000 I23.345585 J-0.194611 F1100.000000
G02 X61.805823 Y5.536427 Z-0.125000 I7.579805 J-0.902698
G02 X62.456039 Y7.388286 Z-0.125000 I35.643845 J-11.475025
G02 X62.812020 Y8.178479 Z-0.125000 I6.822780 J-2.598370
G02 X63.803802 Y9.778086 Z-0.125000 I11.530900 J-6.042079
G02 X64.784891 Y10.899387 Z-0.125000 I6.604401 J-4.788709
G02 X66.815641 Y12.361263 Z-0.125000 I5.127676 J-4.981620
G02 X68.731076 Y13.278854 Z-0.125000 I358.784451 J-746.490521
G02 X69.369831 Y13.551992 Z-0.125000 I3.286409 J-6.802070
G02 X69.802037 Y13.679623 Z-0.125000 I1.114142 J-2.977271
G01 X70.244760 Y13.776859 Z-0.125000
G01 X70.184044 Y12.943589 Z-0.125000
G02 X69.645830 Y9.116649 Z-0.125000 I-28.791893 J2.097926
G02 X68.947759 Y7.048148 Z-0.125000 I-9.016222 J1.890724
G02 X67.216891 Y4.359642 Z-0.125000 I-7.982594 J3.237795
G02 X64.915952 Y2.461863 Z-0.125000 I-8.861400 J8.400132
G02 X64.828219 Y2.361892 Z-0.125000 I-0.182599 J0.071765
G02 X63.762611 Y1.824770 Z-0.125000 I-7.634989 J13.821614
G03 X62.665639 Y1.313201 Z-0.125000 I34.648305 J-75.729308
G03 X62.388599 Y1.171806 Z-0.125000 I2.360265 J-4.966637
G02 X62.104669 Y1.064944 Z-0.125000 I-0.520407 J0.952077
G02 X61.720185 Y1.022536 Z-0.125000 I-0.384484 J1.721716
G02 X61.456319 Y1.152892 Z-0.125000 I-0.000000 J0.332235
G02 X61.329129 Y1.533677 Z-0.125000 I0.490969 J0.375629
G01 X61.329129 Y1.533677 Z-0.125000
G00 Z5.000000

(End cutting path id: path5224)


(Start cutting path id: path5056)
(Change tool to Cylindrical cutter)

G00 Z5.000000
G00 X54.783389 Y2.747404

G01 Z-0.125000 F1000.0(Penetrate)
G02 X53.238840 Y3.347945 Z-0.125000 I1.085401 J5.078081 F1100.000000
G02 X51.570284 Y4.634663 Z-0.125000 I4.251752 J7.238689
G02 X49.397258 Y7.171764 Z-0.125000 I14.774641 J14.853626
G02 X49.429404 Y7.580534 Z-0.125000 I0.255344 J0.185569
G02 X49.534890 Y7.631244 Z-0.125000 I0.125001 J-0.124955
G02 X51.292182 Y7.787505 Z-0.125000 I4.438089 J-39.950891
G02 X54.483731 Y7.644388 Z-0.125000 I0.956947 J-14.317511
G02 X56.286718 Y7.000090 Z-0.125000 I-0.802554 J-5.090713
G02 X59.607942 Y4.386489 Z-0.125000 I-7.840236 J-13.379967
G02 X59.821503 Y3.335588 Z-0.125000 I-0.718625 J-0.693187
G02 X58.818782 Y2.556882 Z-0.125000 I-1.144929 J0.439354
G02 X54.783389 Y2.747404 Z-0.125000 I-1.439906 J12.333280
G01 X54.783389 Y2.747404 Z-0.125000
G00 Z5.000000

(End cutting path id: path5056)


(Start cutting path id: path5048)
(Change tool to Cylindrical cutter)

G00 Z5.000000
G00 X54.446424 Y8.492903

G01 Z-0.125000 F1000.0(Penetrate)
G02 X52.963749 Y9.060777 Z-0.125000 I2.233566 J8.051180 F1100.000000
G02 X51.436237 Y9.987773 Z-0.125000 I4.706680 J9.477729
G02 X50.997149 Y10.506271 Z-0.125000 I0.848389 J1.163624
G02 X51.043052 Y10.772454 Z-0.125000 I0.203481 J0.101960
G02 X52.893886 Y12.013399 Z-0.125000 I4.453196 J-4.641110
G02 X55.516773 Y12.751735 Z-0.125000 I3.891151 J-8.795073
G02 X60.047899 Y12.221470 Z-0.125000 I1.221778 J-9.184296
G02 X61.167080 Y10.591020 Z-0.125000 I-0.621871 J-1.626209
G02 X60.788118 Y9.944646 Z-0.125000 I-0.743687 J0.001739
G02 X57.763394 Y8.675556 Z-0.125000 I-6.990643 J12.422280
G02 X55.817310 Y8.344539 Z-0.125000 I-2.425347 J8.372732
G02 X54.446424 Y8.492903 Z-0.125000 I-0.233851 J4.246892
G01 X54.446424 Y8.492903 Z-0.125000
G00 Z5.000000

(End cutting path id: path5048)


(Start cutting path id: path5204)
(Change tool to Cylindrical cutter)

G00 Z5.000000
G00 X58.022116 Y12.426724

G01 Z-0.125000 F1000.0(Penetrate)
G03 X57.312197 Y12.623190 Z-0.125000 I-8.572623 J-29.595863 F1100.000000
G03 X56.863731 Y12.732446 Z-0.125000 I-3.088948 J-11.704237
G02 X56.575217 Y12.938650 Z-0.125000 I0.099178 J0.443707
G02 X56.508808 Y13.311814 Z-0.125000 I0.442873 J0.271307
G02 X56.835847 Y14.250609 Z-0.125000 I3.547868 J-0.709575
G02 X58.092667 Y16.406588 Z-0.125000 I20.296146 J-10.387248
G02 X61.539423 Y19.967805 Z-0.125000 I11.158514 J-7.351272
G02 X65.277053 Y21.483734 Z-0.125000 I5.107593 J-7.227477
G02 X68.523219 Y21.482298 Z-0.125000 I1.619454 J-8.209113
G03 X71.547667 Y21.120621 Z-0.125000 I3.867228 J19.512339
G01 X71.578911 Y21.141050 Z-0.125000
G02 X71.718210 Y21.045938 Z-0.125000 I-0.182464 J-0.416794
G02 X71.830344 Y20.231079 Z-0.125000 I-0.481388 J-0.481389
G02 X68.952328 Y16.123110 Z-0.125000 I-22.070282 J12.400149
G02 X66.053077 Y13.685810 Z-0.125000 I-8.934761 J7.685172
G02 X62.740331 Y12.419216 Z-0.125000 I-5.291882 J8.875294
G02 X59.949293 Y12.151674 Z-0.125000 I-2.768052 J14.184673
G02 X58.022116 Y12.426706 Z-0.125000 I0.011081 J6.967122
G01 X58.022116 Y12.426724 Z-0.125000
G00 Z5.000000

(End cutting path id: path5204)


(Start cutting path id: path5206)
(Change tool to Cylindrical cutter)

G00 Z5.000000
G00 X55.977555 Y15.102711

G01 Z-0.125000 F1000.0(Penetrate)
G02 X55.841782 Y14.768593 Z-0.125000 I-0.478992 J-0.000000 F1100.000000
G02 X54.428808 Y13.511789 Z-0.125000 I-9.435785 J9.185590
G02 X52.988846 Y12.713925 Z-0.125000 I-3.375163 J4.393066
G02 X50.630245 Y12.095674 Z-0.125000 I-4.245264 J11.387382
G02 X48.885927 Y11.966271 Z-0.125000 I-1.661096 J10.570024
G02 X48.742959 Y12.110356 Z-0.125000 I0.001121 J0.144084
G01 X48.742959 Y12.110344 Z-0.125000
G02 X48.844366 Y12.245074 Z-0.125000 I0.140205 J0.000000
G02 X49.568647 Y12.348118 Z-0.125000 I0.730248 J-2.535862
G00 Z5.000000

(End cutting path id: path5206)


(Start cutting path id: path5042)
(Change tool to Cylindrical cutter)

G00 Z5.000000
G00 X47.720678 Y12.644032

G01 Z-0.125000 F1000.0(Penetrate)
G02 X45.769912 Y13.393906 Z-0.125000 I3.528661 J12.092009 F1100.000000
G02 X44.497453 Y14.201191 Z-0.125000 I2.848698 J5.896659
G01 X44.106113 Y14.518076 Z-0.125000
G01 X44.419295 Y14.864456 Z-0.125000
G02 X45.979691 Y16.023505 Z-0.125000 I3.686546 J-3.333215
G02 X49.097620 Y17.078669 Z-0.125000 I6.097195 J-12.882541
G02 X50.005978 Y17.173121 Z-0.125000 I0.893970 J-4.182307
G02 X51.378092 Y17.071001 Z-0.125000 I-0.032657 J-9.707901
G02 X54.190778 Y16.451297 Z-0.125000 I-2.912526 J-19.912163
G02 X55.623690 Y15.811087 Z-0.125000 I-1.700035 J-5.728668
G02 X56.059030 Y15.345457 Z-0.125000 I-0.633096 J-1.028239
G02 X55.957474 Y15.177204 Z-0.125000 I-0.101557 J-0.053477
G03 X55.795486 Y15.130451 Z-0.125000 I0.000000 J-0.304002
G03 X54.738601 Y14.409689 Z-0.125000 I9.325834 J-14.810140
G02 X50.870631 Y12.585059 Z-0.125000 I-6.570086 J8.915593
G02 X47.720678 Y12.644061 Z-0.125000 I-1.466356 J5.828392
G01 X47.720678 Y12.644032 Z-0.125000
G00 Z5.000000

(End cutting path id: path5042)


(Start cutting path id: path5046)
(Change tool to Cylindrical cutter)

G00 Z5.000000
G00 X43.204509 Y8.664446

G01 Z-0.125000 F1000.0(Penetrate)
G02 X40.756022 Y10.027907 Z-0.125000 I1.979486 J6.434951 F1100.000000
G02 X38.476949 Y12.792131 Z-0.125000 I7.236144 J8.287771
G01 X38.197830 Y13.272957 Z-0.125000
G01 X38.791496 Y13.437825 Z-0.125000
G02 X40.670523 Y13.679759 Z-0.125000 I1.780709 J-6.412356
G02 X43.474284 Y13.368629 Z-0.125000 I-0.217975 J-14.752982
G02 X45.852569 Y12.527679 Z-0.125000 I-1.938878 J-9.266801
G02 X48.138017 Y10.979074 Z-0.125000 I-5.170737 J-10.091781
G02 X49.718632 Y9.308016 Z-0.125000 I-7.919092 J-9.073549
G02 X49.679703 Y9.000603 Z-0.125000 I-0.172400 J-0.134340
G02 X49.599777 Y8.963580 Z-0.125000 I-0.121507 J0.157532
G02 X48.178933 Y8.679848 Z-0.125000 I-11.253005 J52.652077
G02 X45.062776 Y8.388035 Z-0.125000 I-3.169865 J17.065736
G02 X43.204509 Y8.664452 Z-0.125000 I-0.019352 J6.254378
G01 X43.204509 Y8.664446 Z-0.125000
G00 Z5.000000

(End cutting path id: path5046)


(Start cutting path id: path5060)
(Change tool to Cylindrical cutter)

G00 Z5.000000
G00 X43.712267 Y3.804906

G01 Z-0.125000 F1000.0(Penetrate)
G02 X42.244065 Y6.468060 Z-0.125000 I14.553184 J9.759482 F1100.000000
G02 X41.980183 Y7.715420 Z-0.125000 I2.816165 J1.247360
G02 X42.149937 Y7.866878 Z-0.125000 I0.152444 J0.000000
G02 X44.811112 Y7.391872 Z-0.125000 I-2.444051 J-21.384539
G02 X48.309672 Y6.017665 Z-0.125000 I-3.316789 J-13.584686
G02 X50.098607 Y4.440626 Z-0.125000 I-2.743502 J-4.915299
G02 X51.931647 Y0.776148 Z-0.125000 I-9.693658 J-7.139648
G02 X51.413618 Y0.078906 Z-0.125000 I-0.518030 J-0.156180
G02 X47.050021 Y1.355357 Z-0.125000 I37.848756 J137.484221
G02 X43.712267 Y3.804906 Z-0.125000 I1.876902 J6.056252
G01 X43.712267 Y3.804906 Z-0.125000
G00 Z5.000000

(End cutting path id: path5060)


(Start cutting path id: path5062)
(Change tool to Cylindrical cutter)

G00 Z5.000000
G00 X44.811112 Y0.405956

G01 Z-0.125000 F1000.0(Penetrate)
G02 X44.929955 Y0.587846 Z-0.125000 I0.198614 J-0.000000 F1100.000000
G02 X45.322253 Y0.630118 Z-0.125000 I0.263059 J-0.599811
G02 X45.740460 Y0.310109 Z-0.125000 I-0.118324 J-0.587908
G02 X45.597481 Y0.078906 Z-0.125000 I-0.142978 J-0.071392
G02 X44.941976 Y0.209793 Z-0.125000 I0.000000 J1.706884
G02 X44.811112 Y0.405956 Z-0.125000 I0.081590 J0.196163
G01 X44.811112 Y0.405956 Z-0.125000
G00 Z5.000000

(End cutting path id: path5062)


(Start cutting path id: path5064)
(Change tool to Cylindrical cutter)

G00 Z5.000000
G00 X38.523274 Y0.668684

G01 Z-0.125000 F1000.0(Penetrate)
G02 X38.715576 Y3.071433 Z-0.125000 I16.171054 J-0.085164 F1100.000000
G02 X38.977712 Y3.587563 Z-0.125000 I0.921764 J-0.143520
G02 X39.321786 Y3.640768 Z-0.125000 I0.208371 J-0.208366
G02 X41.139874 Y2.465822 Z-0.125000 I-5.245874 J-10.111468
G02 X42.845738 Y0.817425 Z-0.125000 I-7.413074 J-9.378378
G02 X43.081100 Y0.175785 Z-0.125000 I-0.756932 J-0.641640
G01 X43.033709 Y0.126337 Z-0.125000
G02 X40.800629 Y0.078906 Z-0.125000 I-2.233080 J52.543620
G01 X38.520158 Y0.078906 Z-0.125000
G01 X38.523249 Y0.668684 Z-0.125000
G01 X38.523274 Y0.668684 Z-0.125000
G00 Z5.000000

(End cutting path id: path5064)


(Start cutting path id: path5054)
(Change tool to Cylindrical cutter)

G00 Z5.000000
G00 X39.605821 Y4.333809

G01 Z-0.125000 F1000.0(Penetrate)
G02 X36.188617 Y7.422175 Z-0.125000 I3.938373 J7.792430 F1100.000000
G02 X34.506830 Y12.306919 Z-0.125000 I9.253428 J5.917783
G02 X34.546546 Y13.312992 Z-0.125000 I3.761401 J0.355333
G02 X34.706200 Y13.447152 Z-0.125000 I0.159654 J-0.027916
G02 X35.504960 Y13.234005 Z-0.125000 I-0.000000 J-1.603236
G02 X37.386101 Y11.907243 Z-0.125000 I-6.192779 J-10.777350
G02 X39.514588 Y9.745212 Z-0.125000 I-11.443094 J-13.394306
G02 X40.805498 Y7.775700 Z-0.125000 I-8.176179 J-6.766867
G02 X42.152648 Y3.915965 Z-0.125000 I-13.727296 J-6.956154
G02 X41.704954 Y3.396820 Z-0.125000 I-0.423882 J-0.087069
G02 X41.442655 Y3.460282 Z-0.125000 I0.040819 J0.742504
G02 X39.605821 Y4.333809 Z-0.125000 I17.232848 J38.604832
G01 X39.605821 Y4.333809 Z-0.125000
G00 Z5.000000

(End cutting path id: path5054)


(Start cutting path id: path5066)
(Change tool to Cylindrical cutter)

G00 Z5.000000
G00 X32.256216 Y0.877271

G01 Z-0.125000 F1000.0(Penetrate)
G02 X32.060144 Y3.034985 Z-0.125000 I7.772054 J1.794015 F1100.000000
G02 X32.467045 Y5.496285 Z-0.125000 I10.564278 J-0.482198
G02 X33.510941 Y8.230519 Z-0.125000 I17.026221 J-4.934008
G02 X33.847310 Y8.373068 Z-0.125000 I0.249024 J-0.119480
G02 X34.372988 Y7.966652 Z-0.125000 I-0.318289 J-0.954869
G02 X36.352768 Y4.517627 Z-0.125000 I-30.231302 J-19.645830
G02 X37.004527 Y2.859042 Z-0.125000 I-8.713285 J-4.381333
G02 X37.232972 Y1.490112 Z-0.125000 I-5.680170 J-1.651426
G01 X37.300443 Y0.078906 Z-0.125000
G01 X34.870472 Y0.078906 Z-0.125000
G01 X32.440502 Y0.078906 Z-0.125000
G01 X32.256216 Y0.877271 Z-0.125000
G00 Z5.000000

(End cutting path id: path5066)


(Start cutting path id: path5068)
(Change tool to Cylindrical cutter)

G00 Z5.000000
G00 X26.410072 Y0.246432

G01 Z-0.125000 F1000.0(Penetrate)
G02 X26.736906 Y0.960648 Z-0.125000 I0.943791 J0.000000 F1100.000000
G02 X29.272912 Y2.719413 Z-0.125000 I9.524894 J-11.026430
G02 X30.492794 Y3.348699 Z-0.125000 I13.712835 J-25.085560
G02 X30.636025 Y3.381650 Z-0.125000 I0.143231 J-0.294820
G02 X30.906684 Y3.160044 Z-0.125000 I0.000000 J-0.276088
G02 X31.128288 Y0.936172 Z-0.125000 I-11.047861 J-2.223872
G01 X31.128288 Y0.078906 Z-0.125000
G01 X28.769180 Y0.078906 Z-0.125000
G02 X26.490850 Y0.159713 Z-0.125000 I0.000000 J32.158982
G02 X26.410072 Y0.246432 Z-0.125000 I0.006159 J0.086719
G01 X26.410072 Y0.246432 Z-0.125000
G00 Z5.000000

(End cutting path id: path5068)


(Start cutting path id: path5058)
(Change tool to Cylindrical cutter)

G00 Z5.000000
G00 X26.305556 Y4.364612

G01 Z-0.125000 F1000.0(Penetrate)
G02 X27.024627 Y8.287875 Z-0.125000 I14.703391 J-0.667367 F1100.000000
G02 X28.271048 Y10.352039 Z-0.125000 I5.110891 J-1.677751
G02 X29.052838 Y11.048222 Z-0.125000 I5.088025 J-4.926627
G02 X29.969036 Y11.652445 Z-0.125000 I4.733111 J-6.180199
G02 X32.369877 Y12.786433 Z-0.125000 I9.149840 J-16.263241
G02 X33.379098 Y12.975331 Z-0.125000 I1.009220 J-2.601517
G02 X33.454300 Y12.903579 Z-0.125000 I0.000000 J-0.075285
G02 X33.447427 Y11.520555 Z-0.125000 I-13.314364 J-0.625367
G02 X33.018515 Y8.954262 Z-0.125000 I-11.969112 J0.681445
G02 X32.027529 Y6.475235 Z-0.125000 I-12.150021 J3.419358
G02 X29.189380 Y3.016232 Z-0.125000 I-9.912541 J5.239479
G02 X26.676713 Y2.123460 Z-0.125000 I-2.512668 J3.089509
G01 X26.203831 Y2.123460 Z-0.125000
G01 X26.305556 Y4.364612 Z-0.125000
G00 Z5.000000

(End cutting path id: path5058)


(Start cutting path id: path5070)
(Change tool to Cylindrical cutter)

G00 Z5.000000
G00 X18.703653 Y0.298265

G01 Z-0.125000 F1000.0(Penetrate)
G02 X18.914396 Y1.481742 Z-0.125000 I3.428420 J-0.000000 F1100.000000
G02 X19.792818 Y3.259532 Z-0.125000 I8.755953 J-3.220482
G02 X21.057476 Y4.604629 Z-0.125000 I4.144789 J-2.629862
G02 X23.420519 Y5.888044 Z-0.125000 I6.109828 J-8.432366
G02 X24.674777 Y6.343723 Z-0.125000 I12.258269 J-31.786909
G02 X24.832260 Y6.369856 Z-0.125000 I0.157483 J-0.461436
G02 X25.310596 Y5.777237 Z-0.125000 I0.000000 J-0.489355
G02 X23.703897 Y1.143060 Z-0.125000 I-19.840239 J4.283121
G01 X23.185958 Y0.084013 Z-0.125000
G01 X20.944806 Y0.081635 Z-0.125000
G02 X18.807981 Y0.183480 Z-0.125000 I-0.028672 J21.865786
G02 X18.703653 Y0.298402 Z-0.125000 I0.011132 J0.114922
G01 X18.703653 Y0.298265 Z-0.125000
G00 Z5.000000

(End cutting path id: path5070)


(Start cutting path id: path5050)
(Change tool to Cylindrical cutter)

G00 Z5.000000
G00 X17.327507 Y5.850595

G01 Z-0.125000 F1000.0(Penetrate)
G02 X16.694080 Y5.947835 Z-0.125000 I0.572030 J5.837967 F1100.000000
G01 X16.659093 Y5.990932 Z-0.125000
G02 X16.736395 Y6.295949 Z-0.125000 I0.640420 J-0.000000
G02 X18.227342 Y8.886224 Z-0.125000 I50.806171 J-27.519509
G02 X20.355551 Y11.264327 Z-0.125000 I7.530416 J-4.597772
G02 X22.911649 Y12.513806 Z-0.125000 I4.293684 J-5.544438
G02 X26.100643 Y12.953999 Z-0.125000 I3.530139 J-13.802726
G02 X26.860123 Y12.608384 Z-0.125000 I0.022920 J-0.956912
G02 X26.896862 Y12.384578 Z-0.125000 I-0.172615 J-0.143254
G02 X26.106714 Y10.650289 Z-0.125000 I-14.782486 J5.687809
G02 X25.133682 Y8.931911 Z-0.125000 I-31.686241 J16.807655
G02 X24.669282 Y8.267249 Z-0.125000 I-5.178319 J3.123533
G02 X23.384335 Y7.094091 Z-0.125000 I-4.423845 J3.555112
G02 X21.613219 Y6.238460 Z-0.125000 I-4.011448 J6.042633
G02 X19.677896 Y5.841839 Z-0.125000 I-2.732723 J8.414357
G02 X17.327507 Y5.850595 Z-0.125000 I-1.128747 J12.472239
G01 X17.327507 Y5.850595 Z-0.125000
G00 Z5.000000

(End cutting path id: path5050)


(Start cutting path id: path5044)
(Change tool to Cylindrical cutter)

G00 Z5.000000
G00 X14.789416 Y12.353319

G01 Z-0.125000 F1000.0(Penetrate)
G02 X11.389085 Y13.648889 Z-0.125000 I4.280271 J16.343937 F1100.000000
G02 X10.997235 Y14.288826 Z-0.125000 I0.326620 J0.639937
G02 X11.290792 Y14.856602 Z-0.125000 I0.695853 J0.000000
G02 X14.614533 Y16.851838 Z-0.125000 I14.797909 J-20.884900
G02 X16.588749 Y17.508410 Z-0.125000 I3.254634 J-6.489833
G02 X18.374986 Y17.525601 Z-0.125000 I0.943903 J-5.268207
G02 X20.244528 Y16.939427 Z-0.125000 I-1.061306 J-6.659373
G02 X22.673913 Y15.451000 Z-0.125000 I-6.197552 J-12.842350
G01 X23.734608 Y14.645068 Z-0.125000
G01 X23.381646 Y14.268176 Z-0.125000
G02 X22.163269 Y13.385245 Z-0.125000 I-2.891361 J2.707760
G02 X19.259782 Y12.347702 Z-0.125000 I-7.025084 J15.077792
G02 X17.009807 Y12.065936 Z-0.125000 I-2.238912 J8.754107
G02 X14.789416 Y12.353051 Z-0.125000 I0.010791 J8.812641
G01 X14.789416 Y12.353319 Z-0.125000
G00 Z5.000000

(End cutting path id: path5044)


(Start cutting path id: path5034)
(Change tool to Cylindrical cutter)

G00 Z5.000000
G00 X11.390419 Y17.484200

G01 Z-0.125000 F1000.0(Penetrate)
G02 X11.079622 Y17.566378 Z-0.125000 I0.791770 J3.623247 F1100.000000
G02 X10.092910 Y17.888227 Z-0.125000 I11.470681 J36.839893
G01 X9.109948 Y18.223539 Z-0.125000
G01 X9.109948 Y19.986272 Z-0.125000
G02 X9.511888 Y21.537995 Z-0.125000 I3.196251 J-0.000000
G02 X10.194844 Y21.939933 Z-0.125000 I0.682955 J-0.379255
G02 X12.902422 Y21.360485 Z-0.125000 I-0.000000 J-6.615558
G02 X15.490506 Y19.564484 Z-0.125000 I-3.504634 J-7.813016
G01 X16.580456 Y18.460825 Z-0.125000
G01 X16.224010 Y18.167847 Z-0.125000
G02 X14.412799 Y17.371480 Z-0.125000 I-2.323681 J2.827004
G02 X11.390419 Y17.484200 Z-0.125000 I-1.197519 J8.466936
G01 X11.390419 Y17.484200 Z-0.125000
G00 Z5.000000

(End cutting path id: path5034)


(Start cutting path id: path5028)
(Change tool to Cylindrical cutter)

G00 Z5.000000
G00 X18.602220 Y19.429770

G01 Z-0.125000 F1000.0(Penetrate)
G02 X16.204216 Y20.616160 Z-0.125000 I0.995167 J5.028183 F1100.000000
G02 X13.879070 Y23.601377 Z-0.125000 I6.787261 J7.684628
G02 X13.457505 Y25.216037 Z-0.125000 I3.386758 J1.746597
G02 X13.808680 Y25.633180 Z-0.125000 I0.406606 J0.014087
G02 X16.921299 Y25.476947 Z-0.125000 I1.143068 J-8.311096
G02 X19.828784 Y24.179206 Z-0.125000 I-2.055668 J-8.511424
G02 X22.856064 Y21.422446 Z-0.125000 I-8.557017 J-12.437266
G02 X23.420393 Y19.881274 Z-0.125000 I-1.861400 J-1.555493
G02 X23.308407 Y19.731039 Z-0.125000 I-0.155515 J-0.000933
G02 X21.936955 Y19.448768 Z-0.125000 I-2.430771 J8.337416
G02 X19.824992 Y19.313438 Z-0.125000 I-2.215519 J18.028092
G02 X18.602220 Y19.429747 Z-0.125000 I-0.034887 J6.118990
G01 X18.602220 Y19.429770 Z-0.125000
G00 Z5.000000

(End cutting path id: path5028)


(Start cutting path id: path5016)
(Change tool to Cylindrical cutter)

G00 Z5.000000
G00 X16.674911 Y26.199305

G01 Z-0.125000 F1000.0(Penetrate)
G02 X14.781086 Y26.767628 Z-0.125000 I0.783916 J6.051817 F1100.000000
G02 X13.432252 Y27.782785 Z-0.125000 I1.951954 J3.997221
G02 X12.249072 Y29.511676 Z-0.125000 I5.793689 J5.234263
G02 X11.678432 Y31.273484 Z-0.125000 I5.451740 J2.739105
G01 X11.585174 Y31.848169 Z-0.125000
G01 X12.198690 Y31.848169 Z-0.125000
G02 X13.802460 Y31.626778 Z-0.125000 I-0.000000 J-5.919590
G02 X15.925020 Y30.799387 Z-0.125000 I-3.175526 J-11.282654
G02 X17.734376 Y29.493350 Z-0.125000 I-3.241878 J-6.397570
G02 X19.306668 Y27.444507 Z-0.125000 I-6.765978 J-6.819958
G02 X19.373254 Y26.465597 Z-0.125000 I-0.975295 J-0.558060
G02 X18.742972 Y26.048988 Z-0.125000 I-0.617769 J0.249537
G02 X17.683479 Y26.097396 Z-0.125000 I0.368881 J19.692369
G02 X16.674911 Y26.199305 Z-0.125000 I1.307514 J17.981824
G01 X16.674911 Y26.199305 Z-0.125000
G00 Z5.000000

(End cutting path id: path5016)


(Start cutting path id: path5014)
(Change tool to Cylindrical cutter)

G00 Z5.000000
G00 X21.442759 Y28.206547

G01 Z-0.125000 F1000.0(Penetrate)
G02 X18.100785 Y30.666427 Z-0.125000 I4.101758 J9.072746 F1100.000000
G02 X16.577763 Y33.682797 Z-0.125000 I4.935790 J4.384859
G02 X16.268403 Y36.321971 Z-0.125000 I14.131558 J2.994200
G02 X16.506871 Y36.566374 Z-0.125000 I0.238468 J0.005863
G02 X17.007013 Y36.447417 Z-0.125000 I0.000000 J-1.110876
G02 X19.007279 Y35.305628 Z-0.125000 I-10.038695 J-19.909488
G01 X20.276392 Y34.491529 Z-0.125000
G01 X20.276392 Y33.510606 Z-0.125000
G03 X20.316737 Y32.546390 Z-0.125000 I11.542150 J-0.000000
G03 X20.366146 Y32.439932 Z-0.125000 I0.170122 J0.014262
G02 X21.476831 Y32.463643 Z-0.125000 I0.626283 J-3.311157
G02 X22.139281 Y31.965912 Z-0.125000 I-0.124192 J-0.854998
G02 X23.263794 Y28.257816 Z-0.125000 I-14.108585 J-6.303108
G02 X22.871410 Y27.668205 Z-0.125000 I-0.508908 J-0.086694
G02 X22.718739 Y27.678356 Z-0.125000 I-0.059570 J0.257231
G02 X21.442759 Y28.206547 Z-0.125000 I7.581175 J20.119597
G01 X21.442759 Y28.206547 Z-0.125000
G00 Z5.000000

(End cutting path id: path5014)


(Start cutting path id: path4837)
(Change tool to Cylindrical cutter)

G00 Z5.000000
G00 X20.358277 Y32.472001

G01 Z-0.125000 F1000.0(Penetrate)
G02 X20.176607 Y33.249641 Z-0.125000 I1.066666 J0.659233 F1100.000000
G02 X20.695928 Y36.031688 Z-0.125000 I15.677972 J-1.487093
G02 X23.292230 Y41.025730 Z-0.125000 I13.313275 J-3.749398
G02 X27.621601 Y44.520599 Z-0.125000 I10.472198 J-8.543741
G02 X30.796043 Y45.794664 Z-0.125000 I8.634235 J-16.921203
G02 X31.378348 Y45.647874 Z-0.125000 I0.168282 J-0.560815
G02 X31.555053 Y45.006136 Z-0.125000 I-0.476369 J-0.476367
G02 X29.921068 Y39.892853 Z-0.125000 I-42.475264 J10.755552
G02 X28.133292 Y36.303849 Z-0.125000 I-20.440315 J7.942080
G02 X27.475709 Y35.937276 Z-0.125000 I-0.657583 J0.406521
G03 X26.383101 Y35.565507 Z-0.125000 I-0.000000 J-1.791443
G03 X25.108286 Y34.115255 Z-0.125000 I3.058253 J-3.973721
G02 X24.943087 Y33.966294 Z-0.125000 I-0.315368 J0.183661
G02 X24.400554 Y33.795737 Z-0.125000 I-0.981572 J2.174169
G03 X22.242999 Y32.909007 Z-0.125000 I1.151819 J-5.870764
G02 X20.358277 Y32.472012 Z-0.125000 I-1.525830 J2.297954
G01 X20.358277 Y32.472001 Z-0.125000
G00 Z5.000000

(End cutting path id: path4837)


(Start cutting path id: path4839)
(Change tool to Cylindrical cutter)

G00 Z5.000000
G00 X27.382090 Y35.753791

G01 Z-0.125000 F1000.0(Penetrate)
G02 X27.450228 Y35.715908 Z-0.125000 I0.018841 J-0.046331 F1100.000000
G02 X27.510989 Y35.001690 Z-0.125000 I-4.167299 J-0.714219
G02 X27.258102 Y33.331862 Z-0.125000 I-5.639427 J0.000000
G02 X26.929237 Y33.125083 Z-0.125000 I-0.284989 J0.088347
G02 X26.809624 Y33.162578 Z-0.125000 I0.059062 J0.397956
G02 X26.056660 Y33.557583 Z-0.125000 I8.229244 J16.601844
G02 X25.374251 Y34.006884 Z-0.125000 I2.601621 J4.694284
G02 X25.318514 Y34.128630 Z-0.125000 I0.088203 J0.114012
G00 Z5.000000

(End cutting path id: path4839)


(Start cutting path id: path4837)
(Change tool to Cylindrical cutter)

G00 Z5.000000
G00 X31.442835 Y33.070617

G01 Z-0.125000 F1000.0(Penetrate)
G02 X31.681873 Y37.169063 Z-0.125000 I35.254633 J-0.000000 F1100.000000
G02 X32.232513 Y39.817326 Z-0.125000 I15.200206 J-1.779128
G02 X33.739138 Y42.846062 Z-0.125000 I9.676593 J-2.924459
G02 X36.577960 Y45.780881 Z-0.125000 I11.903306 J-8.673559
G02 X39.984541 Y48.062020 Z-0.125000 I17.319573 J-22.180300
G02 X41.115177 Y48.361524 Z-0.125000 I1.132379 J-1.990917
G01 X41.586998 Y48.361839 Z-0.125000
G01 X41.577345 Y45.334324 Z-0.125000
G02 X41.466718 Y42.319631 Z-0.125000 I-45.052521 J0.143868
G02 X41.287192 Y41.205896 Z-0.125000 I-6.284531 J0.441683
G02 X39.542523 Y37.077393 Z-0.125000 I-14.497680 J3.693701
G02 X38.109806 Y36.025613 Z-0.125000 I-2.005420 J1.230047
G03 X37.727531 Y35.861062 Z-0.125000 I0.316994 J-1.262739
G03 X37.251326 Y35.478961 Z-0.125000 I1.504578 J-2.362912
G02 X36.783103 Y35.068920 Z-0.125000 I-3.328563 J3.328513
G02 X35.895333 Y34.441497 Z-0.125000 I-8.727092 J11.406584
G03 X34.998124 Y33.824523 Z-0.125000 I11.884963 J-18.244069
G03 X34.588322 Y33.493719 Z-0.125000 I2.989601 J-4.122773
G02 X34.155500 Y33.209216 Z-0.125000 I-1.161718 J1.295874
G02 X32.818990 Y32.677670 Z-0.125000 I-5.621054 J12.187435
G01 X31.442844 Y32.214094 Z-0.125000
G01 X31.442844 Y33.070569 Z-0.125000
G01 X31.442835 Y33.070617 Z-0.125000
G00 Z5.000000

(End cutting path id: path4837)


(Start cutting path id: path5012)
(Change tool to Cylindrical cutter)

G00 Z5.000000
G00 X33.380845 Y32.868651

G01 Z-0.125000 F1000.0(Penetrate)
G02 X32.715377 Y28.468373 Z-0.125000 I-15.680269 J0.120915 F1100.000000
G02 X31.726327 Y27.768650 Z-0.125000 I-0.942909 J0.283925
G02 X31.554676 Y27.841649 Z-0.125000 I0.012738 J0.268265
G02 X31.018598 Y28.437063 Z-0.125000 I3.397671 J3.598104
G01 X31.018598 Y28.437075 Z-0.125000
G02 X28.791371 Y32.862510 Z-0.125000 I10.664621 J8.140452
G02 X28.833857 Y36.018563 Z-0.125000 I5.232619 J1.507873
G02 X29.941988 Y38.672609 Z-0.125000 I15.588870 J-4.950389
G02 X30.360394 Y38.925477 Z-0.125000 I0.418406 J-0.219722
G02 X30.448760 Y38.884677 Z-0.125000 I0.000000 J-0.116095
G02 X31.057141 Y38.107781 Z-0.125000 I-9.082816 J-7.739333
G01 X31.644596 Y37.290092 Z-0.125000
G00 Z5.000000

(End cutting path id: path5012)


(Start cutting path id: path5020)
(Change tool to Cylindrical cutter)

G00 Z5.000000
G00 X38.045942 Y35.973601

G01 Z-0.125000 F1000.0(Penetrate)
G02 X39.044674 Y34.744573 Z-0.125000 I-0.958629 J-1.799310 F1100.000000
G02 X38.980536 Y33.521436 Z-0.125000 I-1.783797 J-0.519713
G00 Z5.000000

(End cutting path id: path5020)


(Start cutting path id: path5010)
(Change tool to Cylindrical cutter)

G00 Z5.000000
G00 X44.355698 Y32.555897

G01 Z-0.125000 F1000.0(Penetrate)
G03 X43.494690 Y34.526133 Z-0.125000 I-8.163565 J-2.394288 F1100.000000
G02 X42.757678 Y36.341149 Z-0.125000 I5.517251 J3.297499
G02 X42.908404 Y37.752776 Z-0.125000 I1.347966 J0.569932
G02 X43.491260 Y38.459802 Z-0.125000 I4.893071 J-3.439973
G02 X44.616502 Y39.380733 Z-0.125000 I4.476430 J-4.321634
G02 X44.968384 Y39.270561 Z-0.125000 I0.129674 J-0.202860
G02 X45.596223 Y36.963928 Z-0.125000 I-12.238547 J-4.569958
G02 X45.624675 Y34.762043 Z-0.125000 I-6.755854 J-1.188422
G02 X45.017594 Y32.110832 Z-0.125000 I-13.965899 J1.802835
G02 X44.653140 Y31.848169 Z-0.125000 I-0.364453 J0.121515
G02 X44.574586 Y31.900365 Z-0.125000 I0.000000 J0.085210
G02 X44.355696 Y32.555897 Z-0.125000 I4.218143 J1.772795
G01 X44.355698 Y32.555897 Z-0.125000
G00 Z5.000000

(End cutting path id: path5010)


(Start cutting path id: path4837)
(Change tool to Cylindrical cutter)

G00 Z5.000000
G00 X44.588662 Y31.821426

G01 Z-0.125000 F1000.0(Penetrate)
G02 X45.049854 Y30.491242 Z-0.125000 I-1.789571 J-1.365509 F1100.000000
G02 X44.692396 Y29.450869 Z-0.125000 I-1.618777 J-0.025406
G03 X44.574995 Y29.233393 Z-0.125000 I0.530291 J-0.426695
G03 X44.354390 Y28.404477 Z-0.125000 I7.801990 J-2.520207
G02 X43.400914 Y26.077586 Z-0.125000 I-6.829899 J1.439850
G02 X40.831969 Y22.909211 Z-0.125000 I-15.461704 J9.910834
G01 X39.820916 Y21.912572 Z-0.125000
G01 X39.504158 Y22.437391 Z-0.125000
G02 X39.224313 Y22.978515 Z-0.125000 I3.969128 J2.395582
G02 X39.000531 Y23.591307 Z-0.125000 I4.872755 J2.126706
G03 X38.784203 Y24.208353 Z-0.125000 I-6.470904 J-1.922166
G03 X38.521629 Y24.770933 Z-0.125000 I-5.638341 J-2.289034
G02 X38.335568 Y25.350417 Z-0.125000 I1.526534 J0.809751
G02 X38.117208 Y27.778785 Z-0.125000 I27.484062 J3.695378
G02 X38.282803 Y31.115090 Z-0.125000 I17.534304 J0.801962
G02 X38.938114 Y33.404728 Z-0.125000 I8.828653 J-1.288227
G03 X39.268588 Y34.258960 Z-0.125000 I-9.649576 J4.224143
G03 X39.283303 Y34.427005 Z-0.125000 I-0.338531 J0.114310
G02 X39.896075 Y36.990506 Z-0.125000 I3.464050 J0.526951
G02 X41.822375 Y37.981836 Z-0.125000 I1.926299 J-1.375876
G02 X42.263626 Y37.327273 Z-0.125000 I-126.307251 J-85.621713
G02 X42.629121 Y36.731694 Z-0.125000 I-7.232551 J-4.848414
G00 Z5.000000

(End cutting path id: path4837)


(Start cutting path id: path4837)
(Change tool to Cylindrical cutter)

G00 Z5.000000
G00 X44.867756 Y39.532201

G01 Z-0.125000 F1000.0(Penetrate)
G02 X44.746533 Y39.648396 Z-0.125000 I0.061975 J0.185990 F1100.000000
G02 X44.551441 Y40.503084 Z-0.125000 I2.944081 J1.121628
G03 X44.440539 Y41.355717 Z-0.125000 I-9.627889 J-0.818769
G03 X44.303704 Y41.913671 Z-0.125000 I-4.248078 J-0.746060
G02 X43.907571 Y44.572119 Z-0.125000 I8.079669 J2.562684
G02 X44.374784 Y48.204609 Z-0.125000 I15.736921 J-0.177804
G02 X45.391063 Y51.437929 Z-0.125000 I27.420713 J-6.842352
G02 X46.493029 Y53.755709 Z-0.125000 I15.139614 J-5.777127
G02 X47.919476 Y55.449110 Z-0.125000 I5.447852 J-3.141544
G02 X48.375273 Y55.321237 Z-0.125000 I0.183830 J-0.221019
G03 X49.419407 Y52.998329 Z-0.125000 I19.859378 J7.530555
G02 X50.472971 Y50.770290 Z-0.125000 I-26.817424 J-14.044170
G03 X50.511327 Y50.551913 Z-0.125000 I0.640835 J0.000000
G03 X50.868878 Y49.678021 Z-0.125000 I10.926521 J3.960465
G02 X51.398783 Y47.862174 Z-0.125000 I-8.798959 J-3.552980
G02 X51.548505 Y46.461515 Z-0.125000 I-8.930439 J-1.662942
G02 X51.478055 Y44.522258 Z-0.125000 I-15.266264 J-0.416308
G02 X51.187307 Y42.857312 Z-0.125000 I-11.529230 J1.155478
G02 X50.379631 Y40.328791 Z-0.125000 I-20.353697 J5.108250
G02 X49.881115 Y39.514166 Z-0.125000 I-2.530377 J0.988636
G03 X49.650990 Y39.227035 Z-0.125000 I2.740433 J-2.432137
G03 X49.464654 Y38.937418 Z-0.125000 I2.601694 J-1.878654
G02 X47.217293 Y35.615967 Z-0.125000 I-22.698349 J12.937127
G02 X46.579410 Y35.308184 Z-0.125000 I-0.637883 J0.507119
G02 X46.382191 Y35.393117 Z-0.125000 I-0.000000 J0.271445
G02 X45.759485 Y36.330211 Z-0.125000 I2.401997 J2.271587
G00 Z5.000000

(End cutting path id: path4837)


(Start cutting path id: path5166)
(Change tool to Cylindrical cutter)

G00 Z5.000000
G00 X49.656213 Y39.230515

G01 Z-0.125000 F1000.0(Penetrate)
G02 X49.971828 Y39.424996 Z-0.125000 I0.284855 J-0.108939 F1100.000000
G02 X51.941658 Y39.163964 Z-0.125000 I-3.263094 J-32.187285
G02 X53.389893 Y38.768585 Z-0.125000 I-1.168901 J-7.131638
G02 X55.820282 Y37.657063 Z-0.125000 I-8.294081 J-21.348176
G02 X58.431342 Y35.711915 Z-0.125000 I-5.003593 J-9.441595
G02 X58.781197 Y34.649466 Z-0.125000 I-0.898717 J-0.884766
G02 X57.959314 Y33.435069 Z-0.125000 I-1.656416 J0.235717
G02 X56.545481 Y33.507497 Z-0.125000 I-0.650837 J1.130917
G00 Z5.000000

(End cutting path id: path5166)


(Start cutting path id: path5166)
(Change tool to Cylindrical cutter)

G00 Z5.000000
G00 X50.257479 Y32.652270

G01 Z-0.125000 F1000.0(Penetrate)
G02 X47.073410 Y32.778010 Z-0.125000 I-1.230275 J9.223609 F1100.000000
G02 X45.661615 Y34.836364 Z-0.125000 I0.381134 J1.774756
G00 Z5.000000

(End cutting path id: path5166)


(Start cutting path id: path5026)
(Change tool to Cylindrical cutter)

G00 Z5.000000
G00 X44.664849 Y29.300225

G01 Z-0.125000 F1000.0(Penetrate)
G02 X45.069004 Y28.921389 Z-0.125000 I-0.097254 J-0.508754 F1100.000000
G02 X44.984862 Y26.856192 Z-0.125000 I-3.449461 J-0.893772
G02 X43.099574 Y23.222899 Z-0.125000 I-13.499420 J4.698967
G02 X40.686752 Y20.865163 Z-0.125000 I-7.888696 J5.659542
G02 X37.575640 Y19.310551 Z-0.125000 I-7.242978 J10.604451
G02 X37.104693 Y19.647910 Z-0.125000 I-0.114641 J0.337359
G02 X37.379638 Y21.520329 Z-0.125000 I6.513214 J-0.000000
G02 X38.430468 Y24.863288 Z-0.125000 I129.423531 J-38.846507
G00 Z5.000000

(End cutting path id: path5026)


(Start cutting path id: path5020)
(Change tool to Cylindrical cutter)

G00 Z5.000000
G00 X38.230817 Y26.232408

G01 Z-0.125000 F1000.0(Penetrate)
G01 X37.489592 Y25.360633 Z-0.125000 F1100.000000
G02 X36.613262 Y24.660212 Z-0.125000 I-1.723411 J1.257824
G02 X36.318325 Y24.853979 Z-0.125000 I-0.083818 J0.193767
G03 X36.274389 Y25.083956 Z-0.125000 I-0.623861 J0.000000
G03 X35.866148 Y25.994213 Z-0.125000 I-10.527790 J-4.174932
G02 X34.525266 Y30.218923 Z-0.125000 I12.560396 J6.311693
G02 X34.585481 Y33.431786 Z-0.125000 I9.516134 J1.428646
G00 Z5.000000

(End cutting path id: path5020)


(Start cutting path id: path5022)
(Change tool to Cylindrical cutter)

G00 Z5.000000
G00 X29.311774 Y24.430319

G01 Z-0.125000 F1000.0(Penetrate)
G03 X29.147019 Y24.535572 Z-0.125000 I-0.425021 J-0.483717 F1100.000000
G03 X28.375995 Y24.843844 Z-0.125000 I-4.695875 J-10.626586
G02 X25.537186 Y26.477090 Z-0.125000 I3.133403 J8.730036
G02 X24.191779 Y28.365013 Z-0.125000 I2.992360 J3.555827
G02 X23.957731 Y29.275083 Z-0.125000 I3.809962 J1.464962
G02 X23.773189 Y31.415664 Z-0.125000 I21.141099 J2.900842
G02 X23.864086 Y33.416066 Z-0.125000 I12.360035 J0.440634
G02 X24.048107 Y33.578174 Z-0.125000 I0.184021 J-0.023395
G02 X25.157877 Y33.263281 Z-0.125000 I0.000000 J-2.113016
G02 X27.393567 Y31.513410 Z-0.125000 I-6.721800 J-10.891109
G02 X28.354625 Y30.398428 Z-0.125000 I-6.127801 J-6.253535
G02 X28.999185 Y29.298389 Z-0.125000 I-5.318039 J-3.854926
G02 X30.131947 Y24.833626 Z-0.125000 I-11.405949 J-5.269899
G02 X29.311774 Y24.430319 Z-0.125000 I-0.493659 J-0.031699
G01 X29.311774 Y24.430319 Z-0.125000
G00 Z5.000000

(End cutting path id: path5022)


(Start cutting path id: path5030)
(Change tool to Cylindrical cutter)

G00 Z5.000000
G00 X27.825537 Y18.687120

G01 Z-0.125000 F1000.0(Penetrate)
G02 X23.547413 Y21.660749 Z-0.125000 I5.441199 J12.392446 F1100.000000
G02 X21.207477 Y25.516329 Z-0.125000 I7.283112 J7.057930
G02 X21.069742 Y26.730779 Z-0.125000 I2.803680 J0.933009
G02 X21.339316 Y26.894211 Z-0.125000 I0.195679 J-0.018723
G03 X21.617745 Y26.796396 Z-0.125000 I1.167986 J2.879467
G03 X23.022766 Y26.391231 Z-0.125000 I21.834571 J73.078723
G02 X25.769019 Y25.314124 Z-0.125000 I-3.857121 J-13.873888
G02 X27.354458 Y24.156000 Z-0.125000 I-2.925190 J-5.668772
G02 X28.714875 Y22.169788 Z-0.125000 I-4.630660 J-4.630683
G02 X29.773115 Y18.676510 Z-0.125000 I-13.771880 J-6.078928
G02 X29.695147 Y18.306489 Z-0.125000 I-0.501797 J-0.087490
G02 X29.433661 Y18.167295 Z-0.125000 I-0.260082 J0.173375
G02 X29.018762 Y18.233730 Z-0.125000 I0.006920 J1.371982
G02 X27.825537 Y18.687120 Z-0.125000 I3.878770 J12.004941
G01 X27.825537 Y18.687120 Z-0.125000
G00 Z5.000000

(End cutting path id: path5030)


(Start cutting path id: path5040)
(Change tool to Cylindrical cutter)

G00 Z5.000000
G00 X28.076278 Y13.132793

G01 Z-0.125000 F1000.0(Penetrate)
G02 X25.415979 Y14.281526 Z-0.125000 I1.116410 J6.240245 F1100.000000
G02 X22.710944 Y17.112622 Z-0.125000 I6.896115 J9.296890
G02 X22.358627 Y17.876363 Z-0.125000 I2.183158 J1.470234
G02 X22.440938 Y18.081621 Z-0.125000 I0.175285 J0.048842
G02 X22.733784 Y18.171347 Z-0.125000 I0.330574 J-0.556165
G02 X24.915970 Y18.226190 Z-0.125000 I1.916267 J-32.806188
G02 X28.045643 Y17.840268 Z-0.125000 I-0.111631 J-13.788452
G02 X30.426442 Y16.893513 Z-0.125000 I-2.139742 J-8.847662
G02 X33.258826 Y14.828418 Z-0.125000 I-7.907355 J-13.820270
G02 X33.644669 Y13.953276 Z-0.125000 I-0.799545 J-0.875141
G02 X33.519709 Y13.768924 Z-0.125000 I-0.198467 J-0.000000
G02 X32.268523 Y13.404568 Z-0.125000 I-2.516715 J6.311868
G02 X29.494540 Y13.053077 Z-0.125000 I-4.250347 J22.422034
G02 X28.076278 Y13.132793 Z-0.125000 I-0.381022 J5.877415
G01 X28.076278 Y13.132793 Z-0.125000
G00 Z5.000000

(End cutting path id: path5040)


(Start cutting path id: path5036)
(Change tool to Cylindrical cutter)

G00 Z5.000000
G00 X32.886905 Y16.256694

G01 Z-0.125000 F1000.0(Penetrate)
G02 X31.297223 Y19.215465 Z-0.125000 I14.113132 J9.489107 F1100.000000
G02 X30.850438 Y21.153569 Z-0.125000 I5.506261 J2.289891
G02 X31.037188 Y22.993626 Z-0.125000 I5.788259 J0.342047
G02 X31.943987 Y25.242676 Z-0.125000 I9.629560 J-2.575229
G02 X33.459130 Y27.549759 Z-0.125000 I15.925909 J-8.808046
G02 X33.884884 Y27.759056 Z-0.125000 I0.425755 J-0.328388
G02 X34.773328 Y27.198247 Z-0.125000 I0.000000 J-0.984147
G02 X36.261784 Y22.770741 Z-0.125000 I-17.560737 J-8.367590
G02 X36.355433 Y19.513291 Z-0.125000 I-9.153128 J-1.893214
G02 X35.269077 Y16.042179 Z-0.125000 I-11.518496 J1.699397
G02 X34.434369 Y14.699881 Z-0.125000 I-7.373702 J3.654656
G02 X34.127319 Y14.548082 Z-0.125000 I-0.307050 J0.234641
G02 X34.055267 Y14.584811 Z-0.125000 I0.000000 J0.089037
G02 X32.886905 Y16.256694 Z-0.125000 I45.825040 J33.268115
G01 X32.886905 Y16.256694 Z-0.125000
G00 Z5.000000

(End cutting path id: path5036)


(Start cutting path id: path5038)
(Change tool to Cylindrical cutter)

G00 Z5.000000
G00 X35.949085 Y14.073236

G01 Z-0.125000 F1000.0(Penetrate)
G02 X35.200038 Y14.237392 Z-0.125000 I1.911215 J10.511975 F1100.000000
G02 X35.109415 Y14.289100 Z-0.125000 I0.049255 J0.191590
G02 X35.095692 Y15.217898 Z-0.125000 I0.471470 J0.471467
G02 X38.834706 Y18.241347 Z-0.125000 I13.001481 J-12.254870
G02 X40.753798 Y19.006016 Z-0.125000 I3.243923 J-5.350777
G02 X43.303927 Y19.209544 Z-0.125000 I2.031671 J-9.378239
G02 X46.967714 Y18.793794 Z-0.125000 I-1.691040 J-31.253621
G02 X47.288718 Y18.517610 Z-0.125000 I-0.070626 J-0.406728
G02 X47.162737 Y17.982347 Z-0.125000 I-0.496674 J-0.165559
G02 X44.839728 Y16.062063 Z-0.125000 I-11.136369 J11.106667
G02 X42.847620 Y14.946281 Z-0.125000 I-7.602489 J11.237192
G02 X40.978995 Y14.308626 Z-0.125000 I-4.195109 J9.236819
G02 X38.217453 Y13.922071 Z-0.125000 I-3.468653 J14.722512
G02 X35.949085 Y14.073236 Z-0.125000 I-0.469990 J10.042426
G01 X35.949085 Y14.073236 Z-0.125000
G00 Z5.000000

(End cutting path id: path5038)


(Start cutting path id: path5024)
(Change tool to Cylindrical cutter)

G00 Z5.000000
G00 X49.627361 Y20.724285

G01 Z-0.125000 F1000.0(Penetrate)
G02 X45.695674 Y20.082430 Z-0.125000 I-6.585174 J27.974814 F1100.000000
G02 X43.434966 Y20.444373 Z-0.125000 I-0.425188 J4.585462
G01 X43.434966 Y20.444403 Z-0.125000
G02 X43.101388 Y20.785149 Z-0.125000 I0.252421 J0.580765
G02 X43.165248 Y21.102913 Z-0.125000 I0.270735 J0.110890
G03 X43.387419 Y21.360249 Z-0.125000 I-1.643381 J1.643385
G03 X44.062486 Y22.310547 Z-0.125000 I-21.933040 J16.295578
G02 X45.655862 Y24.155751 Z-0.125000 I8.716309 J-5.916174
G02 X47.294943 Y25.277099 Z-0.125000 I4.726488 J-5.150135
G02 X48.340019 Y25.634283 Z-0.125000 I1.908631 J-3.876948
G02 X50.057224 Y25.840472 Z-0.125000 I2.117800 J-10.383873
G02 X52.789074 Y25.695277 Z-0.125000 I0.569523 J-15.056994
G02 X53.373412 Y25.452905 Z-0.125000 I-0.184064 J-1.269338
G00 Z5.000000

(End cutting path id: path5024)


(Start cutting path id: path5178)
(Change tool to Cylindrical cutter)

G00 Z5.000000
G00 X52.517185 Y26.386815

G01 Z-0.125000 F1000.0(Penetrate)
G02 X51.104804 Y26.023113 Z-0.125000 I-2.190262 J5.581311 F1100.000000
G02 X49.684612 Y26.257327 Z-0.125000 I-0.322692 J2.466194
G01 X48.937093 Y26.597257 Z-0.125000
G00 Z5.000000

(End cutting path id: path5178)


(Start cutting path id: path5018)
(Change tool to Cylindrical cutter)

G00 Z5.000000
G00 X51.414412 Y28.025154

G01 Z-0.125000 F1000.0(Penetrate)
G02 X47.316477 Y25.555751 Z-0.125000 I-10.385085 J12.598956 F1100.000000
G02 X46.541124 Y26.072379 Z-0.125000 I-0.215559 J0.516627
G02 X46.561747 Y26.311129 Z-0.125000 I1.392335 J-0.000000
G02 X46.852109 Y27.859103 Z-0.125000 I59.250974 J-10.312806
G02 X48.500435 Y31.405181 Z-0.125000 I8.177507 J-1.645021
G02 X50.257479 Y32.652270 Z-0.125000 I3.032163 J-2.410756
G00 Z5.000000

(End cutting path id: path5018)


(Start cutting path id: path5148)
(Change tool to Cylindrical cutter)

G00 Z5.000000
G00 X55.212092 Y40.134841

G01 Z-0.125000 F1000.0(Penetrate)
G02 X55.124621 Y40.051541 Z-0.125000 I-0.083399 J0.000000 F1100.000000
G02 X53.485670 Y40.267949 Z-0.125000 I0.490085 J10.026067
G02 X51.857863 Y40.730578 Z-0.125000 I2.842055 J13.095176
G02 X50.776652 Y41.252272 Z-0.125000 I1.832719 J5.179558
G00 Z5.000000

(End cutting path id: path5148)


(Start cutting path id: path5148)
(Change tool to Cylindrical cutter)

G00 Z5.000000
G00 X51.542529 Y44.823230

G01 Z-0.125000 F1000.0(Penetrate)
G01 X52.736878 Y44.744594 Z-0.125000 F1100.000000
G01 X53.788682 Y44.683779 Z-0.125000
G00 Z5.000000

(End cutting path id: path5148)


(Start cutting path id: path5134)
(Change tool to Cylindrical cutter)

G00 Z5.000000
G00 X53.445436 Y46.946401

G01 Z-0.125000 F1000.0(Penetrate)
G01 X52.440833 Y46.946401 Z-0.125000 F1100.000000
G01 X51.614411 Y46.946401 Z-0.125000
G00 Z5.000000

(End cutting path id: path5134)


(Start cutting path id: path5134)
(Change tool to Cylindrical cutter)

G00 Z5.000000
G00 X50.050139 Y51.961335

G01 Z-0.125000 F1000.0(Penetrate)
G02 X51.829896 Y51.694337 Z-0.125000 I-0.000000 J-6.065268 F1100.000000
G02 X53.755553 Y50.563694 Z-0.125000 I-1.418343 J-4.620819
G02 X54.743851 Y49.258971 Z-0.125000 I-3.586764 J-3.743559
G02 X54.634620 Y49.076961 Z-0.125000 I-0.109231 J-0.058228
G00 Z5.000000

(End cutting path id: path5134)


(Start cutting path id: path4837)
(Change tool to Cylindrical cutter)

G00 Z5.000000
G00 X59.358943 Y48.237201

G01 Z-0.125000 F1000.0(Penetrate)
G02 X57.447155 Y49.037163 Z-0.125000 I4.282523 J12.919014 F1100.000000
G02 X54.968230 Y50.481390 Z-0.125000 I11.871013 J23.225409
G02 X52.004996 Y52.814686 Z-0.125000 I12.297687 J18.666062
G02 X50.373579 Y54.774514 Z-0.125000 I6.975997 J7.465954
G02 X48.989487 Y57.231390 Z-0.125000 I21.199133 J13.560925
G02 X48.190831 Y59.213758 Z-0.125000 I12.971548 J6.378040
G03 X47.900438 Y60.072447 Z-0.125000 I-25.229371 J-8.053677
G03 X47.828339 Y60.228093 Z-0.125000 I-0.892908 J-0.319096
G02 X47.764697 Y60.384774 Z-0.125000 I0.529903 J0.306506
G02 X47.709234 Y60.699914 Z-0.125000 I2.125488 J0.536524
G03 X47.666812 Y61.021021 Z-0.125000 I-5.338291 J-0.541899
G03 X47.502907 Y61.966045 Z-0.125000 I-46.440128 J-7.567811
G02 X47.299254 Y64.087031 Z-0.125000 I12.170205 J2.238835
G02 X47.476765 Y64.710771 Z-0.125000 I1.146247 J0.010917
G02 X47.663696 Y64.800124 Z-0.125000 I0.164590 J-0.104122
G02 X48.378681 Y64.606629 Z-0.125000 I-0.285542 J-2.472834
G03 X49.146119 Y64.301586 Z-0.125000 I4.702238 J10.712155
G03 X50.079784 Y63.999079 Z-0.125000 I5.557375 J15.560307
G02 X51.016955 Y63.707327 Z-0.125000 I-7.559910 J-25.935174
G02 X51.259338 Y63.608224 Z-0.125000 I-0.604675 J-1.824856
G03 X51.498911 Y63.500876 Z-0.125000 I1.651335 J3.364359
G03 X52.202981 Y63.224497 Z-0.125000 I11.715928 J28.811007
G02 X53.460015 Y62.702674 Z-0.125000 I-7.631860 J-20.159596
G02 X54.326178 Y62.263445 Z-0.125000 I-4.525557 J-9.998079
G03 X54.799398 Y61.999905 Z-0.125000 I24.437270 J43.323580
G03 X54.981698 Y61.903043 Z-0.125000 I3.480235 J6.330041
G02 X58.135098 Y58.974956 Z-0.125000 I-5.451557 J-9.033115
G02 X59.847375 Y55.355434 Z-0.125000 I-9.368328 J-6.646623
G02 X60.141582 Y53.770467 Z-0.125000 I-10.205236 J-2.714119
G02 X60.324639 Y50.917581 Z-0.125000 I-33.018955 J-3.550991
G02 X59.931062 Y48.515298 Z-0.125000 I-6.671958 J-0.140284
G02 X59.358941 Y48.237201 Z-0.125000 I-0.428732 J0.154465
G01 X59.358943 Y48.237201 Z-0.125000
G00 Z5.000000

(End cutting path id: path4837)


(Start cutting path id: path5146)
(Change tool to Cylindrical cutter)

G00 Z5.000000
G00 X59.756314 Y46.006119

G01 Z-0.125000 F1000.0(Penetrate)
G01 X60.794457 Y46.321470 Z-0.125000 F1100.000000
G02 X61.709085 Y46.496638 Z-0.125000 I6.116237 J-29.460206
G02 X62.577336 Y46.634414 Z-0.125000 I4.639518 J-26.432949
G02 X63.499389 Y46.741450 Z-0.125000 I2.566291 J-18.082198
G02 X63.870985 Y46.583472 Z-0.125000 I0.038467 J-0.425542
G00 Z5.000000

(End cutting path id: path5146)


(Start cutting path id: path5130)
(Change tool to Cylindrical cutter)

G00 Z5.000000
G00 X63.310239 Y48.606038

G01 Z-0.125000 F1000.0(Penetrate)
G02 X63.229376 Y48.495821 Z-0.125000 I-0.075864 J-0.029113 F1100.000000
G03 X62.224256 Y48.534833 Z-0.125000 I-1.359265 J-22.053029
G02 X60.874637 Y48.649429 Z-0.125000 I0.158094 J9.866575
G02 X60.373450 Y48.759696 Z-0.125000 I0.621021 J4.016805
G00 Z5.000000

(End cutting path id: path5130)


(Start cutting path id: path5130)
(Change tool to Cylindrical cutter)

G00 Z5.000000
G00 X59.768560 Y55.807259

G01 Z-0.125000 F1000.0(Penetrate)
G02 X62.051132 Y55.955334 Z-0.125000 I1.255919 J-1.693015 F1100.000000
G02 X63.487231 Y54.718145 Z-0.125000 I-2.295734 J-4.116922
G00 Z5.000000

(End cutting path id: path5130)


(Start cutting path id: path4837)
(Change tool to Cylindrical cutter)

G00 Z5.000000
G00 X64.942165 Y59.272570

G01 Z-0.125000 F1000.0(Penetrate)
G02 X64.088935 Y59.503533 Z-0.125000 I2.638863 J11.440014 F1100.000000
G02 X63.762611 Y59.640040 Z-0.125000 I0.559382 J1.795525
G03 X63.443928 Y59.799366 Z-0.125000 I-3.131310 J-5.864866
G03 X62.897605 Y60.043900 Z-0.125000 I-7.937234 J-17.000274
G02 X61.507663 Y60.682809 Z-0.125000 I11.614872 J27.099464
G02 X60.538497 Y61.203357 Z-0.125000 I6.725042 J13.683268
G02 X58.150681 Y62.887004 Z-0.125000 I8.666428 J14.826152
G02 X57.014742 Y64.167193 Z-0.125000 I3.793466 J4.510090
G02 X56.971464 Y64.497349 Z-0.125000 I0.320363 J0.209908
G02 X57.220362 Y64.789009 Z-0.125000 I0.482169 J-0.159442
G02 X60.488800 Y65.860349 Z-0.125000 I4.943006 J-9.558759
G02 X65.256713 Y66.054974 Z-0.125000 I3.223108 J-20.460175
G03 X68.936991 Y65.497505 Z-0.125000 I12.502207 J70.109754
G02 X72.351090 Y64.225594 Z-0.125000 I-0.979702 J-7.847809
G03 X72.773781 Y63.963041 Z-0.125000 I2.908880 J4.211550
G03 X74.050165 Y63.281436 Z-0.125000 I21.030300 J37.845775
G02 X75.865578 Y62.077524 Z-0.125000 I-4.454064 J-8.687119
G02 X76.108608 Y61.556859 Z-0.125000 I-0.436216 J-0.520665
G02 X74.844342 Y61.004443 Z-0.125000 I-1.797352 J2.390530
G03 X73.567768 Y60.606887 Z-0.125000 I0.973510 J-5.374343
G02 X72.447890 Y60.121749 Z-0.125000 I-5.480337 J11.115545
G02 X70.839934 Y59.581555 Z-0.125000 I-8.422735 J22.408075
G02 X67.663728 Y59.034685 Z-0.125000 I-3.891360 J13.103822
G02 X64.942165 Y59.272570 Z-0.125000 I-0.513856 J9.808362
G01 X64.942165 Y59.272570 Z-0.125000
G00 Z5.000000

(End cutting path id: path4837)


(Start cutting path id: path4837)
(Change tool to Cylindrical cutter)

G00 Z5.000000
G00 X67.707286 Y57.558650

G01 Z-0.125000 F1000.0(Penetrate)
G02 X69.647684 Y57.615888 Z-0.125000 I1.327424 J-12.081522 F1100.000000
G02 X70.516121 Y57.487225 Z-0.125000 I-0.229455 J-4.543915
G02 X72.328446 Y56.825665 Z-0.125000 I-2.196731 J-8.831074
G02 X74.160834 Y55.698646 Z-0.125000 I-4.984607 J-10.157454
G02 X76.836568 Y53.408440 Z-0.125000 I-17.331179 J-22.956847
G02 X77.052252 Y52.899447 Z-0.125000 I-0.492744 J-0.508992
G03 X78.167924 Y51.448036 Z-0.125000 I19.856585 J14.108877
G02 X78.668482 Y49.925079 Z-0.125000 I-1.682063 J-1.396590
G02 X78.529379 Y49.844485 Z-0.125000 I-0.251294 J0.273383
G02 X77.514027 Y49.559172 Z-0.125000 I-4.829643 J15.238089
G02 X71.882871 Y49.552992 Z-0.125000 I-2.832900 J15.780231
G02 X67.179315 Y51.525054 Z-0.125000 I2.025305 J11.425793
G03 X64.846577 Y53.452562 Z-0.125000 I-23.364227 J-25.900879
G02 X62.967598 Y55.692440 Z-0.125000 I3.939804 J5.213058
G02 X63.532142 Y56.890302 Z-0.125000 I0.748372 J0.379261
G02 X65.483223 Y57.326458 Z-0.125000 I225.967021 J-1006.248358
G00 Z5.000000

(End cutting path id: path4837)


(Start cutting path id: path5116)
(Change tool to Cylindrical cutter)

G00 Z5.000000
G00 X68.690712 Y59.144122

G01 Z-0.125000 F1000.0(Penetrate)
G02 X64.735728 Y56.928351 Z-0.125000 I-2.821312 J0.398271 F1100.000000
G02 X60.924999 Y59.438068 Z-0.125000 I5.267710 J12.146382
G02 X60.023347 Y60.946541 Z-0.125000 I2.610787 J2.584239
G02 X59.937320 Y61.568818 Z-0.125000 I1.887113 J0.577972
G00 Z5.000000

(End cutting path id: path5116)


(Start cutting path id: path5100)
(Change tool to Cylindrical cutter)

G00 Z5.000000
G00 X65.198931 Y66.073787

G01 Z-0.125000 F1000.0(Penetrate)
G02 X63.422392 Y67.460577 Z-0.125000 I26.439991 J35.702098 F1100.000000
G02 X62.778236 Y68.049662 Z-0.125000 I5.272774 J6.412442
G01 X62.280414 Y68.517561 Z-0.125000
G00 Z5.000000

(End cutting path id: path5100)


(Start cutting path id: path5102)
(Change tool to Cylindrical cutter)

G00 Z5.000000
G00 X65.883261 Y71.727453

G01 Z-0.125000 F1000.0(Penetrate)
G02 X66.356868 Y71.609506 Z-0.125000 I0.000000 J-1.009843 F1100.000000
G02 X67.657833 Y70.674476 Z-0.125000 I-2.790706 J-5.255452
G00 Z5.000000

(End cutting path id: path5102)


(Start cutting path id: path5100)
(Change tool to Cylindrical cutter)

G00 Z5.000000
G00 X67.657833 Y70.674476

G01 Z-0.125000 F1000.0(Penetrate)
G01 X68.094378 Y70.261048 Z-0.125000 F1100.000000
G00 Z5.000000

(End cutting path id: path5100)


(Start cutting path id: path5080)
(Change tool to Cylindrical cutter)

G00 Z5.000000
G00 X71.246506 Y72.745503

G01 Z-0.125000 F1000.0(Penetrate)
G03 X71.281548 Y74.571399 Z-0.125000 I-9.111266 J1.088144 F1100.000000
G02 X71.368999 Y74.800417 Z-0.125000 I0.283680 J0.022882
G00 Z5.000000

(End cutting path id: path5080)


(Start cutting path id: path5080)
(Change tool to Cylindrical cutter)

G00 Z5.000000
G00 X73.345354 Y75.412927

G01 Z-0.125000 F1000.0(Penetrate)
G02 X73.988592 Y75.123153 Z-0.125000 I0.000000 J-0.858813 F1100.000000
G02 X74.697762 Y74.107179 Z-0.125000 I-4.048183 J-3.581213
G00 Z5.000000

(End cutting path id: path5080)


(Start cutting path id: path4835)
(Change tool to Cylindrical cutter)

G00 Z5.000000
G00 X75.711167 Y76.715428

G01 Z-0.125000 F1000.0(Penetrate)
G03 X75.443762 Y76.641254 Z-0.125000 I0.000000 J-0.519094 F1100.000000
G03 X74.378594 Y75.963383 Z-0.125000 I12.711215 J-21.149515
G02 X73.533933 Y75.500376 Z-0.125000 I-2.961704 J4.401058
G02 X73.113881 Y75.412926 Z-0.125000 I-0.420052 J0.965102
G02 X72.152019 Y75.102225 Z-0.125000 I-43.332143 J132.502380
G03 X71.263810 Y74.760826 Z-0.125000 I2.488488 J-7.800369
G02 X70.501966 Y74.518632 Z-0.125000 I-1.377151 J3.012627
G02 X69.070604 Y74.346212 Z-0.125000 I-2.001257 J10.586152
G01 X67.615821 Y74.269151 Z-0.125000
G01 X67.615821 Y74.672235 Z-0.125000
G03 X67.472633 Y75.123506 Z-0.125000 I-0.782707 J-0.000000
G03 X67.202000 Y75.311030 Z-0.125000 I-0.391907 J-0.276545
G00 Z5.000000

(End cutting path id: path4835)


(Start cutting path id: path4837)
(Change tool to Cylindrical cutter)

G00 Z5.000000
G00 X61.825865 Y75.044722

G01 Z-0.125000 F1000.0(Penetrate)
G02 X61.485724 Y75.248459 Z-0.125000 I0.073185 J0.507984 F1100.000000
G02 X61.402228 Y75.620240 Z-0.125000 I0.381745 J0.281000
G02 X62.325942 Y78.284511 Z-0.125000 I9.844849 J-1.920988
G02 X64.430553 Y81.512189 Z-0.125000 I16.657689 J-8.561670
G02 X67.569096 Y84.728647 Z-0.125000 I18.948840 J-15.350337
G02 X69.581744 Y85.898615 Z-0.125000 I4.242671 J-4.982373
G03 X70.522582 Y86.248017 Z-0.125000 I-21.787820 J60.109556
G03 X71.390393 Y86.586501 Z-0.125000 I-19.578395 J51.477209
G02 X74.412348 Y87.452232 Z-0.125000 I5.767727 J-14.425901
G02 X76.749638 Y87.548803 Z-0.125000 I1.520517 J-8.467996
G02 X77.223650 Y87.359801 Z-0.125000 I-0.086341 J-0.905445
G02 X77.366801 Y87.066101 Z-0.125000 I-0.229712 J-0.293700
G02 X76.852398 Y85.416044 Z-0.125000 I-9.438832 J2.037335
G03 X76.359246 Y84.081538 Z-0.125000 I17.377484 J-7.180023
G02 X74.312532 Y80.052290 Z-0.125000 I-13.923527 J4.538202
G02 X71.927821 Y77.938381 Z-0.125000 I-5.905550 J4.260024
G03 X70.477951 Y77.098579 Z-0.125000 I19.920824 J-36.063587
G03 X70.374467 Y76.995942 Z-0.125000 I0.161704 J-0.266526
G02 X70.270131 Y76.895596 Z-0.125000 I-0.247600 J0.153032
G02 X69.230775 Y76.349280 Z-0.125000 I-9.425209 J16.669461
G03 X68.180095 Y75.808795 Z-0.125000 I11.847831 J-24.323163
G03 X67.930368 Y75.644009 Z-0.125000 I0.827160 J-1.525144
G02 X67.674161 Y75.498852 Z-0.125000 I-0.595222 J0.751899
G02 X66.971386 Y75.281593 Z-0.125000 I-2.115437 J5.597602
G02 X64.431925 Y74.918120 Z-0.125000 I-3.153789 J12.981541
G02 X61.825865 Y75.044722 Z-0.125000 I-0.635484 J13.804577
G01 X61.825865 Y75.044722 Z-0.125000
G00 Z5.000000

(End cutting path id: path4837)


(Start cutting path id: path4837)
(Change tool to Cylindrical cutter)

G00 Z5.000000
G00 X54.675948 Y75.530882

G01 Z-0.125000 F1000.0(Penetrate)
G03 X54.575223 Y76.275438 Z-0.125000 I-16.065673 J-1.794314 F1100.000000
G03 X54.244511 Y78.243851 Z-0.125000 I-112.676306 J-17.918658
G02 X54.856140 Y85.428376 Z-0.125000 I13.802482 J2.443272
G02 X58.712602 Y90.674724 Z-0.125000 I10.756480 J-3.866254
G02 X61.416431 Y92.555992 Z-0.125000 I24.736435 J-32.668478
G02 X61.898398 Y92.706330 Z-0.125000 I0.517614 J-0.811681
G02 X62.049086 Y92.582104 Z-0.125000 I0.005441 J-0.146907
G02 X62.584982 Y88.309355 Z-0.125000 I-70.620972 J-11.027393
G02 X61.311080 Y80.975889 Z-0.125000 I-16.278114 J-0.949694
G02 X56.370740 Y75.242136 Z-0.125000 I-11.452791 J4.872766
G02 X55.565177 Y74.860053 Z-0.125000 I-2.794853 J4.852278
G02 X55.171878 Y74.786515 Z-0.125000 I-0.400632 J1.054172
G02 X54.893285 Y74.934506 Z-0.125000 I-0.002153 J0.332169
G02 X54.675948 Y75.530882 Z-0.125000 I1.119180 J0.745651
G01 X54.675948 Y75.530882 Z-0.125000
G00 Z5.000000

(End cutting path id: path4837)


(Start cutting path id: path4837)
(Change tool to Cylindrical cutter)

G00 Z5.000000
G00 X51.070198 Y85.356922

G01 Z-0.125000 F1000.0(Penetrate)
G02 X49.427595 Y88.668834 Z-0.125000 I16.141162 J10.068800 F1100.000000
G02 X48.447663 Y92.259302 Z-0.125000 I18.024118 J6.848208
G02 X48.653474 Y96.866665 Z-0.125000 I10.681843 J1.831118
G02 X50.891499 Y101.481011 Z-0.125000 I12.953827 J-3.432883
G02 X51.560391 Y101.766223 Z-0.125000 I0.581432 J-0.436638
G02 X52.189550 Y101.323737 Z-0.125000 I-0.097859 J-0.807679
G03 X52.539968 Y100.663321 Z-0.125000 I14.962908 J7.516176
G03 X53.268469 Y99.395590 Z-0.125000 I55.885282 J31.271274
G02 X55.051208 Y94.073443 Z-0.125000 I-11.607809 J-6.847874
G02 X54.408205 Y89.392702 Z-0.125000 I-9.488323 J-1.081105
G02 X53.206947 Y86.956041 Z-0.125000 I-17.601396 J7.162934
G02 X51.967072 Y85.222217 Z-0.125000 I-10.096281 J5.909719
G01 X51.495251 Y84.675528 Z-0.125000
G01 X51.070198 Y85.356922 Z-0.125000
G00 Z5.000000

(End cutting path id: path4837)


(Start cutting path id: path4837)
(Change tool to Cylindrical cutter)

G00 Z5.000000
G00 X56.483375 Y94.167793

G01 Z-0.125000 F1000.0(Penetrate)
G02 X55.543508 Y99.458259 Z-0.125000 I37.366325 J9.366953 F1100.000000
G02 X55.658763 Y101.916543 Z-0.125000 I8.035362 J0.855111
G02 X56.827235 Y104.932139 Z-0.125000 I9.370993 J-1.896862
G02 X59.382591 Y108.134362 Z-0.125000 I13.162797 J-7.883146
G02 X61.224996 Y109.480475 Z-0.125000 I5.975657 J-6.244900
G02 X61.651532 Y109.369784 Z-0.125000 I0.154158 J-0.283122
G03 X62.753399 Y105.351598 Z-0.125000 I184.869526 J48.534737
G02 X63.225837 Y101.877892 Z-0.125000 I-11.795498 J-3.373215
G02 X62.857901 Y99.086652 Z-0.125000 I-13.014252 J0.295644
G02 X61.943463 Y96.624271 Z-0.125000 I-11.007975 J2.686975
G02 X59.758568 Y94.469767 Z-0.125000 I-5.828502 J3.725608
G02 X56.945166 Y92.870287 Z-0.125000 I-22.559191 J36.406383
G02 X56.857108 Y92.932414 Z-0.125000 I-0.000000 J0.093468
G02 X56.483375 Y94.167793 Z-0.125000 I12.630351 J4.495227
G01 X56.483375 Y94.167793 Z-0.125000
G00 Z5.000000

(End cutting path id: path4837)


(Start cutting path id: path4835)
(Change tool to Cylindrical cutter)

G00 Z5.000000
G00 X63.103914 Y100.217252

G01 Z-0.125000 F1000.0(Penetrate)
G01 X67.784657 Y99.303263 Z-0.125000 F1100.000000
G02 X65.906955 Y96.836320 Z-0.125000 I-32.575839 J22.846880
G03 X64.735819 Y94.706871 Z-0.125000 I5.049534 J-4.163869
G01 X64.293560 Y93.342107 Z-0.125000
G01 X63.634901 Y93.359339 Z-0.125000
G02 X62.979341 Y93.404439 Z-0.125000 I0.202215 J7.726525
G02 X62.322585 Y93.505892 Z-0.125000 I0.877066 J7.854170
G02 X61.680594 Y93.672816 Z-0.125000 I1.090584 J5.512385
G02 X60.890712 Y93.969991 Z-0.125000 I2.804432 J8.652425
G01 X59.608528 Y94.506359 Z-0.125000
G00 Z5.000000

(End cutting path id: path4835)


(Start cutting path id: path4837)
(Change tool to Cylindrical cutter)

G00 Z5.000000
G00 X64.390859 Y86.359050

G01 Z-0.125000 F1000.0(Penetrate)
G02 X63.944084 Y88.376627 Z-0.125000 I5.586584 J2.295356 F1100.000000
G02 X64.293560 Y93.342107 Z-0.125000 I21.431012 J0.986697
G00 Z5.000000

(End cutting path id: path4837)


(Start cutting path id: path4837)
(Change tool to Cylindrical cutter)

G00 Z5.000000
G00 X67.784657 Y99.303263

G01 Z-0.125000 F1000.0(Penetrate)
G02 X68.536491 Y99.887072 Z-0.125000 I1.735751 J-1.459303 F1100.000000
G03 X69.490190 Y100.550728 Z-0.125000 I-1.590509 J3.302699
G00 Z5.000000

(End cutting path id: path4837)


(Start cutting path id: path4835)
(Change tool to Cylindrical cutter)

G00 Z5.000000
G00 X70.760914 Y100.434345

G01 Z-0.125000 F1000.0(Penetrate)
G02 X68.066356 Y101.051936 Z-0.125000 I1.348956 J12.072488 F1100.000000
G02 X65.870859 Y102.160506 Z-0.125000 I3.200676 J9.067214
G02 X63.448852 Y104.094427 Z-0.125000 I11.162869 J16.463773
G02 X63.216470 Y104.642262 Z-0.125000 I0.500796 J0.535632
G02 X66.306811 Y106.264002 Z-0.125000 I5.859231 J-7.409876
G02 X69.424470 Y107.110783 Z-0.125000 I14.674331 J-47.864999
G02 X71.297699 Y107.349329 Z-0.125000 I2.073778 J-8.810509
G02 X72.884494 Y107.187463 Z-0.125000 I0.143081 J-6.456060
G03 X73.514683 Y107.048447 Z-0.125000 I8.640586 J37.671877
G03 X73.906773 Y106.970893 Z-0.125000 I3.070490 J14.493409
G02 X76.532914 Y106.143068 Z-0.125000 I-2.019270 J-10.985227
G02 X78.105203 Y105.050783 Z-0.125000 I-2.245706 J-4.910337
G03 X78.350392 Y104.865280 Z-0.125000 I0.791841 J0.791831
G03 X78.512316 Y104.823073 Z-0.125000 I0.161924 J0.289496
G02 X78.669708 Y104.769212 Z-0.125000 I0.000000 J-0.256897
G02 X79.366088 Y104.161233 Z-0.125000 I-4.860333 J-6.269836
G02 X79.911921 Y103.138638 Z-0.125000 I-1.354150 J-1.379780
G02 X79.638583 Y102.711755 Z-0.125000 I-0.363335 J-0.068305
G03 X79.248363 Y102.578568 Z-0.125000 I0.605442 J-2.412106
G03 X77.397432 Y101.732588 Z-0.125000 I24.251505 J-55.508037
G02 X75.532876 Y100.922731 Z-0.125000 I-12.254318 J25.662092
G02 X74.299958 Y100.516886 Z-0.125000 I-4.235891 J10.792576
G02 X73.030066 Y100.334486 Z-0.125000 I-1.395519 J5.204008
G02 X70.760914 Y100.434345 Z-0.125000 I-0.393778 J16.883653
G01 X70.760914 Y100.434345 Z-0.125000
G00 Z5.000000

(End cutting path id: path4835)


(Start cutting path id: path4837)
(Change tool to Cylindrical cutter)

G00 Z5.000000
G00 X72.841428 Y100.277071

G01 Z-0.125000 F1000.0(Penetrate)
G01 X73.528840 Y97.978925 Z-0.125000 F1100.000000
G00 Z5.000000

(End cutting path id: path4837)


(Start cutting path id: path4837)
(Change tool to Cylindrical cutter)

G00 Z5.000000
G00 X72.723548 Y92.371576

G01 Z-0.125000 F1000.0(Penetrate)
G02 X72.287140 Y91.379467 Z-0.125000 I-2.576352 J0.541245 F1100.000000
G02 X71.394690 Y90.233673 Z-0.125000 I-14.762152 J10.577665
G00 Z5.000000

(End cutting path id: path4837)


(Start cutting path id: path4835)
(Change tool to Cylindrical cutter)

G00 Z5.000000
G00 X73.303887 Y92.191862

G01 Z-0.125000 F1000.0(Penetrate)
G02 X72.777991 Y92.356396 Z-0.125000 I0.137231 J1.361349 F1100.000000
G02 X72.720124 Y92.515315 Z-0.125000 I0.062467 J0.112741
G03 X73.023636 Y93.672446 Z-0.125000 I-5.092835 J1.954205
G03 X73.469427 Y97.588492 Z-0.125000 I-58.560748 J8.649785
G02 X73.681040 Y98.025846 Z-0.125000 I0.668568 J-0.053613
G02 X74.693144 Y98.727452 Z-0.125000 I2.936020 J-3.154553
G02 X76.992327 Y99.506461 Z-0.125000 I3.993733 J-8.004762
G02 X80.512274 Y99.850069 Z-0.125000 I3.596679 J-18.643536
G02 X82.777551 Y99.757979 Z-0.125000 I0.102648 J-25.382345
G02 X83.697074 Y99.577733 Z-0.125000 I-0.369434 J-4.320241
G02 X84.542810 Y99.253061 Z-0.125000 I-2.082090 J-6.687491
G02 X84.601396 Y99.161612 Z-0.125000 I-0.042080 J-0.091449
G02 X84.567366 Y99.037272 Z-0.125000 I-0.244169 J0.000000
G02 X83.840258 Y97.875266 Z-0.125000 I-23.757616 J14.057470
G03 X83.083798 Y96.720475 Z-0.125000 I143.113873 J-94.573730
G03 X82.671764 Y96.075713 Z-0.125000 I44.174606 J-28.683779
G02 X80.718383 Y93.871572 Z-0.125000 I-7.645290 J4.807854
G02 X78.229365 Y92.469640 Z-0.125000 I-5.355120 J6.597097
G02 X76.511587 Y92.121081 Z-0.125000 I-2.061991 J5.754877
G02 X73.303887 Y92.191862 Z-0.125000 I-1.153361 J20.450951
G01 X73.303887 Y92.191862 Z-0.125000
G00 Z5.000000

(End cutting path id: path4835)


(Start cutting path id: path4835)
(Change tool to Cylindrical cutter)

G00 Z5.000000
G00 X78.349759 Y86.732210

G01 Z-0.125000 F1000.0(Penetrate)
G02 X78.510764 Y88.489453 Z-0.125000 I1.928088 J0.709340 F1100.000000
G02 X80.927315 Y91.883820 Z-0.125000 I21.505772 J-12.753210
G02 X84.028596 Y95.118722 Z-0.125000 I27.519639 J-23.278869
G02 X85.172962 Y95.919891 Z-0.125000 I3.555235 J-3.860320
G02 X87.955380 Y96.869236 Z-0.125000 I4.868123 J-9.715743
G02 X92.071905 Y97.269072 Z-0.125000 I4.127817 J-21.107274
G02 X93.695814 Y97.085178 Z-0.125000 I0.003582 J-7.230450
G02 X93.880555 Y96.853136 Z-0.125000 I-0.053357 J-0.232043
G02 X92.028198 Y93.970628 Z-0.125000 I-47.751702 J28.649761
G02 X89.935188 Y91.454824 Z-0.125000 I-14.683837 J10.087610
G02 X88.487225 Y90.144210 Z-0.125000 I-16.303215 J16.556586
G02 X87.259581 Y89.230256 Z-0.125000 I-9.122823 J10.972504
G02 X81.376275 Y86.533271 Z-0.125000 I-11.489066 J17.297161
G02 X78.349759 Y86.732210 Z-0.125000 I-1.231156 J4.391180
G01 X78.349759 Y86.732210 Z-0.125000
G00 Z5.000000

(End cutting path id: path4835)


(Start cutting path id: path4835)
(Change tool to Cylindrical cutter)

G00 Z5.000000
G00 X76.546881 Y84.489184

G01 Z-0.125000 F1000.0(Penetrate)
G01 X77.312792 Y84.681860 Z-0.125000 F1100.000000
G02 X78.640500 Y84.869282 Z-0.125000 I1.540968 J-6.119825
G02 X78.777505 Y84.731381 Z-0.125000 I0.004482 J-0.132555
G02 X78.760912 Y84.615281 Z-0.125000 I-0.557429 J0.020430
G02 X78.408131 Y83.266474 Z-0.125000 I-79.111615 J19.971110
G02 X77.969477 Y81.925325 Z-0.125000 I-13.167788 J3.564523
G02 X77.291886 Y80.847418 Z-0.125000 I-3.091452 J1.191413
G00 Z5.000000

(End cutting path id: path4835)


(Start cutting path id: path4837)
(Change tool to Cylindrical cutter)

G00 Z5.000000
G00 X75.711167 Y76.715428

G01 Z-0.125000 F1000.0(Penetrate)
G03 X75.143010 Y77.732984 Z-0.125000 I-4.749105 J-1.984285 F1100.000000
G02 X75.007693 Y78.153468 Z-0.125000 I0.585648 J0.420484
G02 X75.077559 Y78.361396 Z-0.125000 I0.344339 J0.000000
G02 X76.292308 Y79.849210 Z-0.125000 I21.044173 J-15.942033
G02 X78.336664 Y81.717815 Z-0.125000 I9.544104 J-8.389150
G02 X80.984096 Y83.279517 Z-0.125000 I9.236846 J-12.633665
G01 X82.163653 Y83.827060 Z-0.125000
G02 X88.639260 Y84.126584 Z-0.125000 I5.851566 J-56.358890
G02 X89.618891 Y82.277416 Z-0.125000 I-0.013118 J-1.191022
G03 X86.716908 Y79.171962 Z-0.125000 I19.770626 J-21.383888
G02 X84.009436 Y77.288592 Z-0.125000 I-4.573764 J3.687324
G02 X79.226938 Y75.510283 Z-0.125000 I-16.947867 J38.258725
G02 X75.711167 Y76.715428 Z-0.125000 I-0.923086 J3.037936
G01 X75.711167 Y76.715428 Z-0.125000
G00 Z5.000000

(End cutting path id: path4837)


(Start cutting path id: path5084)
(Change tool to Cylindrical cutter)

G00 Z5.000000
G00 X78.421232 Y73.949558

G01 Z-0.125000 F1000.0(Penetrate)
G02 X78.585403 Y74.286285 Z-0.125000 I0.606458 J-0.087294 F1100.000000
G02 X79.877635 Y75.046002 Z-0.125000 I1.992437 J-1.910151
G03 X81.199810 Y75.423481 Z-0.125000 I-8.069397 J30.768557
G03 X82.054148 Y75.718597 Z-0.125000 I-4.058351 J13.132801
G02 X83.796529 Y76.010861 Z-0.125000 I1.594709 J-4.167243
G02 X84.813795 Y74.885894 Z-0.125000 I-0.034901 J-1.053982
G02 X83.407320 Y72.703121 Z-0.125000 I-2.677337 J0.180629
G03 X83.238651 Y72.542709 Z-0.125000 I0.208961 J-0.388600
G03 X82.947474 Y71.985573 Z-0.125000 I4.342116 J-2.623986
G02 X82.635902 Y71.964669 Z-0.125000 I-0.161315 J0.071960
G00 Z5.000000

(End cutting path id: path5084)


(Start cutting path id: path5096)
(Change tool to Cylindrical cutter)

G00 Z5.000000
G00 X81.479599 Y68.754455

G01 Z-0.125000 F1000.0(Penetrate)
G02 X81.841682 Y68.545810 Z-0.125000 I0.084344 J-0.272131 F1100.000000
G02 X81.972053 Y67.390409 Z-0.125000 I-5.054620 J-1.155401
G02 X81.838009 Y66.770895 Z-0.125000 I-1.498631 J0.000000
G02 X81.432675 Y66.296409 Z-0.125000 I-1.025253 J0.465458
G02 X80.245294 Y65.570469 Z-0.125000 I-11.226594 J17.028687
G02 X80.109964 Y65.649413 Z-0.125000 I-0.044639 J0.078945
G03 X80.083457 Y65.925391 Z-0.125000 I-1.449932 J0.000000
G02 X80.125241 Y66.839501 Z-0.125000 I1.911619 J0.370630
G03 X80.213356 Y67.663591 Z-0.125000 I-2.267623 J0.659219
G02 X80.369994 Y67.877003 Z-0.125000 I0.204227 J0.014293
G00 Z5.000000

(End cutting path id: path5096)


(Start cutting path id: path5124)
(Change tool to Cylindrical cutter)

G00 Z5.000000
G00 X76.108608 Y61.556859

G01 Z-0.125000 F1000.0(Penetrate)
G03 X77.582436 Y59.857115 Z-0.125000 I53.261866 J44.693889 F1100.000000
G02 X77.806072 Y59.272314 Z-0.125000 I-0.652798 J-0.584801
G00 Z5.000000

(End cutting path id: path5124)


(Start cutting path id: path5110)
(Change tool to Cylindrical cutter)

G00 Z5.000000
G00 X79.972189 Y59.619949

G01 Z-0.125000 F1000.0(Penetrate)
G01 X79.752593 Y60.575020 Z-0.125000 F1100.000000
G02 X79.598973 Y61.604172 Z-0.125000 I4.450956 J1.190426
G02 X79.586452 Y62.319392 Z-0.125000 I20.420441 J0.715220
G00 Z5.000000

(End cutting path id: path5110)


(Start cutting path id: path5110)
(Change tool to Cylindrical cutter)

G00 Z5.000000
G00 X86.663716 Y61.455225

G01 Z-0.125000 F1000.0(Penetrate)
G02 X86.465495 Y58.885943 Z-0.125000 I-16.714994 J-0.002720 F1100.000000
G02 X86.103349 Y58.595193 Z-0.125000 I-0.340234 J0.052869
G00 Z5.000000

(End cutting path id: path5110)


(Start cutting path id: path4837)
(Change tool to Cylindrical cutter)

G00 Z5.000000
