%
(Header)
(Generated by gcodetools from Inkscape.)
(Using default header. To add your own header create file "header" in the output dir.)
M3
(Header end.)
G21 (All units in mm)

(Start cutting path id: path847)
(Change tool to Cylindrical cutter)

G00 Z5.000000
G00 X86.505239 Y2.987220

G01 Z-0.125000 F1000.0(Penetrate)
G02 X80.956753 Y4.588177 Z-0.125000 I10.764369 J47.721677 F700.000000
G02 X75.192136 Y6.988650 Z-0.125000 I19.074031 J53.927289
G02 X71.626865 Y9.059101 Z-0.125000 I11.645885 J24.158840
G02 X70.533534 Y10.196800 Z-0.125000 I2.227981 J3.235291
G03 X70.083125 Y10.785045 Z-0.125000 I-3.478277 J-2.196699
G03 X69.892416 Y10.893850 Z-0.125000 I-0.265954 J-0.244617
G03 X68.851095 Y11.055301 Z-0.125000 I-1.962793 J-9.220695
G03 X58.654281 Y11.997570 Z-0.125000 I-86.962357 J-885.423890
G03 X57.257338 Y12.065785 Z-0.125000 I-1.605206 J-18.534567
G03 X53.599838 Y12.054170 Z-0.125000 I-1.424657 J-127.255648
G01 X49.940526 Y11.989870 Z-0.125000
G01 X49.259429 Y11.267500 Z-0.125000
G02 X48.075391 Y10.382475 Z-0.125000 I-3.125510 J2.946939
G02 X45.272730 Y9.247640 Z-0.125000 I-8.122715 J16.032144
G02 X41.845898 Y8.354911 Z-0.125000 I-11.480678 J37.046274
G02 X34.252815 Y6.908290 Z-0.125000 I-38.372059 J180.758069
G01 X31.605065 Y6.461010 Z-0.125000
G01 X30.739151 Y6.672920 Z-0.125000
G02 X29.962842 Y7.001504 Z-0.125000 I0.627463 J2.563782
G02 X29.596294 Y7.390680 Z-0.125000 I0.564563 J0.898943
G02 X29.489849 Y8.600120 Z-0.125000 I1.326306 J0.726134
G02 X30.525713 Y10.145930 Z-0.125000 I3.365481 J-1.135267
G02 X32.822916 Y11.917282 Z-0.125000 I16.270087 J-18.724834
G02 X35.912161 Y13.818030 Z-0.125000 I21.845238 J-32.043786
G03 X37.308957 Y14.599413 Z-0.125000 I-73.800770 J133.565015
G03 X37.365608 Y14.641140 Z-0.125000 I-0.145342 J0.256645
G01 X37.366743 Y14.687509 Z-0.125000
G03 X37.003908 Y15.015900 Z-0.125000 I-2.608948 J-2.517955
G02 X35.210419 Y16.762167 Z-0.125000 I7.471217 J9.467379
G02 X33.885533 Y18.757690 Z-0.125000 I8.483250 J7.069855
G02 X32.832355 Y22.298263 Z-0.125000 I8.762702 J4.533476
G02 X33.128320 Y26.243530 Z-0.125000 I11.260321 J1.139012
G02 X33.476364 Y27.399249 Z-0.125000 I13.943795 J-3.568897
G02 X36.127970 Y34.875430 Z-0.125000 I587.174846 J-204.047261
G03 X38.855888 Y43.204726 Z-0.125000 I-134.190552 J48.559943
G03 X39.786979 Y47.328270 Z-0.125000 I-31.851810 J9.358993
G03 X40.252011 Y51.071300 Z-0.125000 I-53.591951 J8.558636
G03 X40.190294 Y51.855630 Z-0.125000 I-2.351973 J0.209523
G03 X40.089560 Y52.118614 Z-0.125000 I-1.141712 J-0.286538
G03 X39.198533 Y53.734360 Z-0.125000 I-44.691226 J-23.592085
G02 X35.212018 Y62.364768 Z-0.125000 I46.089357 J26.525285
G02 X33.131320 Y70.712460 Z-0.125000 I41.009405 J14.654927
G02 X32.861614 Y73.218161 Z-0.125000 I32.718075 J4.789038
G02 X32.561051 Y78.951250 Z-0.125000 I171.182073 J11.848821
G03 X32.367799 Y83.340053 Z-0.125000 I-262.691401 J-9.368437
G03 X32.288943 Y84.143320 Z-0.125000 I-8.861552 J-0.464424
G02 X32.252922 Y84.925675 Z-0.125000 I3.988000 J0.575619
G02 X32.343363 Y85.202580 Z-0.125000 I0.556691 J-0.028600
G02 X32.549961 Y85.393921 Z-0.125000 I0.488077 J-0.319790
G02 X32.814169 Y85.461860 Z-0.125000 I0.264208 J-0.479768
G03 X33.412522 Y85.647876 Z-0.125000 I-0.000000 J1.055360
G03 X33.738204 Y86.097850 Z-0.125000 I-0.470225 J0.683187
G02 X34.174397 Y86.807142 Z-0.125000 I1.518119 J-0.444827
G02 X34.711602 Y87.010360 Z-0.125000 I0.514760 J-0.549108
G03 X35.516905 Y87.106886 Z-0.125000 I0.081410 J2.728328
G03 X35.750735 Y87.296200 Z-0.125000 I-0.099590 J0.362072
G02 X36.531417 Y88.007617 Z-0.125000 I1.353742 J-0.701491
G02 X37.342271 Y87.941710 Z-0.125000 I0.339974 J-0.838222
G03 X37.851352 Y87.820587 Z-0.125000 I0.441073 J0.723439
G03 X38.493336 Y88.034410 Z-0.125000 I-0.113704 J1.412047
G02 X39.302074 Y88.228007 Z-0.125000 I0.689146 J-1.092836
G02 X40.043918 Y87.890260 Z-0.125000 I-0.114900 J-1.235955
G01 X40.654808 Y87.307570 Z-0.125000
G01 X40.968594 Y87.469830 Z-0.125000
G02 X41.602653 Y87.652222 Z-0.125000 I0.773557 J-1.495849
G02 X41.969355 Y87.553030 Z-0.125000 I0.046252 J-0.556435
G02 X42.064602 Y87.464153 Z-0.125000 I-0.269944 J-0.384766
G02 X42.323881 Y87.115400 Z-0.125000 I-4.053966 J-3.284661
G03 X45.928710 Y82.350229 Z-0.125000 I49.414099 J33.635427
G03 X46.568737 Y82.051590 Z-0.125000 I0.640027 J0.536516
G03 X47.038521 Y82.262772 Z-0.125000 I-0.000000 J0.628119
G03 X48.959266 Y84.745100 Z-0.125000 I-17.445826 J15.483284
G03 X49.904098 Y86.339095 Z-0.125000 I-13.710184 J9.203658
G03 X51.366561 Y89.381170 Z-0.125000 I-48.628252 J25.250372
G02 X52.286701 Y91.374334 Z-0.125000 I66.101159 J-29.306495
G02 X53.872619 Y94.600000 Z-0.125000 I174.755174 J-83.916721
G01 X55.488670 Y97.811410 Z-0.125000
G01 X56.642715 Y98.970730 Z-0.125000
G03 X57.791242 Y100.135062 Z-0.125000 I-127.168412 J126.590827
G03 X57.913994 Y100.271300 Z-0.125000 I-1.614111 J1.577752
G03 X57.992285 Y100.430445 Z-0.125000 I-0.292472 J0.242710
G03 X58.289643 Y101.937980 Z-0.125000 I-27.827519 J6.272017
G02 X60.951801 Y110.954608 Z-0.125000 I38.947240 J-6.597853
G02 X65.939969 Y119.715870 Z-0.125000 I41.726389 J-17.956027
G02 X71.425306 Y126.003895 Z-0.125000 I38.153275 J-27.746308
G02 X77.915997 Y131.211100 Z-0.125000 I32.488039 J-33.846909
G02 X82.734597 Y133.967929 Z-0.125000 I22.754879 J-34.183176
G02 X84.366596 Y134.343190 Z-0.125000 I1.631999 J-3.361123
G01 X84.782445 Y134.343190 Z-0.125000
G01 X84.858115 Y133.542280 Z-0.125000
G02 X84.824724 Y132.371095 Z-0.125000 I-4.765112 J-0.450213
G02 X84.224324 Y129.382720 Z-0.125000 I-32.023849 J4.879470
G02 X81.157756 Y120.529414 Z-0.125000 I-51.646107 J12.931202
G02 X76.276650 Y111.659380 Z-0.125000 I-56.724150 J25.436793
G02 X73.673806 Y108.040159 Z-0.125000 I-47.809816 J31.637945
G02 X71.279579 Y105.252110 Z-0.125000 I-30.720626 J23.959184
G01 X69.620688 Y103.495280 Z-0.125000
G01 X70.157219 Y103.426980 Z-0.125000
G03 X70.694345 Y103.364054 Z-0.125000 I3.485529 J27.428048
G03 X71.882196 Y103.242060 Z-0.125000 I14.152272 J131.956074
G02 X77.232299 Y102.170021 Z-0.125000 I-2.672026 J-27.221066
G02 X82.733219 Y99.913120 Z-0.125000 I-9.525706 J-31.050107
G02 X87.664519 Y96.674813 Z-0.125000 I-13.661940 J-26.178277
G02 X91.242959 Y93.015830 Z-0.125000 I-13.993083 J-17.264387
G03 X92.171672 Y92.018269 Z-0.125000 I5.941746 J4.600583
G03 X92.966704 Y91.472250 Z-0.125000 I2.510259 J2.803251
G02 X95.722040 Y89.992805 Z-0.125000 I-36.638116 J-71.540761
G02 X97.896856 Y88.700160 Z-0.125000 I-25.777345 J-45.845048
G02 X109.765782 Y78.228763 Z-0.125000 I-25.981541 J-41.411264
G02 X116.805350 Y65.568330 Z-0.125000 I-31.704235 J-25.915792
G02 X117.789603 Y62.409042 Z-0.125000 I-56.661453 J-19.385428
G02 X117.737810 Y62.255540 Z-0.125000 I-0.138132 J-0.038882
G01 X117.712215 Y62.249797 Z-0.125000
G02 X116.406490 Y62.565540 Z-0.125000 I19.425050 J83.188172
G03 X115.101175 Y62.837148 Z-0.125000 I-4.048577 J-16.184574
G03 X114.894660 Y62.817560 Z-0.125000 I-0.066404 J-0.398340
G03 X114.736705 Y62.688671 Z-0.125000 I0.109269 J-0.295143
G03 X113.058740 Y59.866580 Z-0.125000 I69.271133 J-43.097264
G02 X106.058732 Y47.628334 Z-0.125000 I-1881.692086 J1068.165502
G02 X105.903460 Y47.450920 Z-0.125000 I-0.524125 J0.302059
G02 X105.714085 Y47.369234 Z-0.125000 I-0.255739 J0.332525
G02 X105.417020 Y47.373020 Z-0.125000 I-0.137609 J0.858881
G03 X105.106739 Y47.429455 Z-0.125000 I-6.492639 J-34.815247
G03 X104.723840 Y47.495930 Z-0.125000 I-9.500982 J-53.590427
G01 X104.340690 Y47.561030 Z-0.125000
G01 X104.401190 Y47.188010 Z-0.125000
G02 X104.413591 Y46.820666 Z-0.125000 I-1.430285 J-0.232164
G02 X104.337790 Y46.515680 Z-0.125000 I-1.045691 J0.097982
G03 X104.317937 Y46.220170 Z-0.125000 I0.427710 J-0.177157
G03 X104.642430 Y45.363870 Z-0.125000 I4.275965 J1.130736
G02 X104.925110 Y44.268050 Z-0.125000 I-2.386869 J-1.200092
G02 X104.699530 Y43.901870 Z-0.125000 I-0.385552 J-0.015060
G03 X104.458782 Y43.640902 Z-0.125000 I0.189850 J-0.416672
G03 X104.443780 Y43.194580 Z-0.125000 I0.681167 J-0.246309
G02 X104.478467 Y42.450928 Z-0.125000 I-1.548475 J-0.444862
G02 X104.225840 Y42.039830 Z-0.125000 I-0.665052 J0.125515
G03 X103.501136 Y41.342584 Z-0.125000 I2.770806 J-3.605165
G03 X103.338090 Y40.972700 Z-0.125000 I0.564764 J-0.469828
G02 X102.949386 Y40.150709 Z-0.125000 I-1.498733 J0.205822
G02 X102.096990 Y39.632320 Z-0.125000 I-1.336334 J1.237357
G03 X101.932089 Y39.512333 Z-0.125000 I0.076872 J-0.278955
G03 X101.653280 Y38.957490 Z-0.125000 I2.241601 J-1.473876
G02 X101.223786 Y38.156584 Z-0.125000 I-3.003734 J1.095169
G02 X100.968250 Y38.027430 Z-0.125000 I-0.255536 J0.188217
G02 X100.826977 Y38.049176 Z-0.125000 I-0.000000 J0.469772
G02 X100.123050 Y38.293940 Z-0.125000 I3.840720 J12.180276
G03 X99.133319 Y38.502502 Z-0.125000 I-1.157279 J-3.039207
G03 X96.942891 Y38.458000 Z-0.125000 I-0.786091 J-15.237608
G02 X95.494199 Y38.371415 Z-0.125000 I-2.054440 J22.211073
G02 X93.098753 Y38.353480 Z-0.125000 I-1.653494 J60.865366
G03 X90.712415 Y38.355032 Z-0.125000 I-1.260285 J-103.213070
G03 X90.646053 Y38.327280 Z-0.125000 I0.001044 J-0.095719
G03 X90.616298 Y38.260902 Z-0.125000 I0.072027 J-0.072146
G03 X90.523259 Y36.160300 Z-0.125000 I85.043726 J-4.819079
G02 X90.409329 Y34.065670 Z-0.125000 I-46.781955 J1.494117
G02 X90.350629 Y33.915570 Z-0.125000 I-0.275413 J0.021179
G02 X90.229506 Y33.799297 Z-0.125000 I-0.482435 J0.381334
G02 X87.528819 Y31.866680 Z-0.125000 I-141.264239 J194.552836
G03 X84.863597 Y29.916963 Z-0.125000 I54.779148 J-77.678440
G03 X84.775195 Y29.777920 Z-0.125000 I0.143038 J-0.188566
G03 X84.769709 Y29.605085 Z-0.125000 I0.474385 J-0.101561
G03 X84.931358 Y28.726510 Z-0.125000 I12.806675 J1.902137
G02 X86.422555 Y21.784299 Z-0.125000 I-710.050956 J-156.151200
G02 X86.567445 Y20.924410 Z-0.125000 I-10.732064 J-2.250493
G02 X86.647404 Y18.760164 Z-0.125000 I-11.920882 J-1.524021
G02 X86.446376 Y18.655000 Z-0.125000 I-0.131697 J0.007026
G01 X86.388142 Y18.638693 Z-0.125000
G03 X86.248239 Y18.266140 Z-0.125000 I1.586017 J-0.808133
G02 X85.609956 Y16.398563 Z-0.125000 I-11.665921 J2.944210
G02 X84.781376 Y14.904370 Z-0.125000 I-8.264644 J3.606185
G03 X84.538789 Y14.496072 Z-0.125000 I3.009700 J-2.064403
G01 X84.557731 Y14.465170 Z-0.125000
G02 X84.592436 Y14.378968 Z-0.125000 I0.000000 J-0.050087
G02 X82.704101 Y12.683870 Z-0.125000 I-25.879426 J26.930271
G01 X81.589881 Y11.750040 Z-0.125000
G01 X82.497415 Y11.080420 Z-0.125000
G03 X83.412121 Y10.420933 Z-0.125000 I30.417123 J41.224373
G03 X84.593394 Y9.604040 Z-0.125000 I47.860372 J67.946200
G02 X89.245680 Y5.705849 Z-0.125000 I-16.895961 J-24.889669
G02 X89.862921 Y4.194730 Z-0.125000 I-1.558471 J-1.518202
G02 X89.743529 Y3.695583 Z-0.125000 I-1.088224 J-0.003557
G02 X89.209101 Y2.916580 Z-0.125000 I-3.282501 J1.679108
G02 X88.730308 Y2.709920 Z-0.125000 I-0.462589 J0.413766
G02 X86.505241 Y2.987180 Z-0.125000 I0.299615 J11.471411
G01 X86.505239 Y2.987220 Z-0.125000
G00 Z5.000000

(End cutting path id: path847)


(Start cutting path id: path847)
(Change tool to Cylindrical cutter)

G00 Z5.000000
G00 X87.781359 Y3.085520

G01 Z-0.125000 F1000.0(Penetrate)
G03 X87.824897 Y3.333012 Z-0.125000 I-0.090998 J0.143584 F700.000000
G03 X86.724197 Y4.454290 Z-0.125000 I-5.259858 J-4.062438
G02 X85.640102 Y5.413968 Z-0.125000 I9.360269 J11.665935
G01 X85.678494 Y5.474420 Z-0.125000
G02 X87.006475 Y4.703188 Z-0.125000 I-1.616581 J-4.312523
G02 X88.179117 Y3.395150 Z-0.125000 I-3.852985 J-4.633809
G03 X88.529883 Y3.105275 Z-0.125000 I0.651431 J0.431109
G03 X88.887883 Y3.099590 Z-0.125000 I0.186133 J0.446339
G03 X89.063956 Y3.261291 Z-0.125000 I-0.114575 J0.301471
G03 X89.099106 Y3.538800 Z-0.125000 I-0.397995 J0.191391
G03 X88.958771 Y3.833175 Z-0.125000 I-0.650018 J-0.129241
G03 X87.717330 Y5.201320 Z-0.125000 I-16.357453 J-13.595275
G02 X87.409615 Y5.734815 Z-0.125000 I0.860502 J0.851821
G02 X87.545948 Y5.830270 Z-0.125000 I0.085308 J0.023245
G02 X89.164843 Y4.463071 Z-0.125000 I-7.105438 J-10.055587
G02 X89.347173 Y4.021600 Z-0.125000 I-0.443298 J-0.441471
G03 X89.378245 Y3.955196 Z-0.125000 I0.086490 J-0.000000
G03 X89.464038 Y3.924100 Z-0.125000 I0.085793 J0.102799
G03 X89.608402 Y4.127830 Z-0.125000 I0.000000 J0.153014
G03 X89.001414 Y5.240970 Z-0.125000 I-3.722213 J-1.307636
G03 X88.184288 Y6.141034 Z-0.125000 I-6.276945 J-4.877600
G03 X85.730166 Y8.332260 Z-0.125000 I-39.990948 J-42.319031
G03 X83.362716 Y10.238244 Z-0.125000 I-43.005944 J-50.994970
G03 X82.319844 Y10.952070 Z-0.125000 I-7.026325 J-9.146482
G01 X81.441428 Y11.485110 Z-0.125000
G01 X80.718027 Y11.420510 Z-0.125000
G01 X79.994625 Y11.355910 Z-0.125000
G01 X80.304654 Y11.566390 Z-0.125000
G02 X80.627579 Y11.735135 Z-0.125000 I0.892393 J-1.314401
G02 X80.854601 Y11.777550 Z-0.125000 I0.228812 J-0.595926
G03 X81.449899 Y11.984840 Z-0.125000 I-0.003396 J0.968192
G03 X83.576853 Y13.919920 Z-0.125000 I-12.437356 J15.807055
G03 X85.193836 Y16.294236 Z-0.125000 I-6.402035 J6.097751
G03 X86.194283 Y19.556970 Z-0.125000 I-11.317576 J5.255039
G03 X86.220463 Y20.658630 Z-0.125000 I-3.994606 J0.646070
G03 X85.781762 Y23.197650 Z-0.125000 I-21.982492 J-2.490805
G02 X85.173978 Y26.076536 Z-0.125000 I67.264421 J15.704304
G02 X84.073050 Y32.240160 Z-0.125000 I307.343846 J58.076991
G02 X83.366685 Y37.802801 Z-0.125000 I68.392055 J11.510849
G02 X83.290193 Y41.334350 Z-0.125000 I27.421715 J2.360547
G02 X83.622357 Y45.886189 Z-0.125000 I75.290865 J-3.206208
G02 X83.799901 Y46.259180 Z-0.125000 I0.614092 J-0.063557
G01 X83.842423 Y46.240911 Z-0.125000
G02 X83.724681 Y43.360960 Z-0.125000 I-96.610949 J2.507401
G03 X83.616653 Y40.895129 Z-0.125000 I102.760940 J-5.737237
G03 X83.639731 Y40.689920 Z-0.125000 I0.720227 J-0.022904
G03 X83.912535 Y40.387846 Z-0.125000 I0.427413 J0.111776
G03 X87.174654 Y39.369330 Z-0.125000 I10.898677 J29.173205
G03 X91.158156 Y38.731824 Z-0.125000 I5.561909 J21.989641
G03 X95.857782 Y38.763630 Z-0.125000 I2.142097 J30.707888
G02 X98.821281 Y38.828023 Z-0.125000 I2.004998 J-24.048693
G02 X100.096740 Y38.595130 Z-0.125000 I-0.183381 J-4.613326
G01 X100.958110 Y38.308270 Z-0.125000
G01 X101.147300 Y38.541910 Z-0.125000
G03 X101.294412 Y38.794316 Z-0.125000 I-0.745187 J0.603398
G03 X101.403120 Y39.192260 Z-0.125000 I-1.779113 J0.699827
G02 X101.705020 Y39.786628 Z-0.125000 I1.074247 J-0.171790
G02 X102.195360 Y39.990890 Z-0.125000 I0.490340 J-0.486411
G03 X102.719297 Y40.237639 Z-0.125000 I0.000000 J0.679628
G03 X103.057310 Y41.034150 Z-0.125000 I-1.169571 J0.966303
G02 X103.283770 Y41.666117 Z-0.125000 I1.450799 J-0.163323
G02 X103.727320 Y42.065650 Z-0.125000 I0.968240 J-0.628937
G03 X104.138943 Y42.513527 Z-0.125000 I-0.396781 J0.777754
G03 X104.204250 Y43.234420 Z-0.125000 I-1.144699 J0.467105
G01 X104.082380 Y43.815440 Z-0.125000
G01 X104.432730 Y44.107930 Z-0.125000
G01 X104.783090 Y44.400410 Z-0.125000
G01 X104.487310 Y45.096380 Z-0.125000
G03 X103.946073 Y45.907149 Z-0.125000 I-2.416150 J-1.026886
G03 X103.515250 Y46.088140 Z-0.125000 I-0.430823 J-0.422262
G02 X103.467393 Y46.164297 Z-0.125000 I0.000000 J0.053115
G02 X103.693260 Y46.457890 Z-0.125000 I0.811820 J-0.390872
G03 X104.071379 Y46.852430 Z-0.125000 I-1.803125 J2.106542
G03 X104.125230 Y47.008260 Z-0.125000 I-0.198542 J0.155830
G03 X103.954538 Y47.382320 Z-0.125000 I-0.495209 J0.000000
G03 X103.273060 Y47.747560 Z-0.125000 I-1.147530 J-1.322721
G02 X102.796983 Y48.032130 Z-0.125000 I0.277387 J1.004574
G02 X101.491860 Y49.611540 Z-0.125000 I10.281404 J9.824835
G03 X98.671026 Y52.820762 Z-0.125000 I-16.997841 J-12.096385
G03 X93.654804 Y56.870700 Z-0.125000 I-32.276709 J-34.846185
G03 X87.864418 Y60.582540 Z-0.125000 I-47.860534 J-68.288986
G03 X86.816721 Y60.866190 Z-0.125000 I-1.047697 J-1.793077
G03 X86.672502 Y60.833880 Z-0.125000 I-0.000000 J-0.338029
G03 X86.159290 Y60.556040 Z-0.125000 I2.247745 J-4.764820
G02 X84.241478 Y59.527312 Z-0.125000 I-9.629576 J15.649979
G02 X81.803124 Y58.541860 Z-0.125000 I-11.262877 J24.358917
G02 X77.450800 Y57.315079 Z-0.125000 I-12.332919 J35.420343
G02 X74.918082 Y57.042500 Z-0.125000 I-2.532718 J11.630316
G01 X74.902005 Y57.134877 Z-0.125000
G02 X75.912569 Y57.399470 Z-0.125000 I1.995489 J-5.559270
G03 X79.513925 Y58.201331 Z-0.125000 I-5.969934 J35.300647
G03 X82.864410 Y59.328170 Z-0.125000 I-8.786115 J31.668699
G03 X85.678296 Y60.575757 Z-0.125000 I-14.549810 J36.613648
G03 X85.702508 Y60.721610 Z-0.125000 I-0.040056 J0.081586
G03 X85.643566 Y60.749186 Z-0.125000 I-0.067415 J-0.067315
G03 X84.219095 Y60.854070 Z-0.125000 I-4.084109 J-45.742198
G02 X82.806271 Y61.020900 Z-0.125000 I0.692331 J11.928874
G02 X82.198103 Y61.215770 Z-0.125000 I0.424287 J2.370600
G02 X80.692222 Y62.445878 Z-0.125000 I1.740190 J3.667110
G02 X79.745077 Y64.483200 Z-0.125000 I4.333716 J3.253556
G02 X79.588962 Y65.947595 Z-0.125000 I5.986206 J1.378692
G02 X79.785387 Y67.372120 Z-0.125000 I5.856325 J-0.081713
G02 X81.004742 Y69.707068 Z-0.125000 I5.801940 J-1.544026
G02 X83.198256 Y71.404050 Z-0.125000 I5.079503 J-4.299596
G02 X84.530440 Y71.873599 Z-0.125000 I2.797949 J-5.813642
G02 X85.864427 Y72.026020 Z-0.125000 I1.324361 J-5.677045
G02 X88.303306 Y71.396014 Z-0.125000 I-0.008215 J-5.067497
G02 X90.193568 Y69.638740 Z-0.125000 I-2.569216 J-4.658944
G01 X90.742301 Y68.795410 Z-0.125000
G01 X90.815971 Y70.075460 Z-0.125000
G02 X91.462254 Y74.483018 Z-0.125000 I25.271526 J-1.454421
G02 X92.941129 Y79.002900 Z-0.125000 I28.065099 J-6.680828
G03 X93.734339 Y81.430690 Z-0.125000 I-14.205218 J5.984617
G03 X93.945937 Y83.239970 Z-0.125000 I-7.629371 J1.809280
G03 X93.923394 Y84.685872 Z-0.125000 I-46.380809 J-0.000000
G03 X93.871797 Y85.616860 Z-0.125000 I-19.269006 J-0.600995
G02 X93.891444 Y86.127246 Z-0.125000 I2.162092 J0.172344
G01 X93.953327 Y86.133570 Z-0.125000
G02 X94.416176 Y83.769638 Z-0.125000 I-6.788308 J-2.556405
G02 X94.087739 Y81.069760 Z-0.125000 I-9.244151 J-0.245374
G03 X93.886751 Y80.239780 Z-0.125000 I13.256347 J-3.649482
G03 X93.866165 Y80.012190 Z-0.125000 I0.963588 J-0.201885
G03 X94.132324 Y79.185545 Z-0.125000 I1.541873 J0.040274
G03 X97.396234 Y74.817510 Z-0.125000 I50.294874 J34.178189
G03 X98.311151 Y73.755444 Z-0.125000 I22.098571 J18.111712
G03 X99.371067 Y72.635670 Z-0.125000 I25.626219 J23.194838
G03 X100.844244 Y71.524557 Z-0.125000 I4.558380 J4.511595
G03 X103.513790 Y70.362540 Z-0.125000 I7.681040 J13.998507
G03 X107.858319 Y69.314143 Z-0.125000 I8.514181 J25.756527
G03 X111.979310 Y69.045680 Z-0.125000 I3.560233 J22.887223
G03 X113.455621 Y69.171031 Z-0.125000 I-0.296549 J12.248823
G03 X113.994500 Y69.340330 Z-0.125000 I-0.257779 J1.762785
G03 X114.355690 Y69.884462 Z-0.125000 I-0.293325 J0.586649
G03 X114.108030 Y71.088080 Z-0.125000 I-2.317088 J0.150519
G03 X107.909607 Y80.003562 Z-0.125000 I-35.482157 J-18.056263
G03 X98.751396 Y87.761070 Z-0.125000 I-35.777376 J-32.952706
G03 X92.965394 Y91.269991 Z-0.125000 I-54.563073 J-83.446423
G03 X92.588668 Y91.218020 Z-0.125000 I-0.154059 J-0.274643
G03 X92.567979 Y91.150065 Z-0.125000 I0.053377 J-0.053377
G03 X92.702831 Y90.638010 Z-0.125000 I4.114741 J0.809848
G02 X92.645595 Y90.396278 Z-0.125000 I-0.224357 J-0.074520
G02 X92.488843 Y90.424140 Z-0.125000 I-0.068644 J0.068682
G03 X91.197488 Y92.565940 Z-0.125000 I-10.458076 J-4.845288
G03 X88.861101 Y95.183570 Z-0.125000 I-18.041957 J-13.752000
G03 X81.824455 Y100.041250 Z-0.125000 I-18.522634 J-19.305822
G03 X72.657270 Y102.885980 Z-0.125000 I-14.473888 J-30.449258
G03 X70.565405 Y103.071709 Z-0.125000 I-2.379823 J-14.930721
G03 X66.766715 Y102.998200 Z-0.125000 I-0.942560 J-49.479956
G02 X65.487891 Y102.985651 Z-0.125000 I-0.770193 J13.321607
G01 X65.474595 Y103.030105 Z-0.125000
G02 X65.623832 Y103.091638 Z-0.125000 I0.207040 J-0.290396
G02 X67.181305 Y103.293790 Z-0.125000 I3.774898 J-22.982789
G03 X68.655749 Y103.479619 Z-0.125000 I-2.351708 J24.601816
G03 X69.008548 Y103.580070 Z-0.125000 I-0.233432 J1.489608
G03 X70.001157 Y104.260818 Z-0.125000 I-1.167378 J2.766214
G03 X73.466491 Y108.197320 Z-0.125000 I-41.008135 J39.593320
G03 X76.363616 Y112.275493 Z-0.125000 I-33.583789 J26.925994
G03 X79.065053 Y117.136500 Z-0.125000 I-45.084819 J28.236404
G03 X82.229833 Y123.811104 Z-0.125000 I-272.214276 J133.158680
G03 X82.319847 Y124.222740 Z-0.125000 I-0.896206 J0.411636
G03 X82.184725 Y124.406087 Z-0.125000 I-0.191953 J0.000000
G03 X80.356329 Y124.831360 Z-0.125000 I-3.860653 J-12.455199
G03 X76.303453 Y124.719031 Z-0.125000 I-1.724965 J-10.933423
G03 X70.731628 Y122.760810 Z-0.125000 I4.939374 J-22.960260
G03 X67.350657 Y120.521339 Z-0.125000 I7.518842 J-15.023225
G03 X65.038622 Y117.906790 Z-0.125000 I8.073377 J-9.468792
G03 X61.572679 Y111.611714 Z-0.125000 I37.490485 J-24.743192
G03 X59.316381 Y105.202920 Z-0.125000 I36.612549 J-16.491490
G03 X58.554069 Y101.840167 Z-0.125000 I54.044248 J-14.019233
G03 X58.447598 Y100.734750 Z-0.125000 I5.685190 J-1.105417
G03 X58.524067 Y100.680158 Z-0.125000 I0.057721 J0.000000
G03 X59.403521 Y101.062990 Z-0.125000 I-1.954687 J5.691947
G02 X60.377397 Y101.517684 Z-0.125000 I4.727096 J-8.854332
G02 X60.824489 Y101.635890 Z-0.125000 I0.694775 J-1.723234
G01 X60.856665 Y101.560329 Z-0.125000
G02 X60.148055 Y101.098360 Z-0.125000 I-2.811504 J3.538094
G03 X59.025036 Y100.468419 Z-0.125000 I11.023738 J-20.968414
G03 X58.339552 Y100.018250 Z-0.125000 I4.925107 J-8.246576
G03 X56.815365 Y98.705086 Z-0.125000 I6.732142 J-9.355126
G03 X55.585984 Y97.191280 Z-0.125000 I7.757382 J-7.555970
G03 X54.321614 Y95.017412 Z-0.125000 I16.033972 J-10.780341
G03 X50.434486 Y86.837170 Z-0.125000 I224.358505 J-111.625465
G02 X49.642510 Y85.182053 Z-0.125000 I-40.227153 J18.231711
G02 X49.262941 Y84.514030 Z-0.125000 I-6.913994 J3.486669
G03 X48.878304 Y83.867316 Z-0.125000 I10.666381 J-6.781636
G01 X48.883468 Y83.830470 Z-0.125000
G01 X48.923050 Y83.818483 Z-0.125000
G03 X49.574498 Y83.967850 Z-0.125000 I-2.231864 J11.229341
G02 X50.238170 Y84.080005 Z-0.125000 I0.973167 J-3.738962
G02 X51.213583 Y84.099580 Z-0.125000 I0.650290 J-8.091726
G02 X52.174787 Y83.976012 Z-0.125000 I-0.221725 J-5.524994
G02 X52.898241 Y83.730540 Z-0.125000 I-0.734315 J-3.352989
G02 X54.595691 Y82.373573 Z-0.125000 I-1.975029 J-4.210760
G02 X55.700204 Y80.124760 Z-0.125000 I-4.881226 J-3.793081
G02 X55.892566 Y78.618239 Z-0.125000 I-5.875124 J-1.515716
G02 X55.704704 Y77.142970 Z-0.125000 I-5.817288 J-0.008816
G02 X54.602177 Y74.897471 Z-0.125000 I-6.044433 J1.574365
G02 X52.436520 Y72.914790 Z-0.125000 I-6.808241 J5.262454
G03 X52.188570 Y72.715784 Z-0.125000 I0.807119 J-1.259587
G03 X52.100463 Y72.580480 Z-0.125000 I0.272112 J-0.273534
G03 X52.096445 Y72.422274 Z-0.125000 I0.220949 J-0.084765
G03 X53.034610 Y69.718910 Z-0.125000 I73.575955 J24.019033
G02 X54.622439 Y65.192079 Z-0.125000 I-148.434069 J-54.606559
G02 X54.786315 Y64.471390 Z-0.125000 I-3.560852 J-1.188670
G02 X54.673307 Y64.437209 Z-0.125000 I-0.059415 J-0.007465
G02 X54.162237 Y65.723320 Z-0.125000 I7.363857 J3.670819
G03 X51.319905 Y73.202785 Z-0.125000 I-55.441967 J-16.789146
G03 X47.725478 Y79.674300 Z-0.125000 I-45.023465 J-20.773090
G03 X46.192885 Y81.836005 Z-0.125000 I-31.627099 J-20.798658
G03 X44.137794 Y84.376740 Z-0.125000 I-45.769575 J-34.919531
G02 X42.738599 Y86.044200 Z-0.125000 I79.759614 J68.348469
G02 X42.290938 Y86.624590 Z-0.125000 I9.201402 J7.559977
G03 X41.581568 Y87.201109 Z-0.125000 I-1.429082 J-1.033719
G03 X41.066405 Y87.171910 Z-0.125000 I-0.229328 J-0.513084
G02 X40.541222 Y87.105440 Z-0.125000 I-0.339546 J0.574789
G02 X39.988569 Y87.483930 Z-0.125000 I0.297222 J1.026714
G03 X39.270039 Y87.867223 Z-0.125000 I-0.778077 J-0.593467
G03 X38.353162 Y87.583630 Z-0.125000 I-0.082701 J-1.356580
G01 X37.958545 Y87.276840 Z-0.125000
G01 X37.455325 Y87.557800 Z-0.125000
G03 X36.944356 Y87.808979 Z-0.125000 I-2.654346 J-4.754375
G03 X36.799149 Y87.838760 Z-0.125000 I-0.145207 J-0.339110
G03 X36.671807 Y87.787661 Z-0.125000 I-0.000000 J-0.184224
G03 X36.264103 Y87.326960 Z-0.125000 I2.560081 J-2.676329
G02 X35.533110 Y86.741643 Z-0.125000 I-1.491354 J1.113405
G02 X34.858519 Y86.697810 Z-0.125000 I-0.396239 J0.885238
G03 X34.460777 Y86.723655 Z-0.125000 I-0.255018 J-0.851137
G03 X34.243813 Y86.597770 Z-0.125000 I0.056527 J-0.347338
G03 X34.097181 Y86.355397 Z-0.125000 I0.808299 J-0.654550
G03 X34.058607 Y86.168690 Z-0.125000 I0.432563 J-0.186707
G02 X33.914624 Y85.617965 Z-0.125000 I-1.125236 J-0.000000
G02 X33.547616 Y85.258240 Z-0.125000 I-0.799743 J0.448852
G02 X33.340457 Y85.185117 Z-0.125000 I-0.342414 J0.640063
G02 X32.986398 Y85.151840 Z-0.125000 I-0.354059 J1.866909
G03 X32.646654 Y85.111177 Z-0.125000 I0.000000 J-1.439635
G03 X32.560034 Y85.048330 Z-0.125000 I0.033260 J-0.136957
G03 X32.393040 Y84.399982 Z-0.125000 I0.958990 J-0.592686
G03 X33.134754 Y73.422400 Z-0.125000 I304.093411 J15.032605
G03 X35.292854 Y63.328045 Z-0.125000 I41.217215 J3.534071
G03 X40.592698 Y52.047900 Z-0.125000 I56.939183 J19.867102
G02 X41.459762 Y50.522275 Z-0.125000 I-28.969010 J-17.473268
G02 X41.448553 Y50.446700 Z-0.125000 I-0.056557 J-0.030230
G02 X41.381098 Y50.442437 Z-0.125000 I-0.036148 J0.036167
G02 X40.971214 Y50.816350 Z-0.125000 I2.108971 J2.723475
G03 X40.587841 Y51.148037 Z-0.125000 I-1.737130 J-1.620420
G01 X40.525046 Y51.125760 Z-0.125000
G03 X40.499475 Y50.994657 Z-0.125000 I0.715665 J-0.207634
G03 X40.367714 Y49.601820 Z-0.125000 I81.243578 J-8.388198
G02 X40.033068 Y46.930393 Z-0.125000 I-34.516726 J2.967187
G02 X39.481255 Y44.227980 Z-0.125000 I-35.875130 J5.917896
G02 X38.921890 Y42.275741 Z-0.125000 I-24.862905 J6.067586
G02 X36.309789 Y34.617070 Z-0.125000 I-385.858496 J127.327858
G03 X33.367139 Y25.401700 Z-0.125000 I154.335170 J-54.359774
G03 X33.091335 Y23.404350 Z-0.125000 I6.832569 J-1.961194
G03 X33.849061 Y19.560254 Z-0.125000 I10.398094 J0.052885
G03 X35.912171 Y16.426160 Z-0.125000 I8.841381 J3.574002
G03 X37.394629 Y15.265835 Z-0.125000 I5.303366 J5.248531
G03 X39.774862 Y14.123260 Z-0.125000 I7.515453 J12.605764
G02 X39.899879 Y14.031908 Z-0.125000 I-0.100272 J-0.268444
G02 X39.903990 Y13.958980 Z-0.125000 I-0.050131 J-0.039406
G02 X39.823185 Y13.922001 Z-0.125000 I-0.068121 J0.042081
G02 X38.942243 Y14.113260 Z-0.125000 I1.305596 J8.138060
G03 X38.035121 Y14.334546 Z-0.125000 I-4.240574 J-15.413561
G03 X37.779684 Y14.361120 Z-0.125000 I-0.252128 J-1.182553
G03 X36.722329 Y14.061497 Z-0.125000 I0.007328 J-2.041348
G03 X31.513481 Y10.529790 Z-0.125000 I34.820453 J-56.963098
G03 X29.738670 Y8.883958 Z-0.125000 I6.940961 J-9.264769
G03 X29.587580 Y8.326630 Z-0.125000 I0.496045 J-0.433620
G03 X29.767088 Y8.228737 Z-0.125000 I0.129999 J0.024850
G03 X30.623921 Y8.744650 Z-0.125000 I-1.184628 J2.936913
G02 X31.988302 Y9.717187 Z-0.125000 I6.650883 J-7.887261
G02 X33.361041 Y10.377840 Z-0.125000 I4.370226 J-7.324185
G02 X34.041645 Y10.615221 Z-0.125000 I5.385982 J-14.347985
G01 X34.058607 Y10.602870 Z-0.125000
G01 X34.043117 Y10.574878 Z-0.125000
G02 X33.257037 Y10.100300 Z-0.125000 I-14.508416 J23.143107
G03 X31.099353 Y8.693522 Z-0.125000 I12.593650 J-21.673947
G03 X30.200773 Y7.875800 Z-0.125000 I3.281630 J-4.508700
G03 X30.049784 Y7.392454 Z-0.125000 I0.464879 J-0.410477
G03 X30.286583 Y7.150550 Z-0.125000 I0.275225 J0.032565
G03 X30.477507 Y7.184603 Z-0.125000 I0.043232 J0.309862
G03 X31.216671 Y7.648690 Z-0.125000 I-2.987242 J5.578552
G02 X31.955710 Y8.150338 Z-0.125000 I7.893964 J-10.834356
G02 X32.531798 Y8.478760 Z-0.125000 I3.943982 J-6.248703
G02 X34.488364 Y9.317880 Z-0.125000 I7.129190 J-13.922439
G02 X34.753769 Y9.257370 Z-0.125000 I0.084574 J-0.241356
G01 X34.747378 Y9.218269 Z-0.125000
G02 X32.605856 Y8.187530 Z-0.125000 I-39.216266 J78.737922
G03 X31.113849 Y7.322545 Z-0.125000 I4.029811 J-8.670266
G03 X30.958313 Y7.021990 Z-0.125000 I0.212627 J-0.300555
G03 X30.997315 Y6.972791 Z-0.125000 I0.050531 J0.000000
G03 X31.604207 Y6.870670 Z-0.125000 I1.106666 J4.722353
G03 X35.471208 Y7.032386 Z-0.125000 I1.379857 J13.319756
G03 X44.186226 Y9.248940 Z-0.125000 I-13.426040 J71.029405
G03 X47.679497 Y10.495236 Z-0.125000 I-18.097383 J56.244377
G03 X48.685580 Y11.015260 Z-0.125000 I-2.013051 J5.127864
G03 X49.241738 Y11.581845 Z-0.125000 I-1.021374 J1.558830
G03 X49.211441 Y11.851300 Z-0.125000 I-0.184012 J0.115741
G03 X49.147510 Y11.884213 Z-0.125000 I-0.083374 J-0.083402
G03 X48.299569 Y12.003650 Z-0.125000 I-2.747996 J-16.439605
G02 X46.306213 Y12.339976 Z-0.125000 I2.182244 J19.009183
G02 X45.998566 Y12.518200 Z-0.125000 I0.129161 J0.577593
G01 X46.007745 Y12.555391 Z-0.125000
G02 X46.098076 Y12.554100 Z-0.125000 I0.043453 J-0.120478
G03 X46.312204 Y12.510797 Z-0.125000 I0.229441 J0.583493
G03 X52.660361 Y12.393830 Z-0.125000 I12.917074 J528.721547
G02 X59.013333 Y12.271746 Z-0.125000 I-5.800950 J-467.227654
G02 X60.049391 Y12.201600 Z-0.125000 I-0.324831 J-12.484070
G03 X61.083522 Y12.095214 Z-0.125000 I8.504933 J77.593657
G03 X68.146743 Y11.423050 Z-0.125000 I347.766500 J3616.944290
G02 X75.195252 Y10.726606 Z-0.125000 I-72.455775 J-769.320491
G02 X75.277415 Y10.685480 Z-0.125000 I-0.013382 J-0.129371
G01 X75.262122 Y10.650511 Z-0.125000
G02 X72.993110 Y10.682480 Z-0.125000 I-0.089199 J74.207555
G03 X70.686879 Y10.705725 Z-0.125000 I-1.750788 J-59.284716
G01 X70.642055 Y10.660480 Z-0.125000
G03 X70.665100 Y10.576492 Z-0.125000 I0.164574 J-0.000000
G03 X70.942435 Y10.154330 Z-0.125000 I4.758196 J2.823677
G03 X71.900544 Y9.236420 Z-0.125000 I3.002474 J2.174975
G03 X75.137479 Y7.381460 Z-0.125000 I16.161989 J24.451200
G03 X80.226710 Y5.194489 Z-0.125000 I24.039531 J48.926646
G03 X85.703254 Y3.464200 Z-0.125000 I20.373815 J54.953185
G03 X87.582332 Y3.046662 Z-0.125000 I6.381364 J24.281494
G03 X87.781337 Y3.085400 Z-0.125000 I0.049941 J0.273973
G01 X87.781359 Y3.085520 Z-0.125000
G00 Z5.000000

(End cutting path id: path847)


(Start cutting path id: path847)
(Change tool to Cylindrical cutter)

G00 Z5.000000
G00 X86.358383 Y18.349140

G01 Z-0.125000 F1000.0(Penetrate)
G02 X86.388663 Y18.418144 Z-0.125000 I0.103566 J-0.004301 F700.000000
G01 X86.420823 Y18.411540 Z-0.125000
G02 X86.442932 Y18.282513 Z-0.125000 I-0.290263 J-0.116144
G02 X86.412623 Y18.213460 Z-0.125000 I-0.103547 J0.004270
G01 X86.380465 Y18.220066 Z-0.125000
G02 X86.358343 Y18.349100 Z-0.125000 I0.290182 J0.116162
G01 X86.358383 Y18.349140 Z-0.125000
G00 Z5.000000

(End cutting path id: path847)


(Start cutting path id: path847)
(Change tool to Cylindrical cutter)

G00 Z5.000000
G00 X86.855974 Y31.778760

G01 Z-0.125000 F1000.0(Penetrate)
G03 X89.950961 Y34.183813 Z-0.125000 I-25.515413 J36.028924 F700.000000
G03 X90.192094 Y34.617450 Z-0.125000 I-0.458463 J0.538800
G03 X90.391575 Y37.534477 Z-0.125000 I-17.884270 J2.688349
G03 X90.145914 Y38.270860 Z-0.125000 I-1.274828 J-0.016121
G03 X89.974830 Y38.391151 Z-0.125000 I-0.263109 J-0.192399
G03 X87.123129 Y39.160470 Z-0.125000 I-18.355366 J-62.369448
G02 X84.236864 Y39.886930 Z-0.125000 I61.278558 J249.559825
G02 X83.951159 Y39.978400 Z-0.125000 I0.651960 J2.528324
G03 X83.687836 Y40.035235 Z-0.125000 I-0.313631 J-0.814670
G03 X83.615873 Y39.997800 Z-0.125000 I-0.004567 J-0.079109
G03 X83.535497 Y39.673936 Z-0.125000 I0.464761 J-0.287250
G03 X83.925207 Y35.392180 Z-0.125000 I90.504399 J6.078779
G03 X84.475008 Y31.210887 Z-0.125000 I128.731802 J14.800245
G03 X84.649872 Y30.498490 Z-0.125000 I3.878378 J0.574321
G03 X84.784990 Y30.448359 Z-0.125000 I0.088233 J0.030657
G03 X86.855977 Y31.778800 Z-0.125000 I-13.677965 J23.568447
G01 X86.855974 Y31.778760 Z-0.125000
G00 Z5.000000

(End cutting path id: path847)


(Start cutting path id: path847)
(Change tool to Cylindrical cutter)

G00 Z5.000000
G00 X105.908140 Y47.925100

G01 Z-0.125000 F1000.0(Penetrate)
G03 X106.068471 Y48.101092 Z-0.125000 I-0.708523 J0.806502 F700.000000
G03 X106.330450 Y48.507100 Z-0.125000 I-3.575154 J2.594414
G03 X114.420854 Y62.771493 Z-0.125000 I-3018.930874 J1721.688023
G03 X114.459540 Y62.918820 Z-0.125000 I-0.261189 J0.147327
G03 X114.418158 Y62.980012 Z-0.125000 I-0.065933 J0.000000
G03 X112.883560 Y63.551110 Z-0.125000 I-12.053638 J-30.041978
G02 X108.888399 Y65.198090 Z-0.125000 I11.698450 J34.046621
G02 X105.089520 Y67.326360 Z-0.125000 I15.934752 J32.897479
G01 X103.935270 Y68.066630 Z-0.125000
G01 X101.214160 Y68.134930 Z-0.125000
G03 X92.973341 Y68.239478 Z-0.125000 I-8.340145 J-332.562768
G03 X91.480130 Y68.137930 Z-0.125000 I-0.003279 J-10.981067
G03 X91.115332 Y67.972177 Z-0.125000 I0.095151 J-0.693725
G03 X91.000662 Y67.720200 Z-0.125000 I0.219513 J-0.251977
G02 X90.845195 Y66.509310 Z-0.125000 I-4.793385 J-0.000000
G02 X90.263532 Y64.896870 Z-0.125000 I-9.143333 J2.387185
G02 X89.279118 Y63.269671 Z-0.125000 I-8.063889 J3.767073
G02 X87.956631 Y61.869280 Z-0.125000 I-7.261920 J5.533288
G03 X87.240421 Y61.237196 Z-0.125000 I21.041717 J-24.564048
G03 X87.204143 Y61.185160 Z-0.125000 I0.095999 J-0.105591
G01 X87.220001 Y61.139686 Z-0.125000
G03 X88.495931 Y60.453490 Z-0.125000 I16.303180 J28.785191
G02 X91.073091 Y58.961397 Z-0.125000 I-12.700659 J-24.908423
G02 X95.245180 Y56.049980 Z-0.125000 I-44.587871 J-68.339879
G02 X98.989774 Y52.875980 Z-0.125000 I-23.421262 J-31.427615
G02 X101.667370 Y49.875040 Z-0.125000 I-18.235563 J-18.965741
G03 X103.202100 Y48.429579 Z-0.125000 I5.152806 J3.933545
G03 X104.796960 Y47.769980 Z-0.125000 I2.424692 J3.604798
G03 X105.526888 Y47.750480 Z-0.125000 I0.423338 J2.175384
G03 X105.908140 Y47.925190 Z-0.125000 I-0.101137 J0.724042
G01 X105.908140 Y47.925100 Z-0.125000
G00 Z5.000000

(End cutting path id: path847)


(Start cutting path id: path847)
(Change tool to Cylindrical cutter)

G00 Z5.000000
G00 X103.496560 Y68.447010

G01 Z-0.125000 F1000.0(Penetrate)
G03 X103.453293 Y68.483528 Z-0.125000 I-3.796811 J-4.454674 F700.000000
G03 X102.213390 Y69.519370 Z-0.125000 I-2630.463343 J-3147.403164
G02 X98.060521 Y73.586218 Z-0.125000 I23.557499 J28.209560
G02 X94.152626 Y78.771290 Z-0.125000 I34.576763 J30.125072
G03 X93.622124 Y79.543888 Z-0.125000 I-14.724822 J-9.542325
G03 X93.572240 Y79.569960 Z-0.125000 I-0.051203 J-0.037209
G03 X93.430280 Y79.478035 Z-0.125000 I-0.002940 J-0.151037
G03 X92.441333 Y76.909970 Z-0.125000 I36.759940 J-15.630496
G03 X91.492008 Y73.381517 Z-0.125000 I24.573830 J-8.503484
G03 X91.038931 Y69.715310 Z-0.125000 I26.087667 J-5.085066
G01 X90.969161 Y68.410250 Z-0.125000
G01 X97.254391 Y68.410250 Z-0.125000
G03 X103.489787 Y68.428576 Z-0.125000 I-0.000000 J1060.785438
G01 X103.496560 Y68.447050 Z-0.125000
G01 X103.496560 Y68.447010 Z-0.125000
G00 Z5.000000

(End cutting path id: path847)


(Start cutting path id: path847)
(Change tool to Cylindrical cutter)

G00 Z5.000000
G00 X86.115203 Y61.208170

G01 Z-0.125000 F1000.0(Penetrate)
G03 X87.993821 Y62.266075 Z-0.125000 I-1.100597 J4.151400 F700.000000
G03 X89.891443 Y64.844910 Z-0.125000 I-6.570248 J6.822276
G03 X90.449842 Y66.265999 Z-0.125000 I-7.582006 J3.799507
G03 X90.587290 Y67.226530 Z-0.125000 I-3.287528 J0.960531
G03 X90.399406 Y68.334559 Z-0.125000 I-3.361187 J-0.000000
G03 X89.758172 Y69.601060 Z-0.125000 I-5.063156 J-1.767912
G03 X88.087336 Y71.063941 Z-0.125000 I-3.697117 J-2.537062
G03 X85.784793 Y71.613880 Z-0.125000 I-2.302543 J-4.545293
G03 X83.639400 Y71.180883 Z-0.125000 I-0.000000 J-5.531450
G03 X81.740012 Y69.911860 Z-0.125000 I2.337013 J-5.553831
G03 X80.441109 Y67.988060 Z-0.125000 I4.164661 J-4.212271
G03 X80.007244 Y65.775000 Z-0.125000 I5.157064 J-2.160090
G03 X80.449770 Y63.654523 Z-0.125000 I5.553800 J0.052617
G03 X81.565634 Y62.109550 Z-0.125000 I3.956457 J1.682115
G03 X83.555734 Y61.126801 Z-0.125000 I2.819399 J3.202993
G03 X86.115203 Y61.208170 Z-0.125000 I1.103895 J5.571717
G01 X86.115203 Y61.208170 Z-0.125000
G00 Z5.000000

(End cutting path id: path847)


(Start cutting path id: path847)
(Change tool to Cylindrical cutter)

G00 Z5.000000
G00 X83.915502 Y74.804440

G01 Z-0.125000 F1000.0(Penetrate)
G02 X82.377559 Y75.627660 Z-0.125000 I0.935645 J3.596180 F700.000000
G02 X81.380702 Y77.065580 Z-0.125000 I2.488525 J2.789705
G02 X81.085443 Y78.566008 Z-0.125000 I4.078542 J1.581853
G02 X81.326362 Y79.984670 Z-0.125000 I3.872830 J0.072099
G02 X84.058317 Y82.417068 Z-0.125000 I3.655500 J-1.355285
G02 X87.429394 Y81.472770 Z-0.125000 I0.845946 J-3.469433
G02 X87.843475 Y80.977657 Z-0.125000 I-2.571128 J-2.571037
G02 X88.231396 Y80.319470 Z-0.125000 I-4.182151 J-2.908281
G02 X88.474617 Y79.604934 Z-0.125000 I-2.623529 J-1.291686
G02 X88.568820 Y78.643460 Z-0.125000 I-4.696308 J-0.945486
G02 X88.302575 Y77.101343 Z-0.125000 I-4.688841 J0.015481
G02 X87.621376 Y75.953160 Z-0.125000 I-3.219347 J1.133825
G02 X86.472324 Y75.101521 Z-0.125000 I-2.668078 J2.398852
G02 X85.061789 Y74.757010 Z-0.125000 I-1.565571 J3.350091
G02 X84.235410 Y74.756636 Z-0.125000 I-0.417690 J9.932140
G02 X83.915506 Y74.804410 Z-0.125000 I0.062187 J1.511359
G01 X83.915502 Y74.804440 Z-0.125000
G00 Z5.000000

(End cutting path id: path847)


(Start cutting path id: path847)
(Change tool to Cylindrical cutter)

G00 Z5.000000
G00 X85.125768 Y78.747180

G01 Z-0.125000 F1000.0(Penetrate)
G03 X85.898196 Y79.221053 Z-0.125000 I-0.439774 J1.583323 F700.000000
G03 X86.305298 Y80.035950 Z-0.125000 I-1.224891 J1.121063
G03 X86.150863 Y81.254520 Z-0.125000 I-1.969472 J0.369472
G03 X85.360602 Y82.055340 Z-0.125000 I-1.522789 J-0.712381
G03 X84.063686 Y82.134963 Z-0.125000 I-0.745441 J-1.539881
G03 X83.142850 Y81.300160 Z-0.125000 I0.504614 J-1.481888
G03 X83.107777 Y79.713942 Z-0.125000 I1.837487 J-0.834126
G03 X84.171088 Y78.739980 Z-0.125000 I1.546747 J0.621233
G03 X84.616079 Y78.675708 Z-0.125000 I0.433972 J1.432032
G03 X85.125768 Y78.746980 Z-0.125000 I-0.014443 J1.961396
G01 X85.125768 Y78.747180 Z-0.125000
G00 Z5.000000

(End cutting path id: path847)


(Start cutting path id: path847)
(Change tool to Cylindrical cutter)

G00 Z5.000000
G00 X71.454283 Y81.103730

G01 Z-0.125000 F1000.0(Penetrate)
G02 X71.180268 Y81.314813 Z-0.125000 I0.135776 J0.459652 F700.000000
G02 X71.055450 Y81.761260 Z-0.125000 I0.736013 J0.446447
G02 X71.126824 Y81.980154 Z-0.125000 I0.371345 J0.000000
G02 X71.267268 Y82.051530 Z-0.125000 I0.140444 J-0.102484
G02 X72.266393 Y81.721587 Z-0.125000 I0.000000 J-1.677734
G02 X72.358319 Y81.242720 Z-0.125000 I-0.214568 J-0.289446
G02 X72.084272 Y81.061255 Z-0.125000 I-0.333638 J0.206193
G02 X71.454283 Y81.103730 Z-0.125000 I-0.219954 J1.430868
G01 X71.454283 Y81.103730 Z-0.125000
G00 Z5.000000

(End cutting path id: path847)


(Start cutting path id: path847)
(Change tool to Cylindrical cutter)

G00 Z5.000000
G00 X62.276254 Y87.554900

G01 Z-0.125000 F1000.0(Penetrate)
G03 X62.818760 Y88.149503 Z-0.125000 I-0.953254 J1.414521 F700.000000
G03 X63.020218 Y88.912100 Z-0.125000 I-1.436358 J0.787357
G03 X62.800560 Y89.710664 Z-0.125000 I-1.480083 J0.022371
G03 X62.165581 Y90.299900 Z-0.125000 I-1.378816 J-0.849100
G03 X60.222645 Y90.022696 Z-0.125000 I-0.776909 J-1.502277
G03 X59.913561 Y88.156420 Z-0.125000 I1.083285 J-1.138141
G03 X60.493558 Y87.559268 Z-0.125000 I1.294264 J0.676838
G03 X61.401814 Y87.322030 Z-0.125000 I0.908256 J1.619995
G03 X61.910357 Y87.388577 Z-0.125000 I0.000000 J1.976384
G03 X62.276254 Y87.554900 Z-0.125000 I-0.312186 J1.172415
G01 X62.276254 Y87.554900 Z-0.125000
G00 Z5.000000

(End cutting path id: path847)


(Start cutting path id: path847)
(Change tool to Cylindrical cutter)

G00 Z5.000000
G00 X58.135154 Y83.854920

G01 Z-0.125000 F1000.0(Penetrate)
G02 X57.172802 Y84.593866 Z-0.125000 I1.615940 J3.100612 F700.000000
G02 X56.399894 Y85.749350 Z-0.125000 I3.384548 J3.100180
G02 X56.209063 Y86.359319 Z-0.125000 I2.161441 J1.011049
G02 X56.122930 Y87.373700 Z-0.125000 I5.968168 J1.017618
G02 X56.213887 Y88.385904 Z-0.125000 I5.642728 J0.003133
G02 X56.421451 Y89.016240 Z-0.125000 I2.367864 J-0.430375
G02 X57.587744 Y90.369610 Z-0.125000 I3.180544 J-1.561672
G02 X59.510432 Y91.150680 Z-0.125000 I2.717853 J-3.933301
G02 X61.848256 Y90.813459 Z-0.125000 I0.643195 J-3.813199
G02 X63.460540 Y89.224910 Z-0.125000 I-1.556082 J-3.191794
G02 X63.672028 Y88.590498 Z-0.125000 I-2.041392 J-1.032978
G02 X63.769763 Y87.477040 Z-0.125000 I-6.293770 J-1.113458
G02 X63.675248 Y86.363644 Z-0.125000 I-6.605211 J0.000000
G02 X63.481949 Y85.794010 Z-0.125000 I-1.886870 J0.322674
G02 X61.935811 Y84.231596 Z-0.125000 I-3.341720 J1.760687
G02 X59.433477 Y83.606490 Z-0.125000 I-2.472207 J4.575337
G02 X58.621108 Y83.685923 Z-0.125000 I0.026858 J4.468495
G02 X58.135154 Y83.854920 Z-0.125000 I0.332651 J1.739726
G01 X58.135154 Y83.854920 Z-0.125000
G00 Z5.000000

(End cutting path id: path847)


(Start cutting path id: path847)
(Change tool to Cylindrical cutter)

G00 Z5.000000
G00 X52.508646 Y73.383350

G01 Z-0.125000 F1000.0(Penetrate)
G03 X53.630018 Y74.311071 Z-0.125000 I-3.101352 J4.890303 F700.000000
G03 X54.623113 Y75.636630 Z-0.125000 I-5.469145 J5.132217
G03 X55.273614 Y77.142249 Z-0.125000 I-5.689794 J3.351601
G03 X55.482853 Y78.589540 Z-0.125000 I-5.040128 J1.467437
G03 X54.686268 Y81.479138 Z-0.125000 I-5.561481 J0.021445
G03 X52.612569 Y83.358060 Z-0.125000 I-4.153220 J-2.499965
G03 X50.588695 Y83.817331 Z-0.125000 I-2.037794 J-4.291014
G03 X48.689257 Y83.369560 Z-0.125000 I-0.012308 J-4.200366
G03 X47.606057 Y82.607236 Z-0.125000 I2.027424 J-4.031536
G03 X47.075329 Y81.833920 Z-0.125000 I1.559656 J-1.639172
G03 X47.069525 Y81.536566 Z-0.125000 I0.376826 J-0.156089
G03 X47.464500 Y80.779810 Z-0.125000 I3.152157 J1.163758
G02 X47.949296 Y80.015861 Z-0.125000 I-8.647986 J-6.023749
G02 X49.767485 Y76.781050 Z-0.125000 I-153.609961 J-88.467847
G03 X51.836024 Y73.108640 Z-0.125000 I162.449024 J89.083052
G03 X51.919131 Y73.060700 Z-0.125000 I0.083107 J0.048064
G03 X51.994277 Y73.079919 Z-0.125000 I0.000000 J0.156520
G03 X52.508646 Y73.383360 Z-0.125000 I-4.452113 J8.134542
G01 X52.508646 Y73.383350 Z-0.125000
G00 Z5.000000

(End cutting path id: path847)


(Start cutting path id: path847)
(Change tool to Cylindrical cutter)

G00 Z5.000000
G00 X65.311200 Y62.872350

G01 Z-0.125000 F1000.0(Penetrate)
G02 X64.322697 Y63.466697 Z-0.125000 I0.731034 J2.335037 F700.000000
G02 X63.471299 Y64.689900 Z-0.125000 I2.870745 J2.906058
G02 X63.065903 Y66.140573 Z-0.125000 I4.528712 J2.047547
G02 X62.846232 Y69.857050 Z-0.125000 I30.143529 J3.646433
G02 X62.931190 Y72.693945 Z-0.125000 I51.361193 J-0.118419
G02 X63.141056 Y74.972530 Z-0.125000 I33.333497 J-1.921181
G03 X63.337702 Y77.851045 Z-0.125000 I-24.727399 J3.135225
G03 X63.175796 Y78.345440 Z-0.125000 I-0.810309 J0.008346
G02 X63.210401 Y78.525188 Z-0.125000 I0.098928 J0.074160
G02 X63.428149 Y78.499170 Z-0.125000 I0.092320 J-0.151547
G03 X65.307582 Y77.526452 Z-0.125000 I2.471748 J2.473747
G03 X69.226997 Y77.502570 Z-0.125000 I2.031816 J11.822401
G02 X70.048818 Y77.411487 Z-0.125000 I0.245321 J-1.539626
G02 X70.638928 Y76.940630 Z-0.125000 I-0.480562 J-1.207483
G03 X71.628305 Y75.798670 Z-0.125000 I5.604224 J3.855843
G03 X72.700454 Y75.037070 Z-0.125000 I3.496146 J3.786268
G03 X74.586134 Y74.422736 Z-0.125000 I2.682655 J5.033144
G03 X76.377282 Y74.518180 Z-0.125000 I0.651945 J4.619775
G02 X76.828277 Y74.598801 Z-0.125000 I0.802893 J-3.189649
G02 X76.965595 Y74.581380 Z-0.125000 I0.032017 J-0.297537
G02 X76.970491 Y74.430487 Z-0.125000 I-0.028682 J-0.076457
G02 X75.950518 Y74.123530 Z-0.125000 I-1.670931 J3.704170
G03 X75.640530 Y74.021971 Z-0.125000 I0.168017 J-1.036704
G03 X75.413472 Y73.849080 Z-0.125000 I0.366291 J-0.716595
G03 X75.238392 Y73.610204 Z-0.125000 I1.001114 J-0.917350
G03 X74.153925 Y71.665540 Z-0.125000 I66.475338 J-38.345532
G02 X70.840287 Y66.051890 Z-0.125000 I-73.512080 J39.608066
G02 X69.513698 Y64.462430 Z-0.125000 I-7.080890 J4.561497
G02 X67.040962 Y62.922787 Z-0.125000 I-5.130199 J5.483843
G02 X65.311204 Y62.872340 Z-0.125000 I-0.937907 J2.478822
G01 X65.311200 Y62.872350 Z-0.125000
G00 Z5.000000

(End cutting path id: path847)


(Start cutting path id: path847)
(Change tool to Cylindrical cutter)

G00 Z5.000000
G00 X67.627047 Y63.458610

G01 Z-0.125000 F1000.0(Penetrate)
G03 X68.904077 Y64.350073 Z-0.125000 I-2.271882 J4.614905 F700.000000
G03 X70.762124 Y66.446730 Z-0.125000 I-11.483539 J12.048282
G03 X71.424276 Y67.771490 Z-0.125000 I-3.364149 J2.509358
G03 X71.355474 Y68.463450 Z-0.125000 I-0.887601 J0.261145
G03 X69.022336 Y70.604012 Z-0.125000 I-4.153502 J-2.185372
G03 X64.431877 Y71.376910 Z-0.125000 I-3.934599 J-9.350227
G03 X63.519795 Y70.895289 Z-0.125000 I0.081515 J-1.258821
G03 X63.098718 Y69.672570 Z-0.125000 I1.561938 J-1.221760
G03 X63.429131 Y65.818977 Z-0.125000 I22.765257 J0.010969
G03 X64.040598 Y64.204660 Z-0.125000 I4.469120 J0.769838
G03 X65.491987 Y63.187753 Z-0.125000 I1.908262 J1.179374
G03 X67.627047 Y63.458610 Z-0.125000 I0.673796 J3.239077
G01 X67.627047 Y63.458610 Z-0.125000
G00 Z5.000000

(End cutting path id: path847)


(Footer)
M5
G00 X0.0000 Y0.0000
M2
(Using default footer. To add your own footer create file "footer" in the output dir.)
(end)
%