%
(Header)
(Generated by gcodetools from Inkscape.)
(Using default header. To add your own header create file "header" in the output dir.)
M3
(Header end.)
G21 (All units in mm)

(Pass at depth -1.0)
(Start cutting path id: path848)
(Change tool to Cylindrical cutter)

G00 Z5.000000
G00 X95.095226 Y0.559320

G01 Z-1.000000 F1000.0(Penetrate)
G01 X94.802629 Y0.860459 Z-1.000000 F1100.000000
G01 X94.802629 Y2.326389 Z-1.000000
G01 X94.802629 Y3.792309 Z-1.000000
G01 X95.255563 Y5.030010 Z-1.000000
G03 X95.681580 Y6.276119 Z-1.000000 I-28.914167 J10.580974
G03 X95.972035 Y7.281920 Z-1.000000 I-18.544816 J5.900214
G01 X96.235581 Y8.296120 Z-1.000000
G01 X95.864828 Y8.861950 Z-1.000000
G01 X95.494074 Y9.427800 Z-1.000000
G01 X93.518031 Y9.427799 Z-1.000000
G01 X91.541988 Y9.427799 Z-1.000000
G01 X91.330157 Y9.837439 Z-1.000000
G02 X90.941415 Y10.897750 Z-1.000000 I3.996183 J2.066539
G02 X90.220039 Y14.675149 Z-1.000000 I50.842543 J11.667069
G03 X90.033704 Y15.578962 Z-1.000000 I-8.863587 J-1.356247
G03 X89.823747 Y16.196669 Z-1.000000 I-4.337130 J-1.129640
G02 X89.593123 Y16.808774 Z-1.000000 I7.496239 J3.173871
G02 X89.506867 Y17.152439 Z-1.000000 I2.267593 J0.751798
G03 X89.432934 Y17.500666 Z-1.000000 I-4.654363 J-0.806217
G03 X88.975944 Y19.259159 Z-1.000000 I-119.757810 J-30.183568
G02 X88.305219 Y22.572070 Z-1.000000 I26.415329 J7.072344
G02 X87.778379 Y27.887400 Z-1.000000 I67.637486 J9.387804
G03 X87.357526 Y33.535558 Z-1.000000 I-192.315202 J-11.489958
G03 X86.939229 Y37.283330 Z-1.000000 I-85.070302 J-7.597643
G02 X86.674570 Y39.979724 Z-1.000000 I37.944731 J5.085581
G02 X86.653809 Y41.847899 Z-1.000000 I18.169536 J1.136119
G01 X86.729209 Y43.720537 Z-1.000000
G01 X86.895582 Y43.369419 Z-1.000000
G02 X87.049079 Y43.012906 Z-1.000000 I-4.884805 J-2.314463
G02 X87.551756 Y41.680924 Z-1.000000 I-67.793202 J-26.345330
G01 X88.041564 Y40.343546 Z-1.000000
G01 X89.547062 Y39.291131 Z-1.000000
G03 X91.811624 Y38.032219 Z-1.000000 I7.238952 J10.355376
G03 X93.247497 Y37.706242 Z-1.000000 I1.606451 J3.750769
G01 X94.549287 Y37.651732 Z-1.000000
G01 X95.118359 Y38.186347 Z-1.000000
G03 X95.581124 Y38.785361 Z-1.000000 I-1.638355 J1.743961
G03 X95.980922 Y39.769254 Z-1.000000 I-4.136079 J2.253840
G01 X96.274431 Y40.817546 Z-1.000000
G01 X96.125579 Y42.737191 Z-1.000000
G03 X95.911848 Y44.644437 Z-1.000000 I-27.965468 J-2.168275
G03 X95.723366 Y45.476102 Z-1.000000 I-5.480242 J-0.804809
G01 X95.470014 Y46.295386 Z-1.000000
G01 X95.462914 Y50.976993 Z-1.000000
G01 X95.455813 Y55.658592 Z-1.000000
G01 X96.591921 Y56.435188 Z-1.000000
G03 X98.209096 Y57.824701 Z-1.000000 I-5.469291 J8.001218
G03 X98.636137 Y58.626184 Z-1.000000 I-1.285657 J1.199523
G01 X98.781804 Y59.252971 Z-1.000000
G01 X98.413750 Y59.621027 Z-1.000000
G03 X97.500602 Y59.961611 Z-1.000000 I-0.829450 J-0.829435
G03 X95.524996 Y59.414380 Z-1.000000 I0.370315 J-5.176669
G02 X94.640298 Y59.631294 Z-1.000000 I-0.316031 J0.623650
G02 X94.567951 Y60.752447 Z-1.000000 I0.865066 J0.618733
G03 X94.938630 Y61.650416 Z-1.000000 I-4.266293 J2.286607
G03 X95.036116 Y62.315754 Z-1.000000 I-2.221710 J0.665337
G01 X95.036116 Y63.005574 Z-1.000000
G01 X94.515864 Y63.369965 Z-1.000000
G03 X93.969960 Y63.652948 Z-1.000000 I-1.332142 J-1.901801
G03 X93.503326 Y63.734356 Z-1.000000 I-0.466634 J-1.296674
G03 X92.593435 Y63.345492 Z-1.000000 I0.000000 J-1.258943
G03 X91.863586 Y62.019588 Z-1.000000 I2.128744 J-2.035602
G02 X90.887483 Y60.284177 Z-1.000000 I-3.635503 J0.902616
G02 X89.617175 Y59.754993 Z-1.000000 I-1.270308 J1.260099
G01 X89.185763 Y59.754993 Z-1.000000
G01 X88.307165 Y61.211074 Z-1.000000
G03 X87.351047 Y62.608363 Z-1.000000 I-12.683099 J-7.652849
G03 X86.063542 Y64.118314 Z-1.000000 I-16.108480 J-12.431501
G01 X84.698505 Y65.569457 Z-1.000000
G01 X83.605705 Y65.811587 Z-1.000000
G03 X82.508140 Y66.025859 Z-1.000000 I-4.791592 J-21.625822
G03 X81.310491 Y66.199799 Z-1.000000 I-4.326326 J-25.578423
G01 X80.108075 Y66.345876 Z-1.000000
G01 X79.262415 Y66.112379 Z-1.000000
G01 X78.416764 Y65.878880 Z-1.000000
G01 X78.553252 Y67.557058 Z-1.000000
G02 X78.717409 Y69.229918 Z-1.000000 I50.179315 J-4.079579
G02 X78.779862 Y69.527838 Z-1.000000 I1.643537 J-0.189030
G01 X78.869982 Y69.820438 Z-1.000000
G01 X79.774650 Y69.820438 Z-1.000000
G01 X80.679317 Y69.820438 Z-1.000000
G01 X81.552622 Y70.581198 Z-1.000000
G03 X82.341591 Y71.416305 Z-1.000000 I-3.889050 J4.464433
G03 X84.231306 Y74.033881 Z-1.000000 I-36.942292 J28.660765
G01 X86.036674 Y76.725803 Z-1.000000
G01 X86.615586 Y76.804143 Z-1.000000
G03 X87.164437 Y76.943691 Z-1.000000 I-0.332479 J2.456762
G03 X87.428576 Y77.113358 Z-1.000000 I-0.270830 J0.712072
G01 X87.662654 Y77.344235 Z-1.000000
G01 X87.110042 Y77.795777 Z-1.000000
G03 X86.517364 Y78.134955 Z-1.000000 I-1.312895 J-1.606733
G03 X85.890044 Y78.247322 Z-1.000000 I-0.627320 J-1.694919
G03 X84.610465 Y78.046996 Z-1.000000 I0.000000 J-4.186829
G03 X79.845229 Y76.307076 Z-1.000000 I19.631383 J-61.161163
G02 X77.871757 Y75.620015 Z-1.000000 I-7.276535 J17.722910
G02 X77.441613 Y75.614707 Z-1.000000 I-0.224733 J0.780177
G02 X77.061933 Y75.814081 Z-1.000000 I0.240238 J0.918709
G02 X76.518673 Y76.410080 Z-1.000000 I2.192379 J2.543973
G03 X74.745570 Y78.112817 Z-1.000000 I-5.389429 J-3.837591
G03 X71.005921 Y80.008406 Z-1.000000 I-10.519022 J-16.115483
G01 X69.412976 Y80.607990 Z-1.000000
G01 X66.781945 Y79.976473 Z-1.000000
G01 X64.150918 Y79.344954 Z-1.000000
G01 X63.592479 Y78.503537 Z-1.000000
G03 X62.357227 Y76.526116 Z-1.000000 I35.234750 J-23.384904
G03 X61.449747 Y74.853157 Z-1.000000 I24.301941 J-14.264967
G01 X60.865137 Y73.682757 Z-1.000000
G01 X60.862837 Y72.489385 Z-1.000000
G01 X60.860537 Y71.296017 Z-1.000000
G01 X59.933142 Y70.877819 Z-1.000000
G03 X59.068464 Y70.373247 Z-1.000000 I1.970945 J-4.370756
G03 X58.288910 Y69.671866 Z-1.000000 I3.111034 J-4.241690
G02 X57.518833 Y69.004534 Z-1.000000 I-3.188722 J2.901683
G02 X57.126480 Y68.884113 Z-1.000000 I-0.392353 J0.578967
G03 X54.370616 Y68.477597 Z-1.000000 I0.000001 J-9.544591
G03 X51.549580 Y67.202230 Z-1.000000 I3.403915 J-11.286921
G01 X50.678189 Y66.660351 Z-1.000000
G01 X51.731547 Y66.504472 Z-1.000000
G02 X52.779607 Y66.322240 Z-1.000000 I-3.084710 J-20.845861
G02 X53.779742 Y66.094832 Z-1.000000 I-3.842377 J-19.211682
G03 X55.858720 Y65.584031 Z-1.000000 I29.974250 J117.509943
G03 X58.398742 Y65.003092 Z-1.000000 I41.318918 J174.814192
G01 X60.033232 Y64.641717 Z-1.000000
G01 X61.119319 Y64.791093 Z-1.000000
G01 X62.205405 Y64.940469 Z-1.000000
G01 X62.352234 Y64.355452 Z-1.000000
G03 X62.573719 Y63.808607 Z-1.000000 I2.066333 J0.518639
G03 X63.108240 Y63.046468 Z-1.000000 I4.592268 J2.652245
G01 X63.717415 Y62.322498 Z-1.000000
G01 X62.905431 Y61.423722 Z-1.000000
G01 X62.093447 Y60.524955 Z-1.000000
G01 X61.927759 Y59.198825 Z-1.000000
G02 X60.859788 Y54.119255 Z-1.000000 I-31.088535 J3.884258
G02 X59.760044 Y51.938990 Z-1.000000 I-6.644158 J1.983877
G01 X59.339129 Y51.378553 Z-1.000000
G01 X58.285772 Y51.060726 Z-1.000000
G01 X57.232415 Y50.742899 Z-1.000000
G01 X56.883683 Y49.689545 Z-1.000000
G01 X56.534954 Y48.636182 Z-1.000000
G01 X56.458494 Y49.279899 Z-1.000000
G03 X56.091044 Y49.615216 Z-1.000000 I-0.377658 J-0.044857
G03 X55.077573 Y49.316979 Z-1.000000 I-0.046039 J-1.714658
G01 X54.189379 Y48.710313 Z-1.000000
G01 X53.082271 Y48.813999 Z-1.000000
G01 X51.975162 Y48.917676 Z-1.000000
G01 X51.588186 Y48.490066 Z-1.000000
G01 X51.201208 Y48.062455 Z-1.000000
G01 X51.327059 Y46.945927 Z-1.000000
G01 X51.452907 Y45.829390 Z-1.000000
G01 X50.538869 Y44.959887 Z-1.000000
G03 X49.677287 Y44.067875 Z-1.000000 I10.103092 J-10.620533
G03 X49.624832 Y43.929718 Z-1.000000 I0.155712 J-0.138157
G02 X49.574567 Y43.788841 Z-1.000000 I-0.222548 J-0.000000
G02 X48.581009 Y42.653126 Z-1.000000 I-17.548347 J14.349362
G03 X47.631777 Y41.485637 Z-1.000000 I7.927436 J-7.415071
G03 X47.393964 Y40.966543 Z-1.000000 I1.278121 J-0.899568
G01 X47.250743 Y40.395894 Z-1.000000
G01 X47.632661 Y39.082135 Z-1.000000
G03 X48.100691 Y37.814652 Z-1.000000 I9.167615 J2.665072
G03 X48.468431 Y37.233240 Z-1.000000 I2.255415 J1.019536
G01 X48.922282 Y36.698103 Z-1.000000
G01 X49.222862 Y37.083149 Z-1.000000
G01 X49.523441 Y37.468204 Z-1.000000
G01 X49.890725 Y37.199640 Z-1.000000
G01 X50.258009 Y36.931067 Z-1.000000
G01 X50.076741 Y35.644183 Z-1.000000
G03 X49.904207 Y31.990741 Z-1.000000 I19.552489 J-2.754163
G03 X50.460897 Y27.217858 Z-1.000000 I34.047424 J1.552248
G02 X50.738322 Y25.454836 Z-1.000000 I-28.670513 J-5.414857
G02 X51.027819 Y22.723925 Z-1.000000 I-68.545062 J-8.647085
G03 X51.339662 Y19.998326 Z-1.000000 I48.504261 J4.168863
G03 X51.630597 Y18.510485 Z-1.000000 I14.717092 J2.105444
G02 X52.862150 Y12.974814 Z-1.000000 I-109.172007 J-27.192966
G02 X53.177741 Y10.623535 Z-1.000000 I-19.320990 J-3.790099
G01 X53.253061 Y9.595535 Z-1.000000
G01 X47.986274 Y8.685285 Z-1.000000
G01 X42.719488 Y7.775034 Z-1.000000
G01 X40.378694 Y7.748734 Z-1.000000
G01 X38.037899 Y7.722434 Z-1.000000
G01 X37.156810 Y8.096354 Z-1.000000
G02 X36.361386 Y8.896164 Z-1.000000 I0.584121 J1.376354
G02 X36.402326 Y9.901674 Z-1.000000 I1.098006 J0.458882
G01 X36.790303 Y10.651934 Z-1.000000
G01 X36.594823 Y10.843234 Z-1.000000
G03 X36.363074 Y10.953760 Z-1.000000 I-0.277429 J-0.283480
G03 X32.771112 Y11.286563 Z-1.000000 I-9.018683 J-77.788600
G01 X29.142881 Y11.538603 Z-1.000000
G01 X27.923817 Y12.134123 Z-1.000000
G01 X26.704750 Y12.729653 Z-1.000000
G01 X26.030351 Y13.595063 Z-1.000000
G02 X25.400561 Y14.489478 Z-1.000000 I8.900424 J6.936038
G02 X24.674541 Y15.733752 Z-1.000000 I16.528394 J10.478077
G01 X23.993133 Y17.007032 Z-1.000000
G01 X22.011857 Y18.659752 Z-1.000000
G02 X17.627989 Y22.584064 Z-1.000000 I53.988775 J64.721906
G02 X17.188132 Y23.291072 Z-1.000000 I1.169114 J1.217682
G01 X17.041588 Y23.752802 Z-1.000000
G01 X17.805498 Y24.816535 Z-1.000000
G01 X18.569409 Y25.880262 Z-1.000000
G01 X18.135738 Y26.197372 Z-1.000000
G03 X16.641644 Y27.011696 Z-1.000000 I-3.804530 J-5.202603
G03 X10.884690 Y28.981744 Z-1.000000 I-29.548998 J-76.952652
G02 X6.315738 Y31.087951 Z-1.000000 I5.234432 J17.363725
G02 X5.617903 Y32.365796 Z-1.000000 I0.821051 J1.277845
G02 X5.743667 Y32.713976 Z-1.000000 I0.544857 J0.000000
G02 X7.060354 Y34.102014 Z-1.000000 I11.192851 J-9.298973
G01 X8.502804 Y35.435038 Z-1.000000
G01 X8.172231 Y35.752511 Z-1.000000
G03 X6.407507 Y36.793848 Z-1.000000 I-3.085399 J-3.212755
G03 X3.043029 Y37.344868 Z-1.000000 I-3.656153 J-11.777017
G03 X2.227058 Y37.318668 Z-1.000000 I-0.172867 J-7.335426
G03 X1.111874 Y37.174919 Z-1.000000 I1.218960 J-13.854154
G01 X-0.000004 Y36.985591 Z-1.000000
G01 X-0.000004 Y37.282383 Z-1.000000
G02 X0.339003 Y38.162342 Z-1.000000 I1.311557 J0.000000
G02 X4.251655 Y41.981406 Z-1.000000 I32.693777 J-29.581155
G02 X14.625027 Y50.025260 Z-1.000000 I82.956044 J-96.269607
G02 X23.297715 Y55.233911 Z-1.000000 I43.111590 J-61.958578
G02 X26.606749 Y56.826244 Z-1.000000 I33.144315 J-64.642946
G02 X31.249596 Y58.815787 Z-1.000000 I56.448464 J-125.317394
G03 X40.581305 Y63.222943 Z-1.000000 I-35.536701 J87.328452
G03 X47.336499 Y67.520348 Z-1.000000 I-27.004638 J49.907264
G01 X48.910479 Y68.685388 Z-1.000000
G01 X48.395423 Y69.382044 Z-1.000000
G01 X47.880366 Y70.078697 Z-1.000000
G01 X48.233302 Y70.710337 Z-1.000000
G01 X48.586240 Y71.341974 Z-1.000000
G01 X49.237703 Y71.417504 Z-1.000000
G02 X49.862518 Y71.380381 Z-1.000000 I0.207281 J-1.787919
G02 X50.443190 Y71.130024 Z-1.000000 I-0.426180 J-1.787050
G01 X50.997210 Y70.767011 Z-1.000000
G01 X52.449828 Y72.341936 Z-1.000000
G03 X53.857145 Y73.955764 Z-1.000000 I-28.237747 J26.044882
G03 X58.859862 Y80.119982 Z-1.000000 I-407.502149 J335.830177
G02 X63.896482 Y86.248305 Z-1.000000 I226.377551 J-180.916667
G02 X64.994765 Y87.379761 Z-1.000000 I8.746278 J-7.391075
G02 X66.235148 Y88.346910 Z-1.000000 I7.605735 J-8.475498
G02 X68.107095 Y89.477803 Z-1.000000 I12.306672 J-18.256262
G01 X70.041945 Y90.519193 Z-1.000000
G01 X70.601036 Y91.252208 Z-1.000000
G03 X71.102438 Y92.004714 Z-1.000000 I-5.633493 J4.296946
G03 X71.160134 Y92.219910 Z-1.000000 I-0.372472 J0.215196
G02 X71.219152 Y92.432569 Z-1.000000 I0.412642 J0.000000
G02 X71.620459 Y92.985355 Z-1.000000 I3.387297 J-2.037016
G01 X72.080774 Y93.516112 Z-1.000000
G01 X71.725259 Y94.203615 Z-1.000000
G03 X70.973394 Y94.770022 Z-1.000000 I-0.965348 J-0.499203
G03 X69.505395 Y94.648340 Z-1.000000 I-0.522754 J-2.609352
G01 X68.250735 Y94.171605 Z-1.000000
G01 X68.062956 Y94.359388 Z-1.000000
G01 X67.875168 Y94.547171 Z-1.000000
G01 X68.109227 Y97.340504 Z-1.000000
G03 X68.264527 Y100.136557 Z-1.000000 I-49.645089 J4.159749
G03 X68.288715 Y103.895505 Z-1.000000 I-89.722403 J2.456890
G01 X68.234114 Y107.657172 Z-1.000000
G01 X68.844538 Y108.580309 Z-1.000000
G01 X69.454970 Y109.503444 Z-1.000000
G01 X70.717178 Y110.193886 Z-1.000000
G01 X71.979378 Y110.884327 Z-1.000000
G01 X74.224215 Y110.977167 Z-1.000000
G01 X76.469051 Y111.070008 Z-1.000000
G01 X77.295597 Y110.344291 Z-1.000000
G02 X78.731370 Y108.536190 Z-1.000000 I-4.274515 J-4.868405
G02 X80.258677 Y104.815441 Z-1.000000 I-17.329129 J-9.287168
G01 X80.742372 Y103.176880 Z-1.000000
G01 X82.406730 Y100.549415 Z-1.000000
G01 X84.071088 Y97.921949 Z-1.000000
G01 X83.985778 Y97.506372 Z-1.000000
G01 X83.900468 Y97.090796 Z-1.000000
G01 X82.504442 Y97.146036 Z-1.000000
G01 X81.108425 Y97.201276 Z-1.000000
G01 X81.664702 Y96.733430 Z-1.000000
G03 X82.819453 Y96.191590 Z-1.000000 I1.593608 J1.894841
G03 X84.376950 Y96.244941 Z-1.000000 I0.655073 J3.637176
G02 X87.880809 Y96.406038 Z-1.000000 I2.147801 J-8.529680
G02 X90.783580 Y95.245287 Z-1.000000 I-1.077244 J-6.903899
G02 X92.904223 Y92.940482 Z-1.000000 I-4.069600 J-5.872424
G02 X95.453519 Y87.142397 Z-1.000000 I-25.316277 J-14.590514
G02 X97.952297 Y78.210345 Z-1.000000 I-134.597019 J-42.469603
G02 X100.869073 Y65.004539 Z-1.000000 I-291.484229 J-71.305375
G03 X103.659627 Y53.375926 Z-1.000000 I144.260824 J28.469567
G03 X106.205135 Y46.178375 Z-1.000000 I57.656757 J16.342168
G03 X109.700864 Y38.491768 Z-1.000000 I167.766265 J71.658833
G03 X115.024187 Y27.920120 Z-1.000000 I322.747283 J155.892380
G02 X123.897143 Y10.149956 Z-1.000000 I-442.166540 J-231.881842
G02 X124.295299 Y8.389912 Z-1.000000 I-3.722747 J-1.767215
G01 X124.295999 Y7.937242 Z-1.000000
G01 X123.184119 Y6.866062 Z-1.000000
G02 X117.881046 Y3.282561 Z-1.000000 I-12.934941 J13.426227
G02 X115.020870 Y3.203402 Z-1.000000 I-1.525269 J3.399483
G01 X114.698830 Y3.327011 Z-1.000000
G01 X114.694830 Y4.680321 Z-1.000000
G03 X114.615916 Y6.011615 Z-1.000000 I-11.804263 J-0.031719
G03 X114.502909 Y6.330341 Z-1.000000 I-0.752778 J-0.087507
G01 X114.314579 Y6.627061 Z-1.000000
G01 X112.017619 Y5.920011 Z-1.000000
G02 X108.686106 Y5.041373 Z-1.000000 I-12.440494 J40.415028
G02 X105.083320 Y4.390391 Z-1.000000 I-10.283877 J46.619813
G01 X104.246200 Y4.272070 Z-1.000000
G01 X104.029960 Y2.812050 Z-1.000000
G01 X103.813720 Y1.352030 Z-1.000000
G01 X102.877400 Y0.889870 Z-1.000000
G01 X101.941080 Y0.427710 Z-1.000000
G01 X98.663976 Y0.342910 Z-1.000000
G01 X95.386867 Y0.258110 Z-1.000000
G01 X95.095226 Y0.559320 Z-1.000000
G00 Z5.000000

(Change tool to Cylindrical cutter)

G00 Z5.000000
G00 X73.361255 Y5.154147

G01 Z-1.000000 F1000.0(Penetrate)
G02 X72.040329 Y6.792277 Z-1.000000 I14.049947 J12.680987 F1100.000000
G02 X71.784450 Y7.348937 Z-1.000000 I1.302910 J0.936046
G01 X71.635236 Y7.961997 Z-1.000000
G01 X72.324815 Y8.913937 Z-1.000000
G03 X72.962513 Y9.895002 Z-1.000000 I-9.379448 J6.794487
G03 X73.366918 Y10.709577 Z-1.000000 I-6.051904 J3.512206
G01 X73.719433 Y11.553267 Z-1.000000
G01 X74.452772 Y11.808917 Z-1.000000
G01 X75.186102 Y12.064558 Z-1.000000
G01 X75.008684 Y12.794378 Z-1.000000
G02 X74.648563 Y17.711904 Z-1.000000 I14.551919 J3.537618
G02 X75.606824 Y19.258368 Z-1.000000 I2.030170 J-0.187865
G03 X75.726098 Y19.437329 Z-1.000000 I-0.135956 J0.219839
G03 X75.868043 Y20.889408 Z-1.000000 I-11.745475 J1.881133
G01 X75.922293 Y22.392548 Z-1.000000
G01 X75.666322 Y22.477848 Z-1.000000
G01 X75.410352 Y22.563148 Z-1.000000
G01 X75.544779 Y26.060892 Z-1.000000
G01 X75.679206 Y29.558647 Z-1.000000
G01 X75.441036 Y29.558647 Z-1.000000
G01 X75.202870 Y29.558647 Z-1.000000
G01 X75.082760 Y31.237453 Z-1.000000
G01 X74.962641 Y32.916257 Z-1.000000
G01 X75.402427 Y33.388309 Z-1.000000
G03 X75.728851 Y33.904985 Z-1.000000 I-1.205577 J1.123106
G03 X75.842204 Y34.499324 Z-1.000000 I-1.501455 J0.594338
G02 X76.074473 Y35.646545 Z-1.000000 I2.949307 J0.000000
G02 X76.424654 Y35.878805 Z-1.000000 I0.350182 J-0.147858
G01 X76.722941 Y35.878805 Z-1.000000
G01 X76.984815 Y34.838832 Z-1.000000
G02 X77.263906 Y32.679034 Z-1.000000 I-8.957052 J-2.255373
G02 X77.017555 Y31.674593 Z-1.000000 I-2.082979 J-0.021554
G02 X76.716486 Y31.330570 Z-1.000000 I-0.893572 J0.478252
G02 X76.081235 Y30.999923 Z-1.000000 I-1.453885 J2.017698
G03 X75.550316 Y30.529922 Z-1.000000 I0.307587 J-0.882322
G03 X75.717827 Y30.260883 Z-1.000000 I0.167511 J-0.082371
G01 X76.061599 Y30.260883 Z-1.000000
G01 X75.912127 Y29.871369 Z-1.000000
G01 X75.762656 Y29.481845 Z-1.000000
G01 X76.019662 Y29.640688 Z-1.000000
G01 X76.276668 Y29.799522 Z-1.000000
G01 X76.426334 Y29.327967 Z-1.000000
G03 X76.753301 Y29.082501 Z-1.000000 I0.335580 J0.106504
G03 X77.597812 Y29.299297 Z-1.000000 I0.039171 J1.600676
G01 X78.300046 Y29.707935 Z-1.000000
G01 X78.651163 Y30.786801 Z-1.000000
G02 X79.043409 Y31.840243 Z-1.000000 I12.787479 J-4.161637
G02 X79.177846 Y32.038633 Z-1.000000 I0.563417 J-0.237048
G03 X79.324847 Y32.480407 Z-1.000000 I-0.359603 J0.365003
G03 X78.751212 Y34.853948 Z-1.000000 I-13.935178 J-2.111752
G01 X78.149017 Y36.647863 Z-1.000000
G01 X78.277364 Y37.159267 Z-1.000000
G01 X78.405722 Y37.670679 Z-1.000000
G01 X77.630792 Y38.421771 Z-1.000000
G01 X76.855862 Y39.172863 Z-1.000000
G01 X75.945187 Y39.320644 Z-1.000000
G01 X75.034520 Y39.468426 Z-1.000000
G01 X74.626875 Y39.955917 Z-1.000000
G02 X74.356708 Y40.593074 Z-1.000000 I0.911899 J0.762520
G02 X74.537935 Y40.794537 Z-1.000000 I0.181227 J0.019220
G01 X74.872212 Y40.794537 Z-1.000000
G01 X75.032532 Y42.077731 Z-1.000000
G03 X74.911795 Y44.023120 Z-1.000000 I-5.221456 J0.652381
G03 X74.261858 Y45.118062 Z-1.000000 I-2.177002 J-0.551860
G03 X73.188496 Y45.513230 Z-1.000000 I-1.010717 J-1.090003
G03 X72.078939 Y45.025992 Z-1.000000 I0.070320 J-1.667118
G01 X71.394705 Y44.341755 Z-1.000000
G01 X71.394705 Y43.182609 Z-1.000000
G03 X71.439318 Y42.027875 Z-1.000000 I14.966406 J0.000001
G03 X71.541009 Y41.291963 Z-1.000000 I6.167717 J0.477294
G01 X71.687303 Y40.560463 Z-1.000000
G01 X72.011146 Y40.560463 Z-1.000000
G01 X72.334990 Y40.560463 Z-1.000000
G01 X72.059082 Y40.118659 Z-1.000000
G01 X71.783166 Y39.676855 Z-1.000000
G01 X70.732408 Y39.532825 Z-1.000000
G01 X69.681651 Y39.388805 Z-1.000000
G01 X68.895235 Y38.788972 Z-1.000000
G03 X68.262774 Y38.160683 Z-1.000000 I2.077545 J-2.723816
G03 X68.252122 Y37.957290 Z-1.000000 I0.141459 J-0.109384
G02 X68.278709 Y37.720828 Z-1.000000 I-0.236673 J-0.146336
G02 X67.729828 Y36.431452 Z-1.000000 I-9.136436 J3.127816
G01 X67.064239 Y35.137480 Z-1.000000
G01 X65.951680 Y34.567557 Z-1.000000
G01 X64.839121 Y33.997642 Z-1.000000
G01 X64.264402 Y34.141884 Z-1.000000
G01 X63.689684 Y34.286125 Z-1.000000
G01 X63.006073 Y33.799358 Z-1.000000
G03 X62.411627 Y33.251065 Z-1.000000 I1.862746 J-2.615929
G03 X62.198912 Y32.840116 Z-1.000000 I0.804487 J-0.676946
G03 X62.321081 Y32.508010 Z-1.000000 I0.299543 J-0.078334
G03 X62.593574 Y32.564269 Z-1.000000 I0.109662 J0.156895
G01 X62.715089 Y32.760889 Z-1.000000
G01 X64.143089 Y32.565596 Z-1.000000
G01 X65.571090 Y32.370305 Z-1.000000
G01 X66.200623 Y32.687247 Z-1.000000
G02 X66.843490 Y32.967739 Z-1.000000 I2.868743 J-5.698005
G02 X67.451239 Y33.152864 Z-1.000000 I1.826059 J-4.904626
G01 X68.072327 Y33.301531 Z-1.000000
G01 X68.784895 Y34.824272 Z-1.000000
G02 X69.554396 Y36.257553 Z-1.000000 I13.394724 J-6.268168
G02 X69.713773 Y36.347022 Z-1.000000 I0.159377 J-0.097221
G02 X69.857104 Y36.222280 Z-1.000000 I0.000000 J-0.144715
G02 X70.040912 Y34.416908 Z-1.000000 I-24.292627 J-3.385313
G02 X70.092633 Y32.590749 Z-1.000000 I-25.224577 J-1.628232
G02 X69.967913 Y32.409931 Z-1.000000 I-0.195655 J0.001532
G03 X69.851709 Y32.276620 Z-1.000000 I0.069121 J-0.177553
G03 X69.618664 Y30.946931 Z-1.000000 I10.797516 J-2.577668
G01 X69.461599 Y29.558698 Z-1.000000
G01 X69.154534 Y29.558698 Z-1.000000
G03 X68.881646 Y29.497389 Z-1.000000 I0.000000 J-0.637975
G03 X68.720536 Y29.353326 Z-1.000000 I0.162954 J-0.344354
G03 X68.469729 Y28.056788 Z-1.000000 I1.583961 J-0.978935
G03 X69.760879 Y23.343127 Z-1.000000 I25.132053 J4.350422
G01 X69.966782 Y22.801567 Z-1.000000
G01 X69.697582 Y22.711867 Z-1.000000
G01 X69.428372 Y22.622167 Z-1.000000
G01 X69.737490 Y21.233307 Z-1.000000
G03 X70.120712 Y19.896508 Z-1.000000 I11.284859 J2.511720
G03 X70.279989 Y19.696597 Z-1.000000 I0.368267 J0.130006
G02 X71.314746 Y18.196359 Z-1.000000 I-1.245468 J-1.966005
G02 X71.229291 Y15.049007 Z-1.000000 I-6.805254 J-1.390065
G01 X71.106031 Y14.577637 Z-1.000000
G01 X70.303413 Y14.577637 Z-1.000000
G01 X69.500794 Y14.577637 Z-1.000000
G01 X68.984755 Y15.137017 Z-1.000000
G02 X68.485344 Y15.709987 Z-1.000000 I9.906138 J9.138500
G02 X68.069505 Y16.248897 Z-1.000000 I8.341085 J6.866125
G01 X67.670293 Y16.801397 Z-1.000000
G01 X67.606754 Y14.577637 Z-1.000000
G03 X67.585614 Y10.289907 Z-1.000000 I90.743574 J-2.591296
G03 X67.710688 Y9.018227 Z-1.000000 I8.058871 J0.150624
G01 X67.889016 Y8.023397 Z-1.000000
G01 X67.535129 Y8.023397 Z-1.000000
G03 X67.344365 Y7.849696 Z-1.000000 I0.000000 J-0.191602
G03 X67.469289 Y7.321757 Z-1.000000 I0.843511 J-0.079153
G01 X67.757311 Y6.860557 Z-1.000000
G01 X67.410771 Y6.530727 Z-1.000000
G01 X67.064229 Y6.200887 Z-1.000000
G01 X63.851544 Y5.877006 Z-1.000000
G01 X60.638861 Y5.553126 Z-1.000000
G01 X58.643277 Y7.752196 Z-1.000000
G02 X56.766888 Y9.997270 Z-1.000000 I26.597580 J24.136404
G02 X56.647693 Y10.347866 Z-1.000000 I0.456018 J0.350595
G02 X57.452213 Y12.836784 Z-1.000000 I4.252202 J0.000000
G02 X59.025284 Y13.641316 Z-1.000000 I1.573071 J-1.135616
G03 X59.117757 Y13.715158 Z-1.000000 I-0.000000 J0.094824
G03 X59.085684 Y13.907506 Z-1.000000 I-0.251113 J0.056975
G01 X58.921163 Y14.173706 Z-1.000000
G01 X59.481508 Y14.602216 Z-1.000000
G01 X60.041850 Y15.030706 Z-1.000000
G01 X59.632211 Y15.759466 Z-1.000000
G02 X59.373517 Y16.819895 Z-1.000000 I1.765674 J0.992511
G02 X59.690731 Y17.503636 Z-1.000000 I0.965300 J-0.032386
G03 X60.127914 Y18.276966 Z-1.000000 I-0.945502 J1.044755
G03 X59.897510 Y18.556996 Z-1.000000 I-0.230403 J0.045229
G01 X59.636129 Y18.556996 Z-1.000000
G01 X59.770674 Y19.071496 Z-1.000000
G03 X59.798516 Y19.562313 Z-1.000000 I-1.202272 J0.314397
G03 X59.653369 Y19.889456 Z-1.000000 I-0.651999 J-0.093508
G01 X59.401522 Y20.192916 Z-1.000000
G01 X59.905453 Y20.603876 Z-1.000000
G01 X60.409383 Y21.014836 Z-1.000000
G01 X60.436933 Y24.064976 Z-1.000000
G01 X60.464482 Y27.115126 Z-1.000000
G01 X60.175994 Y27.654174 Z-1.000000
G01 X59.887502 Y28.193222 Z-1.000000
G01 X60.257280 Y28.601825 Z-1.000000
G03 X60.636156 Y29.484175 Z-1.000000 I-1.098703 J0.994295
G03 X60.377089 Y30.183262 Z-1.000000 I-0.890678 J0.067480
G01 X60.127125 Y30.433225 Z-1.000000
G01 X60.360930 Y33.358996 Z-1.000000
G01 X60.594735 Y36.284775 Z-1.000000
G01 X60.937626 Y37.105430 Z-1.000000
G01 X61.280519 Y37.926095 Z-1.000000
G01 X62.416783 Y38.133679 Z-1.000000
G01 X63.553046 Y38.341272 Z-1.000000
G01 X63.561346 Y40.445741 Z-1.000000
G01 X63.569646 Y42.550209 Z-1.000000
G01 X64.355696 Y44.175725 Z-1.000000
G01 X65.141749 Y45.801232 Z-1.000000
G01 X66.316435 Y46.927512 Z-1.000000
G02 X67.559085 Y47.956631 Z-1.000000 I7.688426 J-8.018885
G02 X68.799127 Y48.696163 Z-1.000000 I5.161127 J-7.244728
G01 X70.107157 Y49.338534 Z-1.000000
G01 X72.965151 Y49.420834 Z-1.000000
G01 X75.823146 Y49.503135 Z-1.000000
G01 X77.814976 Y47.572040 Z-1.000000
G02 X80.001523 Y44.741395 Z-1.000000 I-8.725197 J-8.999650
G02 X81.248308 Y41.499154 Z-1.000000 I-10.291680 J-5.818449
G01 X81.748081 Y39.260771 Z-1.000000
G01 X83.340523 Y39.350761 Z-1.000000
G01 X84.932973 Y39.440741 Z-1.000000
G01 X85.361723 Y38.654642 Z-1.000000
G01 X85.790483 Y37.868552 Z-1.000000
G01 X85.788684 Y33.538071 Z-1.000000
G01 X85.786884 Y29.207581 Z-1.000000
G01 X85.396645 Y28.622385 Z-1.000000
G01 X85.006415 Y28.037179 Z-1.000000
G01 X84.746621 Y25.391971 Z-1.000000
G01 X84.486829 Y22.746758 Z-1.000000
G01 X84.963888 Y22.140278 Z-1.000000
G01 X85.440945 Y21.533799 Z-1.000000
G01 X85.184267 Y21.224509 Z-1.000000
G03 X85.014657 Y20.879281 Z-1.000000 I0.632682 J-0.525115
G03 X84.800372 Y19.512338 Z-1.000000 I10.381243 J-2.327652
G01 X84.673165 Y18.109438 Z-1.000000
G01 X85.087120 Y17.237079 Z-1.000000
G01 X85.501084 Y16.364719 Z-1.000000
G01 X84.991009 Y15.951678 Z-1.000000
G01 X84.480927 Y15.538648 Z-1.000000
G01 X85.064165 Y15.156499 Z-1.000000
G01 X85.647396 Y14.774339 Z-1.000000
G01 X86.039388 Y13.564089 Z-1.000000
G03 X86.491635 Y12.380197 Z-1.000000 I11.671390 J3.780153
G03 X87.105357 Y11.154919 Z-1.000000 I13.117427 J5.803964
G02 X87.684976 Y9.352642 Z-1.000000 I-4.133274 J-2.323619
G02 X87.369708 Y8.765209 Z-1.000000 I-0.584447 J-0.064652
G02 X86.938868 Y8.625572 Z-1.000000 I-0.642424 J1.247679
G02 X83.980260 Y8.248268 Z-1.000000 I-9.176567 J60.168989
G01 X81.000448 Y7.942258 Z-1.000000
G01 X80.527584 Y8.370198 Z-1.000000
G01 X80.054721 Y8.798138 Z-1.000000
G01 X80.054721 Y8.278568 Z-1.000000
G03 X80.127188 Y7.773926 Z-1.000000 I1.793337 J0.000000
G03 X80.533328 Y6.646448 Z-1.000000 I9.509789 J2.788729
G01 X81.011935 Y5.533888 Z-1.000000
G01 X80.771609 Y4.901778 Z-1.000000
G02 X80.108772 Y4.270549 Z-1.000000 I-0.990670 J0.376648
G02 X77.086025 Y3.702968 Z-1.000000 I-3.701342 J11.379242
G01 X74.787934 Y3.572437 Z-1.000000
G01 X73.360343 Y5.154167 Z-1.000000
G01 X73.361255 Y5.154147 Z-1.000000
G00 Z5.000000

(Change tool to Cylindrical cutter)

G00 Z5.000000
G00 X55.477289 Y7.204026

G01 Z-1.000000 F1000.0(Penetrate)
G01 X55.477289 Y7.828246 Z-1.000000 F1100.000000
G01 X55.769888 Y7.730746 Z-1.000000
G02 X55.968785 Y7.565710 Z-1.000000 I-0.112598 J-0.338070
G02 X56.062487 Y7.204066 Z-1.000000 I-0.651029 J-0.361644
G02 X55.968789 Y6.842466 Z-1.000000 I-0.744588 J-0.000000
G02 X55.769888 Y6.677396 Z-1.000000 I-0.311623 J0.173121
G01 X55.477289 Y6.579896 Z-1.000000
G01 X55.477289 Y7.204026 Z-1.000000
G00 Z5.000000

(Change tool to Cylindrical cutter)

G00 Z5.000000
G00 X54.370747 Y11.944155

G01 Z-1.000000 F1000.0(Penetrate)
G02 X54.169797 Y14.229227 Z-1.000000 I58.105524 J6.261191 F1100.000000
G02 X54.095392 Y15.982035 Z-1.000000 I34.103380 J2.325627
G03 X54.042306 Y17.736666 Z-1.000000 I-65.054178 J-1.090104
G03 X53.921246 Y19.961395 Z-1.000000 I-104.745757 J-4.584137
G02 X53.808960 Y22.186388 Z-1.000000 I76.306065 J4.966169
G02 X53.749111 Y24.760035 Z-1.000000 I102.055703 J3.660805
G03 X53.649903 Y27.313168 Z-1.000000 I-45.322403 J-0.482609
G03 X53.559585 Y27.583400 Z-1.000000 I-0.562384 J-0.037752
G02 X52.410362 Y30.752764 Z-1.000000 I6.187463 J4.036635
G02 X52.333502 Y37.955484 Z-1.000000 I33.492641 J3.959170
G01 X52.477608 Y39.446925 Z-1.000000
G01 X53.099649 Y38.368528 Z-1.000000
G01 X53.721691 Y37.290131 Z-1.000000
G01 X55.562354 Y35.763011 Z-1.000000
G03 X57.454095 Y34.337400 Z-1.000000 I16.176046 J19.497154
G03 X58.020188 Y34.085002 Z-1.000000 I0.978038 J1.432570
G02 X58.651243 Y33.590946 Z-1.000000 I-0.231071 J-0.945196
G02 X58.854864 Y32.489937 Z-1.000000 I-1.682692 J-0.880531
G02 X57.583598 Y22.696401 Z-1.000000 I-385.362359 J45.043296
G02 X56.796281 Y18.071126 Z-1.000000 I-86.689573 J12.376703
G03 X56.024963 Y13.986600 Z-1.000000 I232.851700 J-46.086620
G03 X55.831512 Y12.704916 Z-1.000000 I22.718225 J-4.084414
G02 X55.640307 Y11.423815 Z-1.000000 I-24.322041 J2.975248
G02 X55.449592 Y10.539676 Z-1.000000 I-11.765683 J2.075306
G01 X55.225165 Y9.661876 Z-1.000000
G01 X54.920920 Y9.661875 Z-1.000000
G01 X54.616676 Y9.661875 Z-1.000000
G01 X54.370747 Y11.944155 Z-1.000000
G00 Z5.000000

(Change tool to Cylindrical cutter)

G00 Z5.000000
G00 X72.871701 Y17.503557

G01 Z-1.000000 F1000.0(Penetrate)
G02 X72.920657 Y18.143742 Z-1.000000 I4.342563 J-0.010119 F1100.000000
G01 X72.968811 Y18.143087 Z-1.000000
G02 X73.015309 Y17.378830 Z-1.000000 I-6.083897 J-0.753691
G02 X72.966111 Y16.738597 Z-1.000000 I-4.286564 J0.007388
G01 X72.917842 Y16.739266 Z-1.000000
G02 X72.871391 Y17.503557 Z-1.000000 I6.091867 J0.753796
G01 X72.871701 Y17.503557 Z-1.000000
G00 Z5.000000

(Change tool to Cylindrical cutter)

G00 Z5.000000
G00 X72.506567 Y23.138267

G01 Z-1.000000 F1000.0(Penetrate)
G02 X72.409886 Y23.348112 Z-1.000000 I0.242934 J0.239120 F1100.000000
G02 X72.358370 Y24.857580 Z-1.000000 I14.510697 J1.250843
G01 X72.385709 Y26.398602 Z-1.000000
G01 X72.599974 Y25.111160 Z-1.000000
G02 X72.711498 Y23.216636 Z-1.000000 I-8.836592 J-1.470724
G02 X72.506535 Y23.138267 Z-1.000000 I-0.119631 J0.005666
G01 X72.506567 Y23.138267 Z-1.000000
G00 Z5.000000

(Change tool to Cylindrical cutter)

G00 Z5.000000
G00 X28.324069 Y86.780381

G01 Z-1.000000 F1000.0(Penetrate)
G02 X10.059382 Y102.838248 Z-1.000000 I1604.465150 J1843.381886 F1100.000000
G02 X9.869796 Y103.168442 Z-1.000000 I0.397748 J0.447896
G02 X10.109011 Y104.055482 Z-1.000000 I1.012143 J0.202823
G02 X11.016961 Y104.464329 Z-1.000000 I0.907949 J-0.803741
G01 X11.427331 Y104.464329 Z-1.000000
G01 X27.787140 Y90.243961 Z-1.000000
G03 X44.149737 Y76.026813 Z-1.000000 I36218.819113 J41667.927213
G03 X46.300926 Y74.164064 Z-1.000000 I623.872048 J718.302663
G01 X48.454901 Y72.304534 Z-1.000000
G01 X48.454901 Y71.918063 Z-1.000000
G02 X48.087947 Y71.107671 Z-1.000000 I-1.078325 J-0.000000
G02 X47.149033 Y70.771753 Z-1.000000 I-0.893863 J1.018286
G01 X46.699305 Y70.786713 Z-1.000000
G01 X28.324069 Y86.780381 Z-1.000000
G00 Z5.000000

(End cutting path id: path848)


(Pass at depth -2.0)

(Footer)
M5
G00 X0.0000 Y0.0000
M2
(Using default footer. To add your own footer create file "footer" in the output dir.)
(end)
%