%
(Header)
(Generated by gcodetools from Inkscape.)
(Using default header. To add your own header create file "header" in the output dir.)
M3
(Header end.)
G21 (All units in mm)

(Start cutting path id: path4758)
(Change tool to Cylindrical cutter)

G00 Z5.000000
G00 X56.682908 Y0.360844

G01 Z-0.125000 F1000.0(Penetrate)
G01 X56.079740 Y0.493351 Z-0.125000 F1100.000000
G01 X56.079176 Y18.770759 Z-0.125000
G01 X56.078611 Y37.048173 Z-0.125000
G01 X59.161991 Y36.964892 Z-0.125000
G01 X62.245370 Y36.881605 Z-0.125000
G01 X62.245370 Y18.668800 Z-0.125000
G02 X62.145411 Y0.553007 Z-0.125000 I-1641.634616 J0.000000
G02 X62.044312 Y0.449987 Z-0.125000 I-0.104210 J0.001150
G03 X61.796765 Y0.427536 Z-0.125000 I0.053764 J-1.968774
G02 X58.990185 Y0.144637 Z-0.125000 I-4.063015 J26.245083
G02 X57.170049 Y0.263515 Z-0.125000 I-0.384239 J8.110401
G02 X56.682835 Y0.360743 Z-0.125000 I2.289203 J12.740617
G01 X56.682908 Y0.360844 Z-0.125000
G00 Z5.000000

(End cutting path id: path4758)


(Start cutting path id: path4758)
(Change tool to Cylindrical cutter)

G00 Z5.000000
G00 X53.759555 Y1.339413

G01 Z-0.125000 F1000.0(Penetrate)
G02 X52.673324 Y1.975296 Z-0.125000 I7.067485 J13.318566 F1100.000000
G02 X50.755336 Y3.270849 Z-0.125000 I27.563493 J42.873586
G01 X48.864969 Y4.611207 Z-0.125000
G01 X48.853370 Y21.700931 Z-0.125000
G02 X48.922571 Y38.709899 Z-0.125000 I1791.542272 J1.215708
G02 X49.004042 Y38.790655 Z-0.125000 I0.081472 J-0.000718
G02 X49.163185 Y38.769021 Z-0.125000 I0.000000 J-0.596145
G02 X51.349693 Y38.140915 Z-0.125000 I-31.951842 J-115.347738
G03 X53.540016 Y37.519148 Z-0.125000 I25.672633 J86.269188
G03 X54.404289 Y37.315395 Z-0.125000 I3.573272 J13.222081
G01 X55.275531 Y37.139604 Z-0.125000
G01 X55.275531 Y18.931877 Z-0.125000
G02 X55.175524 Y0.830343 Z-0.125000 I-1638.259839 J-0.000000
G02 X55.074476 Y0.736254 Z-0.125000 I-0.095310 J0.001053
G02 X54.883431 Y0.784382 Z-0.125000 I0.034640 J0.540741
G02 X53.759563 Y1.339413 Z-0.125000 I8.965534 J19.569430
G01 X53.759555 Y1.339413 Z-0.125000
G00 Z5.000000

(End cutting path id: path4758)


(Start cutting path id: path4758)
(Change tool to Cylindrical cutter)

G00 Z5.000000
G00 X44.623338 Y8.668676

G01 Z-0.125000 F1000.0(Penetrate)
G01 X41.508003 Y12.122972 Z-0.125000 F1100.000000
G01 X41.603741 Y22.324631 Z-0.125000
G01 X41.616526 Y38.351433 Z-0.125000
G02 X41.648876 Y43.015151 Z-0.125000 I167.987352 J1.166729
G02 X41.714920 Y43.079835 Z-0.125000 I0.066044 J-0.001375
G02 X41.835030 Y43.044461 Z-0.125000 I0.000000 J-0.221602
G02 X43.534423 Y41.906324 Z-0.125000 I-32.049467 J-49.691977
G03 X45.254950 Y40.786984 Z-0.125000 I19.124093 J27.513503
G03 X46.624390 Y40.028186 Z-0.125000 I10.125131 J16.658155
G01 X48.026044 Y39.323573 Z-0.125000
G01 X48.033466 Y22.436518 Z-0.125000
G02 X47.941915 Y5.648351 Z-0.125000 I-1424.975070 J-0.623511
G02 X47.841902 Y5.549466 Z-0.125000 I-0.100013 J0.001135
G02 X47.672115 Y5.618241 Z-0.125000 I0.000000 J0.243968
G02 X44.623372 Y8.668676 Z-0.125000 I94.109735 J97.106245
G01 X44.623338 Y8.668676 Z-0.125000
G00 Z5.000000

(End cutting path id: path4758)


(Start cutting path id: path4758)
(Change tool to Cylindrical cutter)

G00 Z5.000000
G00 X39.360376 Y14.462933

G01 Z-0.125000 F1000.0(Penetrate)
G02 X34.997255 Y20.117328 Z-0.125000 I205.108104 J162.778892 F1100.000000
G02 X31.147538 Y25.386948 Z-0.125000 I206.687033 J155.036072
G02 X25.106585 Y34.055435 Z-0.125000 I429.167393 J305.520200
G02 X23.508747 Y36.586014 Z-0.125000 I34.920515 J23.818970
G03 X23.231968 Y37.040448 Z-0.125000 I-11.925371 J-6.951778
G03 X22.704524 Y37.850926 Z-0.125000 I-38.511813 J-24.485933
G02 X17.437404 Y46.171867 Z-0.125000 I176.666736 J117.656802
G02 X17.209006 Y46.995318 Z-0.125000 I1.370215 J0.823451
G03 X17.189013 Y47.071818 Z-0.125000 I-0.156352 J-0.000000
G03 X16.366775 Y48.496537 Z-0.125000 I-58.949915 J-33.071709
G02 X13.628926 Y53.471535 Z-0.125000 I75.124319 J44.583398
G02 X9.780964 Y61.442909 Z-0.125000 I189.188592 J96.240030
G02 X3.363069 Y78.449121 Z-0.125000 I121.610655 J55.608189
G02 X0.607077 Y91.869309 Z-0.125000 I72.731689 J21.929382
G03 X0.347534 Y94.147629 Z-0.125000 I-964.838245 J-108.759063
G03 X0.175049 Y95.622346 Z-0.125000 I-404.702250 J-46.587256
G02 X0.137903 Y100.548447 Z-0.125000 I22.137158 J2.630118
G02 X1.410687 Y107.555968 Z-0.125000 I46.349305 J-4.799123
G02 X4.441770 Y114.786776 Z-0.125000 I27.028855 J-7.079525
G02 X9.971007 Y121.911233 Z-0.125000 I31.750151 J-18.933227
G02 X15.715695 Y126.569531 Z-0.125000 I24.520980 J-24.368295
G02 X24.451549 Y131.278191 Z-0.125000 I33.805750 J-52.260891
G02 X30.534518 Y133.431224 Z-0.125000 I17.489745 J-39.744184
G02 X39.043009 Y135.250799 Z-0.125000 I20.739212 J-76.175356
G01 X40.531449 Y135.484211 Z-0.125000
G01 X40.531449 Y110.241121 Z-0.125000
G01 X40.531449 Y84.998033 Z-0.125000
G01 X39.639232 Y84.208127 Z-0.125000
G03 X35.925978 Y79.821428 Z-0.125000 I13.301916 J-15.024755
G03 X33.055063 Y73.676994 Z-0.125000 I23.693577 J-14.813462
G03 X31.618647 Y66.529215 Z-0.125000 I29.655627 J-9.677811
G03 X31.943060 Y60.011407 Z-0.125000 I24.911061 J-2.027071
G03 X34.530948 Y52.287048 Z-0.125000 I28.190865 J5.149080
G03 X39.124357 Y45.729080 Z-0.125000 I24.732463 J12.435736
G01 X40.800119 Y43.952263 Z-0.125000
G01 X40.795039 Y28.503906 Z-0.125000
G02 X40.736533 Y13.108965 Z-0.125000 I-2230.160380 J0.777807
G02 X40.682726 Y13.055547 Z-0.125000 I-0.053807 J0.000390
G02 X40.593254 Y13.094251 Z-0.125000 I0.000000 J0.122770
G02 X39.360382 Y14.462933 Z-0.125000 I31.941536 J30.011671
G01 X39.360376 Y14.462933 Z-0.125000
G00 Z5.000000

(End cutting path id: path4758)


(Start cutting path id: path4758)
(Change tool to Cylindrical cutter)

G00 Z5.000000
G00 X62.792859 Y18.939000

G01 Z-0.125000 F1000.0(Penetrate)
G01 X62.851445 Y37.014667 Z-0.125000 F1100.000000
G01 X63.400317 Y37.182209 Z-0.125000
G02 X64.235652 Y37.423082 Z-0.125000 I8.168785 J-26.760031
G02 X69.152432 Y38.756388 Z-0.125000 I1684.646561 J-6202.672062
G01 X69.164567 Y36.468912 Z-0.125000
G01 X68.216783 Y36.082030 Z-0.125000
G03 X68.409122 Y33.838140 Z-0.125000 I7.789899 J-0.462466
G03 X69.249192 Y30.803916 Z-0.125000 I38.531270 J9.034551
G02 X69.302260 Y29.301956 Z-0.125000 I-17.607843 J-1.374051
G02 X69.215339 Y18.385955 Z-0.125000 I-7579.002478 J54.891021
G01 X69.215339 Y3.968308 Z-0.125000
G01 X68.337233 Y3.298546 Z-0.125000
G02 X66.113362 Y1.921444 Z-0.125000 I-8.176639 J10.720174
G02 X63.396975 Y0.867560 Z-0.125000 I-7.386294 J15.010503
G01 X62.806050 Y0.695786 Z-0.125000
G01 X62.792842 Y18.939000 Z-0.125000
G01 X62.792859 Y18.939000 Z-0.125000
G00 Z5.000000

(End cutting path id: path4758)


(Start cutting path id: path4758)
(Change tool to Cylindrical cutter)

G00 Z5.000000
G00 X69.767242 Y17.115269

G01 Z-0.125000 F1000.0(Penetrate)
G01 X69.782961 Y29.810175 Z-0.125000 F1100.000000
G01 X70.423806 Y27.959398 Z-0.125000
G03 X72.550353 Y23.438991 Z-0.125000 I22.229637 J7.697145
G03 X76.822659 Y16.930989 Z-0.125000 I95.563941 J58.078503
G03 X76.802796 Y16.040033 Z-0.125000 I9.455030 J-0.656485
G02 X76.826723 Y14.277843 Z-0.125000 I-78.903439 J-1.952587
G01 X76.833807 Y11.383059 Z-0.125000
G01 X75.472237 Y9.866775 Z-0.125000
G02 X74.065767 Y8.395313 Z-0.125000 I-24.332607 J21.849972
G02 X71.930867 Y6.385434 Z-0.125000 I-47.569991 J48.390202
G01 X69.751056 Y4.420374 Z-0.125000
G01 X69.766776 Y17.115269 Z-0.125000
G01 X69.767242 Y17.115269 Z-0.125000
G00 Z5.000000

(End cutting path id: path4758)


(Start cutting path id: path4758)
(Change tool to Cylindrical cutter)

G00 Z5.000000
G00 X77.268581 Y14.249263

G01 Z-0.125000 F1000.0(Penetrate)
G01 X77.257546 Y16.649314 Z-0.125000 F1100.000000
G01 X78.329847 Y15.602250 Z-0.125000
G03 X79.338901 Y14.531279 Z-0.125000 I30.651668 J27.868734
G02 X79.402139 Y14.375980 Z-0.125000 I-0.159071 J-0.155299
G02 X79.347493 Y14.217781 Z-0.125000 I-0.256313 J0.000000
G02 X78.340842 Y13.023001 Z-0.125000 I-17.586366 J13.795762
G01 X77.279540 Y11.849211 Z-0.125000
G01 X77.268477 Y14.249263 Z-0.125000
G01 X77.268581 Y14.249263 Z-0.125000
G00 Z5.000000

(End cutting path id: path4758)


(Start cutting path id: path4758)
(Change tool to Cylindrical cutter)

G00 Z5.000000
G00 X66.616682 Y42.853185

G01 Z-0.125000 F1000.0(Penetrate)
G03 X68.506646 Y43.644735 Z-0.125000 I-4.877497 J14.297959 F1100.000000
G03 X69.057396 Y43.924557 Z-0.125000 I-24.733873 J49.363537
G03 X69.410465 Y51.130993 Z-0.125000 I-46.146844 J5.872763
G02 X69.215367 Y64.738361 Z-0.125000 I474.435344 J13.607368
G01 X69.215367 Y85.573792 Z-0.125000
G01 X67.942017 Y86.057913 Z-0.125000
G03 X64.643959 Y87.149233 Z-0.125000 I-14.109683 J-37.111460
G03 X63.521799 Y87.308872 Z-0.125000 I-1.151028 J-4.067149
G03 X63.285637 Y87.079811 Z-0.125000 I-0.001615 J-0.234607
G03 X62.985653 Y64.636219 Z-0.125000 I1091.688887 J-25.815432
G01 X62.915625 Y41.960397 Z-0.125000
G01 X63.935938 Y42.123573 Z-0.125000
G03 X64.942894 Y42.340485 Z-0.125000 I-1.519995 J9.501879
G03 X66.616682 Y42.853185 Z-0.125000 I-7.294029 J26.801003
G01 X66.616682 Y42.853185 Z-0.125000
G00 Z5.000000

(End cutting path id: path4758)


(Start cutting path id: path4758)
(Change tool to Cylindrical cutter)

G00 Z5.000000
G00 X72.167048 Y45.596738

G01 Z-0.125000 F1000.0(Penetrate)
G03 X73.845911 Y46.847318 Z-0.125000 I-12.873361 J19.034255 F1100.000000
G03 X75.361132 Y48.210463 Z-0.125000 I-13.789734 J16.851867
G01 X76.815603 Y49.647643 Z-0.125000
G01 X76.754406 Y64.793832 Z-0.125000
G01 X76.693209 Y79.940013 Z-0.125000
G01 X75.836097 Y80.838007 Z-0.125000
G03 X71.483417 Y84.652552 Z-0.125000 I-23.529341 J-22.458099
G03 X69.904605 Y85.167460 Z-0.125000 I-1.578813 J-2.163024
G01 X69.862329 Y85.125358 Z-0.125000
G03 X69.821047 Y64.793832 Z-0.125000 I4909.196866 J-20.133695
G02 X69.772242 Y45.009162 Z-0.125000 I-3949.744157 J-0.149017
G03 X69.933177 Y44.276598 Z-0.125000 I1.709079 J-0.008497
G03 X70.152423 Y44.217420 Z-0.125000 I0.134603 J0.062957
G02 X72.167079 Y45.596738 Z-0.125000 I122.225638 J-176.363970
G01 X72.167048 Y45.596738 Z-0.125000
G00 Z5.000000

(End cutting path id: path4758)


(Start cutting path id: path4758)
(Change tool to Cylindrical cutter)

G00 Z5.000000
G00 X56.313973 Y38.783713

G01 Z-0.125000 F1000.0(Penetrate)
G02 X47.686946 Y41.407001 Z-0.125000 I3.346246 J26.501764 F1100.000000
G02 X40.604756 Y46.660713 Z-0.125000 I11.450746 J22.836391
G02 X37.646648 Y50.259441 Z-0.125000 I23.790759 J22.570822
G02 X35.919390 Y53.266652 Z-0.125000 I14.823743 J10.513995
G02 X34.134667 Y58.370315 Z-0.125000 I27.573313 J12.506123
G02 X33.384640 Y63.319421 Z-0.125000 I25.163825 J6.344914
G02 X37.964297 Y79.578731 Z-0.125000 I26.151794 J1.408606
G02 X51.441706 Y89.549127 Z-0.125000 I21.247887 J-14.627484
G02 X63.468896 Y90.441155 Z-0.125000 I7.901898 J-25.013919
G02 X74.712054 Y85.843529 Z-0.125000 I-4.184787 J-26.279567
G02 X78.331840 Y82.714801 Z-0.125000 I-14.726566 J-20.696241
G02 X81.198898 Y79.069084 Z-0.125000 I-17.239603 J-16.507748
G02 X85.348162 Y63.910255 Z-0.125000 I-22.261941 J-14.240803
G02 X80.151016 Y48.921948 Z-0.125000 I-26.908749 J0.935319
G02 X77.421271 Y45.875822 Z-0.125000 I-16.876416 J12.377400
G02 X73.555025 Y42.871998 Z-0.125000 I-20.269542 J22.099037
G02 X69.143195 Y40.446113 Z-0.125000 I-18.124027 J27.736502
G02 X66.132518 Y39.497650 Z-0.125000 I-5.389514 J11.855182
G03 X65.331383 Y39.334080 Z-0.125000 I4.211715 J-22.671943
G03 X64.255998 Y39.079758 Z-0.125000 I9.173625 J-41.190812
G02 X60.785179 Y38.586081 Z-0.125000 I-4.099643 J16.375027
G02 X56.313973 Y38.783713 Z-0.125000 I-1.024819 J27.491566
G01 X56.313973 Y38.783713 Z-0.125000
G00 Z5.000000

(End cutting path id: path4758)


(Start cutting path id: path4758)
(Change tool to Cylindrical cutter)

G00 Z5.000000
G00 X55.275520 Y64.659796

G01 Z-0.125000 F1000.0(Penetrate)
G03 X55.194634 Y87.231158 Z-0.125000 I-3149.317938 J-0.000000 F1100.000000
G03 X55.113160 Y87.312050 Z-0.125000 I-0.081473 J-0.000584
G03 X53.720128 Y87.102040 Z-0.125000 I0.000000 J-4.725113
G03 X50.359341 Y85.845375 Z-0.125000 I9.036714 J-29.289839
G01 X48.847169 Y85.176618 Z-0.125000
G01 X48.845194 Y64.709854 Z-0.125000
G01 X48.843218 Y44.243101 Z-0.125000
G01 X50.142087 Y43.634740 Z-0.125000
G03 X53.248893 Y42.406087 Z-0.125000 I11.540972 J24.640526
G03 X55.074490 Y42.026638 Z-0.125000 I2.626948 J8.057347
G03 X55.175216 Y42.117376 Z-0.125000 I0.008757 J0.091555
G03 X55.275319 Y64.659796 Z-0.125000 I-2538.129929 J22.542421
G01 X55.275520 Y64.659796 Z-0.125000
G00 Z5.000000

(End cutting path id: path4758)


(Start cutting path id: path4758)
(Change tool to Cylindrical cutter)

G00 Z5.000000
G00 X62.203429 Y64.659796

G01 Z-0.125000 F1000.0(Penetrate)
G01 X62.219798 Y87.580124 Z-0.125000 F1100.000000
G01 X60.758228 Y87.613632 Z-0.125000
G03 X59.296611 Y87.643519 Z-0.125000 I-6.849984 J-299.249766
G03 X58.894546 Y87.647138 Z-0.125000 I-0.402065 J-22.331414
G03 X58.492498 Y87.642826 Z-0.125000 I0.000000 J-18.748248
G03 X57.328272 Y87.613632 Z-0.125000 I3.445221 J-160.620153
G01 X56.164111 Y87.580124 Z-0.125000
G01 X56.156829 Y73.238169 Z-0.125000
G01 X56.231553 Y41.978829 Z-0.125000
G03 X56.441515 Y41.850745 Z-0.125000 I0.231218 J0.142891
G03 X59.283301 Y41.739460 Z-0.125000 I2.841786 J36.228276
G01 X62.187111 Y41.739460 Z-0.125000
G01 X62.203480 Y64.659796 Z-0.125000
G01 X62.203429 Y64.659796 Z-0.125000
G00 Z5.000000

(End cutting path id: path4758)


(Start cutting path id: path4758)
(Change tool to Cylindrical cutter)

G00 Z5.000000
G00 X47.769447 Y64.806707

G01 Z-0.125000 F1000.0(Penetrate)
G01 X47.769447 Y84.657067 Z-0.125000 F1100.000000
G01 X46.496094 Y83.788313 Z-0.125000
G03 X45.270314 Y82.860797 Z-0.125000 I8.835463 J-12.950454
G03 X43.550191 Y81.323074 Z-0.125000 I22.668448 J-27.088237
G01 X41.877641 Y79.726585 Z-0.125000
G01 X41.876512 Y64.675349 Z-0.125000
G01 X41.875383 Y49.624119 Z-0.125000
G01 X43.147025 Y48.392485 Z-0.125000
G03 X46.795469 Y45.224986 Z-0.125000 I30.870973 J31.873387
G03 X47.568530 Y44.957507 Z-0.125000 I0.780349 J1.004467
G03 X47.669569 Y45.057018 Z-0.125000 I0.000513 J0.100529
G03 X47.769591 Y64.806707 Z-0.125000 I-1949.768747 J19.749689
G01 X47.769447 Y64.806707 Z-0.125000
G00 Z5.000000

(End cutting path id: path4758)


(Start cutting path id: path4758)
(Change tool to Cylindrical cutter)

G00 Z5.000000
G00 X40.531449 Y72.031830

G01 Z-0.125000 F1000.0(Penetrate)
G01 X40.397410 Y77.795420 Z-0.125000 F1100.000000
G01 X39.675085 Y76.589093 Z-0.125000
G03 X37.258206 Y70.627598 Z-0.125000 I22.137990 J-12.445739
G03 X36.450606 Y64.659796 Z-0.125000 I23.601200 J-6.232408
G03 X37.215758 Y58.730426 Z-0.125000 I22.757766 J-0.077294
G03 X39.546268 Y53.025916 Z-0.125000 I23.365490 J6.217388
G01 X40.397410 Y51.524169 Z-0.125000
G01 X40.531449 Y58.896203 Z-0.125000
G03 X40.598460 Y66.268067 Z-0.125000 I-405.458443 J7.371864
G03 X40.531449 Y72.031830 Z-0.125000 I-247.912574 J-0.000000
G01 X40.531449 Y72.031830 Z-0.125000
G00 Z5.000000

(End cutting path id: path4758)


(Start cutting path id: path4758)
(Change tool to Cylindrical cutter)

G00 Z5.000000
G00 X67.204816 Y91.370668

G01 Z-0.125000 F1000.0(Penetrate)
G03 X65.581985 Y91.828854 Z-0.125000 I-6.904624 J-21.352209 F1100.000000
G03 X64.255998 Y92.084780 Z-0.125000 I-3.387644 J-13.988782
G01 X62.915625 Y92.278774 Z-0.125000
G01 X62.847085 Y114.889733 Z-0.125000
G01 X62.778544 Y137.500695 Z-0.125000
G01 X65.795906 Y137.306980 Z-0.125000
G02 X68.798176 Y137.064544 Z-0.125000 I-5.860394 J-91.284518
G02 X69.014323 Y136.993685 Z-0.125000 I-0.050552 J-0.519302
G02 X69.115616 Y136.817369 Z-0.125000 I-0.105939 J-0.178115
G02 X69.215376 Y113.835560 Z-0.125000 I-2647.120807 J-22.981810
G02 X69.115230 Y90.911366 Z-0.125000 I-2623.830717 J0.000000
G02 X69.014323 Y90.823780 Z-0.125000 I-0.089141 J0.000779
G02 X68.816866 Y90.866480 Z-0.125000 I0.165826 J1.244740
G02 X67.204822 Y91.370668 Z-0.125000 I25.369199 J83.942357
G01 X67.204816 Y91.370668 Z-0.125000
G00 Z5.000000

(End cutting path id: path4758)


(Start cutting path id: path4758)
(Change tool to Cylindrical cutter)

G00 Z5.000000
G00 X76.748124 Y98.639933

G01 Z-0.125000 F1000.0(Penetrate)
G02 X76.747813 Y87.982331 Z-0.125000 I-7375.466197 J-5.113515 F1100.000000
G02 X76.739008 Y87.246814 Z-0.125000 I-32.784704 J0.024644
G01 X76.721567 Y86.511394 Z-0.125000
G01 X74.912062 Y87.754075 Z-0.125000
G03 X73.058618 Y88.918934 Z-0.125000 I-15.254889 J-22.215575
G03 X71.426982 Y89.751638 Z-0.125000 I-9.379396 J-16.363485
G01 X69.751505 Y90.506515 Z-0.125000
G01 X69.751505 Y113.706127 Z-0.125000
G01 X69.751505 Y136.905748 Z-0.125000
G01 X70.354673 Y136.900470 Z-0.125000
G02 X76.506493 Y136.498138 Z-0.125000 I-0.468933 J-54.403312
G02 X76.855467 Y136.103765 Z-0.125000 I-0.048352 J-0.394373
G01 X76.792043 Y123.368022 Z-0.125000
G01 X76.748124 Y98.639933 Z-0.125000
G00 Z5.000000

(End cutting path id: path4758)


(Start cutting path id: path4758)
(Change tool to Cylindrical cutter)

G00 Z5.000000
G00 X77.257628 Y123.367974

G01 Z-0.125000 F1000.0(Penetrate)
G02 X77.357373 Y136.001034 Z-0.125000 I800.060094 J-0.000000 F1100.000000
G02 X77.458689 Y136.100060 Z-0.125000 I0.100604 J-0.001589
G02 X79.700700 Y135.879999 Z-0.125000 I-0.087521 J-12.422677
G02 X87.444445 Y134.193860 Z-0.125000 I-28.847555 J-151.110011
G02 X99.841338 Y129.565361 Z-0.125000 I-13.461282 J-54.970529
G02 X107.974537 Y123.648579 Z-0.125000 I-14.938023 J-29.082114
G02 X113.801236 Y116.053886 Z-0.125000 I-25.467467 J-25.571297
G02 X117.306300 Y107.403574 Z-0.125000 I-29.751491 J-17.090431
G02 X118.140908 Y102.735561 Z-0.125000 I-32.116978 J-8.150910
G02 X118.391458 Y97.136965 Z-0.125000 I-46.023497 J-4.864564
G02 X116.924441 Y83.741422 Z-0.125000 I-72.375695 J1.148148
G02 X113.413764 Y72.867857 Z-0.125000 I-50.981405 J10.456516
G03 X112.700557 Y71.137623 Z-0.125000 I27.266122 J-12.251271
G03 X112.355340 Y70.053074 Z-0.125000 I10.346032 J-3.890408
G02 X110.374123 Y64.312048 Z-0.125000 I-38.869009 J10.201247
G02 X108.881585 Y62.015230 Z-0.125000 I-7.504653 J3.243383
G02 X108.698736 Y62.010968 Z-0.125000 I-0.093482 J0.086152
G02 X108.203541 Y62.685429 Z-0.125000 I1.870248 J1.892173
G03 X105.340975 Y67.308951 Z-0.125000 I-30.653618 J-15.780692
G03 X99.800509 Y74.130590 Z-0.125000 I-72.584323 J-53.291471
G03 X93.619702 Y79.846895 Z-0.125000 I-33.579412 J-30.108369
G03 X86.487218 Y84.312544 Z-0.125000 I-27.373472 J-35.791813
G03 X80.813916 Y86.485081 Z-0.125000 I-13.645438 J-27.139495
G03 X80.206444 Y86.020759 Z-0.125000 I-0.126284 J-0.464322
G03 X80.272776 Y85.843038 Z-0.125000 I0.271245 J0.000000
G03 X81.404435 Y84.639456 Z-0.125000 I15.544132 J13.481439
G02 X83.830859 Y81.639203 Z-0.125000 I-11.804986 J-12.028462
G02 X86.174318 Y77.261961 Z-0.125000 I-28.440112 J-18.042012
G02 X88.742593 Y66.586460 Z-0.125000 I-27.772084 J-12.327996
G02 X87.562513 Y56.218154 Z-0.125000 I-31.205530 J-1.699616
G02 X85.980452 Y52.003022 Z-0.125000 I-27.759101 J8.014327
G02 X83.301256 Y47.300146 Z-0.125000 I-30.383209 J14.194508
G02 X79.819355 Y43.033968 Z-0.125000 I-26.513721 J18.085553
G02 X76.721485 Y40.414751 Z-0.125000 I-14.799706 J14.362697
G02 X73.348373 Y38.316212 Z-0.125000 I-24.954974 J36.351496
G02 X70.756834 Y37.056267 Z-0.125000 I-11.970479 J21.326490
G01 X69.751558 Y36.638824 Z-0.125000
G01 X69.751516 Y37.812377 Z-0.125000
G02 X70.066253 Y38.769180 Z-0.125000 I1.611712 J-0.000000
G02 X70.956808 Y39.446190 Z-0.125000 I1.599836 J-1.180229
G03 X76.866516 Y43.088867 Z-0.125000 I-9.494737 J22.018969
G03 X81.709853 Y48.189033 Z-0.125000 I-19.935192 J23.781117
G03 X86.825788 Y60.347301 Z-0.125000 I-22.192055 J16.493406
G03 X85.723818 Y73.473898 Z-0.125000 I-27.233516 J4.323316
G03 X83.172273 Y78.960012 Z-0.125000 I-26.022631 J-8.766498
G03 X79.354514 Y83.962842 Z-0.125000 I-25.392330 J-15.419271
G01 X77.257589 Y86.178098 Z-0.125000
G01 X77.240599 Y98.339276 Z-0.125000
G02 X77.254531 Y112.502927 Z-0.125000 I2968.398217 J4.161418
G03 X77.257589 Y123.367974 Z-0.125000 I-1759.244654 J5.927857
G01 X77.257628 Y123.367974 Z-0.125000
G00 Z5.000000

(End cutting path id: path4758)


(Start cutting path id: path4758)
(Change tool to Cylindrical cutter)

G00 Z5.000000
G00 X56.079740 Y114.931493

G01 Z-0.125000 F1000.0(Penetrate)
G01 X56.079740 Y137.441896 Z-0.125000 F1100.000000
G01 X59.162595 Y137.441896 Z-0.125000
G01 X62.245444 Y137.441896 Z-0.125000
G01 X62.245444 Y114.936444 Z-0.125000
G01 X62.245444 Y92.430991 Z-0.125000
G01 X59.162595 Y92.426052 Z-0.125000
G01 X56.079740 Y92.421113 Z-0.125000
G01 X56.079740 Y114.931508 Z-0.125000
G01 X56.079740 Y114.931493 Z-0.125000
G00 Z5.000000

(End cutting path id: path4758)


(Start cutting path id: path4758)
(Change tool to Cylindrical cutter)

G00 Z5.000000
G00 X41.669358 Y111.087850

G01 Z-0.125000 F1000.0(Penetrate)
G01 X41.737783 Y135.667873 Z-0.125000 F1100.000000
G01 X43.480265 Y135.982331 Z-0.125000
G02 X45.225831 Y136.276712 Z-0.125000 I13.710071 J-75.972987
G02 X46.630133 Y136.476462 Z-0.125000 I7.679374 J-48.951935
G01 X48.037519 Y136.656139 Z-0.125000
G01 X48.037519 Y113.356987 Z-0.125000
G01 X48.037519 Y90.057832 Z-0.125000
G01 X47.213478 Y89.716504 Z-0.125000
G03 X46.420258 Y89.317569 Z-0.125000 I2.319928 J-5.600884
G03 X44.247509 Y87.941501 Z-0.125000 I26.121880 J-43.648637
G02 X42.086033 Y86.572193 Z-0.125000 I-28.290453 J42.266330
G02 X41.853259 Y86.507829 Z-0.125000 I-0.232774 J0.388735
G02 X41.726803 Y86.633343 Z-0.125000 I0.000000 J0.126460
G02 X41.669358 Y111.087850 Z-0.125000 I2382.268385 J17.823441
G01 X41.669358 Y111.087850 Z-0.125000
G00 Z5.000000

(End cutting path id: path4758)


(Start cutting path id: path4758)
(Change tool to Cylindrical cutter)

G00 Z5.000000
G00 X49.176836 Y136.778731

G01 Z-0.125000 F1000.0(Penetrate)
G02 X49.521439 Y136.859141 Z-0.125000 I0.490207 J-1.322188 F1100.000000
G02 X52.393723 Y137.112687 Z-0.125000 I9.670365 J-93.154404
G01 X55.275520 Y137.322412 Z-0.125000
G01 X55.107854 Y92.340479 Z-0.125000
G03 X53.387004 Y92.082726 Z-0.125000 I-0.000000 J-5.873378
G03 X49.191195 Y90.629355 Z-0.125000 I18.024323 J-58.818519
G01 X49.176836 Y136.778731 Z-0.125000
G00 Z5.000000

(End cutting path id: path4758)


(Start cutting path id: path4758)
(Change tool to Cylindrical cutter)

G00 Z5.000000
G00 X82.269965 Y63.605112

G01 Z-0.125000 F1000.0(Penetrate)
G03 X82.012342 Y68.543893 Z-0.125000 I-25.159438 J1.163707 F1100.000000
G03 X80.823074 Y73.149351 Z-0.125000 I-23.035194 J-3.492097
G03 X78.295408 Y78.486685 Z-0.125000 I-31.744364 J-11.766371
G03 X77.397040 Y79.001757 Z-0.125000 I-0.898367 J-0.525912
G03 X77.326985 Y78.932370 Z-0.125000 I0.000000 J-0.070058
G03 X77.258929 Y64.592771 Z-0.125000 I1481.430048 J-14.200843
G01 X77.260058 Y50.183797 Z-0.125000
G01 X77.923791 Y50.988020 Z-0.125000
G03 X81.221384 Y57.800074 Z-0.125000 I-21.933464 J14.821776
G03 X82.270087 Y63.605112 Z-0.125000 I-21.909534 J6.955288
G01 X82.269965 Y63.605112 Z-0.125000
G00 Z5.000000

(End cutting path id: path4758)


(Footer)
M5
G00 X0.0000 Y0.0000
M2
(Using default footer. To add your own footer create file "footer" in the output dir.)
(end)
%