%
(Header)
(Generated by gcodetools from Inkscape.)
(Using default header. To add your own header create file "header" in the output dir.)
M3
(Header end.)
G21 (All units in mm)

(Start cutting path id: rect4760)
(Change tool to Cylindrical cutter)

G00 Z5.000000
G00 X11.391103 Y143.685035

G01 Z-0.125000 F1000.0(Penetrate)
G01 X119.258439 Y143.685035 Z-0.125000 F1100.000000
G01 X119.258439 Y-0.316828 Z-0.125000
G01 X11.391103 Y-0.316828 Z-0.125000
G01 X11.391103 Y143.685035 Z-0.125000
G00 Z5.000000

(End cutting path id: rect4760)


(Start cutting path id: rect4760)
(Change tool to Cylindrical cutter)

G00 Z5.000000
G00 X32.220784 Y141.339769

G01 Z-0.125000 F1000.0(Penetrate)
G02 X32.319753 Y142.535567 Z-0.125000 I7.273586 J0.000000 F1100.000000
G02 X32.436576 Y142.634531 Z-0.125000 I0.116823 J-0.019471
G02 X32.553402 Y142.535564 Z-0.125000 I0.000000 J-0.118437
G02 X32.652369 Y141.339769 Z-0.125000 I-7.174799 J-1.195796
G02 X32.553397 Y140.143979 Z-0.125000 I-7.273318 J-0.000000
G02 X32.436576 Y140.045018 Z-0.125000 I-0.116821 J0.019471
G02 X32.319751 Y140.143983 Z-0.125000 I0.000000 J0.118437
G02 X32.220784 Y141.339769 Z-0.125000 I7.174620 J1.195785
G01 X32.220784 Y141.339769 Z-0.125000
G00 Z5.000000

(End cutting path id: rect4760)


(Start cutting path id: rect4760)
(Change tool to Cylindrical cutter)

G00 Z5.000000
G00 X32.589369 Y136.052846

G01 Z-0.125000 F1000.0(Penetrate)
G02 X32.322620 Y137.295956 Z-0.125000 I7.601849 J2.281390 F1100.000000
G02 X32.220784 Y138.846186 Z-0.125000 I11.748409 J1.550229
G02 X32.316074 Y139.661998 Z-0.125000 I3.539876 J0.000000
G02 X32.436576 Y139.757295 Z-0.125000 I0.120503 J-0.028540
G02 X32.562687 Y139.667611 Z-0.125000 I-0.000000 J-0.133508
G02 X32.652369 Y139.136330 Z-0.125000 I-1.528825 J-0.531281
G03 X32.682950 Y138.517970 Z-0.125000 I6.266974 J0.000000
G03 X32.798574 Y137.661753 Z-0.125000 I12.146901 J1.204407
G02 X32.975242 Y135.982391 Z-0.125000 I-12.848729 J-2.200652
G02 X32.870160 Y135.873020 Z-0.125000 I-0.105082 J-0.004206
G02 X32.683880 Y135.927572 Z-0.125000 I-0.000000 J0.345323
G02 X32.589366 Y136.052846 Z-0.125000 I0.121876 J0.190241
G01 X32.589369 Y136.052846 Z-0.125000
G00 Z5.000000

(End cutting path id: rect4760)


(Start cutting path id: rect4760)
(Change tool to Cylindrical cutter)

G00 Z5.000000
G00 X30.206719 Y125.587354

G01 Z-0.125000 F1000.0(Penetrate)
G02 X30.269890 Y125.739912 Z-0.125000 I0.215800 J-0.000000 F1100.000000
G02 X30.422509 Y125.803150 Z-0.125000 I0.152619 J-0.152548
G02 X30.575083 Y125.739962 Z-0.125000 I0.000000 J-0.215796
G02 X30.638304 Y125.587354 Z-0.125000 I-0.152574 J-0.152607
G02 X30.575084 Y125.434749 Z-0.125000 I-0.215796 J0.000000
G02 X30.422509 Y125.371559 Z-0.125000 I-0.152575 J0.152606
G02 X30.269940 Y125.434747 Z-0.125000 I0.000000 J0.215786
G02 X30.206719 Y125.587354 Z-0.125000 I0.152579 J0.152608
G01 X30.206719 Y125.587354 Z-0.125000
G00 Z5.000000

(End cutting path id: rect4760)


(Start cutting path id: rect4760)
(Change tool to Cylindrical cutter)

G00 Z5.000000
G00 X27.185619 Y124.652276

G01 Z-0.125000 F1000.0(Penetrate)
G02 X27.257533 Y124.868026 Z-0.125000 I0.359594 J0.000000 F1100.000000
G02 X27.401412 Y124.939968 Z-0.125000 I0.143879 J-0.107905
G02 X27.545290 Y124.868027 Z-0.125000 I0.000000 J-0.179844
G02 X27.617205 Y124.652276 Z-0.125000 I-0.287681 J-0.215751
G02 X27.545262 Y124.436411 Z-0.125000 I-0.359824 J0.000000
G02 X27.401412 Y124.364477 Z-0.125000 I-0.143850 J0.107864
G02 X27.257562 Y124.436411 Z-0.125000 I0.000000 J0.179799
G02 X27.185619 Y124.652276 Z-0.125000 I0.287880 J0.215865
G01 X27.185619 Y124.652276 Z-0.125000
G00 Z5.000000

(End cutting path id: rect4760)


(Start cutting path id: rect4760)
(Change tool to Cylindrical cutter)

G00 Z5.000000
G00 X27.041757 Y125.443455

G01 Z-0.125000 F1000.0(Penetrate)
G02 X27.104977 Y125.596061 Z-0.125000 I0.215797 J0.000000 F1100.000000
G02 X27.257550 Y125.659251 Z-0.125000 I0.152573 J-0.152602
G02 X27.410121 Y125.596063 Z-0.125000 I0.000000 J-0.215790
G02 X27.473343 Y125.443455 Z-0.125000 I-0.152576 J-0.152608
G02 X27.410123 Y125.290849 Z-0.125000 I-0.215798 J0.000000
G02 X27.257550 Y125.227659 Z-0.125000 I-0.152572 J0.152601
G02 X27.104979 Y125.290847 Z-0.125000 I-0.000000 J0.215792
G02 X27.041757 Y125.443455 Z-0.125000 I0.152575 J0.152608
G01 X27.041757 Y125.443455 Z-0.125000
G00 Z5.000000

(End cutting path id: rect4760)


(Start cutting path id: rect4760)
(Change tool to Cylindrical cutter)

G00 Z5.000000
G00 X21.143423 Y124.723746

G01 Z-0.125000 F1000.0(Penetrate)
G02 X21.221445 Y125.005344 Z-0.125000 I0.547183 J-0.000000 F1100.000000
G02 X21.359216 Y125.083334 Z-0.125000 I0.137770 J-0.082692
G02 X21.496987 Y125.005344 Z-0.125000 I-0.000000 J-0.160682
G02 X21.575008 Y124.723746 Z-0.125000 I-0.469162 J-0.281598
G02 X21.496999 Y124.442069 Z-0.125000 I-0.547546 J-0.000000
G02 X21.359216 Y124.364051 Z-0.125000 I-0.137783 J0.082657
G02 X21.221433 Y124.442069 Z-0.125000 I0.000000 J0.160675
G02 X21.143423 Y124.723746 Z-0.125000 I0.469535 J0.281677
G01 X21.143423 Y124.723746 Z-0.125000
G00 Z5.000000

(End cutting path id: rect4760)


(Start cutting path id: rect4760)
(Change tool to Cylindrical cutter)

G00 Z5.000000
G00 X20.855699 Y122.853485

G01 Z-0.125000 F1000.0(Penetrate)
G02 X20.941448 Y123.271319 Z-0.125000 I1.060883 J-0.000000 F1100.000000
G02 X21.071492 Y123.357076 Z-0.125000 I0.130044 J-0.055723
G02 X21.201536 Y123.271319 Z-0.125000 I0.000000 J-0.141480
G02 X21.287285 Y122.853485 Z-0.125000 I-0.975137 J-0.417834
G02 X21.201547 Y122.435758 Z-0.125000 I-1.060490 J0.000000
G02 X21.071492 Y122.349997 Z-0.125000 I-0.130056 J0.055735
G02 X20.941437 Y122.435757 Z-0.125000 I-0.000000 J0.141495
G02 X20.855699 Y122.853485 Z-0.125000 I0.974750 J0.417728
G01 X20.855699 Y122.853485 Z-0.125000
G00 Z5.000000

(End cutting path id: rect4760)


(Start cutting path id: rect4760)
(Change tool to Cylindrical cutter)

G00 Z5.000000
G00 X13.424529 Y117.249096

G01 Z-0.125000 F1000.0(Penetrate)
G02 X13.384567 Y117.461563 Z-0.125000 I0.562549 J0.215798 F1100.000000
G02 X13.422835 Y117.554602 Z-0.125000 I0.130478 J0.000721
G02 X13.749607 Y117.596879 Z-0.125000 I0.190803 J-0.190780
G02 X13.950328 Y117.247391 Z-0.125000 I-0.203895 J-0.349487
G02 X13.735799 Y117.033363 Z-0.125000 I-0.214029 J0.000000
G02 X13.424524 Y117.247391 Z-0.125000 I0.000781 J0.334503
G01 X13.424529 Y117.249096 Z-0.125000
G00 Z5.000000

(End cutting path id: rect4760)


(Start cutting path id: rect4760)
(Change tool to Cylindrical cutter)

G00 Z5.000000
G00 X13.753283 Y116.056089

G01 Z-0.125000 F1000.0(Penetrate)
G02 X13.714900 Y116.742587 Z-0.125000 I1.623498 J0.435095 F1100.000000
G02 X13.878401 Y116.883215 Z-0.125000 I0.163502 J-0.024734
G02 X14.026850 Y116.815343 Z-0.125000 I0.000000 J-0.196280
G02 X14.096159 Y116.631472 Z-0.125000 I-0.215133 J-0.186090
G03 X14.116251 Y116.382213 Z-0.125000 I1.726474 J0.013725
G03 X14.184869 Y116.056089 Z-0.125000 I3.025238 J0.466244
G02 X14.170394 Y115.810014 Z-0.125000 I-0.377834 J-0.101239
G02 X14.055821 Y115.732343 Z-0.125000 I-0.114573 J0.045669
G02 X13.893947 Y115.802632 Z-0.125000 I0.000000 J0.221542
G02 X13.753283 Y116.056089 Z-0.125000 I0.436901 J0.408234
G01 X13.753283 Y116.056089 Z-0.125000
G00 Z5.000000

(End cutting path id: rect4760)


(Start cutting path id: rect4760)
(Change tool to Cylindrical cutter)

G00 Z5.000000
G00 X13.906166 Y111.377818

G01 Z-0.125000 F1000.0(Penetrate)
G01 X13.870632 Y111.380132 Z-0.125000 F1100.000000
G03 X13.834517 Y111.200746 Z-0.125000 I0.457682 J-0.185471
G03 X13.865250 Y110.948540 Z-0.125000 I0.953541 J-0.011781
G01 X13.900835 Y110.946230 Z-0.125000
G03 X13.936948 Y111.125316 Z-0.125000 I-0.456102 J0.185158
G03 X13.906169 Y111.377818 Z-0.125000 I-0.954522 J0.011775
G01 X13.906166 Y111.377818 Z-0.125000
G00 Z5.000000

(End cutting path id: rect4760)


(Start cutting path id: rect4760)
(Change tool to Cylindrical cutter)

G00 Z5.000000
G00 X18.293453 Y108.143662

G01 Z-0.125000 F1000.0(Penetrate)
G03 X18.803355 Y109.597238 Z-0.125000 I-4.692051 J2.462150 F1100.000000
G03 X18.739733 Y110.445410 Z-0.125000 I-1.586020 J0.307503
G03 X18.468748 Y111.088646 Z-0.125000 I-5.717221 J-2.029870
G03 X18.404401 Y111.128743 Z-0.125000 I-0.064347 J-0.031583
G03 X18.185580 Y110.953216 Z-0.125000 I0.000000 J-0.224161
G03 X17.868864 Y108.719152 Z-0.125000 I14.157643 J-3.146564
G03 X17.839822 Y107.575208 Z-0.125000 I15.203476 J-0.958314
G01 X17.883333 Y107.532224 Z-0.125000
G03 X17.950846 Y107.568232 Z-0.125000 I0.000000 J0.081297
G03 X18.293457 Y108.143662 Z-0.125000 I-5.166673 J3.465939
G01 X18.293453 Y108.143662 Z-0.125000
G00 Z5.000000

(End cutting path id: rect4760)


(Start cutting path id: rect4760)
(Change tool to Cylindrical cutter)

G00 Z5.000000
G00 X15.084019 Y97.749640

G01 Z-0.125000 F1000.0(Penetrate)
G02 X15.392108 Y98.681050 Z-0.125000 I40.755854 J-12.964445 F1100.000000
G02 X15.800665 Y99.835593 Z-0.125000 I62.950984 J-21.626850
G02 X16.220114 Y100.986425 Z-0.125000 I2985.598170 J-1087.517452
G02 X16.823783 Y102.640932 Z-0.125000 I5482.620820 J-1999.481376
G03 X17.281496 Y104.315796 Z-0.125000 I-9.810131 J3.580926
G03 X17.344549 Y105.446272 Z-0.125000 I-4.366251 J0.810525
G03 X17.223653 Y106.590337 Z-0.125000 I-17.301893 J-1.249910
G03 X17.114030 Y107.100633 Z-0.125000 I-3.536202 J-0.492729
G02 X17.045977 Y108.451845 Z-0.125000 I2.794941 J0.818086
G02 X17.984669 Y111.776130 Z-0.125000 I18.663070 J-3.475294
G03 X17.993956 Y111.921274 Z-0.125000 I-0.227344 J0.087415
G03 X17.598497 Y113.358699 Z-0.125000 I-24.813951 J-6.053596
G02 X16.917677 Y115.976436 Z-0.125000 I29.901620 J9.174204
G02 X16.364800 Y119.113067 Z-0.125000 I42.417490 J9.093744
G02 X16.301980 Y120.122075 Z-0.125000 I6.632468 J0.919394
G02 X16.405672 Y122.166736 Z-0.125000 I27.457452 J-0.367510
G03 X16.477652 Y124.207481 Z-0.125000 I-19.308527 J1.702680
G03 X16.349208 Y125.403667 Z-0.125000 I-6.727001 J-0.117343
G03 X16.064538 Y126.579542 Z-0.125000 I-14.465866 J-2.879678
G03 X15.771293 Y127.424443 Z-0.125000 I-7.747537 J-2.215648
G01 X15.430317 Y128.254877 Z-0.125000
G01 X15.261610 Y126.777057 Z-0.125000
G03 X14.977759 Y122.454337 Z-0.125000 I44.764988 J-5.110172
G03 X15.159163 Y120.916232 Z-0.125000 I5.757997 J-0.100650
G03 X15.429063 Y119.997362 Z-0.125000 I13.868669 J3.574565
G03 X15.586988 Y119.621459 Z-0.125000 I2.465394 J0.814639
G03 X15.776407 Y119.257712 Z-0.125000 I48.354541 J24.949159
G03 X16.111447 Y118.623659 Z-0.125000 I141.513572 J74.371655
G02 X16.545295 Y117.136802 Z-0.125000 I-3.369194 J-1.789818
G02 X16.319842 Y116.007660 Z-0.125000 I-2.101739 J-0.167430
G02 X16.049102 Y115.533261 Z-0.125000 I-5.413119 J2.774825
G02 X15.964114 Y115.444652 Z-0.125000 I-0.259912 J0.164226
G03 X15.891298 Y115.350014 Z-0.125000 I0.110813 J-0.160594
G03 X15.395637 Y113.862187 Z-0.125000 I31.741585 J-11.400998
G02 X14.917172 Y112.356738 Z-0.125000 I-80.045025 J24.611292
G02 X14.805386 Y112.063926 Z-0.125000 I-3.133516 J1.028538
G03 X14.635418 Y111.523967 Z-0.125000 I2.426560 J-1.060558
G03 X14.222263 Y109.155437 Z-0.125000 I46.821526 J-9.387636
G03 X14.176208 Y108.121450 Z-0.125000 I4.977534 J-0.739723
G03 X14.357091 Y106.853689 Z-0.125000 I7.690421 J0.450476
G02 X14.770167 Y103.556176 Z-0.125000 I-16.174268 J-3.700764
G02 X14.557432 Y98.612822 Z-0.125000 I-36.769487 J-0.893896
G03 X14.507028 Y96.746076 Z-0.125000 I11.150085 J-1.235115
G03 X14.665998 Y96.687731 Z-0.125000 I0.092098 J0.005194
G03 X14.757674 Y96.831080 Z-0.125000 I-0.318554 J0.304712
G03 X15.084019 Y97.749640 Z-0.125000 I-13.586867 J5.344380
G01 X15.084019 Y97.749640 Z-0.125000
G00 Z5.000000

(End cutting path id: rect4760)


(Start cutting path id: rect4760)
(Change tool to Cylindrical cutter)

G00 Z5.000000
G00 X14.480192 Y96.337956

G01 Z-0.125000 F1000.0(Penetrate)
G01 X14.435426 Y96.347222 Z-0.125000 F1100.000000
G03 X14.393275 Y96.251554 Z-0.125000 I0.100874 J-0.101564
G03 X14.424058 Y96.071836 Z-0.125000 I0.435277 J-0.017938
G01 X14.468834 Y96.062640 Z-0.125000
G03 X14.510959 Y96.158960 Z-0.125000 I-0.102710 J0.102291
G03 X14.480193 Y96.338385 Z-0.125000 I-0.434192 J0.017900
G01 X14.480192 Y96.337956 Z-0.125000
G00 Z5.000000

(End cutting path id: rect4760)


(Start cutting path id: rect4760)
(Change tool to Cylindrical cutter)

G00 Z5.000000
G00 X21.639441 Y81.996789

G01 Z-0.125000 F1000.0(Penetrate)
G02 X21.693244 Y83.435085 Z-0.125000 I150.809518 J-4.921204 F1100.000000
G02 X21.785094 Y85.449411 Z-0.125000 I295.601000 J-12.469675
G03 X21.927180 Y89.440584 Z-0.125000 I-149.013458 J7.303028
G03 X22.018914 Y95.980076 Z-0.125000 I-399.979096 J8.881150
G03 X21.602692 Y102.737981 Z-0.125000 I-50.290887 J0.294335
G03 X20.770834 Y105.610545 Z-0.125000 I-9.730107 J-1.260985
G02 X20.319217 Y106.647117 Z-0.125000 I21.332419 J9.910843
G02 X20.199370 Y107.013161 Z-0.125000 I2.534192 J1.032366
G03 X20.065731 Y107.337842 Z-0.125000 I-1.181636 J-0.296520
G03 X19.976933 Y107.388432 Z-0.125000 I-0.088798 J-0.052635
G02 X19.896371 Y107.437011 Z-0.125000 I0.000000 J0.091091
G02 X19.844092 Y107.640174 Z-0.125000 I0.400601 J0.211393
G03 X19.795641 Y107.876735 Z-0.125000 I-0.659489 J-0.011829
G03 X19.628299 Y108.171184 Z-0.125000 I-1.203670 J-0.489297
G02 X19.461968 Y108.466917 Z-0.125000 I1.004064 J0.759362
G02 X19.400393 Y108.746567 Z-0.125000 I0.833245 J0.330074
G01 X19.360265 Y108.789432 Z-0.125000
G01 X19.313592 Y108.757235 Z-0.125000
G02 X19.212474 Y108.482139 Z-0.125000 I-1.259443 J0.306802
G02 X18.771629 Y107.678260 Z-0.125000 I-11.356648 J5.705142
G03 X18.283778 Y106.534690 Z-0.125000 I3.981097 J-2.374193
G03 X18.070490 Y105.132130 Z-0.125000 I5.819069 J-1.602408
G02 X17.712623 Y102.662783 Z-0.125000 I-11.276268 J0.373592
G02 X17.102979 Y101.416353 Z-0.125000 I-3.376481 J0.879170
G03 X17.012890 Y101.256425 Z-0.125000 I0.509772 J-0.392498
G03 X16.628781 Y100.193583 Z-0.125000 I22.837865 J-8.854387
G02 X16.262853 Y99.120371 Z-0.125000 I-110.118077 J36.947435
G02 X15.882568 Y98.039468 Z-0.125000 I-112.497586 J38.971729
G03 X15.256357 Y94.364943 Z-0.125000 I10.116914 J-3.614743
G03 X15.921395 Y91.062226 Z-0.125000 I8.776033 J0.048836
G03 X16.486120 Y89.782129 Z-0.125000 I27.338944 J11.296161
G03 X16.836867 Y89.113242 Z-0.125000 I7.801155 J3.664321
G02 X17.202252 Y88.450865 Z-0.125000 I-14.409320 J-8.380528
G02 X18.104259 Y86.687223 Z-0.125000 I-101.653739 J-53.102852
G03 X19.055546 Y84.957821 Z-0.125000 I22.743228 J11.383957
G03 X19.615013 Y84.176507 Z-0.125000 I5.169959 J3.111037
G02 X20.176312 Y83.401507 Z-0.125000 I-4.923590 J-4.156703
G02 X20.469827 Y82.790211 Z-0.125000 I-2.757525 J-1.700149
G02 X20.739833 Y81.790626 Z-0.125000 I-6.187527 J-2.207618
G02 X21.159332 Y79.104516 Z-0.125000 I-44.524802 J-8.329408
G01 X21.183432 Y79.102091 Z-0.125000
G03 X21.383870 Y79.769076 Z-0.125000 I-9.664237 J3.267843
G03 X21.534327 Y80.568832 Z-0.125000 I-5.482071 J1.445365
G03 X21.639442 Y81.998925 Z-0.125000 I-17.483373 J2.003970
G01 X21.639441 Y81.996789 Z-0.125000
G00 Z5.000000

(End cutting path id: rect4760)


(Start cutting path id: rect4760)
(Change tool to Cylindrical cutter)

G00 Z5.000000
G00 X53.871984 Y88.748636

G01 Z-0.125000 F1000.0(Penetrate)
G03 X55.019103 Y88.972879 Z-0.125000 I-6.380493 J35.685863 F1100.000000
G03 X57.180808 Y89.451065 Z-0.125000 I-26.940770 J126.914514
G02 X59.341932 Y89.931319 Z-0.125000 I32.825980 J-142.613179
G02 X59.986114 Y90.052370 Z-0.125000 I2.708556 J-12.639112
G03 X60.807898 Y90.288119 Z-0.125000 I-0.572658 J3.546382
G03 X63.582655 Y91.567204 Z-0.125000 I-17.815528 J42.296979
G03 X67.726499 Y94.042739 Z-0.125000 I-14.791035 J29.464987
G03 X70.852033 Y96.667143 Z-0.125000 I-13.536413 J19.294571
G03 X73.673949 Y100.279789 Z-0.125000 I-13.256938 J13.263731
G03 X75.660490 Y104.678134 Z-0.125000 I-17.820882 J10.696710
G02 X77.391539 Y109.530923 Z-0.125000 I70.624513 J-22.457480
G02 X78.370941 Y111.515639 Z-0.125000 I12.714001 J-5.039996
G03 X78.900375 Y112.408013 Z-0.125000 I-110.812265 J66.346710
G03 X79.322425 Y113.134050 Z-0.125000 I-74.004399 J43.504893
G02 X79.781890 Y113.791362 Z-0.125000 I3.938314 J-2.263665
G02 X79.933837 Y113.862187 Z-0.125000 I0.151947 J-0.127581
G03 X80.061934 Y113.927033 Z-0.125000 I0.000000 J0.158944
G03 X80.126770 Y114.124811 Z-0.125000 I-0.269239 J0.197778
G02 X80.192419 Y114.359007 Z-0.125000 I0.450559 J0.000000
G02 X80.498860 Y114.736249 Z-0.125000 I1.535650 J-0.934356
G03 X81.612111 Y115.934841 Z-0.125000 I-8.082954 J8.623727
G03 X82.638968 Y117.386809 Z-0.125000 I-10.869635 J8.776283
G01 X82.576075 Y117.447860 Z-0.125000
G03 X81.421526 Y116.586244 Z-0.125000 I6.660997 J-10.129947
G02 X79.561149 Y115.135538 Z-0.125000 I-19.866660 J23.558683
G02 X77.896912 Y114.048541 Z-0.125000 I-12.789003 J17.762975
G03 X76.909410 Y113.425286 Z-0.125000 I9.977330 J-16.902301
G03 X76.026705 Y112.788757 Z-0.125000 I9.501543 J-14.106559
G02 X75.162424 Y112.124975 Z-0.125000 I-197.469902 J256.222089
G02 X74.391975 Y111.537612 Z-0.125000 I-156.520076 J204.509893
G03 X73.645893 Y110.922203 Z-0.125000 I7.271331 J-9.575240
G03 X72.349216 Y109.709591 Z-0.125000 I26.950714 J-30.118671
G02 X71.058127 Y108.489881 Z-0.125000 I-36.729933 J37.586248
G02 X70.387405 Y107.918053 Z-0.125000 I-8.716326 J9.544481
G03 X69.699489 Y107.365465 Z-0.125000 I56.501345 J-71.043021
G03 X69.193266 Y106.949266 Z-0.125000 I31.684361 J-39.053561
G02 X68.668503 Y106.587649 Z-0.125000 I-2.238092 J2.686263
G02 X68.443058 Y106.527491 Z-0.125000 I-0.229865 J0.408912
G03 X68.236196 Y106.459498 Z-0.125000 I0.002976 J-0.357733
G03 X68.042378 Y106.237451 Z-0.125000 I0.385127 J-0.531775
G02 X67.860536 Y105.996286 Z-0.125000 I-0.865183 J0.463222
G02 X67.745757 Y105.949759 Z-0.125000 I-0.114779 J0.118314
G03 X67.576553 Y105.886752 Z-0.125000 I0.000000 J-0.258701
G03 X65.249911 Y103.791806 Z-0.125000 I50.905554 J-58.875046
G03 X62.108921 Y100.642864 Z-0.125000 I45.385491 J-48.411866
G03 X61.556229 Y99.831859 Z-0.125000 I2.363448 J-2.204498
G02 X61.239238 Y99.281168 Z-0.125000 I-3.747625 J1.790644
G02 X60.918014 Y98.896780 Z-0.125000 I-2.130669 J1.454135
G03 X59.717222 Y97.635186 Z-0.125000 I18.845693 J-19.139696
G03 X59.406627 Y97.202098 Z-0.125000 I1.877367 J-1.674296
G02 X58.753435 Y96.146201 Z-0.125000 I-14.213147 J8.062458
G02 X57.739071 Y94.722319 Z-0.125000 I-26.868171 J18.067429
G03 X57.175212 Y93.901554 Z-0.125000 I9.015587 J-6.797707
G03 X56.661922 Y92.996061 Z-0.125000 I10.482084 J-6.540129
G02 X56.092732 Y92.135035 Z-0.125000 I-4.159870 J2.131276
G02 X54.419167 Y90.304753 Z-0.125000 I-20.738253 J17.282281
G03 X52.681666 Y88.554666 Z-0.125000 I177.548180 J-178.008824
G01 X52.686741 Y88.542654 Z-0.125000
G03 X52.720810 Y88.545690 Z-0.125000 I-0.001169 J0.205791
G03 X53.871984 Y88.748636 Z-0.125000 I-41.268351 J237.452723
G01 X53.871984 Y88.748636 Z-0.125000
G00 Z5.000000

(End cutting path id: rect4760)


(Start cutting path id: rect4760)
(Change tool to Cylindrical cutter)

G00 Z5.000000
G00 X83.954685 Y120.395146

G01 Z-0.125000 F1000.0(Penetrate)
G02 X84.393381 Y121.521291 Z-0.125000 I10.297170 J-3.362798 F1100.000000
G02 X85.324146 Y123.402627 Z-0.125000 I29.720446 J-13.532865
G03 X85.454007 Y123.668484 Z-0.125000 I-3.496416 J1.872511
G03 X85.610018 Y124.047773 Z-0.125000 I-6.986787 J3.095557
G01 X85.755966 Y124.431680 Z-0.125000
G01 X85.422986 Y124.130230 Z-0.125000
G03 X83.382999 Y121.697101 Z-0.125000 I7.788456 J-8.601756
G03 X82.939526 Y120.173268 Z-0.125000 I2.455238 J-1.540981
G01 X82.932048 Y118.913911 Z-0.125000
G01 X83.323820 Y119.288538 Z-0.125000
G03 X83.649043 Y119.705000 Z-0.125000 I-1.264150 J1.322416
G03 X83.954663 Y120.395146 Z-0.125000 I-3.245515 J1.849966
G01 X83.954685 Y120.395146 Z-0.125000
G00 Z5.000000

(End cutting path id: rect4760)


(Start cutting path id: rect4760)
(Change tool to Cylindrical cutter)

G00 Z5.000000
G00 X84.442622 Y131.567054

G01 Z-0.125000 F1000.0(Penetrate)
G02 X84.615220 Y132.104309 Z-0.125000 I0.922471 J0.000000 F1100.000000
G02 X84.951201 Y132.276905 Z-0.125000 I0.335981 J-0.240717
G02 X85.100999 Y132.142102 Z-0.125000 I0.000000 J-0.150632
G02 X85.013007 Y131.691996 Z-0.125000 I-0.775843 J-0.081984
G02 X84.638940 Y131.409086 Z-0.125000 I-0.493953 J0.264357
G02 X84.442622 Y131.567054 Z-0.125000 I-0.034605 J0.157967
G01 X84.442622 Y131.567054 Z-0.125000
G00 Z5.000000

(End cutting path id: rect4760)


(Start cutting path id: rect4760)
(Change tool to Cylindrical cutter)

G00 Z5.000000
G00 X91.060265 Y131.403184

G01 Z-0.125000 F1000.0(Penetrate)
G02 X91.147624 Y131.614092 Z-0.125000 I0.298275 J0.000000 F1100.000000
G02 X91.358540 Y131.701459 Z-0.125000 I0.210916 J-0.210908
G02 X91.583538 Y131.455831 Z-0.125000 I0.000000 J-0.225865
G02 X91.310367 Y131.153073 Z-0.125000 I-0.337185 J0.029617
G02 X91.142567 Y131.204548 Z-0.125000 I-0.035356 J0.183983
G02 X91.060262 Y131.403184 Z-0.125000 I0.198541 J0.198636
G01 X91.060265 Y131.403184 Z-0.125000
G00 Z5.000000

(End cutting path id: rect4760)


(Start cutting path id: rect4760)
(Change tool to Cylindrical cutter)

G00 Z5.000000
G00 X96.527017 Y134.300263

G01 Z-0.125000 F1000.0(Penetrate)
G02 X96.573858 Y134.431661 Z-0.125000 I0.207716 J-0.000000 F1100.000000
G02 X96.926827 Y134.789817 Z-0.125000 I2.092003 J-1.708694
G03 X97.292014 Y135.154314 Z-0.125000 I-1.958058 J2.326954
G03 X97.526580 Y135.499840 Z-0.125000 I-1.521854 J1.285517
G02 X97.905415 Y135.775190 Z-0.125000 I0.473781 J-0.253561
G02 X98.109493 Y135.604485 Z-0.125000 I0.030644 J-0.170705
G02 X97.705275 Y134.551371 Z-0.125000 I-1.573955 J-0.000000
G02 X96.797417 Y134.147135 Z-0.125000 I-0.907859 J0.817345
G02 X96.583421 Y134.203526 Z-0.125000 I0.000000 J0.434234
G02 X96.527017 Y134.300294 Z-0.125000 I0.054806 J0.096768
G01 X96.527017 Y134.300263 Z-0.125000
G00 Z5.000000

(End cutting path id: rect4760)


(Start cutting path id: rect4760)
(Change tool to Cylindrical cutter)

G00 Z5.000000
G00 X98.277906 Y136.397786

G01 Z-0.125000 F1000.0(Penetrate)
G02 X98.386711 Y136.602835 Z-0.125000 I0.388747 J-0.074889 F1100.000000
G02 X98.591766 Y136.711634 Z-0.125000 I0.279900 J-0.279895
G02 X98.754399 Y136.661747 Z-0.125000 I0.034306 J-0.178198
G02 X98.804248 Y136.499158 Z-0.125000 I-0.128285 J-0.128268
G02 X98.695441 Y136.294096 Z-0.125000 I-0.388775 J0.074888
G02 X98.490397 Y136.185299 Z-0.125000 I-0.279885 J0.279867
G02 X98.327789 Y136.235165 Z-0.125000 I-0.034304 J0.178192
G02 X98.277906 Y136.397786 Z-0.125000 I0.128293 J0.128314
G01 X98.277906 Y136.397786 Z-0.125000
G00 Z5.000000

(End cutting path id: rect4760)


(Start cutting path id: rect4760)
(Change tool to Cylindrical cutter)

G00 Z5.000000
G00 X108.611408 Y126.090842

G01 Z-0.125000 F1000.0(Penetrate)
G02 X108.681310 Y126.308687 Z-0.125000 I0.374403 J0.000000 F1100.000000
G02 X108.817159 Y126.378533 Z-0.125000 I0.135850 J-0.097189
G03 X109.014941 Y126.414777 Z-0.125000 I-0.000000 J0.557767
G03 X109.955362 Y126.810125 Z-0.125000 I-5.098639 J13.444408
G02 X110.896248 Y127.203413 Z-0.125000 I5.684533 J-12.277324
G02 X111.107802 Y127.241716 Z-0.125000 I0.211554 J-0.565075
G03 X111.303757 Y127.285254 Z-0.125000 I0.000000 J0.462738
G03 X111.416711 Y127.385615 Z-0.125000 I-0.112198 J0.240021
G02 X111.536861 Y127.473084 Z-0.125000 I0.167349 J-0.103620
G02 X112.000649 Y127.529515 Z-0.125000 I0.463788 J-1.877664
G03 X112.431486 Y127.593987 Z-0.125000 I-0.000000 J1.471768
G03 X112.495678 Y127.680772 Z-0.125000 I-0.026569 J0.086784
G02 X112.553198 Y127.791218 Z-0.125000 I0.134795 J0.000000
G02 X112.927263 Y127.982651 Z-0.125000 I0.878853 J-1.256121
G03 X113.308011 Y128.169075 Z-0.125000 I-0.568760 J1.643647
G03 X113.358849 Y128.262878 Z-0.125000 I-0.061121 J0.093803
G02 X113.409839 Y128.341754 Z-0.125000 I0.086502 J0.000000
G02 X113.646569 Y128.392587 Z-0.125000 I0.236729 J-0.525813
G03 X113.879524 Y128.447741 Z-0.125000 I0.000000 J0.519545
G03 X113.934291 Y128.536486 Z-0.125000 I-0.044518 J0.088745
G02 X113.984338 Y128.630111 Z-0.125000 I0.112597 J-0.000000
G02 X114.150087 Y128.680386 Z-0.125000 I0.165749 J-0.248088
G02 X114.302656 Y128.617198 Z-0.125000 I0.000000 J-0.215786
G02 X114.365877 Y128.464590 Z-0.125000 I-0.152579 J-0.152608
G02 X114.302657 Y128.311984 Z-0.125000 I-0.215800 J-0.000000
G02 X114.150087 Y128.248795 Z-0.125000 I-0.152570 J0.152597
G03 X113.984280 Y128.198462 Z-0.125000 I-0.000000 J-0.298268
G03 X113.934291 Y128.104895 Z-0.125000 I0.062573 J-0.093567
G02 X113.884247 Y128.011273 Z-0.125000 I-0.112595 J0.000000
G02 X113.718502 Y127.960999 Z-0.125000 I-0.165746 J0.248077
G03 X113.553506 Y127.910159 Z-0.125000 I-0.000000 J-0.293158
G03 X113.502706 Y127.814110 Z-0.125000 I0.065400 J-0.096048
G02 X113.449139 Y127.701797 Z-0.125000 I-0.144527 J0.000000
G02 X113.107090 Y127.493351 Z-0.125000 I-0.947523 J1.169969
G03 X112.723262 Y127.303495 Z-0.125000 I1.972424 J-4.470526
G03 X112.639538 Y127.235315 Z-0.125000 I0.145218 J-0.263821
G02 X112.552087 Y127.175124 Z-0.125000 I-0.158723 J0.136985
G02 X110.877232 Y126.599130 Z-0.125000 I-19.278873 J53.335321
G03 X109.242287 Y126.006960 Z-0.125000 I8.468677 J-25.934605
G03 X109.186854 Y125.925183 Z-0.125000 I0.032603 J-0.081778
G02 X109.138189 Y125.851709 Z-0.125000 I-0.079798 J0.000000
G02 X108.899128 Y125.803150 Z-0.125000 I-0.239061 J0.564182
G02 X108.695636 Y125.887457 Z-0.125000 I-0.000000 J0.287740
G02 X108.611408 Y126.090842 Z-0.125000 I0.203444 J0.203385
G01 X108.611408 Y126.090842 Z-0.125000
G00 Z5.000000

(End cutting path id: rect4760)


(Start cutting path id: rect4760)
(Change tool to Cylindrical cutter)

G00 Z5.000000
G00 X114.365877 Y129.039974

G01 Z-0.125000 F1000.0(Penetrate)
G02 X114.429097 Y129.192580 Z-0.125000 I0.215796 J-0.000000 F1100.000000
G02 X114.581673 Y129.255769 Z-0.125000 I0.152575 J-0.152606
G02 X114.734242 Y129.192582 Z-0.125000 I-0.000000 J-0.215786
G02 X114.797462 Y129.039974 Z-0.125000 I-0.152579 J-0.152608
G02 X114.734292 Y128.887416 Z-0.125000 I-0.215800 J-0.000000
G02 X114.581673 Y128.824178 Z-0.125000 I-0.152619 J0.152548
G02 X114.429099 Y128.887366 Z-0.125000 I0.000000 J0.215796
G02 X114.365877 Y129.039974 Z-0.125000 I0.152574 J0.152607
G01 X114.365877 Y129.039974 Z-0.125000
G00 Z5.000000

(End cutting path id: rect4760)


(Start cutting path id: rect4760)
(Change tool to Cylindrical cutter)

G00 Z5.000000
G00 X115.948359 Y113.007858

G01 Z-0.125000 F1000.0(Penetrate)
G02 X116.228871 Y114.004821 Z-0.125000 I1.911903 J-0.000000 F1100.000000
G02 X117.619106 Y115.741942 Z-0.125000 I7.531119 J-4.602359
G02 X119.058949 Y116.860648 Z-0.125000 I5.835468 J-6.024667
G02 X119.257175 Y116.749876 Z-0.125000 I0.068163 J-0.110772
G02 X119.139535 Y116.386072 Z-0.125000 I-0.621359 J0.000000
G02 X118.555855 Y115.778851 Z-0.125000 I-2.444115 J1.765226
G03 X117.373322 Y114.601932 Z-0.125000 I4.375495 J-5.578913
G03 X116.573939 Y113.276457 Z-0.125000 I4.784123 J-3.789056
G02 X116.161073 Y112.867690 Z-0.125000 I-0.725827 J0.320220
G02 X115.948359 Y113.007858 Z-0.125000 I-0.060175 J0.140167
G01 X115.948359 Y113.007858 Z-0.125000
G00 Z5.000000

(End cutting path id: rect4760)


(Start cutting path id: rect4760)
(Change tool to Cylindrical cutter)

G00 Z5.000000
G00 X95.232260 Y107.450513

G01 Z-0.125000 F1000.0(Penetrate)
G02 X95.491379 Y107.992361 Z-0.125000 I0.696094 J-0.000000 F1100.000000
G02 X96.225536 Y108.251507 Z-0.125000 I0.734157 J-0.910352
G02 X96.358391 Y108.080921 Z-0.125000 I0.000000 J-0.137028
G02 X96.050191 Y107.557291 Z-0.125000 I-1.049172 J0.265011
G02 X95.439677 Y107.268407 Z-0.125000 I-0.752810 J0.801395
G02 X95.232260 Y107.450513 Z-0.125000 I-0.023767 J0.182106
G01 X95.232260 Y107.450513 Z-0.125000
G00 Z5.000000

(End cutting path id: rect4760)


(Start cutting path id: rect4760)
(Change tool to Cylindrical cutter)

G00 Z5.000000
G00 X112.064092 Y86.744181

G01 Z-0.125000 F1000.0(Penetrate)
G02 X112.154507 Y86.869615 Z-0.125000 I0.132216 J0.000000 F1100.000000
G02 X112.711468 Y86.959977 Z-0.125000 I0.556961 J-1.671289
G02 X113.268218 Y86.869831 Z-0.125000 I0.000000 J-1.764347
G02 X113.358849 Y86.744181 Z-0.125000 I-0.041784 J-0.125650
G02 X113.268489 Y86.618803 Z-0.125000 I-0.132164 J0.000000
G02 X112.711468 Y86.528386 Z-0.125000 I-0.557022 J1.670580
G02 X112.154181 Y86.619073 Z-0.125000 I-0.000000 J1.757642
G02 X112.064092 Y86.744181 Z-0.125000 I0.041825 J0.125108
G01 X112.064092 Y86.744181 Z-0.125000
G00 Z5.000000

(End cutting path id: rect4760)


(Start cutting path id: rect4760)
(Change tool to Cylindrical cutter)

G00 Z5.000000
G00 X71.135404 Y44.110775

G01 Z-0.125000 F1000.0(Penetrate)
G02 X71.503269 Y44.415770 Z-0.125000 I0.674218 J-0.438852 F1100.000000
G02 X72.354810 Y44.612984 Z-0.125000 I1.024997 J-2.488767
G03 X73.239096 Y44.780880 Z-0.125000 I-0.233537 J3.642664
G03 X73.662236 Y45.033159 Z-0.125000 I-0.336070 J1.044677
G03 X74.479516 Y46.363117 Z-0.125000 I-2.134094 J2.227530
G03 X75.183814 Y50.036561 Z-0.125000 I-16.942676 J5.152605
G03 X75.148412 Y51.038598 Z-0.125000 I-4.209933 J0.352906
G03 X74.935809 Y51.631506 Z-0.125000 I-1.647490 J-0.256181
G02 X74.693978 Y52.223627 Z-0.125000 I1.883699 J1.114774
G02 X74.567819 Y53.127995 Z-0.125000 I4.332804 J1.065407
G03 X74.483546 Y54.032353 Z-0.125000 I-7.987083 J-0.288179
G03 X74.414341 Y54.145423 Z-0.125000 I-0.168522 J-0.025430
G02 X74.160139 Y54.491996 Z-0.125000 I0.404101 J0.562909
G02 X73.781356 Y56.071581 Z-0.125000 I9.402459 J3.089909
G03 X73.579198 Y57.095476 Z-0.125000 I-12.359530 J-1.908367
G03 X73.444433 Y57.468330 Z-0.125000 I-1.752899 J-0.422785
G02 X73.301520 Y57.839803 Z-0.125000 I1.993379 J0.980119
G02 X73.014025 Y58.978899 Z-0.125000 I18.630267 J5.307908
G03 X72.753692 Y60.128245 Z-0.125000 I-98.411327 J-21.686507
G03 X72.193980 Y62.503522 Z-0.125000 I-420.618638 J-97.861310
G02 X71.066422 Y67.259946 Z-0.125000 I1596.982452 J381.092456
G02 X70.483135 Y69.768562 Z-0.125000 I444.472435 J104.668012
G03 X70.149889 Y71.052703 Z-0.125000 I-22.896483 J-5.256536
G03 X69.774145 Y72.214207 Z-0.125000 I-19.084140 J-5.532148
G02 X68.669976 Y76.235156 Z-0.125000 I25.989053 J9.298776
G02 X67.764818 Y82.528865 Z-0.125000 I63.000202 J12.272598
G03 X67.320240 Y84.665940 Z-0.125000 I-9.737978 J-0.911026
G03 X66.795481 Y85.484398 Z-0.125000 I-1.843905 J-0.604774
G03 X66.361409 Y85.690638 Z-0.125000 I-0.545910 J-0.589059
G03 X64.890608 Y85.752249 Z-0.125000 I-1.049249 J-7.461429
G02 X63.366254 Y85.681899 Z-0.125000 I-4.340454 J77.499461
G02 X60.489629 Y85.592455 Z-0.125000 I-10.030884 J276.301837
G03 X56.448152 Y85.374688 Z-0.125000 I1.878931 J-72.481716
G03 X54.069189 Y85.066246 Z-0.125000 I2.076199 J-25.341897
G03 X52.299188 Y84.531905 Z-0.125000 I1.385563 J-7.788402
G03 X52.202721 Y84.254374 Z-0.125000 I0.079709 J-0.183237
G02 X52.302180 Y83.942962 Z-0.125000 I-0.795104 J-0.425529
G02 X52.361437 Y83.010164 Z-0.125000 I-7.312208 J-0.932798
G03 X52.428057 Y82.070243 Z-0.125000 I6.663838 J-0.000000
G03 X52.706090 Y80.591079 Z-0.125000 I16.831151 J2.397973
G02 X53.039861 Y79.117102 Z-0.125000 I-99.968775 J-23.411980
G02 X53.295381 Y77.896678 Z-0.125000 I-68.135091 J-14.902392
G03 X53.563536 Y76.680828 Z-0.125000 I31.106467 J6.223016
G03 X53.670037 Y76.343440 Z-0.125000 I2.491966 J0.601116
G02 X53.762857 Y76.005941 Z-0.125000 I-1.532939 J-0.603108
G02 X53.800054 Y75.547568 Z-0.125000 I-2.805651 J-0.458373
G03 X53.840695 Y75.087792 Z-0.125000 I2.621013 J-0.000000
G03 X54.023111 Y74.295571 Z-0.125000 I8.009673 J1.427180
G02 X54.733559 Y71.454982 Z-0.125000 I-45.133139 J-12.797210
G02 X55.896793 Y65.668449 Z-0.125000 I-186.244851 J-40.449916
G03 X56.329068 Y63.594339 Z-0.125000 I46.149530 J8.536139
G03 X56.614670 Y62.575418 Z-0.125000 I11.396697 J2.644993
G02 X56.903341 Y61.558713 Z-0.125000 I-11.988964 J-3.953332
G02 X57.044782 Y60.777157 Z-0.125000 I-6.933036 J-1.658279
G03 X57.174754 Y59.992161 Z-0.125000 I9.682217 J1.199831
G03 X57.433357 Y58.906896 Z-0.125000 I18.802163 J3.906835
G02 X57.677302 Y57.822698 Z-0.125000 I-12.869231 J-3.465127
G02 X57.707607 Y57.396434 Z-0.125000 I-1.938982 J-0.352056
G03 X57.770987 Y56.785426 Z-0.125000 I2.184001 J-0.082244
G03 X58.425049 Y54.519198 Z-0.125000 I31.258847 J7.794208
G03 X58.938955 Y53.222014 Z-0.125000 I11.121071 J3.655447
G03 X59.371778 Y52.491488 Z-0.125000 I3.930018 J1.834979
G02 X59.659537 Y52.033729 Z-0.125000 I-3.036848 J-2.228369
G02 X59.698388 Y51.878132 Z-0.125000 I-0.292159 J-0.155597
G03 X59.814960 Y51.397669 Z-0.125000 I1.048420 J0.000000
G03 X60.154812 Y50.992976 Z-0.125000 I1.064388 J0.548801
G02 X60.512758 Y50.492017 Z-0.125000 I-0.629918 J-0.828451
G02 X60.703328 Y49.338081 Z-0.125000 I-3.562604 J-1.181058
G03 X60.890714 Y48.414191 Z-0.125000 I2.459905 J0.017977
G03 X61.771948 Y46.759843 Z-0.125000 I8.982388 J3.722836
G02 X62.256273 Y45.974229 Z-0.125000 I-11.460765 J-7.607573
G02 X62.426227 Y45.614303 Z-0.125000 I-2.224926 J-1.270677
G03 X62.589345 Y45.270298 Z-0.125000 I2.239261 J0.851127
G03 X62.641571 Y45.240101 Z-0.125000 I0.052226 J0.030064
G03 X63.030972 Y45.479921 Z-0.125000 I-0.000000 J0.436050
G03 X63.540333 Y47.023853 Z-0.125000 I-4.918983 J2.478817
G02 X63.599060 Y47.294276 Z-0.125000 I3.156432 J-0.543885
G02 X63.861795 Y48.246623 Z-0.125000 I39.394249 J-10.355747
G03 X64.126890 Y49.198595 Z-0.125000 I-48.836423 J14.112323
G03 X64.213763 Y49.559744 Z-0.125000 I-6.952225 J1.863358
G02 X64.781950 Y50.537320 Z-0.125000 I1.777690 J-0.379320
G02 X66.458629 Y51.560784 Z-0.125000 I3.650691 J-4.095574
G02 X69.109113 Y51.792357 Z-0.125000 I1.726447 J-4.476231
G02 X70.692058 Y50.729925 Z-0.125000 I-0.474480 J-2.417392
G02 X71.104537 Y49.916565 Z-0.125000 I-3.378277 J-2.224493
G02 X71.207334 Y49.345760 Z-0.125000 I-1.533365 J-0.570805
G03 X71.308118 Y48.777821 Z-0.125000 I1.650629 J0.000000
G03 X71.634918 Y48.178887 Z-0.125000 I2.168812 J0.794759
G02 X71.947722 Y47.377417 Z-0.125000 I-1.260427 J-0.953707
G02 X71.758023 Y46.906623 Z-0.125000 I-0.547556 J-0.052985
G03 X71.609144 Y46.645408 Z-0.125000 I0.289282 J-0.337909
G03 X71.681061 Y46.466924 Z-0.125000 I0.179476 J-0.031415
G02 X71.871314 Y45.903793 Z-0.125000 I-0.304791 J-0.416677
G02 X71.254276 Y45.024306 Z-0.125000 I-1.617254 J0.478450
G03 X70.290017 Y44.148030 Z-0.125000 I3.770632 J-5.117905
G03 X70.243624 Y43.896046 Z-0.125000 I0.183027 J-0.163960
G03 X70.580647 Y43.718847 Z-0.125000 I0.269460 J0.103399
G03 X71.135401 Y44.110775 Z-0.125000 I-0.214989 J0.892884
G01 X71.135404 Y44.110775 Z-0.125000
G00 Z5.000000

(End cutting path id: rect4760)


(Start cutting path id: rect4760)
(Change tool to Cylindrical cutter)

G00 Z5.000000
G00 X64.850442 Y36.599430

G01 Z-0.125000 F1000.0(Penetrate)
G03 X64.826405 Y36.701253 Z-0.125000 I-0.094409 J0.031461 F1100.000000
G03 X64.724560 Y36.725304 Z-0.125000 I-0.070381 J-0.070371
G03 X64.568932 Y36.628764 Z-0.125000 I0.129828 J-0.383001
G03 X64.472801 Y36.473559 Z-0.125000 I0.279520 J-0.280504
G03 X64.496866 Y36.371684 Z-0.125000 I0.094493 J-0.031458
G03 X64.598680 Y36.347688 Z-0.125000 I0.070301 J0.070291
G03 X64.754272 Y36.444168 Z-0.125000 I-0.129860 J0.383125
G03 X64.850442 Y36.599430 Z-0.125000 I-0.279162 J0.280329
G01 X64.850442 Y36.599430 Z-0.125000
G00 Z5.000000

(End cutting path id: rect4760)


(Start cutting path id: rect4760)
(Change tool to Cylindrical cutter)

G00 Z5.000000
G00 X64.342538 Y35.651127

G01 Z-0.125000 F1000.0(Penetrate)
G03 X64.386670 Y36.026365 Z-0.125000 I-0.881738 J0.293916 F1100.000000
G03 X64.288659 Y36.264698 Z-0.125000 I-0.430794 J-0.037838
G03 X64.107297 Y36.323664 Z-0.125000 I-0.137307 J-0.113924
G03 X63.846668 Y36.152055 Z-0.125000 I0.117938 J-0.462834
G03 X63.646605 Y35.655213 Z-0.125000 I0.787756 J-0.605905
G03 X63.757085 Y35.340606 Z-0.125000 I0.382823 J-0.042267
G03 X64.043341 Y35.297682 Z-0.125000 I0.172167 J0.172197
G03 X64.342535 Y35.651127 Z-0.125000 I-0.291957 J0.550503
G01 X64.342538 Y35.651127 Z-0.125000
G00 Z5.000000

(End cutting path id: rect4760)


(Start cutting path id: rect4760)
(Change tool to Cylindrical cutter)

G00 Z5.000000
G00 X67.199242 Y31.126989

G01 Z-0.125000 F1000.0(Penetrate)
G01 X67.722798 Y31.439014 Z-0.125000 F1100.000000
G01 X67.322082 Y32.222519 Z-0.125000
G02 X66.952563 Y33.019464 Z-0.125000 I10.140320 J5.185907
G02 X66.528084 Y34.123822 Z-0.125000 I19.067072 J7.962507
G03 X65.756058 Y35.891196 Z-0.125000 I-12.377989 J-4.354659
G03 X65.521095 Y36.032903 Z-0.125000 I-0.234963 J-0.123941
G02 X65.358674 Y36.082919 Z-0.125000 I-0.000000 J0.288735
G02 X65.308997 Y36.176803 Z-0.125000 I0.063878 J0.093884
G03 X65.157303 Y36.267275 Z-0.125000 I-0.102827 J0.000000
G03 X64.842938 Y35.925058 Z-0.125000 I0.338228 J-0.626199
G02 X64.652616 Y35.539120 Z-0.125000 I-4.136640 J1.800046
G02 X64.333078 Y35.004593 Z-0.125000 I-8.269902 J4.580946
G01 X63.995385 Y34.479676 Z-0.125000
G01 X64.483799 Y33.278228 Z-0.125000
G02 X64.965105 Y32.073914 Z-0.125000 I-101.849624 J-41.402753
G02 X65.230799 Y31.376728 Z-0.125000 I-34.021610 J-13.364636
G01 X65.489374 Y30.676732 Z-0.125000
G01 X66.082537 Y30.746074 Z-0.125000
G03 X66.655247 Y30.875845 Z-0.125000 I-0.325639 J2.765757
G03 X67.199242 Y31.127215 Z-0.125000 I-0.927531 J2.721611
G01 X67.199242 Y31.126989 Z-0.125000
G00 Z5.000000

(End cutting path id: rect4760)


(Start cutting path id: rect4760)
(Change tool to Cylindrical cutter)

G00 Z5.000000
G00 X58.691357 Y34.818134

G01 Z-0.125000 F1000.0(Penetrate)
G03 X58.660741 Y34.995301 Z-0.125000 I-0.527917 J0.000000 F1100.000000
G01 X58.617316 Y35.025929 Z-0.125000
G03 X58.194516 Y34.785134 Z-0.125000 I0.000000 J-0.491585
G03 X57.977137 Y33.946954 Z-0.125000 I1.339877 J-0.794769
G03 X58.336041 Y33.824263 Z-0.125000 I0.202354 J0.005650
G03 X58.691363 Y34.818134 Z-0.125000 I-1.212320 J0.993872
G01 X58.691357 Y34.818134 Z-0.125000
G00 Z5.000000

(End cutting path id: rect4760)


(Start cutting path id: rect4760)
(Change tool to Cylindrical cutter)

G00 Z5.000000
G00 X79.511932 Y37.075932

G01 Z-0.125000 F1000.0(Penetrate)
G03 X79.433141 Y37.398140 Z-0.125000 I-8.931049 J-2.013213 F1100.000000
G03 X79.122908 Y38.550551 Z-0.125000 I-114.845037 J-30.298657
G02 X78.819696 Y39.704561 Z-0.125000 I51.842519 J14.238282
G02 X78.617572 Y40.564605 Z-0.125000 I28.535998 J7.160179
G03 X78.419109 Y41.425491 Z-0.125000 I-40.302775 J-8.837828
G03 X78.147898 Y42.506658 Z-0.125000 I-63.751856 J-15.417570
G02 X77.885393 Y43.589577 Z-0.125000 I32.747199 J8.511369
G02 X77.694632 Y44.520818 Z-0.125000 I24.026128 J5.406800
G03 X77.511079 Y45.453651 Z-0.125000 I-40.583799 J-7.501207
G03 X77.225362 Y46.768696 Z-0.125000 I-80.951951 J-16.899698
G03 X76.753755 Y47.516248 Z-0.125000 I-1.289952 J-0.291253
G03 X76.446090 Y47.382588 Z-0.125000 I-0.117866 J-0.149619
G02 X76.347149 Y46.465939 Z-0.125000 I-19.417683 J1.632224
G02 X76.233698 Y45.772497 Z-0.125000 I-11.241570 J1.483189
G03 X76.126399 Y45.079355 Z-0.125000 I8.693852 J-1.700689
G03 X76.098635 Y44.592715 Z-0.125000 I4.250913 J-0.486640
G02 X75.887772 Y43.021619 Z-0.125000 I-5.958382 J0.000000
G02 X75.488721 Y42.361584 Z-0.125000 I-1.360499 J0.371895
G02 X75.159543 Y42.192955 Z-0.125000 I-0.461590 J0.495458
G02 X74.550392 Y42.174485 Z-0.125000 I-0.359531 J1.803164
G03 X74.094049 Y42.103172 Z-0.125000 I-0.109548 J-0.794741
G03 X74.012160 Y41.917087 Z-0.125000 I0.067474 J-0.140753
G03 X74.135473 Y41.579020 Z-0.125000 I3.105063 J0.941076
G03 X74.448399 Y40.900192 Z-0.125000 I12.864783 J5.518876
G02 X74.734258 Y40.236394 Z-0.125000 I-6.217813 J-3.071096
G02 X74.719333 Y40.168322 Z-0.125000 I-0.060522 J-0.022402
G03 X74.697908 Y40.098927 Z-0.125000 I0.054348 J-0.054784
G03 X74.825759 Y39.616835 Z-0.125000 I3.565218 J0.687496
G03 X75.528403 Y38.495017 Z-0.125000 I2.729693 J0.928770
G03 X76.268183 Y38.190963 Z-0.125000 I0.740085 J0.748679
G02 X76.489113 Y38.141403 Z-0.125000 I-0.000419 J-0.519079
G02 X76.725459 Y37.975061 Z-0.125000 I-0.358515 J-0.760468
G03 X76.955995 Y37.794833 Z-0.125000 I0.850016 J0.849733
G03 X77.084141 Y37.759265 Z-0.125000 I0.128146 J0.213058
G02 X77.220853 Y37.731855 Z-0.125000 I-0.000000 J-0.354641
G02 X78.281276 Y37.259193 Z-0.125000 I-9.502781 J-22.745476
G03 X79.373473 Y36.926864 Z-0.125000 I1.664095 J3.508131
G03 X79.511926 Y37.075932 Z-0.125000 I0.018162 J0.121962
G01 X79.511932 Y37.075932 Z-0.125000
G00 Z5.000000

(End cutting path id: rect4760)


(Start cutting path id: rect4760)
(Change tool to Cylindrical cutter)

G00 Z5.000000
G00 X11.360820 Y32.364477

G01 Z-0.125000 F1000.0(Penetrate)
G02 X11.419414 Y64.602881 Z-0.125000 I8868.844135 J0.000000 F1100.000000
G02 X11.478221 Y64.661475 Z-0.125000 I0.058808 J-0.000214
G02 X12.304083 Y64.166125 Z-0.125000 I-0.000000 J-0.936126
G02 X12.799438 Y62.185960 Z-0.125000 I-3.710147 J-1.980165
G03 X12.873310 Y61.956964 Z-0.125000 I0.391865 J0.000000
G03 X15.076468 Y59.024125 Z-0.125000 I73.820262 J53.160071
G01 X15.491736 Y58.493971 Z-0.125000
G01 X15.723993 Y59.671512 Z-0.125000
G03 X15.942115 Y60.851310 Z-0.125000 I-49.315555 J9.727585
G03 X16.038924 Y61.496440 Z-0.125000 I-14.656417 J2.529187
G02 X16.290555 Y63.017600 Z-0.125000 I20.717020 J-2.645621
G02 X16.536842 Y63.942085 Z-0.125000 I7.882513 J-1.604890
G03 X17.235794 Y66.175292 Z-0.125000 I-67.220701 J22.264800
G03 X17.852130 Y68.401786 Z-0.125000 I-66.177372 J19.517740
G02 X18.198767 Y69.613471 Z-0.125000 I24.081130 J-6.233655
G02 X18.351972 Y69.995130 Z-0.125000 I2.525843 J-0.792339
G03 X18.657259 Y71.193883 Z-0.125000 I-2.658087 J1.315188
G03 X18.567019 Y75.468418 Z-0.125000 I-35.399419 J1.390898
G03 X17.793775 Y79.592619 Z-0.125000 I-20.172782 J-1.647597
G03 X16.539050 Y82.284480 Z-0.125000 I-9.717674 J-2.891226
G02 X15.301019 Y84.579830 Z-0.125000 I12.314003 J8.123297
G02 X14.528400 Y86.959977 Z-0.125000 I12.476920 J5.365603
G03 X13.712796 Y89.324379 Z-0.125000 I-11.058676 J-2.491831
G03 X11.920337 Y92.461106 Z-0.125000 I-21.372923 J-10.132888
G02 X11.480767 Y93.323518 Z-0.125000 I3.233226 J2.191202
G02 X11.360820 Y94.007622 Z-0.125000 I1.890874 J0.684104
G02 X11.384038 Y94.705290 Z-0.125000 I10.493442 J-0.000000
G01 X11.408852 Y94.728505 Z-0.125000
G02 X11.450424 Y94.712404 Z-0.125000 I0.000000 J-0.061721
G02 X12.424142 Y93.803242 Z-0.125000 I-37.028986 J-40.634261
G03 X13.354502 Y93.018649 Z-0.125000 I6.709094 J7.011650
G03 X13.443086 Y93.047903 Z-0.125000 I0.033982 J0.045846
G03 X13.474442 Y93.221998 Z-0.125000 I-0.732321 J0.221770
G03 X13.592870 Y95.447895 Z-0.125000 I-121.007072 J7.554200
G02 X13.790253 Y98.667182 Z-0.125000 I93.284324 J-4.103833
G02 X13.921073 Y99.619797 Z-0.125000 I8.273289 J-0.650857
G03 X14.181836 Y103.387251 Z-0.125000 I-14.822850 J2.918711
G03 X13.457236 Y107.862904 Z-0.125000 I-21.741000 J-1.223350
G02 X13.226876 Y109.559379 Z-0.125000 I6.382501 J1.730540
G02 X13.435595 Y112.063926 Z-0.125000 I14.250266 J0.073410
G03 X13.609498 Y113.218103 Z-0.125000 I-26.263449 J4.547376
G03 X13.735641 Y114.401621 Z-0.125000 I-27.496913 J3.529192
G02 X13.928005 Y115.488860 Z-0.125000 I6.092147 J-0.517239
G02 X14.058425 Y115.588548 Z-0.125000 I0.130420 J-0.035468
G02 X14.170373 Y115.485367 Z-0.125000 I0.000000 J-0.112320
G02 X14.182323 Y114.070941 Z-0.125000 I-9.663531 J-0.788906
G02 X14.068943 Y112.555120 Z-0.125000 I-75.132667 J4.857599
G02 X14.014267 Y112.092834 Z-0.125000 I-7.035041 J0.597677
G01 X14.071208 Y112.054199 Z-0.125000
G03 X14.210704 Y112.207721 Z-0.125000 I-0.174909 J0.299067
G03 X14.456833 Y112.791140 Z-0.125000 I-8.371213 J3.875214
G03 X14.732811 Y113.574388 Z-0.125000 I-14.850173 J5.672714
G02 X15.008811 Y114.358052 Z-0.125000 I15.174162 J-4.903778
G02 X15.419306 Y115.372756 Z-0.125000 I25.902946 J-9.888570
G03 X15.809775 Y117.166671 Z-0.125000 I-4.471279 J1.912686
G03 X15.495268 Y118.482212 Z-0.125000 I-2.638954 J0.064468
G02 X14.815351 Y120.498819 Z-0.125000 I5.584384 J3.005746
G02 X14.578714 Y124.286821 Z-0.125000 I19.924292 J3.146068
G02 X14.730050 Y127.306806 Z-0.125000 I82.839421 J-2.637429
G02 X14.841064 Y128.121431 Z-0.125000 I6.113911 J-0.418306
G03 X14.860746 Y128.903830 Z-0.125000 I-2.171612 J0.446076
G03 X14.620269 Y129.559996 Z-0.125000 I-1.747128 J-0.268152
G03 X13.937766 Y130.664939 Z-0.125000 I-180.371676 J-110.649089
G03 X13.646996 Y131.124967 Z-0.125000 I-31.742591 J-19.741660
G02 X13.451133 Y131.502066 Z-0.125000 I1.947878 J1.251130
G02 X13.089527 Y132.492263 Z-0.125000 I13.194455 J5.379545
G03 X12.371671 Y134.578608 Z-0.125000 I-57.497929 J-18.616843
G03 X11.637295 Y136.475135 Z-0.125000 I-48.247967 J-17.592206
G02 X11.393265 Y137.842631 Z-0.125000 I3.044739 J1.248857
G02 X11.723808 Y138.873355 Z-0.125000 I1.996945 J-0.072038
G03 X12.202728 Y139.855778 Z-0.125000 I-3.488257 J2.308431
G03 X12.920850 Y142.454704 Z-0.125000 I-24.144448 J8.070152
G02 X13.234331 Y143.393258 Z-0.125000 I4.577975 J-1.007436
G02 X13.396796 Y143.497702 Z-0.125000 I0.162465 J-0.074137
G02 X13.590826 Y143.426099 Z-0.125000 I-0.000000 J-0.298694
G02 X13.734905 Y143.208825 Z-0.125000 I-0.308330 J-0.360867
G02 X13.782947 Y142.368181 Z-0.125000 I-1.620431 J-0.514301
G02 X13.279279 Y140.879365 Z-0.125000 I-5.813326 J1.137049
G03 X13.356992 Y140.643733 Z-0.125000 I0.158468 J-0.078368
G03 X13.770505 Y140.627121 Z-0.125000 I0.224666 J0.437522
G03 X15.137745 Y141.629707 Z-0.125000 I-1.376873 J3.311215
G03 X15.850593 Y143.099585 Z-0.125000 I-2.547613 J2.143312
G02 X16.110312 Y143.820821 Z-0.125000 I2.653006 J-0.547971
G02 X16.290599 Y143.929282 Z-0.125000 I0.180287 J-0.095610
G02 X16.454077 Y143.849722 Z-0.125000 I-0.000000 J-0.207736
G02 X16.488015 Y143.677528 Z-0.125000 I-0.152380 J-0.119474
G03 X16.430979 Y143.422876 Z-0.125000 I2.269847 J-0.642102
G03 X16.323934 Y142.692132 Z-0.125000 I18.638941 J-3.103579
G02 X15.682456 Y141.097161 Z-0.125000 I-3.361544 J0.425489
G02 X14.410154 Y140.115686 Z-0.125000 I-2.376420 J1.765200
G03 X12.963812 Y139.227133 Z-0.125000 I1.885499 J-4.690539
G03 X11.995702 Y137.999781 Z-0.125000 I2.825467 J-3.224159
G03 X11.942667 Y137.608401 Z-0.125000 I0.509845 J-0.268372
G03 X12.294364 Y136.633103 Z-0.125000 I3.878719 J0.847625
G02 X12.750958 Y135.636962 Z-0.125000 I-10.304636 J-5.325973
G02 X13.381612 Y133.930893 Z-0.125000 I-29.650304 J-11.929939
G03 X14.228815 Y131.837337 Z-0.125000 I18.171835 J6.135429
G03 X14.757540 Y131.034136 Z-0.125000 I3.140594 J1.491743
G02 X15.908539 Y129.457997 Z-0.125000 I-8.143970 J-7.155590
G02 X16.680508 Y127.830539 Z-0.125000 I-7.915953 J-4.751675
G02 X17.067784 Y126.613058 Z-0.125000 I-16.127282 J-5.800364
G02 X17.119667 Y126.248073 Z-0.125000 I-1.375483 J-0.381704
G03 X17.182970 Y126.097476 Z-0.125000 I0.216782 J0.002521
G01 X17.260037 Y126.107374 Z-0.125000
G03 X17.577498 Y127.129435 Z-0.125000 I-2.047598 J1.196335
G03 X17.436876 Y128.507259 Z-0.125000 I-3.960712 J0.291854
G02 X16.786964 Y131.969133 Z-0.125000 I18.566057 J5.277425
G02 X16.750093 Y135.776257 Z-0.125000 I22.450652 J2.121169
G02 X16.941297 Y137.074146 Z-0.125000 I9.164772 J-0.687119
G02 X17.057909 Y137.167782 Z-0.125000 I0.116612 J-0.025795
G02 X17.163687 Y137.070705 Z-0.125000 I-0.000000 J-0.106168
G02 X17.247014 Y134.967586 Z-0.125000 I-22.733740 J-1.953932
G03 X17.444926 Y131.982821 Z-0.125000 I20.577076 J-0.134534
G03 X18.076112 Y129.039548 Z-0.125000 I20.636910 J2.886279
G02 X18.182126 Y128.179881 Z-0.125000 I-2.595862 J-0.756491
G02 X17.903063 Y124.507950 Z-0.125000 I-48.835636 J1.864880
G03 X17.557622 Y119.819711 Z-0.125000 I58.420679 J-6.661431
G03 X17.683946 Y117.982140 Z-0.125000 I9.021758 J-0.302924
G03 X18.561947 Y114.221714 Z-0.125000 I32.511511 J5.608219
G03 X19.077879 Y113.275390 Z-0.125000 I2.464737 J0.729962
G02 X19.236184 Y113.034572 Z-0.125000 I-0.850564 J-0.731571
G02 X19.273219 Y112.873774 Z-0.125000 I-0.330562 J-0.160799
G03 X19.315363 Y112.715843 Z-0.125000 I0.316990 J-0.000000
G03 X19.534763 Y112.418501 Z-0.125000 I1.406477 J0.808183
G03 X19.759981 Y112.377365 Z-0.125000 I0.140229 J0.130649
G03 X20.055875 Y112.676326 Z-0.125000 I-0.286862 J0.579829
G03 X20.720407 Y114.366598 Z-0.125000 I-10.980436 J5.292736
G03 X20.855699 Y115.261710 Z-0.125000 I-2.893449 J0.895112
G03 X20.780661 Y115.732651 Z-0.125000 I-1.515349 J0.000000
G03 X20.492197 Y116.373329 Z-0.125000 I-3.125329 J-1.021895
G02 X20.116119 Y117.512983 Z-0.125000 I2.468077 J1.446326
G02 X20.059591 Y120.385437 Z-0.125000 I16.300051 J1.757557
G02 X20.245196 Y121.831581 Z-0.125000 I12.211021 J-0.832237
G02 X20.350016 Y121.918406 Z-0.125000 I0.104820 J-0.019860
G02 X20.571023 Y121.717159 Z-0.125000 I0.000000 J-0.221976
G02 X20.577690 Y119.491002 Z-0.125000 I-12.258967 J-1.149807
G03 X20.557532 Y117.749171 Z-0.125000 I11.433269 J-1.003351
G03 X20.708730 Y117.458705 Z-0.125000 I0.404739 J0.026096
G02 X20.988786 Y117.058707 Z-0.125000 I-0.543940 J-0.678874
G02 X21.368018 Y115.510573 Z-0.125000 I-8.777207 J-2.970585
G02 X21.322762 Y114.561741 Z-0.125000 I-2.341937 J-0.363793
G02 X20.627003 Y112.601548 Z-0.125000 I-11.012462 J2.805233
G03 X20.168466 Y111.532357 Z-0.125000 I19.179672 J-8.858376
G03 X20.136390 Y111.364486 Z-0.125000 I0.423239 J-0.167871
G03 X20.288337 Y110.754406 Z-0.125000 I1.300736 J-0.000000
G03 X20.980130 Y109.775835 Z-0.125000 I4.172276 J2.215744
G02 X21.224534 Y109.451509 Z-0.125000 I-1.554415 J-1.425620
G02 X21.869201 Y108.323508 Z-0.125000 I-18.375154 J-11.249855
G03 X22.490012 Y107.177780 Z-0.125000 I76.610838 J40.770406
G03 X22.583386 Y107.028737 Z-0.125000 I1.385603 J0.764299
G02 X22.666626 Y106.875603 Z-0.125000 I-0.600911 J-0.425830
G02 X23.027903 Y105.913813 Z-0.125000 I-23.898984 J-9.525927
G03 X23.397787 Y104.980957 Z-0.125000 I12.408230 J4.380191
G03 X23.456523 Y104.942677 Z-0.125000 I0.058736 J0.025923
G03 X23.540855 Y105.003156 Z-0.125000 I-0.000000 J0.089035
G03 X24.187287 Y107.100633 Z-0.125000 I-37.745980 J12.781482
G02 X24.338522 Y107.600275 Z-0.125000 I11.171936 J-3.108877
G02 X24.446366 Y107.891919 Z-0.125000 I3.914042 J-1.281579
G03 X24.550101 Y108.184719 Z-0.125000 I-2.776751 J1.148538
G03 X24.873755 Y109.330482 Z-0.125000 I-42.363960 J12.585540
G02 X25.198084 Y110.475898 Z-0.125000 I40.788353 J-10.930748
G02 X25.303105 Y110.769155 Z-0.125000 I2.772192 J-0.827339
G03 X25.863131 Y113.016613 Z-0.125000 I-6.975697 J2.931723
G03 X25.753781 Y115.732343 Z-0.125000 I-10.376771 J0.942241
G02 X25.640930 Y116.672642 Z-0.125000 I9.051004 J1.563187
G02 X25.460425 Y120.048249 Z-0.125000 I116.740955 J7.935156
G03 X25.012325 Y124.586453 Z-0.125000 I-38.352628 J-1.495700
G03 X24.292472 Y127.385186 Z-0.125000 I-15.220840 J-2.422958
G03 X23.333373 Y129.602924 Z-0.125000 I-18.186018 J-6.548601
G03 X22.764719 Y130.387336 Z-0.125000 I-2.769152 J-1.409151
G02 X22.235186 Y131.125245 Z-0.125000 I2.003896 J1.996976
G02 X21.361174 Y133.211579 Z-0.125000 I15.708992 J7.807082
G02 X21.161437 Y133.942698 Z-0.125000 I5.472462 J1.887886
G02 X20.847749 Y135.729162 Z-0.125000 I32.484837 J6.624839
G03 X20.351645 Y138.317704 Z-0.125000 I-30.402431 J-4.484933
G03 X19.656826 Y140.764320 Z-0.125000 I-27.848034 J-6.586645
G02 X19.169626 Y142.865217 Z-0.125000 I10.984286 J3.654205
G02 X19.345150 Y143.066111 Z-0.125000 I0.175524 J0.023767
G02 X19.486658 Y142.991038 Z-0.125000 I0.000000 J-0.170903
G02 X19.564357 Y142.742419 Z-0.125000 I-0.374163 J-0.253386
G03 X19.612860 Y142.427955 Z-0.125000 I1.120833 J0.011905
G03 X19.925607 Y141.555564 Z-0.125000 I9.092436 J2.767327
G02 X20.857739 Y138.897911 Z-0.125000 I-23.382242 J-9.693270
G02 X21.424209 Y136.376538 Z-0.125000 I-20.470745 J-5.923423
G03 X21.997335 Y133.803195 Z-0.125000 I22.138832 J3.580194
G03 X22.327298 Y133.211579 Z-0.125000 I1.423766 J0.406256
G01 X22.378816 Y133.224170 Z-0.125000
G03 X22.384719 Y133.427364 Z-0.125000 I-0.428550 J0.114132
G02 X22.162503 Y135.601110 Z-0.125000 I10.660694 J2.188045
G02 X22.378959 Y137.817119 Z-0.125000 I11.299643 J0.014846
G03 X22.486156 Y139.048790 Z-0.125000 I-5.561864 J1.104570
G03 X22.323213 Y140.303544 Z-0.125000 I-5.937774 J-0.133126
G02 X21.877440 Y143.593844 Z-0.125000 I15.978479 J3.840126
G02 X22.201836 Y143.929282 Z-0.125000 I0.324396 J0.010860
G02 X22.314519 Y143.840817 Z-0.125000 I-0.000000 J-0.115998
G02 X22.474258 Y142.814357 Z-0.125000 I-5.924935 J-1.447704
G03 X22.603856 Y141.708777 Z-0.125000 I11.677731 J0.808496
G03 X22.800707 Y140.844827 Z-0.125000 I7.316924 J1.212764
G02 X22.951417 Y139.980235 Z-0.125000 I-3.795229 J-1.106990
G02 X22.937687 Y138.614975 Z-0.125000 I-9.550042 J-0.586657
G03 X22.834077 Y134.997203 Z-0.125000 I34.152813 J-2.788472
G03 X23.055667 Y133.741435 Z-0.125000 I4.252480 J0.102947
G03 X23.625244 Y132.288129 Z-0.125000 I15.284841 J5.152139
G03 X24.294461 Y130.981716 Z-0.125000 I13.012189 J5.840962
G02 X25.327106 Y128.970031 Z-0.125000 I-19.342823 J-11.200001
G02 X25.468402 Y128.378295 Z-0.125000 I-1.474015 J-0.664707
G03 X25.566995 Y128.368073 Z-0.125000 I0.050061 J0.002262
G03 X25.805043 Y129.686934 Z-0.125000 I-8.874318 J2.282689
G02 X26.227065 Y132.505091 Z-0.125000 I32.750348 J-3.463725
G02 X26.675909 Y134.168674 Z-0.125000 I11.820603 J-2.296922
G03 X26.807097 Y134.808744 Z-0.125000 I-2.326853 J0.810387
G03 X26.895808 Y137.342274 Z-0.125000 I-37.004418 J2.564024
G03 X26.582479 Y140.189462 Z-0.125000 I-12.995043 J0.010746
G03 X25.739405 Y142.512628 Z-0.125000 I-9.441319 J-2.111683
G02 X25.203830 Y143.621400 Z-0.125000 I20.877612 J10.768338
G02 X25.171559 Y143.771418 Z-0.125000 I0.332557 J0.150017
G02 X25.479895 Y144.072552 Z-0.125000 I0.301219 J0.000000
G02 X26.149711 Y143.748276 Z-0.125000 I-0.021216 J-0.897738
G02 X26.276677 Y143.553301 Z-0.125000 I-0.775857 J-0.644060
G02 X26.596986 Y142.849135 Z-0.125000 I-9.987393 J-4.967963
G01 X26.894048 Y142.130995 Z-0.125000
G01 X26.805458 Y143.030136 Z-0.125000
G02 X26.857265 Y143.802021 Z-0.125000 I2.340392 J0.230599
G02 X27.018115 Y143.929265 Z-0.125000 I0.160850 J-0.038043
G02 X27.276082 Y143.857018 Z-0.125000 I-0.000000 J-0.496677
G02 X27.464595 Y143.657894 Z-0.125000 I-0.270256 J-0.444651
G02 X27.542421 Y143.369461 Z-0.125000 I-0.583033 J-0.312031
G02 X27.627699 Y139.090285 Z-0.125000 I-135.646886 J-4.843712
G02 X27.497880 Y134.808527 Z-0.125000 I-62.148839 J-0.258547
G02 X27.209020 Y132.636114 Z-0.125000 I-16.232960 J1.053042
G03 X26.440180 Y128.359896 Z-0.125000 I98.038660 J-19.834017
G03 X26.504545 Y128.162184 Z-0.125000 I0.226363 J-0.035642
G03 X27.072752 Y128.239366 Z-0.125000 I0.254741 J0.254759
G03 X29.023928 Y132.609639 Z-0.125000 I-21.834972 J12.369265
G03 X29.213117 Y133.459351 Z-0.125000 I-3.923972 J1.319589
G03 X29.254007 Y134.623695 Z-0.125000 I-7.367316 J0.841623
G02 X29.247585 Y135.800061 Z-0.125000 I15.446684 J0.672523
G02 X29.344155 Y137.387977 Z-0.125000 I28.248289 J-0.921025
G03 X29.398180 Y138.969786 Z-0.125000 I-14.404149 J1.283789
G03 X29.292259 Y139.905552 Z-0.125000 I-5.118650 J-0.105508
G02 X29.180725 Y140.841536 Z-0.125000 I5.359163 J1.113251
G02 X29.213153 Y142.346791 Z-0.125000 I13.957996 J0.452280
G02 X29.329966 Y143.856959 Z-0.125000 I439.735024 J-33.254572
G02 X29.335462 Y143.893307 Z-0.125000 I0.257764 J-0.020384
G01 X29.356992 Y143.912623 Z-0.125000
G02 X29.648051 Y143.929256 Z-0.125000 I0.291060 J-2.538303
G02 X29.826786 Y143.833464 Z-0.125000 I0.000000 J-0.214644
G02 X29.863305 Y143.605561 Z-0.125000 I-0.231568 J-0.153983
G03 X29.629458 Y142.035798 Z-0.125000 I6.329679 J-1.745228
G03 X29.777733 Y140.404642 Z-0.125000 I6.990434 J-0.186877
G02 X29.893998 Y139.535708 Z-0.125000 I-5.722643 J-1.207949
G02 X29.911373 Y138.102855 Z-0.125000 I-15.598807 J-0.905687
G03 X29.884236 Y136.664120 Z-0.125000 I48.360282 J-1.631777
G03 X29.899266 Y135.066124 Z-0.125000 I59.655317 J-0.237996
G02 X29.655679 Y132.839473 Z-0.125000 I-8.521128 J-0.194469
G02 X28.843532 Y130.765895 Z-0.125000 I-8.181726 J2.008658
G03 X27.128971 Y127.484999 Z-0.125000 I66.593072 J-36.889260
G03 X26.605133 Y126.216507 Z-0.125000 I9.391246 J-4.620631
G03 X26.436204 Y125.398807 Z-0.125000 I3.243093 J-1.096293
G03 X26.470049 Y124.562038 Z-0.125000 I3.432236 J-0.280243
G02 X26.556484 Y123.712542 Z-0.125000 I-6.916934 J-1.132935
G02 X26.611975 Y121.055230 Z-0.125000 I-67.854846 J-2.746199
G03 X26.799292 Y117.702974 Z-0.125000 I30.822282 J0.040925
G03 X27.263947 Y115.169553 Z-0.125000 I18.022733 J1.996228
G02 X27.612825 Y112.020442 Z-0.125000 I-10.829320 J-2.793619
G02 X27.053091 Y108.539309 Z-0.125000 I-13.842851 J0.440234
G03 X26.743980 Y107.457850 Z-0.125000 I62.307723 J-18.394207
G03 X26.615548 Y106.956847 Z-0.125000 I13.256370 J-3.665215
G02 X26.493304 Y106.453985 Z-0.125000 I-39.224965 J9.269230
G02 X26.202113 Y105.302378 Z-0.125000 I-207.822499 J51.936554
G03 X25.926579 Y104.147154 Z-0.125000 I35.291541 J-9.027897
G03 X25.453794 Y101.921655 Z-0.125000 I130.567442 J-28.900742
G03 X25.120528 Y99.679179 Z-0.125000 I20.855675 J-4.245470
G03 X24.977814 Y96.886466 Z-0.125000 I32.237442 J-3.047411
G03 X25.052040 Y93.777721 Z-0.125000 I48.995334 J-0.385411
G03 X25.257023 Y91.870903 Z-0.125000 I18.606797 J1.035801
G01 X25.353944 Y91.264797 Z-0.125000
G01 X26.313415 Y93.199809 Z-0.125000
G02 X27.343137 Y95.088459 Z-0.125000 I24.813976 J-12.303935
G02 X27.926252 Y95.902744 Z-0.125000 I5.159151 J-3.078579
G03 X28.662997 Y97.264045 Z-0.125000 I-2.842117 J2.418189
G03 X28.981493 Y99.476010 Z-0.125000 I-7.460111 J2.203077
G03 X28.914408 Y101.553498 Z-0.125000 I-33.476321 J-0.041176
G03 X28.807975 Y102.209347 Z-0.125000 I-3.404145 J-0.215876
G02 X28.284478 Y104.829688 Z-0.125000 I21.099315 J5.577727
G02 X28.109464 Y107.316434 Z-0.125000 I18.820247 J2.574074
G03 X28.019903 Y109.745725 Z-0.125000 I-37.680051 J-0.172854
G03 X27.909995 Y110.198152 Z-0.125000 I-1.379130 J-0.095468
G02 X27.519220 Y112.563953 Z-0.125000 I4.559069 J1.968226
G02 X28.146544 Y113.142909 Z-0.125000 I0.627323 J-0.050387
G02 X28.255154 Y113.044267 Z-0.125000 I0.000000 J-0.109115
G02 X28.262323 Y111.942220 Z-0.125000 I-6.128628 J-0.590914
G03 X28.260086 Y110.761097 Z-0.125000 I7.254079 J-0.604306
G03 X28.393272 Y110.294901 Z-0.125000 I1.222741 J0.097198
G02 X28.534581 Y109.826497 Z-0.125000 I-1.185933 J-0.613294
G02 X28.624231 Y108.179188 Z-0.125000 I-15.089823 J-1.647310
G03 X28.866116 Y105.728461 Z-0.125000 I12.536042 J-0.000000
G03 X29.669246 Y102.936842 Z-0.125000 I17.105769 J3.409878
G02 X30.154571 Y101.397374 Z-0.125000 I-12.990368 J-4.941509
G02 X30.334735 Y100.300791 Z-0.125000 I-6.387016 J-1.612450
G01 X30.422503 Y99.183411 Z-0.125000
G01 X31.069294 Y100.876174 Z-0.125000
G01 X31.716086 Y102.569042 Z-0.125000
G01 X31.716650 Y105.302378 Z-0.125000
G03 X31.424553 Y108.205069 Z-0.125000 I-14.540831 J0.002804
G03 X30.867517 Y109.474387 Z-0.125000 I-3.216301 J-0.654578
G02 X30.499956 Y110.186017 Z-0.125000 I2.176917 J1.575128
G02 X29.915446 Y112.279727 Z-0.125000 I18.748988 J6.362684
G03 X29.652850 Y113.028119 Z-0.125000 I-3.231009 J-0.713431
G03 X29.207023 Y113.718293 Z-0.125000 I-3.186115 J-1.569032
G02 X28.337798 Y114.922999 Z-0.125000 I8.905132 J7.341205
G02 X28.066569 Y115.534901 Z-0.125000 I1.983428 J1.245228
G02 X28.008106 Y115.954856 Z-0.125000 I1.510701 J0.424356
G02 X28.058568 Y118.383869 Z-0.125000 I51.528925 J0.144530
G03 X28.012055 Y120.823358 Z-0.125000 I-19.230596 J0.853522
G03 X27.668246 Y123.105340 Z-0.125000 I-17.162322 J-1.418826
G02 X27.852840 Y123.304092 Z-0.125000 I0.161116 J0.035459
G02 X28.166511 Y123.033870 Z-0.125000 I-0.054736 J-0.380701
G02 X28.501222 Y121.320205 Z-0.125000 I-8.528067 J-2.555214
G02 X28.566889 Y118.817380 Z-0.125000 I-18.223893 J-1.730417
G03 X28.514504 Y116.456786 Z-0.125000 I58.940390 J-2.488852
G03 X28.560708 Y115.954543 Z-0.125000 I2.689246 J-0.005847
G03 X28.737187 Y115.495910 Z-0.125000 I1.335301 J0.250544
G03 X29.358585 Y114.650811 Z-0.125000 I5.279218 J3.230783
G02 X30.020661 Y113.827688 Z-0.125000 I-9.593522 J-8.394340
G02 X30.079403 Y113.674452 Z-0.125000 I-0.247606 J-0.182796
G01 X30.104943 Y113.671529 Z-0.125000
G03 X30.214974 Y114.078521 Z-0.125000 I-3.325102 J1.117316
G03 X30.332121 Y115.841526 Z-0.125000 I-6.305941 J1.304408
G03 X29.793839 Y119.976785 Z-0.125000 I-35.777488 J-2.554451
G02 X29.724433 Y120.699603 Z-0.125000 I3.888474 J0.738120
G02 X29.785203 Y122.206637 Z-0.125000 I17.079259 J0.066030
G02 X30.137167 Y124.808996 Z-0.125000 I26.209235 J-2.219772
G02 X30.294958 Y124.940081 Z-0.125000 I0.157791 J-0.029427
G02 X30.424013 Y124.814270 Z-0.125000 I0.000000 J-0.129096
G02 X30.351727 Y122.710232 Z-0.125000 I-17.609137 J-0.448288
G03 X30.330687 Y119.814624 Z-0.125000 I16.614459 J-1.568607
G03 X30.689149 Y118.480406 Z-0.125000 I3.786470 J0.302044
G02 X30.778930 Y118.118897 Z-0.125000 I-0.838434 J-0.400126
G02 X30.793891 Y115.962863 Z-0.125000 I-31.100252 J-1.293877
G03 X30.954021 Y111.663163 Z-0.125000 I33.144514 J-0.918452
G03 X31.345807 Y110.578858 Z-0.125000 I2.368241 J0.242770
G02 X32.125976 Y108.998894 Z-0.125000 I-5.529686 J-3.713097
G02 X32.386186 Y107.501400 Z-0.125000 I-4.694789 J-1.587138
G03 X32.429294 Y106.741916 Z-0.125000 I9.851494 J0.178204
G01 X32.458827 Y106.741584 Z-0.125000
G02 X32.641806 Y107.970219 Z-0.125000 I20.567091 J-2.435089
G02 X32.963025 Y109.546817 Z-0.125000 I34.198046 J-6.146561
G02 X33.167144 Y110.261188 Z-0.125000 I6.690130 J-1.525239
G02 X33.559163 Y111.273182 Z-0.125000 I13.830849 J-4.775773
G03 X33.757262 Y111.783313 Z-0.125000 I-6.927980 J2.983861
G03 X33.958677 Y112.424053 Z-0.125000 I-10.735952 J3.726851
G02 X34.163868 Y113.060475 Z-0.125000 I8.723587 J-2.461309
G02 X34.246417 Y113.215339 Z-0.125000 I0.587010 J-0.213467
G03 X34.924156 Y114.713402 Z-0.125000 I-3.246318 J2.371009
G03 X35.270531 Y117.818939 Z-0.125000 I-14.172415 J3.152797
G03 X35.208792 Y118.383764 Z-0.125000 I-2.531941 J0.009031
G03 X34.898483 Y119.473301 Z-0.125000 I-9.847205 J-2.215610
G02 X34.498755 Y121.505489 Z-0.125000 I7.042412 J2.440638
G02 X34.663979 Y123.746111 Z-0.125000 I8.757363 J0.480633
G03 X34.837993 Y124.902983 Z-0.125000 I-10.871890 J2.226856
G03 X35.044504 Y127.674484 Z-0.125000 I-62.333268 J6.038042
G03 X35.018585 Y129.316612 Z-0.125000 I-12.074592 J0.630684
G03 X34.817053 Y130.384034 Z-0.125000 I-5.271382 J-0.442514
G03 X34.460994 Y131.419396 Z-0.125000 I-12.562748 J-3.741402
G03 X34.226356 Y131.893514 Z-0.125000 I-2.849474 J-1.115066
G02 X33.960785 Y132.354587 Z-0.125000 I9.655362 J5.868374
G02 X33.860529 Y132.564698 Z-0.125000 I1.900003 J1.035577
G03 X33.764868 Y132.777478 Z-0.125000 I-3.466289 J-1.430461
G03 X33.299443 Y133.715603 Z-0.125000 I-67.926156 J-33.115224
G02 X32.689990 Y135.379884 Z-0.125000 I6.809061 J3.437179
G02 X32.852496 Y135.585802 Z-0.125000 I0.162506 J0.038836
G02 X33.020696 Y135.500462 Z-0.125000 I-0.000000 J-0.208427
G02 X33.447265 Y134.773056 Z-0.125000 I-3.362425 J-2.460586
G03 X33.850588 Y133.978192 Z-0.125000 I9.993540 J4.571077
G03 X34.263432 Y133.314373 Z-0.125000 I7.376324 J4.127218
G02 X34.653258 Y132.641833 Z-0.125000 I-4.144957 J-2.851805
G02 X34.961729 Y131.861298 Z-0.125000 I-5.285923 J-2.540237
G01 X35.215619 Y131.054163 Z-0.125000
G01 X35.228742 Y131.716036 Z-0.125000
G02 X35.341264 Y132.619056 Z-0.125000 I4.375257 J-0.086666
G02 X35.676267 Y133.643664 Z-0.125000 I5.982658 J-1.389003
G03 X35.789232 Y133.934915 Z-0.125000 I-4.244573 J1.813837
G03 X35.889895 Y134.255082 Z-0.125000 I-5.025200 J1.755876
G02 X36.032117 Y134.510798 Z-0.125000 I0.606409 J-0.169859
G02 X36.186661 Y134.578774 Z-0.125000 I0.154544 J-0.141688
G02 X36.293074 Y134.463491 Z-0.125000 I0.000000 J-0.106754
G02 X36.090550 Y133.379250 Z-0.125000 I-5.260994 J0.421659
G03 X35.856185 Y132.354503 Z-0.125000 I7.802232 J-2.323582
G03 X35.785786 Y131.493529 Z-0.125000 I5.427321 J-0.877137
G02 X35.564880 Y126.436227 Z-0.125000 I-62.150973 J0.181326
G02 X35.086121 Y123.220972 Z-0.125000 I-25.551218 J2.161362
G03 X34.982658 Y121.508895 Z-0.125000 I5.577674 J-1.196231
G03 X35.418212 Y119.563648 Z-0.125000 I7.673409 J0.696743
G01 X35.779070 Y118.575128 Z-0.125000
G01 X36.085913 Y119.483754 Z-0.125000
G03 X36.295338 Y120.408449 Z-0.125000 I-4.370488 J1.475892
G03 X36.395336 Y122.054844 Z-0.125000 I-13.859813 J1.668043
G02 X36.554241 Y124.684239 Z-0.125000 I22.392203 J-0.033755
G02 X37.007910 Y127.169930 Z-0.125000 I20.472485 J-2.452237
G03 X37.200761 Y128.037230 Z-0.125000 I-18.694769 J4.612005
G03 X37.464295 Y129.471678 Z-0.125000 I-50.977609 J10.106943
G02 X37.774651 Y131.221429 Z-0.125000 I110.981115 J-18.782491
G02 X38.058149 Y132.672608 Z-0.125000 I76.614977 J-14.214029
G02 X38.328813 Y132.860188 Z-0.125000 I0.233551 J-0.047933
G02 X38.514475 Y132.600712 Z-0.125000 I-0.034840 J-0.221090
G03 X38.311768 Y131.401254 Z-0.125000 I121.567243 J-21.161569
G03 X37.718523 Y127.745313 Z-0.125000 I1127.203033 J-184.785755
G02 X37.561052 Y126.885954 Z-0.125000 I-19.639068 J3.154604
G02 X37.259085 Y125.515464 Z-0.125000 I-50.258658 J10.355230
G03 X37.049416 Y124.138492 Z-0.125000 I8.540991 J-2.004969
G03 X37.024130 Y122.241624 Z-0.125000 I16.233507 J-1.165008
G02 X36.860901 Y120.238604 Z-0.125000 I-7.969295 J-0.358732
G02 X35.906315 Y116.934957 Z-0.125000 I-22.855484 J4.814334
G03 X35.732849 Y116.327020 Z-0.125000 I3.856458 J-1.429104
G03 X35.529746 Y115.086774 Z-0.125000 I15.915872 J-3.243135
G02 X35.316370 Y113.855502 Z-0.125000 I-12.936912 J1.607807
G02 X35.181278 Y113.525112 Z-0.125000 I-1.038028 J0.231621
G03 X35.021248 Y113.202198 Z-0.125000 I1.579963 J-0.984110
G03 X34.899510 Y112.783748 Z-0.125000 I2.547711 J-0.968128
G01 X34.952833 Y112.738384 Z-0.125000
G03 X35.087066 Y112.855218 Z-0.125000 I-0.091845 J0.241052
G02 X35.403396 Y113.327633 Z-0.125000 I2.836900 J-1.557475
G02 X35.879877 Y113.839685 Z-0.125000 I3.815555 J-3.072780
G03 X36.769672 Y115.030945 Z-0.125000 I-2.838782 J3.048329
G03 X37.339600 Y116.770577 Z-0.125000 I-5.650797 J2.814458
G02 X37.816412 Y118.820515 Z-0.125000 I18.062796 J-3.120953
G02 X38.768675 Y121.630827 Z-0.125000 I34.957731 J-10.278789
G03 X39.220101 Y122.859988 Z-0.125000 I-39.529175 J15.215089
G03 X39.397734 Y123.429085 Z-0.125000 I-8.286250 J2.898678
G03 X39.609860 Y124.971785 Z-0.125000 I-5.705834 J1.570503
G03 X39.407330 Y125.464049 Z-0.125000 I-0.691608 J0.003249
G02 X38.854078 Y127.620931 Z-0.125000 I1.546152 J1.545993
G02 X40.460944 Y129.084997 Z-0.125000 I2.000894 J-0.582224
G02 X40.650019 Y128.920372 Z-0.125000 I0.030147 J-0.156266
G02 X40.392632 Y127.786275 Z-0.125000 I-3.419725 J0.179861
G03 X40.183454 Y127.003878 Z-0.125000 I2.830005 J-1.175780
G03 X40.061408 Y125.227346 Z-0.125000 I14.693485 J-1.901885
G02 X39.913924 Y123.453203 Z-0.125000 I-11.961970 J0.101191
G02 X39.570443 Y122.134315 Z-0.125000 I-6.923946 J1.099050
G03 X38.378984 Y118.639778 Z-0.125000 I73.630277 J-27.054558
G03 X37.959713 Y117.018907 Z-0.125000 I15.382129 J-4.843556
G02 X37.206740 Y114.731251 Z-0.125000 I-10.126379 J2.065313
G02 X36.153384 Y113.129256 Z-0.125000 I-5.940521 J2.758752
G03 X35.448293 Y112.218204 Z-0.125000 I6.159032 J-5.495039
G03 X35.289803 Y111.835978 Z-0.125000 I0.884666 J-0.590796
G02 X35.166742 Y111.464458 Z-0.125000 I-1.570836 J0.314179
G02 X35.091204 Y111.416652 Z-0.125000 I-0.075538 J0.035777
G03 X35.011282 Y111.368821 Z-0.125000 I0.000000 J-0.090686
G03 X34.801906 Y110.877111 Z-0.125000 I2.630795 J-1.410658
G02 X34.368170 Y109.816500 Z-0.125000 I-7.252740 J2.347011
G02 X33.813417 Y108.899004 Z-0.125000 I-5.971218 J2.983962
G03 X33.258983 Y107.543570 Z-0.125000 I2.540898 J-1.830455
G03 X32.960392 Y103.340699 Z-0.125000 I25.625654 J-3.932603
G02 X32.725237 Y101.018569 Z-0.125000 I-10.500898 J-0.109580
G02 X32.065471 Y99.188319 Z-0.125000 I-7.133717 J1.537513
G03 X31.820130 Y98.677169 Z-0.125000 I7.805552 J-4.060962
G03 X31.341783 Y97.546971 Z-0.125000 I37.688024 J-16.617463
G02 X30.832191 Y96.440683 Z-0.125000 I-12.211543 J4.954520
G02 X30.615314 Y96.144247 Z-0.125000 I-1.064915 J0.551553
G03 X30.377547 Y95.868320 Z-0.125000 I1.738834 J-1.738766
G03 X30.350590 Y95.786581 Z-0.125000 I0.110446 J-0.081738
G02 X30.327069 Y95.700593 Z-0.125000 I-0.168938 J-0.000000
G02 X29.847075 Y94.934919 Z-0.125000 I-14.993116 J8.865768
G03 X29.378184 Y94.165980 Z-0.125000 I9.763805 J-6.481286
G03 X29.343556 Y94.032909 Z-0.125000 I0.238373 J-0.133071
G02 X29.308936 Y93.912914 Z-0.125000 I-0.225265 J-0.000000
G02 X29.223126 Y93.841542 Z-0.125000 I-0.152335 J0.095882
G03 X29.135732 Y93.759469 Z-0.125000 I0.061729 J-0.153298
G03 X28.341557 Y91.995281 Z-0.125000 I38.634516 J-18.452740
G02 X27.578144 Y90.197953 Z-0.125000 I-711.077129 J300.968243
G02 X27.391084 Y89.765429 Z-0.125000 I-41.110284 J17.522932
G03 X26.969713 Y88.333749 Z-0.125000 I5.387256 J-2.363423
G03 X26.937777 Y86.939502 Z-0.125000 I5.072593 J-0.813678
G03 X27.022339 Y86.314641 Z-0.125000 I14.714048 J1.673086
G03 X27.250328 Y84.949556 Z-0.125000 I70.593296 J11.088542
G02 X27.394739 Y83.578546 Z-0.125000 I-9.670828 J-1.711752
G02 X27.438860 Y79.518830 Z-0.125000 I-85.128005 J-2.955272
G03 X27.443855 Y75.508070 Z-0.125000 I141.126877 J-1.829617
G03 X27.501668 Y75.451144 Z-0.125000 I0.057813 J0.000894
G03 X27.581593 Y75.486686 Z-0.125000 I0.000000 J0.107637
G03 X27.617216 Y75.579363 Z-0.125000 I-0.102743 J0.092677
G02 X27.657909 Y75.690608 Z-0.125000 I0.172403 J0.000000
G02 X28.336525 Y76.430703 Z-0.125000 I9.420425 J-7.956704
G03 X29.025467 Y77.166373 Z-0.125000 I-11.884193 J11.819774
G03 X29.055833 Y77.246737 Z-0.125000 I-0.091161 J0.080365
G02 X29.965009 Y79.433551 Z-0.125000 I3.084612 J-0.000036
G02 X32.167396 Y80.342436 Z-0.125000 I2.202386 J-2.213941
G03 X32.323119 Y80.391834 Z-0.125000 I0.000000 J0.270152
G03 X32.536331 Y80.602605 Z-0.125000 I-0.525157 J0.744462
G02 X32.752151 Y80.834083 Z-0.125000 I1.032422 J-0.746238
G02 X33.396871 Y81.321355 Z-0.125000 I5.326114 J-6.376946
G03 X34.056174 Y81.795985 Z-0.125000 I-9.005316 J13.204385
G03 X34.285174 Y81.995835 Z-0.125000 I-1.349359 J1.777308
G02 X34.520471 Y82.181322 Z-0.125000 I0.902253 J-0.902553
G02 X34.859773 Y82.347955 Z-0.125000 I1.059014 J-1.727627
G03 X36.840576 Y83.426206 Z-0.125000 I-2.973952 J7.821848
G03 X39.566483 Y85.806123 Z-0.125000 I-12.756669 J17.362283
G03 X41.689844 Y88.419157 Z-0.125000 I-13.981938 J13.531016
G03 X43.226683 Y91.205274 Z-0.125000 I-14.385024 J9.751786
G03 X45.612820 Y97.769824 Z-0.125000 I-50.206064 J21.965261
G03 X45.831498 Y100.100461 Z-0.125000 I-5.907270 J1.729841
G02 X45.752965 Y100.987266 Z-0.125000 I46.978993 J4.607203
G02 X45.666934 Y102.182039 Z-0.125000 I85.120042 J6.729644
G03 X45.441134 Y104.087139 Z-0.125000 I-18.041497 J-1.172414
G03 X45.115455 Y105.374381 Z-0.125000 I-8.532115 J-1.473852
G02 X44.842082 Y106.895796 Z-0.125000 I5.009938 J1.685469
G02 X44.900015 Y112.312369 Z-0.125000 I64.881284 J2.014662
G03 X44.959300 Y115.710468 Z-0.125000 I-48.511128 J2.545912
G03 X44.826039 Y116.528648 Z-0.125000 I-2.889590 J-0.050699
G03 X44.515806 Y117.277902 Z-0.125000 I-4.440736 J-1.399857
G03 X44.367117 Y117.410603 Z-0.125000 I-0.249348 J-0.129737
G02 X44.205325 Y117.520031 Z-0.125000 I0.157072 J0.406558
G02 X44.161307 Y117.631837 Z-0.125000 I0.119985 J0.111806
G03 X44.128918 Y117.763200 Z-0.125000 I-0.282582 J-0.000000
G03 X43.875873 Y118.174901 Z-0.125000 I-3.165777 J-1.662176
G02 X43.419056 Y119.263322 Z-0.125000 I2.189469 J1.559008
G02 X43.156401 Y122.220717 Z-0.125000 I16.742609 J2.977324
G03 X43.103048 Y124.025900 Z-0.125000 I-31.783193 J-0.035986
G03 X43.027078 Y124.450569 Z-0.125000 I-1.813011 J-0.105202
G02 X42.918605 Y124.872191 Z-0.125000 I4.721215 J1.439419
G02 X42.726949 Y125.874733 Z-0.125000 I26.553769 J5.595879
G03 X42.280998 Y127.629032 Z-0.125000 I-11.322431 J-1.944382
G03 X41.275062 Y130.144239 Z-0.125000 I-24.361690 J-8.284493
G02 X40.616369 Y131.965741 Z-0.125000 I10.217646 J4.724766
G02 X40.744589 Y132.131540 Z-0.125000 I0.127349 J0.033994
G02 X40.930671 Y132.025831 Z-0.125000 I-0.001281 J-0.218891
G02 X42.177880 Y129.759050 Z-0.125000 I-27.408814 J-16.557154
G03 X42.752714 Y128.608561 Z-0.125000 I685.007314 J341.540248
G03 X42.871266 Y128.374034 Z-0.125000 I30.668073 J15.355297
G02 X42.964649 Y128.131364 Z-0.125000 I-1.109624 J-0.566305
G02 X43.084087 Y127.582855 Z-0.125000 I-5.602637 J-1.507229
G03 X43.183428 Y127.026765 Z-0.125000 I25.795995 J4.321346
G03 X43.517496 Y125.299242 Z-0.125000 I250.911058 J47.624974
G02 X43.814767 Y123.567133 Z-0.125000 I-35.156714 J-6.925297
G02 X43.949474 Y122.350110 Z-0.125000 I-17.209805 J-2.520838
G03 X44.318393 Y119.473575 Z-0.125000 I27.545907 J2.070877
G03 X44.555509 Y119.021121 Z-0.125000 I0.843099 J0.153481
G01 X44.612182 Y119.041058 Z-0.125000
G03 X44.666044 Y120.018814 Z-0.125000 I-8.797861 J0.975011
G02 X44.766886 Y121.621283 Z-0.125000 I12.728821 J0.003392
G02 X45.170827 Y124.004576 Z-0.125000 I28.602795 J-3.621964
G03 X45.498263 Y127.337584 Z-0.125000 I-14.665821 J3.123365
G03 X45.102303 Y128.905681 Z-0.125000 I-3.496626 J-0.048891
G02 X44.870458 Y129.777400 Z-0.125000 I1.826528 J0.952480
G02 X45.060444 Y129.972605 Z-0.125000 I0.187710 J0.007365
G02 X45.197279 Y129.903204 Z-0.125000 I0.000000 J-0.169595
G02 X45.599926 Y129.237854 Z-0.125000 I-3.577326 J-2.619386
G02 X45.825662 Y128.474515 Z-0.125000 I-2.124381 J-1.043274
G02 X45.955235 Y126.255013 Z-0.125000 I-18.333958 J-2.183858
G02 X45.838176 Y124.017718 Z-0.125000 I-22.249406 J0.042421
G02 X45.546792 Y122.289201 Z-0.125000 I-13.555136 J1.396231
G03 X45.303549 Y120.290621 Z-0.125000 I8.906358 J-2.098069
G03 X45.511475 Y119.041281 Z-0.125000 I3.620781 J-0.039371
G02 X45.712395 Y118.386742 Z-0.125000 I-7.531692 J-2.670075
G02 X45.820838 Y117.854460 Z-0.125000 I-4.869615 J-1.269285
G03 X45.991552 Y117.420252 Z-0.125000 I1.022563 J0.151369
G03 X46.191780 Y117.314919 Z-0.125000 I0.200228 J0.137640
G02 X46.340678 Y117.186188 Z-0.125000 I0.000000 J-0.150478
G02 X46.365087 Y116.128098 Z-0.125000 I-4.304005 J-0.628615
G03 X46.106939 Y108.595672 Z-0.125000 I58.040133 J-5.759763
G03 X46.681139 Y105.734077 Z-0.125000 I8.742447 J0.265830
G03 X46.797754 Y105.448952 Z-0.125000 I6.338430 J2.425984
G03 X47.202649 Y104.537229 Z-0.125000 I65.311516 J28.458986
G02 X47.589558 Y103.622748 Z-0.125000 I-18.388939 J-8.319295
G02 X47.613991 Y103.494200 Z-0.125000 I-0.325949 J-0.128548
G03 X47.648990 Y103.395819 Z-0.125000 I0.155770 J0.000000
G03 X47.721887 Y103.361821 Z-0.125000 I0.071567 J0.058299
G03 X48.359254 Y103.771758 Z-0.125000 I0.000000 J0.700455
G03 X48.764885 Y105.639673 Z-0.125000 I-4.098026 J1.867915
G02 X48.825888 Y105.878242 Z-0.125000 I0.496994 J-0.000000
G02 X49.052610 Y106.165668 Z-0.125000 I0.964894 J-0.527979
G03 X49.283288 Y106.451419 Z-0.125000 I-0.793609 J0.876642
G03 X49.340333 Y106.664462 Z-0.125000 I-0.369302 J0.213043
G02 X49.378819 Y106.894008 Z-0.125000 I0.703801 J0.000000
G02 X49.628056 Y107.498414 Z-0.125000 I5.250210 J-1.811419
G03 X49.890635 Y108.099623 Z-0.125000 I-7.700088 J3.720975
G03 X49.915781 Y108.232737 Z-0.125000 I-0.339749 J0.133113
G02 X49.948527 Y108.350336 Z-0.125000 I0.227539 J0.000000
G02 X50.028156 Y108.419520 Z-0.125000 I0.146944 J-0.088712
G03 X50.543667 Y108.946108 Z-0.125000 I-0.377570 J0.885253
G03 X51.287847 Y111.555965 Z-0.125000 I-12.115686 J4.865719
G03 X51.446687 Y112.624741 Z-0.125000 I-20.382800 J3.575464
G03 X51.428430 Y112.708013 Z-0.125000 I-0.127865 J0.015603
G02 X51.265916 Y113.233457 Z-0.125000 I0.932004 J0.576112
G02 X51.191840 Y117.818513 Z-0.125000 I76.091016 J3.522450
G02 X51.382908 Y120.018966 Z-0.125000 I15.212605 J-0.212403
G02 X52.000624 Y122.853598 Z-0.125000 I25.913542 J-4.162400
G03 X52.142275 Y124.123124 Z-0.125000 I-3.894262 J1.077178
G03 X51.886127 Y125.255932 Z-0.125000 I-3.336146 J-0.158998
G03 X51.429717 Y125.869271 Z-0.125000 I-1.467049 J-0.615204
G03 X49.140790 Y127.514371 Z-0.125000 I-13.740610 J-16.703233
G02 X48.375978 Y128.027477 Z-0.125000 I7.400797 J11.857841
G02 X47.941386 Y128.377553 Z-0.125000 I3.007218 J4.178021
G02 X46.687046 Y129.715437 Z-0.125000 I7.207677 J8.014541
G02 X46.179994 Y130.610069 Z-0.125000 I2.659275 J2.098208
G02 X46.092800 Y131.011793 Z-0.125000 I1.288475 J0.489987
G02 X46.031512 Y132.924243 Z-0.125000 I29.807294 J1.912451
G01 X46.031512 Y134.847918 Z-0.125000
G01 X45.367022 Y135.828084 Z-0.125000
G03 X44.685975 Y136.795188 Z-0.125000 I-27.537581 J-18.668967
G03 X44.437876 Y137.098897 Z-0.125000 I-2.952634 J-2.158809
G02 X43.549574 Y138.447912 Z-0.125000 I3.836293 J3.493104
G02 X43.298138 Y139.610393 Z-0.125000 I2.561578 J1.162481
G02 X43.521335 Y139.707325 Z-0.125000 I0.132647 J0.000000
G02 X44.102469 Y138.859024 Z-0.125000 I-1.616908 J-1.730879
G03 X44.559133 Y137.840932 Z-0.125000 I13.003868 J5.221407
G03 X44.736755 Y137.583504 Z-0.125000 I0.985928 J0.490284
G02 X45.894932 Y136.203970 Z-0.125000 I-13.751672 J-12.721051
G02 X46.446993 Y135.335158 Z-0.125000 I-4.868585 J-3.703400
G02 X46.540872 Y134.995476 Z-0.125000 I-0.741445 J-0.387727
G02 X46.575252 Y133.105297 Z-0.125000 I-24.038808 J-1.382645
G03 X46.661906 Y131.232625 Z-0.125000 I13.930417 J-0.293744
G03 X46.850249 Y130.694118 Z-0.125000 I1.282106 J0.146229
G03 X48.052471 Y129.290107 Z-0.125000 I5.284192 J3.308008
G03 X50.113069 Y127.867560 Z-0.125000 I7.490999 J8.647227
G03 X51.434969 Y127.254490 Z-0.125000 I5.725203 J10.612994
G03 X51.592029 Y127.287269 Z-0.125000 I0.053489 J0.136369
G03 X51.611317 Y127.353531 Z-0.125000 I-0.050746 J0.050710
G03 X51.486850 Y127.760996 Z-0.125000 I-2.670763 J-0.593085
G02 X50.781398 Y130.025502 Z-0.125000 I15.242142 J5.990460
G02 X50.531999 Y131.847955 Z-0.125000 I9.590811 J2.240771
G02 X50.524080 Y133.645855 Z-0.125000 I23.592416 J1.002889
G02 X50.636249 Y134.940986 Z-0.125000 I12.327966 J-0.415285
G03 X50.583269 Y136.800993 Z-0.125000 I-5.525219 J0.773378
G03 X50.011099 Y138.089243 Z-0.125000 I-3.140348 J-0.623582
G02 X48.784437 Y139.916388 Z-0.125000 I18.136935 J13.501641
G02 X48.205063 Y141.084778 Z-0.125000 I6.800037 J4.099807
G03 X47.733195 Y142.158211 Z-0.125000 I-15.123966 J-6.007873
G03 X47.332895 Y142.889394 Z-0.125000 I-7.404432 J-3.578535
G02 X47.021796 Y143.745644 Z-0.125000 I1.923313 J1.183431
G02 X47.180608 Y143.929403 Z-0.125000 I0.158811 J0.023254
G02 X47.573466 Y143.708545 Z-0.125000 I-0.000000 J-0.459835
G02 X48.785848 Y141.290512 Z-0.125000 I-14.151589 J-8.608446
G03 X49.213442 Y140.507542 Z-0.125000 I3.549273 J1.430079
G03 X50.095232 Y139.443515 Z-0.125000 I7.490830 J5.310469
G03 X50.878190 Y139.121232 Z-0.125000 I0.759237 J0.732297
G03 X51.257347 Y139.469648 Z-0.125000 I-0.008774 J0.390061
G02 X51.340896 Y140.115012 Z-0.125000 I14.830599 J-1.591890
G02 X51.513938 Y141.161023 Z-0.125000 I39.159049 J-5.940762
G03 X51.555855 Y142.267262 Z-0.125000 I-3.919548 J0.702432
G03 X51.256125 Y143.690245 Z-0.125000 I-6.835772 J-0.696795
G02 X51.299910 Y143.845537 Z-0.125000 I0.138253 J0.044838
G02 X51.508423 Y143.906029 Z-0.125000 I0.171054 J-0.200000
G02 X52.073196 Y143.321186 Z-0.125000 I-0.094289 J-0.656170
G02 X51.909898 Y140.196483 Z-0.125000 I-9.761798 J-1.056463
G03 X51.825065 Y139.551025 Z-0.125000 I3.906239 J-0.841705
G03 X51.777144 Y137.496715 Z-0.125000 I39.765541 J-1.955331
G02 X51.697738 Y135.444784 Z-0.125000 I-24.941548 J-0.062314
G02 X51.491919 Y133.932271 Z-0.125000 I-13.741922 J1.099710
G03 X51.302420 Y132.424351 Z-0.125000 I11.377916 J-2.195718
G03 X51.337405 Y131.333659 Z-0.125000 I5.963867 J-0.354612
G03 X51.497720 Y130.251502 Z-0.125000 I23.035908 J2.859677
G03 X51.536897 Y130.175915 Z-0.125000 I0.138579 J0.023879
G01 X51.572052 Y130.188128 Z-0.125000
G03 X51.699053 Y131.590021 Z-0.125000 I-29.390494 J3.369268
G02 X51.965431 Y133.562973 Z-0.125000 I14.692953 J-0.979312
G02 X52.825786 Y137.095931 Z-0.125000 I48.126351 J-9.848609
G02 X53.033221 Y137.652480 Z-0.125000 I3.536955 J-1.001353
G02 X53.532580 Y138.606477 Z-0.125000 I10.943031 J-5.120312
G03 X54.009871 Y139.567297 Z-0.125000 I-7.056866 J4.104478
G03 X54.237902 Y140.296859 Z-0.125000 I-3.824602 J1.595831
G02 X54.473500 Y140.960448 Z-0.125000 I2.644557 J-0.565296
G02 X54.623197 Y141.052133 Z-0.125000 I0.149697 J-0.076365
G02 X54.739873 Y140.954233 Z-0.125000 I0.000000 J-0.118476
G02 X54.771036 Y140.213818 Z-0.125000 I-2.762251 J-0.487126
G02 X54.594453 Y139.405079 Z-0.125000 I-3.318456 J0.300920
G02 X54.016225 Y138.076664 Z-0.125000 I-9.623855 J3.398989
G03 X53.392038 Y136.758449 Z-0.125000 I16.433174 J-8.588135
G03 X53.223866 Y136.217559 Z-0.125000 I2.572627 J-1.096465
G02 X53.097968 Y135.660237 Z-0.125000 I-12.641715 J2.562848
G02 X52.797267 Y134.506418 Z-0.125000 I-54.446779 J13.573481
G03 X52.254078 Y131.883273 Z-0.125000 I21.072103 J-5.731333
G03 X52.076726 Y129.495463 Z-0.125000 I17.267832 J-2.483041
G03 X52.156555 Y128.898357 Z-0.125000 I2.182056 J-0.012162
G03 X53.096581 Y125.830035 Z-0.125000 I59.689650 J16.608642
G02 X53.277652 Y124.649960 Z-0.125000 I-3.327434 J-1.114491
G02 X53.011361 Y121.271130 Z-0.125000 I-28.275777 J0.528548
G03 X52.671099 Y117.704619 Z-0.125000 I40.804243 J-5.692406
G03 X52.825532 Y117.674611 Z-0.125000 I0.079335 J-0.004099
G02 X52.999909 Y118.092182 Z-0.125000 I3.378644 J-1.165720
G02 X53.145405 Y118.321998 Z-0.125000 I1.158175 J-0.572277
G03 X53.296120 Y118.550443 Z-0.125000 I-1.232809 J0.977272
G03 X53.807281 Y119.544765 Z-0.125000 I-23.138142 J12.523419
G02 X54.314702 Y120.542539 Z-0.125000 I29.702737 J-14.477510
G02 X54.531661 Y120.911435 Z-0.125000 I4.275007 J-2.266012
G03 X54.729665 Y121.286166 Z-0.125000 I-1.987993 J1.290113
G03 X54.863004 Y121.702721 Z-0.125000 I-2.327631 J0.974691
G02 X54.967183 Y122.132663 Z-0.125000 I14.669997 J-3.327081
G02 X55.159845 Y122.853595 Z-0.125000 I41.498316 J-10.703835
G03 X55.327839 Y123.579505 Z-0.125000 I-8.466038 J2.341646
G03 X55.604066 Y125.227343 Z-0.125000 I-43.426710 J8.126685
G02 X55.884157 Y126.872457 Z-0.125000 I38.451628 J-5.700235
G02 X55.991647 Y127.241397 Z-0.125000 I2.023153 J-0.389315
G03 X56.071279 Y127.613270 Z-0.125000 I-1.070203 J0.423631
G03 X56.169744 Y131.197591 Z-0.125000 I-102.240425 J4.602165
G02 X56.262131 Y134.790639 Z-0.125000 I114.007662 J-1.133726
G02 X56.383753 Y136.355281 Z-0.125000 I21.718882 J-0.901198
G03 X56.456117 Y137.915102 Z-0.125000 I-11.530969 J1.316542
G03 X56.313776 Y139.692889 Z-0.125000 I-15.136860 J-0.317364
G02 X56.238605 Y141.710537 Z-0.125000 I9.858481 J1.377518
G02 X56.456992 Y141.915304 Z-0.125000 I0.218387 J-0.014073
G02 X56.584482 Y141.822469 Z-0.125000 I-0.000000 J-0.133958
G02 X56.677416 Y141.231960 Z-0.125000 I-1.831734 J-0.590846
G03 X56.721174 Y140.553166 Z-0.125000 I5.300985 J0.000916
G03 X56.905269 Y139.469648 Z-0.125000 I13.724303 J1.774420
G02 X57.027777 Y138.383122 Z-0.125000 I-5.595988 J-1.181132
G02 X56.965890 Y135.805298 Z-0.125000 I-31.803029 J-0.526142
G02 X56.774214 Y133.227739 Z-0.125000 I-133.206866 J8.609786
G02 X56.740518 Y133.125637 Z-0.125000 I-0.230204 J0.019361
G03 X56.668472 Y132.638966 Z-0.125000 I0.528967 J-0.326976
G03 X57.205516 Y131.375698 Z-0.125000 I4.678330 J1.243077
G01 X57.276525 Y131.367721 Z-0.125000
G03 X57.830935 Y132.023074 Z-0.125000 I-4.678500 J4.520061
G02 X58.395655 Y132.775554 Z-0.125000 I49.289944 J-36.402891
G02 X58.540687 Y132.953831 Z-0.125000 I2.906238 J-2.216149
G03 X58.667477 Y133.136509 Z-0.125000 I-0.782157 J0.678204
G03 X58.691363 Y133.230226 Z-0.125000 I-0.171905 J0.093716
G02 X58.717201 Y133.323124 Z-0.125000 I0.179924 J0.000000
G02 X58.890191 Y133.559988 Z-0.125000 I1.425036 J-0.859154
G03 X59.048537 Y133.810499 Z-0.125000 I-0.720299 J0.630595
G03 X59.465639 Y134.890240 Z-0.125000 I-13.405483 J5.798954
G03 X59.726122 Y136.012646 Z-0.125000 I-5.409234 J1.846776
G03 X59.842429 Y137.839406 Z-0.125000 I-14.308705 J1.828096
G02 X60.000396 Y140.139386 Z-0.125000 I16.842275 J-0.001348
G02 X60.498861 Y142.598638 Z-0.125000 I19.768764 J-2.726778
G02 X60.804920 Y143.414169 Z-0.125000 I4.381679 J-1.179198
G02 X60.938927 Y143.497778 Z-0.125000 I0.134007 J-0.065587
G02 X61.066327 Y143.361815 Z-0.125000 I0.000000 J-0.127670
G02 X60.829250 Y141.812973 Z-0.125000 I-9.009468 J0.586492
G03 X60.358707 Y138.364632 Z-0.125000 I16.420181 J-3.996884
G03 X60.686177 Y137.407366 Z-0.125000 I1.427379 J-0.046356
G02 X60.792766 Y137.144347 Z-0.125000 I-0.362090 J-0.299844
G02 X60.769901 Y136.341746 Z-0.125000 I-3.751425 J-0.294755
G03 X60.683253 Y135.513403 Z-0.125000 I13.249713 J-1.804671
G03 X60.690667 Y135.259556 Z-0.125000 I1.240376 J-0.090805
G02 X60.522435 Y134.040353 Z-0.125000 I-2.298905 J-0.303994
G02 X59.718330 Y132.995860 Z-0.125000 I-2.444130 J1.049851
G03 X59.642504 Y132.910460 Z-0.125000 I0.196482 J-0.250818
G03 X59.281405 Y132.276557 Z-0.125000 I11.099115 J-6.742347
G02 X58.918171 Y131.641542 Z-0.125000 I-10.808554 J5.761187
G02 X58.752845 Y131.413386 Z-0.125000 I-1.549658 J0.948935
G03 X58.592654 Y131.182090 Z-0.125000 I1.084581 J-0.922279
G03 X57.898437 Y129.874251 Z-0.125000 I34.498093 J-19.150175
G03 X57.348771 Y128.513482 Z-0.125000 I7.678243 J-3.892929
G03 X57.031244 Y127.056431 Z-0.125000 I8.495385 J-2.614478
G03 X56.874390 Y125.558744 Z-0.125000 I28.437944 J-3.735382
G03 X56.762281 Y123.619492 Z-0.125000 I47.585627 J-3.723828
G02 X56.621746 Y121.689215 Z-0.125000 I-27.419630 J1.026045
G02 X56.483002 Y121.042532 Z-0.125000 I-3.185570 J0.345230
G03 X56.278954 Y120.407128 Z-0.125000 I79.025148 J-25.727855
G03 X55.963112 Y119.400973 Z-0.125000 I197.582271 J-62.575712
G02 X55.164596 Y117.297781 Z-0.125000 I-17.542902 J5.457306
G02 X54.663972 Y116.523737 Z-0.125000 I-2.811492 J1.269457
G03 X53.844978 Y115.312384 Z-0.125000 I4.244263 J-3.752079
G03 X53.256367 Y113.718397 Z-0.125000 I6.833884 J-3.429219
G03 X53.123279 Y113.066092 Z-0.125000 I7.856360 J-1.942638
G03 X52.942699 Y111.776237 Z-0.125000 I30.577881 J-4.938470
G02 X52.474279 Y109.278931 Z-0.125000 I-18.747740 J2.223930
G02 X51.912117 Y107.785996 Z-0.125000 I-7.206725 J1.861374
G03 X51.812082 Y107.530037 Z-0.125000 I1.293378 J-0.653012
G03 X51.785997 Y107.343313 Z-0.125000 I0.655285 J-0.186723
G02 X51.741166 Y107.161988 Z-0.125000 I-0.389114 J0.000000
G02 X51.008831 Y105.866772 Z-0.125000 I-22.060301 J11.618597
G03 X50.351523 Y104.535904 Z-0.125000 I7.419786 J-4.492342
G03 X49.915169 Y103.072633 Z-0.125000 I8.547558 J-3.345620
G02 X49.546553 Y101.577032 Z-0.125000 I-21.462224 J4.496496
G02 X49.109859 Y100.237638 Z-0.125000 I-17.654167 J5.015050
G03 X48.678361 Y98.902999 Z-0.125000 I16.106434 J-5.944393
G03 X48.621039 Y98.483861 Z-0.125000 I1.503698 J-0.419138
G02 X48.381652 Y96.975698 Z-0.125000 I-4.870492 J-0.000000
G02 X47.746796 Y95.799592 Z-0.125000 I-3.546350 J1.154902
G03 X47.537405 Y95.335580 Z-0.125000 I0.799283 J-0.639937
G03 X47.108361 Y92.139071 Z-0.125000 I40.483751 J-7.060882
G02 X46.689148 Y89.964654 Z-0.125000 I-11.466965 J1.083137
G02 X45.947065 Y88.200671 Z-0.125000 I-8.250236 J2.432675
G01 X45.577340 Y87.539097 Z-0.125000
G01 X46.607369 Y88.068932 Z-0.125000
G03 X47.603800 Y88.648057 Z-0.125000 I-5.134331 J9.980822
G03 X48.259187 Y89.146096 Z-0.125000 I-3.126232 J4.794165
G02 X48.897791 Y89.648885 Z-0.125000 I4.900824 J-5.567696
G02 X49.038733 Y89.693423 Z-0.125000 I0.140942 J-0.200737
G03 X49.159779 Y89.730917 Z-0.125000 I0.000000 J0.214140
G03 X49.197221 Y89.801376 Z-0.125000 I-0.048686 J0.071049
G02 X49.234221 Y89.895184 Z-0.125000 I0.140790 J-0.001330
G02 X51.010047 Y91.779483 Z-0.125000 I68.961299 J-63.212475
G03 X54.667671 Y95.767431 Z-0.125000 I-70.914009 J68.711471
G03 X55.483721 Y96.933930 Z-0.125000 I-5.159541 J4.478160
G03 X55.647633 Y97.250823 Z-0.125000 I-5.415262 J3.001874
G03 X55.945594 Y97.893542 Z-0.125000 I-22.113159 J10.641972
G02 X56.656250 Y99.319764 Z-0.125000 I17.042516 J-7.601752
G02 X57.814476 Y101.274373 Z-0.125000 I33.195289 J-18.349789
G03 X58.995737 Y103.365177 Z-0.125000 I-20.039824 J12.701181
G03 X59.648700 Y104.942788 Z-0.125000 I-10.731153 J5.365492
G02 X60.115310 Y106.305377 Z-0.125000 I78.152210 J-26.001541
G02 X60.712881 Y107.963923 Z-0.125000 I116.300382 J-40.965878
G03 X61.183175 Y109.642396 Z-0.125000 I-10.263565 J3.780887
G03 X61.307955 Y111.002127 Z-0.125000 I-6.585932 J1.289970
G03 X60.911548 Y113.238649 Z-0.125000 I-6.912953 J-0.071878
G03 X59.674983 Y115.612021 Z-0.125000 I-9.046819 J-3.204716
G02 X58.772145 Y117.704381 Z-0.125000 I4.389858 J3.135157
G02 X58.319069 Y122.494004 Z-0.125000 I23.589090 J4.647656
G01 X58.342437 Y126.450113 Z-0.125000
G01 X58.819771 Y127.457192 Z-0.125000
G03 X59.280322 Y128.470933 Z-0.125000 I-31.007893 J14.698653
G03 X59.414156 Y128.823862 Z-0.125000 I-3.625772 J1.576766
G02 X59.543003 Y129.179215 Z-0.125000 I5.398281 J-1.756310
G02 X60.038841 Y130.382750 Z-0.125000 I62.586831 J-25.080926
G03 X60.503977 Y131.595599 Z-0.125000 I-17.480959 J7.399689
G03 X60.720780 Y132.360857 Z-0.125000 I-6.727684 J2.319340
G02 X61.069083 Y132.947410 Z-0.125000 I1.072069 J-0.239919
G02 X61.280884 Y132.851354 Z-0.125000 I0.084119 J-0.096056
G02 X61.053097 Y131.158290 Z-0.125000 I-6.405867 J-0.000000
G02 X60.334895 Y129.399353 Z-0.125000 I-7.641914 J2.094218
G03 X59.182650 Y126.357950 Z-0.125000 I9.787633 J-5.447042
G03 X59.141603 Y123.972787 Z-0.125000 I5.885601 J-1.294223
G02 X59.465739 Y121.436491 Z-0.125000 I-22.908318 J-4.216523
G02 X59.394325 Y120.478350 Z-0.125000 I-3.280275 J-0.237237
G03 X59.492370 Y118.477297 Z-0.125000 I3.664564 J-0.823376
G03 X60.716440 Y116.474348 Z-0.125000 I4.896272 J1.616768
G02 X61.747583 Y115.164230 Z-0.125000 I-5.337921 J-5.262120
G02 X62.292634 Y113.934193 Z-0.125000 I-4.147975 J-2.573817
G01 X62.365042 Y113.928963 Z-0.125000
G03 X62.567614 Y114.548830 Z-0.125000 I-2.778961 J1.251194
G03 X62.643441 Y116.343158 Z-0.125000 I-5.251150 J1.120675
G03 X61.996755 Y119.062933 Z-0.125000 I-12.907644 J-1.632306
G02 X61.264586 Y121.684541 Z-0.125000 I18.674916 J6.628620
G02 X61.080413 Y123.500979 Z-0.125000 I8.732031 J1.802916
G02 X61.433219 Y127.593431 Z-0.125000 I24.337503 J-0.036676
G02 X62.250893 Y130.300296 Z-0.125000 I11.368235 J-1.957119
G03 X62.504645 Y131.227997 Z-0.125000 I-2.957867 J1.307613
G03 X62.654849 Y133.715174 Z-0.125000 I-21.555919 J2.549915
G02 X62.868659 Y136.674885 Z-0.125000 I21.443796 J-0.061521
G02 X63.105186 Y136.880135 Z-0.125000 I0.236527 J-0.033660
G02 X63.218340 Y136.786021 Z-0.125000 I0.000000 J-0.115081
G02 X63.228122 Y136.216651 Z-0.125000 I-1.693924 J-0.313869
G03 X63.199342 Y135.553041 Z-0.125000 I3.118990 J-0.467693
G03 X63.373554 Y133.878894 Z-0.125000 I20.232974 J1.259300
G01 X63.618477 Y132.204627 Z-0.125000
G01 X63.267348 Y131.164811 Z-0.125000
G03 X62.996916 Y130.165153 Z-0.125000 I7.989450 J-2.697752
G03 X63.044782 Y130.082153 Z-0.125000 I0.070694 J-0.014533
G02 X63.107160 Y129.973153 Z-0.125000 I-0.029829 J-0.089419
G02 X62.502633 Y127.529089 Z-0.125000 I-37.055501 J7.868697
G03 X62.692882 Y127.437057 Z-0.125000 I0.103252 J-0.029215
G03 X63.801036 Y129.327349 Z-0.125000 I-9.350507 J6.751549
G03 X64.780188 Y131.629829 Z-0.125000 I-34.401522 J15.989034
G03 X65.197615 Y132.937629 Z-0.125000 I-10.649926 J4.119786
G03 X65.240993 Y133.523121 Z-0.125000 I-1.635499 J0.415523
G03 X65.044684 Y134.448176 Z-0.125000 I-4.355633 J-0.440963
G02 X64.618587 Y136.617946 Z-0.125000 I8.532899 J2.802405
G02 X64.720236 Y139.042728 Z-0.125000 I10.792369 J0.762097
G02 X64.887590 Y140.116982 Z-0.125000 I2154.743401 J-335.129847
G02 X64.960825 Y140.584573 Z-0.125000 I411.813067 J-64.259606
G02 X65.100498 Y140.974748 Z-0.125000 I1.095770 J-0.172170
G02 X65.235791 Y141.052133 Z-0.125000 I0.135293 J-0.079575
G02 X65.340457 Y140.962982 Z-0.125000 I0.000000 J-0.106016
G02 X65.369085 Y140.224920 Z-0.125000 I-3.020871 J-0.486759
G03 X65.310366 Y139.397099 Z-0.125000 I36.088922 J-2.975864
G03 X65.217314 Y137.671376 Z-0.125000 I157.228679 J-9.343178
G03 X65.278877 Y135.974031 Z-0.125000 I10.033164 J-0.485884
G03 X65.528092 Y135.113258 Z-0.125000 I2.776032 J0.337263
G02 X65.799748 Y134.259144 Z-0.125000 I-3.012741 J-1.428479
G02 X65.842566 Y133.314988 Z-0.125000 I-3.652163 J-0.638678
G02 X65.688496 Y132.366828 Z-0.125000 I-6.093129 J0.503498
G02 X65.395391 Y131.485314 Z-0.125000 I-5.557537 J1.358404
G03 X65.082629 Y130.610735 Z-0.125000 I7.265651 J-3.091514
G03 X65.024709 Y130.218266 Z-0.125000 I1.383257 J-0.404648
G02 X64.862802 Y129.559439 Z-0.125000 I-1.473103 J0.012708
G02 X63.757895 Y127.744884 Z-0.125000 I-12.853314 J6.582882
G03 X62.522839 Y125.519796 Z-0.125000 I9.110145 J-6.511979
G03 X62.103853 Y123.753257 Z-0.125000 I5.264839 J-2.181668
G03 X62.145849 Y122.664789 Z-0.125000 I4.883386 J-0.356627
G03 X62.371571 Y121.982197 Z-0.125000 I2.109048 J0.318811
G02 X63.555234 Y119.389548 Z-0.125000 I-20.841196 J-11.081481
G02 X64.107729 Y117.477696 Z-0.125000 I-10.740330 J-4.139543
G02 X64.276017 Y116.373904 Z-0.125000 I-12.608172 J-2.487010
G02 X64.400092 Y114.777213 Z-0.125000 I-26.285330 J-2.845729
G02 X64.353373 Y113.007691 Z-0.125000 I-12.012967 J-0.568215
G02 X64.077196 Y111.560444 Z-0.125000 I-8.292652 J0.832510
G03 X64.179316 Y111.512716 Z-0.125000 I0.054914 J-0.015619
G03 X65.313256 Y113.377690 Z-0.125000 I-17.695772 J12.036583
G02 X65.933217 Y114.504267 Z-0.125000 I73.000178 J-39.438536
G02 X66.028257 Y114.653476 Z-0.125000 I1.370618 J-0.768156
G03 X66.114165 Y114.806346 Z-0.125000 I-0.632057 J0.455766
G03 X66.392538 Y115.516655 Z-0.125000 I-13.667752 J5.766162
G02 X66.668960 Y116.227964 Z-0.125000 I15.693128 J-5.689149
G02 X66.750873 Y116.379837 Z-0.125000 I0.789366 J-0.327716
G03 X66.821140 Y116.534723 Z-0.125000 I-0.412887 J0.280695
G03 X67.013201 Y117.386919 Z-0.125000 I-12.785302 J3.329199
G02 X67.178965 Y118.249781 Z-0.125000 I376.329038 J-71.848788
G02 X67.394388 Y119.358944 Z-0.125000 I623.514768 J-120.524211
G03 X67.535190 Y120.475007 Z-0.125000 I-8.212685 J1.603024
G03 X67.610807 Y123.071521 Z-0.125000 I-44.541381 J2.596514
G02 X67.785545 Y126.411058 Z-0.125000 I31.999442 J-0.000000
G02 X68.051937 Y127.275427 Z-0.125000 I2.328254 J-0.244316
G03 X68.159436 Y127.531967 Z-0.125000 I-1.270371 J0.683122
G03 X68.186252 Y127.709256 Z-0.125000 I-0.572649 J0.177290
G02 X68.212170 Y127.889378 Z-0.125000 I0.638871 J-0.000000
G02 X68.746873 Y129.617282 Z-0.125000 I60.710255 J-17.840219
G03 X69.642766 Y133.027085 Z-0.125000 I-29.202048 J9.495152
G03 X69.713487 Y134.398135 Z-0.125000 I-4.563973 J0.922767
G03 X69.258292 Y137.068781 Z-0.125000 I-18.640157 J-1.802979
G03 X68.554338 Y139.109996 Z-0.125000 I-11.551224 J-2.841680
G02 X66.865856 Y143.148892 Z-0.125000 I73.908624 J33.270286
G02 X66.747639 Y143.782408 Z-0.125000 I1.638374 J0.633515
G02 X66.806322 Y143.870721 Z-0.125000 I0.095793 J0.000000
G02 X67.097284 Y143.929369 Z-0.125000 I0.290962 J-0.692423
G02 X67.369248 Y143.835319 Z-0.125000 I0.000000 J-0.440242
G02 X67.509278 Y143.605677 Z-0.125000 I-0.237521 J-0.302349
G01 X67.571626 Y143.281982 Z-0.125000
G01 X67.591212 Y143.605677 Z-0.125000
G02 X67.695769 Y143.839096 Z-0.125000 I0.361587 J-0.021841
G02 X67.912646 Y143.929369 Z-0.125000 I0.216877 J-0.215384
G02 X68.072455 Y143.802863 Z-0.125000 I0.000000 J-0.164192
G02 X68.114938 Y143.071521 Z-0.125000 I-2.064386 J-0.486822
G03 X68.135404 Y142.229938 Z-0.125000 I2.999105 J-0.348107
G03 X68.424499 Y141.203094 Z-0.125000 I4.782404 J0.792308
G03 X68.878882 Y140.258849 Z-0.125000 I7.613042 J3.082047
G03 X68.993888 Y140.190732 Z-0.125000 I0.116478 J0.065511
G02 X69.430670 Y139.912104 Z-0.125000 I-0.005678 J-0.490569
G02 X70.217702 Y137.635545 Z-0.125000 I-9.560245 J-4.579409
G03 X70.577143 Y136.282560 Z-0.125000 I16.799375 J3.738768
G01 X70.640990 Y136.268856 Z-0.125000
G03 X71.638178 Y138.376430 Z-0.125000 I-3.147623 J2.778976
G03 X71.817784 Y143.533747 Z-0.125000 I-20.303293 J3.288855
G02 X71.916504 Y143.806304 Z-0.125000 I0.340020 J0.031001
G02 X72.213832 Y143.929369 Z-0.125000 I0.297328 J-0.297643
G02 X72.505028 Y143.783081 Z-0.125000 I-0.000000 J-0.362968
G02 X72.668782 Y143.317952 Z-0.125000 I-0.666743 J-0.496125
G02 X72.491019 Y137.144173 Z-0.125000 I-46.728242 J-1.743990
G02 X72.042466 Y136.736278 Z-0.125000 I-0.448553 J0.042685
G03 X71.978741 Y136.684196 Z-0.125000 I-0.000000 J-0.065027
G03 X71.926656 Y136.166153 Z-0.125000 I2.550257 J-0.518043
G02 X71.865778 Y135.607596 Z-0.125000 I-2.592815 J0.000000
G02 X71.641031 Y134.871393 Z-0.125000 I-4.752355 J1.048390
G03 X71.399574 Y134.176829 Z-0.125000 I8.364529 J-3.297076
G01 X71.421891 Y134.146765 Z-0.125000
G03 X71.476490 Y134.171383 Z-0.125000 I0.000000 J0.072855
G03 X72.053134 Y134.861228 Z-0.125000 I-12.317533 J10.882223
G03 X72.918665 Y136.433664 Z-0.125000 I-4.268292 J3.373865
G03 X73.226431 Y138.204977 Z-0.125000 I-5.150568 J1.807305
G02 X73.467096 Y140.320829 Z-0.125000 I10.005319 J-0.066428
G02 X74.126658 Y142.232629 Z-0.125000 I8.803344 J-1.967440
G03 X74.608251 Y143.289062 Z-0.125000 I-31.162347 J14.843879
G03 X74.724895 Y143.605677 Z-0.125000 I-2.671774 J1.164107
G02 X74.890928 Y143.838108 Z-0.125000 I0.427697 J-0.130000
G02 X75.173239 Y143.929369 Z-0.125000 I0.282311 J-0.391029
G02 X75.388142 Y143.801245 Z-0.125000 I0.000000 J-0.244290
G02 X75.388132 Y143.531797 Z-0.125000 I-0.249218 J-0.134714
G03 X74.427440 Y141.526498 Z-0.125000 I20.010242 J-10.819203
G03 X74.013422 Y140.260889 Z-0.125000 I7.519482 J-3.160374
G03 X73.951747 Y139.824665 Z-0.125000 I2.282675 J-0.545205
G03 X73.926771 Y138.396603 Z-0.125000 I24.631438 J-1.145034
G02 X73.880075 Y136.973586 Z-0.125000 I-16.074182 J-0.184804
G02 X73.776784 Y136.454465 Z-0.125000 I-2.216911 J0.171269
G02 X73.369066 Y135.617208 Z-0.125000 I-3.230900 J1.055447
G02 X71.843878 Y133.571317 Z-0.125000 I-21.198700 J14.211930
G03 X71.224609 Y132.757090 Z-0.125000 I9.763208 J-8.068122
G03 X70.889013 Y132.204627 Z-0.125000 I4.145955 J-2.896642
G03 X70.614833 Y131.553809 Z-0.125000 I3.764814 J-1.969221
G03 X69.973317 Y129.399353 Z-0.125000 I40.924183 J-13.358414
G02 X69.735012 Y128.617223 Z-0.125000 I-12.154822 J3.276051
G02 X69.551835 Y128.161647 Z-0.125000 I-4.300751 J1.464624
G03 X69.124701 Y126.856324 Z-0.125000 I5.195230 J-2.422557
G03 X68.810700 Y124.431897 Z-0.125000 I17.812145 J-3.539494
G03 X68.807363 Y120.976453 Z-0.125000 I28.531727 J-1.755281
G03 X69.028985 Y120.767642 Z-0.125000 I0.221622 J0.013205
G03 X69.094350 Y120.810992 Z-0.125000 I0.000000 J0.070955
G03 X69.287179 Y121.379080 Z-0.125000 I-3.821265 J1.613841
G02 X69.459282 Y121.986627 Z-0.125000 I14.472336 J-3.771510
G02 X69.738748 Y122.853595 Z-0.125000 I29.673688 J-9.086761
G03 X70.354190 Y125.087638 Z-0.125000 I-19.047156 J6.448970
G03 X70.490128 Y126.358803 Z-0.125000 I-5.984299 J1.282810
G02 X71.021947 Y128.892958 Z-0.125000 I6.359693 J-0.011765
G02 X72.948134 Y131.985654 Z-0.125000 I11.540702 J-5.041582
G03 X73.919330 Y133.173867 Z-0.125000 I-34.582197 J29.257079
G03 X74.065754 Y133.401295 Z-0.125000 I-1.104273 J0.871807
G03 X74.327972 Y134.130224 Z-0.125000 I-2.646546 J1.363672
G03 X74.573757 Y135.729239 Z-0.125000 I-12.686852 J2.768494
G02 X74.829370 Y137.495994 Z-0.125000 I16.623854 J-1.503260
G02 X75.245147 Y139.089941 Z-0.125000 I13.938284 J-2.784563
G03 X75.530809 Y139.973266 Z-0.125000 I-1176.851573 J381.075690
G03 X75.690527 Y140.468887 Z-0.125000 I-378.888223 J122.373304
G03 X75.792907 Y140.972803 Z-0.125000 I-2.216665 J0.712715
G03 X75.824797 Y141.960211 Z-0.125000 I-8.559433 J0.770661
G02 X76.045827 Y143.665388 Z-0.125000 I5.597882 J0.141299
G02 X76.397528 Y143.929369 Z-0.125000 I0.351701 J-0.102293
G02 X76.557555 Y143.781489 Z-0.125000 I0.000000 J-0.160526
G02 X76.458299 Y143.160314 Z-0.125000 I-1.333765 J-0.105399
G03 X76.230257 Y142.114071 Z-0.125000 I2.741782 J-1.145580
G03 X76.408216 Y141.663252 Z-0.125000 I0.608448 J-0.020352
G02 X76.473654 Y141.436796 Z-0.125000 I-0.172538 J-0.172541
G02 X75.798994 Y138.974162 Z-0.125000 I-27.924301 J6.326383
G03 X75.553628 Y138.114240 Z-0.125000 I12.495933 J-4.030491
G03 X75.523178 Y137.865774 Z-0.125000 I0.998491 J-0.248466
G03 X75.602482 Y137.804008 Z-0.125000 I0.063705 J0.000000
G03 X75.861926 Y137.951324 Z-0.125000 I-0.137416 J0.544127
G03 X76.172007 Y138.308693 Z-0.125000 I-2.366726 J2.366761
G03 X76.288996 Y138.520233 Z-0.125000 I-0.698872 J0.524620
G02 X76.418219 Y138.690869 Z-0.125000 I0.359225 J-0.137794
G02 X76.597623 Y138.750397 Z-0.125000 I0.179404 J-0.240578
G02 X76.813057 Y138.536797 Z-0.125000 I0.000000 J-0.215441
G02 X76.601998 Y138.226962 Z-0.125000 I-0.328823 J-0.002810
G03 X76.437651 Y138.108798 Z-0.125000 I0.142712 J-0.371860
G03 X76.386208 Y137.965768 Z-0.125000 I0.173115 J-0.143030
G02 X76.108864 Y137.319809 Z-0.125000 I-0.890920 J0.000000
G02 X75.599274 Y137.218283 Z-0.125000 I-0.335220 J0.352912
G03 X75.430156 Y137.228595 Z-0.125000 I-0.100929 J-0.263321
G03 X75.379171 Y137.163345 Z-0.125000 I0.016260 J-0.065249
G03 X75.422865 Y137.067637 Z-0.125000 I0.126668 J0.000000
G03 X75.539812 Y137.024001 Z-0.125000 I0.116947 J0.134895
G02 X75.616118 Y136.961237 Z-0.125000 I0.000000 J-0.077767
G02 X75.603450 Y136.700309 Z-0.125000 I-0.533398 J-0.104876
G03 X75.527864 Y136.372128 Z-0.125000 I2.495062 J-0.747455
G03 X75.372573 Y135.284572 Z-0.125000 I27.318369 J-4.455634
G02 X74.875167 Y133.519280 Z-0.125000 I-5.985562 J0.733827
G02 X73.627805 Y131.453002 Z-0.125000 I-9.504681 J4.328108
G03 X72.568249 Y129.861576 Z-0.125000 I10.575957 J-8.189803
G03 X72.113425 Y128.782474 Z-0.125000 I4.363833 J-2.474684
G03 X71.858475 Y127.629618 Z-0.125000 I8.823206 J-2.555843
G03 X71.782619 Y126.642121 Z-0.125000 I6.389694 J-0.987497
G02 X71.237686 Y122.808552 Z-0.125000 I-13.756931 J0.000000
