%
(Header)
(Generated by gcodetools from Inkscape.)
(Using default header. To add your own header create file "header" in the output dir.)
M3
(Header end.)
G21 (All units in mm)

(Start cutting path id: rect6716)
(Change tool to Cylindrical cutter)

G00 Z5.000000
G00 X0.000000 Y143.969188

G01 Z-0.125000 F1000.0(Penetrate)
G01 X103.201677 Y143.969188 Z-0.125000 F1100.000000
G01 X103.201677 Y0.285090 Z-0.125000
G01 X0.000000 Y0.285090 Z-0.125000
G01 X0.000000 Y143.969188 Z-0.125000
G00 Z5.000000

(End cutting path id: rect6716)


(Start cutting path id: path4760)
(Change tool to Cylindrical cutter)

G00 Z5.000000
G00 X67.592544 Y104.942909

G01 Z-0.125000 F1000.0(Penetrate)
G02 X62.941276 Y99.093173 Z-0.125000 I-28.247561 J17.686293 F1100.000000
G02 X58.689861 Y96.017428 Z-0.125000 I-11.632514 J11.602806
G03 X57.423283 Y95.342239 Z-0.125000 I13.528032 J-26.902650
G03 X57.284174 Y95.224496 Z-0.125000 I0.238532 J-0.422862
G02 X57.152461 Y95.096001 Z-0.125000 I-0.606755 J0.490197
G02 X56.790232 Y94.845232 Z-0.125000 I-2.723896 J3.547596
G03 X51.827635 Y91.565369 Z-0.125000 I56.612782 J-91.052230
G03 X48.215466 Y88.829736 Z-0.125000 I35.728347 J-50.928824
G03 X43.686481 Y84.531410 Z-0.125000 I26.466122 J-32.421532
G03 X41.847519 Y82.009181 Z-0.125000 I10.836483 J-9.832411
G03 X40.263825 Y78.941492 Z-0.125000 I32.128731 J-18.529091
G03 X40.103140 Y78.205681 Z-0.125000 I1.604382 J-0.735812
G03 X40.218210 Y77.904753 Z-0.125000 I0.451023 J0.000000
G03 X41.215982 Y76.963316 Z-0.125000 I6.090664 J5.455665
G02 X45.390078 Y72.699195 Z-0.125000 I-15.061620 J-18.918685
G02 X46.629775 Y69.857107 Z-0.125000 I-5.193983 J-3.956991
G02 X46.761637 Y67.706292 Z-0.125000 I-9.639373 J-1.670422
G02 X46.209125 Y61.301080 Z-0.125000 I-86.975660 J4.276064
G03 X46.132987 Y59.664819 Z-0.125000 I10.639526 J-1.314982
G03 X46.307468 Y58.021147 Z-0.125000 I10.910871 J0.327132
G03 X47.409453 Y54.054716 Z-0.125000 I22.662206 J4.159891
G03 X47.941098 Y53.686945 Z-0.125000 I0.531645 J0.200384
G03 X48.115536 Y53.809270 Z-0.125000 I0.000000 J0.185538
G03 X48.514153 Y55.268340 Z-0.125000 I-8.791054 J3.185696
G02 X49.547753 Y60.081436 Z-0.125000 I93.749195 J-17.614886
G02 X50.102319 Y61.833645 Z-0.125000 I12.921441 J-3.125708
G02 X51.539976 Y64.573126 Z-0.125000 I13.400288 J-5.285384
G02 X52.520043 Y65.437738 Z-0.125000 I2.134780 J-1.432070
G03 X53.700952 Y66.283054 Z-0.125000 I-2.107492 J4.191696
G03 X53.925730 Y66.819081 Z-0.125000 I-0.526739 J0.536026
G02 X54.537340 Y68.765325 Z-0.125000 I3.402439 J-0.000000
G02 X57.299584 Y71.657050 Z-0.125000 I10.723747 J-7.478432
G03 X60.681518 Y74.597210 Z-0.125000 I-22.426699 J29.211553
G03 X60.954167 Y75.247258 Z-0.125000 I-0.638598 J0.650048
G02 X60.997668 Y75.443064 Z-0.125000 I0.462427 J-0.000000
G02 X61.930306 Y77.191634 Z-0.125000 I17.023048 J-7.956607
G03 X62.691372 Y78.731983 Z-0.125000 I-8.784812 J5.298650
G03 X63.115775 Y80.202665 Z-0.125000 I-7.576789 J2.983051
G02 X63.421300 Y81.721534 Z-0.125000 I65.115828 J-12.308092
G02 X63.615601 Y82.545477 Z-0.125000 I19.350211 J-4.128273
G03 X63.788249 Y83.372891 Z-0.125000 I-8.656287 J2.237933
G03 X64.083464 Y85.473984 Z-0.125000 I-55.635131 J8.888320
G02 X64.700130 Y88.916009 Z-0.125000 I30.727510 J-3.728825
G02 X65.738697 Y92.424403 Z-0.125000 I32.966117 J-7.850829
G02 X67.447000 Y96.444169 Z-0.125000 I34.292341 J-12.200534
G02 X68.798006 Y98.570080 Z-0.125000 I10.837150 J-5.394722
G03 X69.453020 Y99.789655 Z-0.125000 I-3.072486 J2.435870
G03 X69.562472 Y100.912891 Z-0.125000 I-2.477290 J0.808347
G03 X69.363869 Y102.096187 Z-0.125000 I-13.193918 J-1.606142
G03 X69.090473 Y103.111826 Z-0.125000 I-9.986159 J-2.143524
G02 X68.819405 Y104.124503 Z-0.125000 I9.423475 J3.065038
G02 X68.763953 Y104.654179 Z-0.125000 I2.501980 J0.529676
G03 X68.575864 Y105.226510 Z-0.125000 I-0.964809 J0.000000
G02 X68.381974 Y105.499516 Z-0.125000 I7.704512 J5.677123
G02 X68.067040 Y105.339486 Z-0.125000 I-1.052499 J1.681375
G03 X67.592544 Y104.942909 Z-0.125000 I0.370850 J-0.925865
G01 X67.592544 Y104.942909 Z-0.125000
G00 Z5.000000

(End cutting path id: path4760)


(Start cutting path id: path4760)
(Change tool to Cylindrical cutter)

G00 Z5.000000
G00 X54.237495 Y62.804515

G01 Z-0.125000 F1000.0(Penetrate)
G02 X54.324769 Y62.471054 Z-0.125000 I-9.928228 J-2.776577 F1100.000000
G02 X54.604240 Y61.301080 Z-0.125000 I-122.113135 J-29.787492
G03 X55.895053 Y58.051331 Z-0.125000 I11.513621 J2.692020
G03 X60.248755 Y51.589698 Z-0.125000 I50.756307 J29.500925
G02 X63.263950 Y46.497900 Z-0.125000 I-18.806736 J-14.575376
G02 X63.999819 Y42.958408 Z-0.125000 I-8.144452 J-3.539492
G02 X63.695443 Y42.860786 Z-0.125000 I-0.167843 J0.000000
G02 X63.148044 Y44.149691 Z-0.125000 I2.620315 J1.873543
G03 X61.723850 Y48.286849 Z-0.125000 I-14.489574 J-2.674240
G03 X58.660705 Y52.757133 Z-0.125000 I-20.041303 J-10.448168
G02 X53.502435 Y60.627464 Z-0.125000 I25.195324 J22.138737
G02 X53.897708 Y62.889599 Z-0.125000 I1.807674 J0.849739
G02 X54.094174 Y62.943977 Z-0.125000 I0.146232 J-0.146230
G02 X54.237495 Y62.804515 Z-0.125000 I-0.048343 J-0.193055
G01 X54.237495 Y62.804515 Z-0.125000
G00 Z5.000000

(End cutting path id: path4760)


(Start cutting path id: path4760)
(Change tool to Cylindrical cutter)

G00 Z5.000000
G00 X34.480399 Y71.638059

G01 Z-0.125000 F1000.0(Penetrate)
G02 X34.464806 Y71.552655 Z-0.125000 I-0.241689 J-0.000000 F1100.000000
G02 X34.132004 Y70.715706 Z-0.125000 I-24.345531 J9.196062
G03 X33.925360 Y69.332834 Z-0.125000 I2.633709 J-1.100433
G03 X34.893456 Y63.058187 Z-0.125000 I58.561099 J5.823208
G02 X35.334164 Y60.111384 Z-0.125000 I-24.898718 J-5.230071
G02 X35.516211 Y56.146898 Z-0.125000 I-44.953925 J-4.050679
G02 X35.375940 Y52.184370 Z-0.125000 I-53.165352 J-0.101732
G02 X35.122276 Y50.736309 Z-0.125000 I-7.290155 J0.530802
G03 X34.754888 Y49.300444 Z-0.125000 I30.165092 J-8.483149
G03 X34.371901 Y47.485278 Z-0.125000 I47.829475 J-11.039652
G02 X33.344812 Y43.371963 Z-0.125000 I-37.433486 J7.162202
G02 X31.612527 Y38.575813 Z-0.125000 I-52.669814 J16.312500
G02 X30.212566 Y36.014770 Z-0.125000 I-12.577296 J5.212057
G02 X29.512195 Y35.555640 Z-0.125000 I-0.920183 J0.639927
G02 X28.783621 Y35.824397 Z-0.125000 I-0.145497 J0.727497
G02 X28.753492 Y36.519982 Z-0.125000 I0.468691 J0.368747
G03 X30.408256 Y39.753382 Z-0.125000 I-14.221310 J9.318202
G03 X33.716790 Y49.469881 Z-0.125000 I-126.784467 J48.592512
G03 X34.316061 Y52.196738 Z-0.125000 I-18.077177 J5.402032
G03 X34.606078 Y55.678336 Z-0.125000 I-29.244852 J4.188971
G03 X34.542811 Y59.181001 Z-0.125000 I-41.699409 J0.998711
G03 X34.249397 Y61.609820 Z-0.125000 I-20.309975 J-1.221420
G03 X33.736471 Y63.993582 Z-0.125000 I-38.014116 J-6.932616
G03 X33.580084 Y64.304049 Z-0.125000 I-0.762362 J-0.189393
G02 X31.934536 Y67.583076 Z-0.125000 I6.352528 J5.240370
G02 X32.035502 Y70.602622 Z-0.125000 I5.423954 J1.330099
G02 X32.657165 Y71.364539 Z-0.125000 I1.272887 J-0.404002
G02 X34.047828 Y71.726592 Z-0.125000 I1.390663 J-2.489775
G02 X34.440608 Y71.686816 Z-0.125000 I-0.000000 J-1.959204
G01 X34.480399 Y71.638059 Z-0.125000
G01 X34.480399 Y71.638059 Z-0.125000
G00 Z5.000000

(End cutting path id: path4760)


(Start cutting path id: path4760)
(Change tool to Cylindrical cutter)

G00 Z5.000000
G00 X22.867369 Y44.934579

G01 Z-0.125000 F1000.0(Penetrate)
G02 X23.747710 Y43.195734 Z-0.125000 I-2.500379 J-2.358163 F1100.000000
G02 X24.214644 Y37.580116 Z-0.125000 I-28.260332 J-5.177045
G03 X24.198522 Y33.122099 Z-0.125000 I191.380424 J-2.921159
G03 X24.250831 Y33.070208 Z-0.125000 I0.052309 J0.000420
G03 X24.354520 Y33.081908 Z-0.125000 I0.000000 J0.465286
G03 X27.251035 Y33.756053 Z-0.125000 I-84.190055 J368.288803
G02 X30.156656 Y34.389507 Z-0.125000 I19.089757 J-80.582985
G02 X33.191831 Y34.939888 Z-0.125000 I17.413368 J-87.385067
G03 X37.457486 Y35.909658 Z-0.125000 I-5.745384 J35.138153
G03 X37.854628 Y36.306046 Z-0.125000 I-0.164710 J0.562166
G03 X37.953330 Y36.705874 Z-0.125000 I-4.402886 J1.299005
G03 X38.466158 Y39.367633 Z-0.125000 I-194.907447 J38.932135
G02 X39.192188 Y42.113826 Z-0.125000 I18.649795 J-3.461503
G02 X40.278838 Y44.549653 Z-0.125000 I14.636290 J-5.069117
G02 X40.537305 Y42.943813 Z-0.125000 I-5.917583 J-1.776182
G02 X40.571688 Y40.450062 Z-0.125000 I-90.415363 J-2.493751
G01 X40.571688 Y36.350144 Z-0.125000
G01 X41.215965 Y36.356860 Z-0.125000
G03 X41.856969 Y36.403171 Z-0.125000 I-0.058797 J5.273208
G03 X45.374456 Y36.914128 Z-0.125000 I-21.132962 J157.844604
G03 X48.840572 Y37.634831 Z-0.125000 I-5.526688 J35.275033
G03 X51.200155 Y38.430277 Z-0.125000 I-4.448723 J17.093960
G02 X54.510180 Y39.127438 Z-0.125000 I3.486234 J-8.345797
G02 X55.665241 Y38.517283 Z-0.125000 I0.026279 J-1.348629
G02 X56.360276 Y36.915120 Z-0.125000 I-4.318598 J-2.825294
G02 X56.398014 Y35.513614 Z-0.125000 I-3.231100 J-0.788263
G02 X55.988024 Y35.162760 Z-0.125000 I-0.423033 J0.079361
G02 X55.608692 Y35.489682 Z-0.125000 I-0.011232 J0.370500
G03 X55.498632 Y36.075449 Z-0.125000 I-4.361569 J-0.516269
G03 X55.446374 Y36.115888 Z-0.125000 I-0.052258 J-0.013546
G03 X53.986741 Y35.638903 Z-0.125000 I-0.000000 J-2.471824
G03 X50.194950 Y32.273401 Z-0.125000 I15.911167 J-21.745333
G01 X49.626975 Y31.664543 Z-0.125000
G01 X50.457332 Y31.664543 Z-0.125000
G03 X51.275242 Y31.751499 Z-0.125000 I-0.000000 J3.890126
G03 X53.602396 Y32.340914 Z-0.125000 I-6.967887 J32.399710
G02 X57.108317 Y33.251714 Z-0.125000 I16.865694 J-57.717732
G02 X59.386400 Y33.658923 Z-0.125000 I5.452883 J-23.929638
G03 X60.402502 Y33.938439 Z-0.125000 I-0.492920 J3.778510
G03 X60.639763 Y34.199466 Z-0.125000 I-0.169065 J0.392014
G02 X61.683550 Y36.852603 Z-0.125000 I21.561207 J-6.950644
G02 X62.477950 Y38.126572 Z-0.125000 I5.689767 J-2.663262
G02 X63.041885 Y38.570106 Z-0.125000 I1.242080 J-0.998974
G02 X63.320795 Y38.522803 Z-0.125000 I0.105431 J-0.224267
G02 X63.429871 Y38.227366 Z-0.125000 I-0.257882 J-0.263065
G02 X63.258791 Y37.819957 Z-0.125000 I-0.722403 J0.063728
G03 X61.891246 Y35.859089 Z-0.125000 I9.274223 J-7.925319
G03 X61.656993 Y34.962011 Z-0.125000 I1.600566 J-0.897078
G03 X61.728469 Y34.884590 Z-0.125000 I0.077668 J0.000000
G03 X62.458806 Y34.897887 Z-0.125000 I0.297551 J3.720491
G02 X63.142569 Y34.769460 Z-0.125000 I0.135675 J-1.162083
G02 X63.630212 Y34.276778 Z-0.125000 I-0.544176 J-1.026279
G02 X63.941994 Y33.547998 Z-0.125000 I-4.826975 J-2.496123
G02 X63.999805 Y33.202149 Z-0.125000 I-1.005595 J-0.345848
G03 X64.124100 Y32.924991 Z-0.125000 I0.371156 J0.000000
G03 X64.761218 Y32.523958 Z-0.125000 I1.516450 J1.702561
G02 X65.775488 Y31.658969 Z-0.125000 I-0.842083 J-2.014562
G02 X65.997120 Y30.528201 Z-0.125000 I-1.387091 J-0.858976
G02 X65.375905 Y29.129246 Z-0.125000 I-3.043931 J0.514270
G02 X64.387474 Y28.489910 Z-0.125000 I-1.432899 J1.131564
G03 X64.047868 Y28.223554 Z-0.125000 I0.129062 J-0.514232
G03 X63.952050 Y27.666645 Z-0.125000 I0.803430 J-0.424930
G02 X63.622849 Y26.327660 Z-0.125000 I-1.808219 J-0.265395
G02 X62.602542 Y25.807509 Z-0.125000 I-1.020307 J0.740621
G02 X61.967995 Y25.895516 Z-0.125000 I0.000000 J2.331623
G02 X61.774132 Y26.041796 Z-0.125000 I0.091202 J0.322468
G03 X61.457085 Y26.083349 Z-0.125000 I-0.175459 J-0.108438
G03 X60.719338 Y25.046096 Z-0.125000 I2.243595 J-2.376747
G02 X58.878073 Y22.454444 Z-0.125000 I-7.466066 J3.354443
G02 X55.506014 Y20.114466 Z-0.125000 I-9.375511 J9.911050
G02 X53.647140 Y19.458486 Z-0.125000 I-3.734562 J7.620993
G02 X52.226075 Y19.371186 Z-0.125000 I-0.978465 J4.317736
G02 X48.868555 Y20.628153 Z-0.125000 I0.702153 J6.988207
G02 X46.512568 Y23.418306 Z-0.125000 I4.212113 J5.946447
G02 X46.044482 Y24.792131 Z-0.125000 I5.482791 J2.634738
G02 X45.882227 Y26.393216 Z-0.125000 I7.316030 J1.550172
G02 X46.008242 Y28.008810 Z-0.125000 I11.416635 J-0.077772
G02 X46.251185 Y28.853170 Z-0.125000 I3.318671 J-0.497734
G02 X47.217349 Y30.299282 Z-0.125000 I4.512307 J-1.968915
G02 X50.594655 Y33.528173 Z-0.125000 I40.761351 J-39.254224
G02 X54.269677 Y36.480794 Z-0.125000 I34.760183 J-39.501367
G02 X55.303226 Y36.818728 Z-0.125000 I1.033548 J-1.411549
G03 X55.454674 Y37.000389 Z-0.125000 I0.000000 J0.153961
G03 X55.099690 Y37.931562 Z-0.125000 I-2.688766 J-0.491769
G03 X54.576909 Y38.588718 Z-0.125000 I-2.887425 J-1.760484
G03 X54.321214 Y38.692975 Z-0.125000 I-0.255695 J-0.261426
G03 X54.030527 Y38.615572 Z-0.125000 I-0.000000 J-0.584537
G03 X52.150671 Y37.448823 Z-0.125000 I15.723512 J-27.431389
G02 X48.860241 Y35.910708 Z-0.125000 I-6.626113 J9.886385
G02 X44.437334 Y35.196710 Z-0.125000 I-5.075049 J17.381710
G01 X40.688830 Y35.061616 Z-0.125000
G01 X40.618930 Y33.310198 Z-0.125000
G03 X41.167134 Y26.685808 Z-0.125000 I27.186573 J-1.085042
G03 X42.570544 Y23.925014 Z-0.125000 I5.782820 J1.202516
G02 X42.844922 Y23.483692 Z-0.125000 I-1.080010 J-0.977414
G02 X42.826692 Y23.277887 Z-0.125000 I-0.214101 J-0.084745
G03 X42.855909 Y23.111372 Z-0.125000 I0.108161 J-0.066842
G03 X43.637686 Y22.635546 Z-0.125000 I2.313527 J2.920961
G02 X46.103309 Y20.563357 Z-0.125000 I-2.435415 J-5.400785
G02 X47.291445 Y17.255719 Z-0.125000 I-5.835923 J-3.963534
G02 X47.119570 Y14.782146 Z-0.125000 I-7.630473 J-0.712561
G02 X46.151574 Y12.427884 Z-0.125000 I-7.860819 J1.855978
G02 X45.918884 Y12.261433 Z-0.125000 I-0.312364 J0.190798
G03 X45.653757 Y12.033738 Z-0.125000 I0.080795 J-0.362281
G03 X45.390311 Y10.972682 Z-0.125000 I3.999397 J-1.556230
G02 X45.264333 Y10.147709 Z-0.125000 I-11.550101 J1.341664
G02 X44.960455 Y8.973475 Z-0.125000 I-9.059688 J1.718103
G02 X44.557626 Y8.008335 Z-0.125000 I-6.509651 J2.150355
G02 X40.651781 Y3.594426 Z-0.125000 I-10.501023 J5.357213
G02 X37.086289 Y2.965419 Z-0.125000 I-2.488696 J3.687142
G02 X36.504705 Y3.187343 Z-0.125000 I0.629044 J2.521522
G02 X35.745604 Y3.671229 Z-0.125000 I2.531753 J4.809087
G03 X35.036806 Y3.966710 Z-0.125000 I-0.920150 J-1.209380
G03 X34.624402 Y3.828697 Z-0.125000 I-0.067783 J-0.482625
G02 X32.775920 Y3.087596 Z-0.125000 I-1.790770 J1.790778
G02 X30.339070 Y3.926372 Z-0.125000 I0.096648 J4.240000
G02 X29.323527 Y5.365707 Z-0.125000 I1.692443 J2.272059
G02 X28.991521 Y8.308557 Z-0.125000 I7.654034 J2.353665
G02 X29.832024 Y11.901207 Z-0.125000 I11.828928 J-0.872743
G02 X31.694103 Y14.959051 Z-0.125000 I10.345968 J-4.204316
G03 X32.062125 Y16.104168 Z-0.125000 I-1.181579 J1.011437
G03 X31.506572 Y17.132887 Z-0.125000 I-1.464096 J-0.126304
G03 X30.302906 Y17.605638 Z-0.125000 I-1.387439 J-1.763849
G03 X25.316861 Y17.641471 Z-0.125000 I-2.732119 J-33.251050
G02 X21.718524 Y17.489038 Z-0.125000 I-4.814101 J71.094330
G02 X20.913454 Y17.566330 Z-0.125000 I-0.061309 J3.592865
G02 X19.695080 Y18.325627 Z-0.125000 I0.434663 J2.054620
G02 X19.206333 Y19.744888 Z-0.125000 I1.807203 J1.416126
G02 X19.315949 Y20.518290 Z-0.125000 I2.807603 J-0.003459
G02 X20.752583 Y25.115252 Z-0.125000 I102.655577 J-29.558760
G03 X22.236866 Y29.704318 Z-0.125000 I-180.948258 J61.060284
G03 X22.297765 Y30.107001 Z-0.125000 I-1.300884 J0.402683
G03 X22.064077 Y30.237306 Z-0.125000 I-0.153173 J0.000000
G03 X14.845302 Y25.502151 Z-0.125000 I83.825810 J-135.663119
G02 X8.052681 Y21.189000 Z-0.125000 I-54.864244 J78.898360
G02 X5.821454 Y20.289035 Z-0.125000 I-4.297848 J7.439533
G03 X5.268068 Y19.991371 Z-0.125000 I0.304734 J-1.229760
G03 X4.780280 Y19.330487 Z-0.125000 I1.466307 J-1.592714
G02 X4.238621 Y18.912941 Z-0.125000 I-0.682739 J0.325575
G02 X3.955227 Y19.173853 Z-0.125000 I-0.044756 J0.235749
G02 X4.547072 Y19.836886 Z-0.125000 I0.756628 J-0.079724
G03 X4.635232 Y20.140761 Z-0.125000 I-0.039059 J0.176058
G03 X4.284103 Y20.090997 Z-0.125000 I-0.156764 J-0.157532
G02 X3.510384 Y19.616590 Z-0.125000 I-0.806480 J0.447163
G02 X3.280968 Y19.947243 Z-0.125000 I-0.008487 J0.239025
G02 X3.895102 Y20.544215 Z-0.125000 I1.000604 J-0.414990
G03 X4.890613 Y20.999706 Z-0.125000 I-3.039043 J7.957695
G03 X4.960960 Y21.117411 Z-0.125000 I-0.063300 J0.117705
G02 X5.012775 Y21.263906 Z-0.125000 I0.233000 J0.000000
G02 X6.497989 Y23.018400 Z-0.125000 I39.650501 J-32.059062
G03 X10.871120 Y28.932517 Z-0.125000 I-31.213640 J27.654485
G03 X14.439723 Y36.018211 Z-0.125000 I-41.402174 J25.293065
G02 X17.918202 Y42.904318 Z-0.125000 I43.098085 J-17.449140
G02 X20.003911 Y45.077135 Z-0.125000 I6.038556 J-3.709016
G02 X21.598166 Y45.520059 Z-0.125000 I1.463788 J-2.178107
G02 X22.867352 Y44.934601 Z-0.125000 I-0.093096 J-1.870253
G01 X22.867369 Y44.934579 Z-0.125000
G00 Z5.000000

(End cutting path id: path4760)


(Start cutting path id: path4760)
(Change tool to Cylindrical cutter)

G00 Z5.000000
G00 X19.881454 Y42.617162

G01 Z-0.125000 F1000.0(Penetrate)
G03 X19.438173 Y42.033564 Z-0.125000 I2.014713 J-1.990455 F1100.000000
G03 X17.166061 Y37.872970 Z-0.125000 I102.854605 J-58.869869
G02 X14.932016 Y33.679224 Z-0.125000 I-218.905721 J113.921070
G02 X14.397727 Y32.794708 Z-0.125000 I-10.245766 J5.585302
G03 X13.838425 Y31.924359 Z-0.125000 I26.056589 J-17.359312
G03 X12.262430 Y29.347999 Z-0.125000 I226.894210 J-140.564527
G02 X10.625883 Y26.814046 Z-0.125000 I-42.873489 J25.894279
G02 X8.777969 Y24.293593 Z-0.125000 I-44.258442 J30.511215
G02 X5.893746 Y21.315323 Z-0.125000 I-15.222233 J11.855841
G01 X5.911420 Y21.266435 Z-0.125000
G03 X6.659223 Y21.447182 Z-0.125000 I0.000000 J1.637315
G03 X10.514561 Y23.602685 Z-0.125000 I-28.427907 J55.371817
G03 X16.517580 Y27.546495 Z-0.125000 I-51.789988 J85.372060
G03 X19.720689 Y30.136640 Z-0.125000 I-19.009986 J26.784381
G02 X20.565868 Y30.858102 Z-0.125000 I10.398334 J-11.325684
G02 X21.637707 Y31.656796 Z-0.125000 I13.822279 J-17.430787
G03 X22.433879 Y32.732043 Z-0.125000 I-1.207636 J1.726588
G03 X23.234782 Y36.570093 Z-0.125000 I-17.207701 J5.593397
G03 X23.336853 Y41.306655 Z-0.125000 I-31.206811 J3.041874
G03 X22.918733 Y42.409082 Z-0.125000 I-1.939153 J-0.104963
G03 X21.418071 Y43.198238 Z-0.125000 I-1.644128 J-1.305070
G03 X19.881454 Y42.617162 Z-0.125000 I-0.134690 J-1.966102
G01 X19.881454 Y42.617162 Z-0.125000
G00 Z5.000000

(End cutting path id: path4760)


(Start cutting path id: path4760)
(Change tool to Cylindrical cutter)

G00 Z5.000000
G00 X32.254729 Y33.746144

G01 Z-0.125000 F1000.0(Penetrate)
G03 X25.629465 Y32.116535 Z-0.125000 I14.453617 J-73.044440 F1100.000000
G03 X24.230595 Y31.377738 Z-0.125000 I1.133287 J-3.839553
G03 X24.051218 Y31.084752 Z-0.125000 I0.328928 J-0.402787
G03 X23.937748 Y30.022069 Z-0.125000 I4.919485 J-1.062683
G02 X23.833059 Y28.920686 Z-0.125000 I-5.845883 J-0.000000
G02 X23.325274 Y26.829399 Z-0.125000 I-21.723921 J4.167491
G03 X22.788911 Y24.737234 Z-0.125000 I28.850825 J-8.511254
G03 X22.487952 Y22.996116 Z-0.125000 I19.671148 J-4.296799
G03 X22.474969 Y20.104102 Z-0.125000 I11.711059 J-1.498609
G03 X22.911024 Y19.436399 Z-0.125000 I0.891469 J0.105951
G03 X23.677229 Y19.198470 Z-0.125000 I0.889028 J1.510268
G03 X25.253830 Y19.271799 Z-0.125000 I0.475333 J6.765578
G02 X30.169335 Y19.751420 Z-0.125000 I6.095149 J-37.038891
G02 X31.687858 Y19.474101 Z-0.125000 I0.115239 J-3.665161
G03 X32.366403 Y19.287555 Z-0.125000 I1.085146 J2.619770
G03 X32.551334 Y19.348992 Z-0.125000 I0.031179 J0.215194
G03 X32.647636 Y19.543696 Z-0.125000 I-0.239752 J0.239752
G03 X32.801831 Y21.217594 Z-0.125000 I-20.127813 J2.698170
G03 X32.714442 Y22.884679 Z-0.125000 I-8.121399 J0.410108
G03 X32.379251 Y23.918765 Z-0.125000 I-3.407384 J-0.533109
G02 X31.925606 Y24.900200 Z-0.125000 I12.426345 J6.339355
G01 X31.945535 Y24.961387 Z-0.125000
G03 X34.950778 Y27.564750 Z-0.125000 I-6.221269 J10.217905
G03 X36.133247 Y30.035619 Z-0.125000 I-4.379198 J3.614106
G02 X36.426620 Y31.305332 Z-0.125000 I26.217773 J-5.388987
G02 X36.843804 Y32.802029 Z-0.125000 I36.850453 J-9.465063
G03 X37.275771 Y34.293324 Z-0.125000 I-72.134136 J21.702538
G03 X37.291775 Y34.410430 Z-0.125000 I-0.420457 J0.117107
G03 X37.133027 Y34.549617 Z-0.125000 I-0.140392 J0.000000
G03 X32.254729 Y33.746144 Z-0.125000 I10.066122 J-76.327692
G01 X32.254729 Y33.746144 Z-0.125000
G00 Z5.000000

(End cutting path id: path4760)


(Start cutting path id: path4760)
(Change tool to Cylindrical cutter)

G00 Z5.000000
G00 X38.308435 Y34.632562

G01 Z-0.125000 F1000.0(Penetrate)
G03 X37.891786 Y33.886463 Z-0.125000 I1.173526 J-1.144727 F1100.000000
G03 X36.700367 Y28.217800 Z-0.125000 I73.064861 J-18.316040
G02 X36.300198 Y26.066615 Z-0.125000 I-70.849290 J12.066762
G02 X36.026547 Y24.879032 Z-0.125000 I-21.858372 J4.411427
G03 X36.280475 Y24.535781 Z-0.125000 I0.265771 J-0.068940
G03 X37.104173 Y24.832508 Z-0.125000 I0.049796 J1.153403
G02 X37.796279 Y25.211177 Z-0.125000 I1.140172 J-1.262100
G02 X38.715403 Y25.272506 Z-0.125000 I0.610868 J-2.236931
G02 X39.644620 Y25.016287 Z-0.125000 I-0.473520 J-3.530371
G02 X40.688602 Y24.427124 Z-0.125000 I-2.169439 J-5.063725
G01 X41.682961 Y23.713037 Z-0.125000
G01 X41.130223 Y25.081456 Z-0.125000
G02 X40.092520 Y28.733111 Z-0.125000 I16.478940 J6.656145
G02 X39.645108 Y33.739865 Z-0.125000 I30.712770 J5.267918
G03 X39.383704 Y34.670812 Z-0.125000 I-1.843529 J-0.015476
G03 X38.990790 Y34.833656 Z-0.125000 I-0.306090 J-0.183102
G03 X38.353961 Y34.659972 Z-0.125000 I3.950329 J-15.738595
G03 X38.308435 Y34.632550 Z-0.125000 I0.029718 J-0.100839
G01 X38.308435 Y34.632562 Z-0.125000
G00 Z5.000000

(End cutting path id: path4760)


(Start cutting path id: path4760)
(Change tool to Cylindrical cutter)

G00 Z5.000000
G00 X38.814703 Y36.642994

G01 Z-0.125000 F1000.0(Penetrate)
G03 X38.877390 Y36.264840 Z-0.125000 I0.479545 J-0.114777 F1100.000000
G03 X39.147733 Y36.115865 Z-0.125000 I0.270343 J0.170806
G03 X39.562463 Y36.444168 Z-0.125000 I0.000000 J0.426106
G03 X39.711229 Y38.505345 Z-0.125000 I-6.330385 J1.492857
G01 X39.540649 Y40.450062 Z-0.125000
G01 X39.240759 Y38.810094 Z-0.125000
G02 X38.930050 Y37.172414 Z-0.125000 I-123.620336 J22.605580
G02 X38.814703 Y36.642994 Z-0.125000 I-13.035542 J2.562850
G01 X38.814703 Y36.642994 Z-0.125000
G00 Z5.000000

(End cutting path id: path4760)


(Start cutting path id: path4760)
(Change tool to Cylindrical cutter)

G00 Z5.000000
G00 X37.578321 Y23.839845

G01 Z-0.125000 F1000.0(Penetrate)
G03 X33.282691 Y17.985147 Z-0.125000 I31.206446 J-27.399590 F1100.000000
G03 X33.405764 Y16.964223 Z-0.125000 I0.711948 J-0.432055
G03 X33.497186 Y16.959167 Z-0.125000 I0.048535 J0.048535
G03 X35.451714 Y18.601464 Z-0.125000 I-33.371849 J41.700661
G02 X39.168042 Y21.605081 Z-0.125000 I36.780624 J-41.707207
G02 X40.257696 Y22.155559 Z-0.125000 I2.158237 J-2.918452
G03 X40.744546 Y22.796124 Z-0.125000 I-0.203233 J0.659757
G03 X40.303188 Y23.791071 Z-0.125000 I-1.262945 J0.035125
G03 X38.778186 Y24.370187 Z-0.125000 I-1.568176 J-1.832050
G03 X37.578341 Y23.839865 Z-0.125000 I-0.027921 J-1.559306
G01 X37.578321 Y23.839845 Z-0.125000
G00 Z5.000000

(End cutting path id: path4760)


(Start cutting path id: path4760)
(Change tool to Cylindrical cutter)

G00 Z5.000000
G00 X41.040268 Y21.492467

G01 Z-0.125000 F1000.0(Penetrate)
G03 X38.359752 Y19.790680 Z-0.125000 I6.115801 J-12.595063 F1100.000000
G03 X33.618165 Y15.499123 Z-0.125000 I35.687224 J-44.194720
G03 X30.966551 Y11.732583 Z-0.125000 I9.952503 J-9.823108
G03 X30.071969 Y8.119265 Z-0.125000 I8.231166 J-3.955265
G03 X30.208072 Y5.855072 Z-0.125000 I11.643860 J-0.436260
G03 X30.547638 Y5.124707 Z-0.125000 I1.450983 J0.230479
G03 X32.937083 Y4.004136 Z-0.125000 I2.451319 J2.119212
G03 X34.011834 Y5.058557 Z-0.125000 I0.020137 J1.054421
G02 X34.428081 Y5.417251 Z-0.125000 I0.362673 J0.000000
G02 X35.700335 Y4.806360 Z-0.125000 I-0.353436 J-2.366331
G03 X36.853333 Y3.913141 Z-0.125000 I5.642598 J6.092884
G03 X37.289526 Y3.785066 Z-0.125000 I0.436193 J0.678744
G03 X37.962753 Y3.934097 Z-0.125000 I-0.000000 J1.595120
G03 X40.566162 Y5.310511 Z-0.125000 I-12.279526 J26.376342
G03 X42.537125 Y6.807712 Z-0.125000 I-5.630702 J9.458353
G03 X43.603695 Y8.210869 Z-0.125000 I-3.854659 J4.036949
G03 X44.133325 Y9.610312 Z-0.125000 I-5.103945 J2.731571
G03 X44.523815 Y12.102048 Z-0.125000 I-16.006231 J3.784869
G02 X45.051707 Y14.289402 Z-0.125000 I7.123584 J-0.561812
G02 X45.302283 Y14.279389 Z-0.125000 I0.123433 J-0.051448
G03 X45.793528 Y14.238429 Z-0.125000 I0.254239 J0.082858
G03 X46.219579 Y15.402732 Z-0.125000 I-4.217992 J2.203582
G03 X45.871296 Y19.133235 Z-0.125000 I-5.932540 J1.327643
G03 X43.570206 Y21.559890 Z-0.125000 I-4.448837 J-1.914298
G03 X42.384662 Y21.820522 Z-0.125000 I-1.118360 J-2.260435
G03 X41.040268 Y21.492467 Z-0.125000 I0.087318 J-3.276578
G01 X41.040268 Y21.492467 Z-0.125000
G00 Z5.000000

(End cutting path id: path4760)


(Start cutting path id: path4760)
(Change tool to Cylindrical cutter)

G00 Z5.000000
G00 X43.411499 Y18.350346

G01 Z-0.125000 F1000.0(Penetrate)
G02 X44.618577 Y17.413802 Z-0.125000 I-1.102173 J-2.666705 F1100.000000
G02 X45.023044 Y16.199403 Z-0.125000 I-1.620862 J-1.214399
G02 X44.798172 Y15.961512 Z-0.125000 I-0.238268 J0.000000
G02 X43.313127 Y16.103118 Z-0.125000 I-0.278195 J4.940308
G03 X42.817729 Y16.045433 Z-0.125000 I-0.171604 J-0.682345
G03 X41.392258 Y15.107426 Z-0.125000 I3.790259 J-7.312120
G03 X37.817165 Y11.922424 Z-0.125000 I36.128730 J-44.152671
G03 X36.796960 Y10.653883 Z-0.125000 I4.589294 J-4.735380
G02 X36.005594 Y10.124605 Z-0.125000 I-0.976189 J0.603322
G02 X35.517969 Y10.445174 Z-0.125000 I-0.069439 J0.425528
G02 X35.574454 Y11.434051 Z-0.125000 I1.609999 J0.404088
G02 X36.582616 Y13.273450 Z-0.125000 I6.967024 J-2.622593
G02 X41.429778 Y18.103986 Z-0.125000 I19.034887 J-14.253214
G02 X43.411499 Y18.350346 Z-0.125000 I1.208206 J-1.625144
G01 X43.411499 Y18.350346 Z-0.125000
G00 Z5.000000

(End cutting path id: path4760)


(Start cutting path id: path4760)
(Change tool to Cylindrical cutter)

G00 Z5.000000
G00 X98.907711 Y139.587521

G01 Z-0.125000 F1000.0(Penetrate)
G02 X98.881769 Y139.474234 Z-0.125000 I-0.260330 J-0.000000 F1100.000000
G02 X98.112516 Y137.942290 Z-0.125000 I-50.987133 J24.643654
G03 X97.391431 Y136.428076 Z-0.125000 I20.629531 J-10.752804
G03 X97.411586 Y136.322427 Z-0.125000 I0.087808 J-0.037995
G02 X97.434198 Y136.215396 Z-0.125000 I-0.070883 J-0.070879
G02 X96.704001 Y134.492493 Z-0.125000 I-27.359416 J10.579211
G03 X95.967574 Y132.731026 Z-0.125000 I23.563089 J-10.885834
G03 X94.820659 Y129.476882 Z-0.125000 I79.363553 J-29.800684
G02 X92.868619 Y124.806702 Z-0.125000 I-31.082647 J10.248862
G02 X89.887886 Y119.845255 Z-0.125000 I-38.089525 J19.507290
G02 X84.365804 Y112.638809 Z-0.125000 I-82.490214 J57.490827
G02 X79.472525 Y107.454455 Z-0.125000 I-47.456557 J39.890664
G03 X77.501771 Y105.565676 Z-0.125000 I126.277217 J-133.730344
G03 X75.016866 Y103.120261 Z-0.125000 I209.334996 J-215.200701
G02 X72.531943 Y100.675087 Z-0.125000 I-209.831347 J210.757074
G02 X71.552876 Y99.751423 Z-0.125000 I-30.898820 J31.771456
G03 X70.625567 Y98.813519 Z-0.125000 I8.913716 J-9.740386
G03 X70.559693 Y98.641064 Z-0.125000 I0.192801 J-0.172454
G02 X70.498476 Y98.463197 Z-0.125000 I-0.289007 J-0.000000
G02 X69.417845 Y97.178733 Z-0.125000 I-18.137649 J14.162564
G03 X68.435418 Y95.819172 Z-0.125000 I5.654244 J-5.120522
G03 X67.325376 Y93.486321 Z-0.125000 I15.743710 J-8.921865
G03 X66.234414 Y89.953387 Z-0.125000 I23.551793 J-9.207647
G03 X65.281816 Y84.612057 Z-0.125000 I53.059430 J-12.218484
G02 X64.173959 Y79.265783 Z-0.125000 I-34.894566 J4.442944
G02 X62.779391 Y75.975112 Z-0.125000 I-14.477557 J4.194666
G02 X61.027974 Y73.561542 Z-0.125000 I-12.000508 J6.865972
G02 X56.886241 Y69.466226 Z-0.125000 I-39.100186 J35.401362
G03 X55.090222 Y67.260074 Z-0.125000 I5.809224 J-6.563405
G03 X54.628576 Y65.525665 Z-0.125000 I3.027275 J-1.734409
G03 X55.550704 Y62.413364 Z-0.125000 I5.713273 J0.000000
G03 X65.667069 Y48.532763 Z-0.125000 I134.144400 J87.139435
G02 X69.444222 Y43.198377 Z-0.125000 I-37.629682 J-30.649142
G02 X70.201598 Y41.115734 Z-0.125000 I-4.759832 J-2.910002
G02 X70.027474 Y38.858516 Z-0.125000 I-4.999198 J-0.749680
G02 X68.807469 Y36.653631 Z-0.125000 I-5.977926 J1.867733
G02 X67.147357 Y35.569614 Z-0.125000 I-2.684284 J2.297640
G02 X65.095137 Y35.529309 Z-0.125000 I-1.097689 J3.624397
G03 X63.737101 Y35.838038 Z-0.125000 I-5.614088 J-21.554021
G03 X63.285545 Y35.881581 Z-0.125000 I-0.451555 J-2.319577
G02 X62.967127 Y36.020294 Z-0.125000 I0.000000 J0.434824
G02 X62.828416 Y36.373145 Z-0.125000 I0.379431 J0.352851
G02 X63.033012 Y36.635894 Z-0.125000 I0.271014 J0.000000
G02 X64.175533 Y36.713666 Z-0.125000 I0.785407 J-3.107094
G03 X65.489388 Y36.745283 Z-0.125000 I0.541158 J4.826509
G03 X66.576911 Y37.100649 Z-0.125000 I-0.585595 J3.633851
G03 X68.080058 Y38.641714 Z-0.125000 I-1.527959 J2.993976
G03 X68.631593 Y41.387189 Z-0.125000 I-5.128975 J2.458490
G03 X68.058270 Y43.623742 Z-0.125000 I-5.790316 J-0.292544
G03 X66.059189 Y46.693501 Z-0.125000 I-13.132869 J-6.366560
G02 X61.202902 Y52.734559 Z-0.125000 I113.904684 J96.538183
G02 X57.873731 Y57.435440 Z-0.125000 I65.589154 J49.979634
G02 X54.457075 Y63.176902 Z-0.125000 I62.791957 J41.253864
G02 X54.160014 Y64.359209 Z-0.125000 I2.204270 J1.182307
G03 X53.888122 Y64.745805 Z-0.125000 I-0.410791 J0.000000
G03 X53.220375 Y64.696812 Z-0.125000 I-0.278748 J-0.775834
G03 X52.122099 Y63.660397 Z-0.125000 I1.360123 J-2.541428
G03 X50.770522 Y60.695047 Z-0.125000 I11.449293 J-7.009166
G03 X49.271314 Y54.753157 Z-0.125000 I49.696586 J-15.699105
G03 X48.943720 Y51.109852 Z-0.125000 I18.241663 J-3.476610
G03 X48.956044 Y50.055627 Z-0.125000 I196.298734 J1.767536
G03 X48.987538 Y48.064197 Z-0.125000 I692.106760 J9.949545
G02 X48.554430 Y44.252819 Z-0.125000 I-14.748401 J-0.254354
G02 X47.891966 Y43.654995 Z-0.125000 I-0.774688 J0.192492
G02 X47.442121 Y44.002399 Z-0.125000 I-0.055767 J0.392737
G02 X47.609853 Y46.107362 Z-0.125000 I5.439431 J0.625728
G03 X47.928535 Y49.633913 Z-0.125000 I-9.344640 J2.622115
G03 X46.944300 Y53.218380 Z-0.125000 I-10.649073 J-0.996697
G02 X46.066658 Y55.234846 Z-0.125000 I30.937521 J14.664404
G02 X45.598989 Y56.602464 Z-0.125000 I13.740392 J5.462415
G02 X45.400723 Y58.027638 Z-0.125000 I4.871899 J1.404141
G02 X45.640885 Y66.702540 Z-0.125000 I184.429378 J-0.765088
G03 X45.323375 Y70.970478 Z-0.125000 I-17.077648 J0.875301
G03 X44.382157 Y72.920869 Z-0.125000 I-4.291541 J-0.868706
G03 X41.877383 Y75.438744 Z-0.125000 I-16.334327 J-13.744528
G03 X39.721720 Y76.884099 Z-0.125000 I-7.385140 J-8.684310
G02 X39.064510 Y77.251721 Z-0.125000 I5.165611 J10.005987
G02 X38.931740 Y77.361348 Z-0.125000 I0.304421 J0.503900
G03 X37.907675 Y78.207650 Z-0.125000 I-3.382582 J-3.050347
G03 X31.326644 Y81.964469 Z-0.125000 I-76.736052 J-126.780290
G02 X23.213143 Y87.288045 Z-0.125000 I26.274295 J48.888416
G02 X19.519716 Y91.284239 Z-0.125000 I10.813012 J13.698671
G02 X18.168549 Y94.860660 Z-0.125000 I7.021125 J4.696017
G02 X18.657510 Y97.731792 Z-0.125000 I4.858753 J0.649744
G02 X19.531634 Y98.910539 Z-0.125000 I3.916827 J-1.991119
G02 X22.095413 Y101.031786 Z-0.125000 I15.644672 J-16.298504
G03 X24.318081 Y102.678661 Z-0.125000 I-39.705669 J55.911181
G03 X25.469765 Y103.639053 Z-0.125000 I-12.318957 J15.943386
G02 X26.587339 Y104.642201 Z-0.125000 I634.315665 J-705.546332
G02 X28.249228 Y106.129961 Z-0.125000 I1394.846383 J-1556.429245
G03 X29.883389 Y107.646096 Z-0.125000 I-40.565523 J45.362157
G03 X31.048562 Y108.824195 Z-0.125000 I-23.311884 J24.221352
G03 X33.593203 Y111.795126 Z-0.125000 I-30.326251 J28.550050
G03 X37.822017 Y117.528550 Z-0.125000 I-109.028577 J84.842694
G02 X40.826122 Y121.077735 Z-0.125000 I20.591660 J-14.383256
G02 X41.437789 Y121.074765 Z-0.125000 I0.304334 J-0.310302
G02 X41.456080 Y120.936258 Z-0.125000 I-0.081182 J-0.081182
G02 X40.895739 Y120.134178 Z-0.125000 I-4.878547 J2.811431
G03 X39.156460 Y117.820766 Z-0.125000 I21.306947 J-17.829596
G03 X37.169813 Y114.600034 Z-0.125000 I39.393591 J-26.522270
G02 X34.837044 Y111.124903 Z-0.125000 I-23.303141 J13.122285
G02 X30.199801 Y105.793628 Z-0.125000 I-59.763610 J47.301090
G02 X27.709283 Y103.476148 Z-0.125000 I-20.823879 J19.881746
G02 X24.541421 Y101.120629 Z-0.125000 I-24.685558 J29.890880
G03 X21.276504 Y98.877197 Z-0.125000 I80.827286 J-121.127247
G03 X20.507609 Y98.267312 Z-0.125000 I5.160573 J-7.295666
G03 X19.112791 Y96.378262 Z-0.125000 I3.750031 J-4.228382
G03 X18.854787 Y94.632295 Z-0.125000 I2.906419 J-1.321531
G03 X20.170037 Y91.479064 Z-0.125000 I6.540710 J0.877289
G03 X24.490139 Y87.326208 Z-0.125000 I16.075427 J12.399357
G03 X28.794379 Y84.523231 Z-0.125000 I36.899330 J51.956179
G03 X31.123151 Y83.377933 Z-0.125000 I8.320985 J13.979103
G02 X32.090855 Y82.969348 Z-0.125000 I-8.674195 J-21.894437
G02 X35.340208 Y81.485515 Z-0.125000 I-111.547713 J-248.571090
G03 X39.152926 Y80.459614 Z-0.125000 I4.857701 J10.455588
G03 X40.220288 Y81.041356 Z-0.125000 I0.099052 J1.088313
G02 X42.453006 Y84.229959 Z-0.125000 I13.418641 J-7.019983
G02 X48.068704 Y89.641164 Z-0.125000 I44.898013 J-40.975178
G02 X52.163970 Y92.761035 Z-0.125000 I32.231149 J-38.060141
G02 X57.511787 Y96.093066 Z-0.125000 I42.144596 J-61.683329
G03 X61.925479 Y99.262407 Z-0.125000 I-12.445882 J21.990378
G03 X65.225775 Y103.003119 Z-0.125000 I-14.209935 J15.863137
G03 X68.382204 Y108.095182 Z-0.125000 I-48.657342 J33.685668
G03 X68.685447 Y109.272299 Z-0.125000 I-2.133026 J1.177118
G02 X68.765508 Y109.493261 Z-0.125000 I0.344948 J-0.000000
G02 X69.034483 Y109.763930 Z-0.125000 I1.685712 J-1.406177
G01 X69.513363 Y107.213497 Z-0.125000
G03 X69.693812 Y104.652259 Z-0.125000 I12.049892 J-0.438012
G03 X70.419522 Y101.272408 Z-0.125000 I49.332858 J8.824742
G01 X70.677606 Y100.244535 Z-0.125000
G01 X72.532449 Y101.975252 Z-0.125000
G03 X76.719653 Y106.219578 Z-0.125000 I-49.161645 J52.687588
G03 X81.276535 Y111.604815 Z-0.125000 I-74.686273 J67.818647
G02 X83.354867 Y114.186028 Z-0.125000 I122.955034 J-96.873215
G02 X84.399149 Y115.400032 Z-0.125000 I28.224167 J-23.222163
G03 X86.440956 Y117.922503 Z-0.125000 I-23.295837 J20.944354
G03 X89.694084 Y122.682732 Z-0.125000 I-79.977644 J58.148217
G03 X92.992611 Y128.298569 Z-0.125000 I-69.831164 J44.792775
G03 X94.101432 Y130.909724 Z-0.125000 I-13.874117 J7.432623
G02 X97.242252 Y138.428156 Z-0.125000 I46.015549 J-14.807711
G02 X98.635203 Y139.616325 Z-0.125000 I2.164752 J-1.127251
G02 X98.859821 Y139.640740 Z-0.125000 I0.168625 J-0.505894
G02 X98.907716 Y139.587521 Z-0.125000 I-0.005619 J-0.053219
G01 X98.907711 Y139.587521 Z-0.125000
G00 Z5.000000

(End cutting path id: path4760)


(Footer)
M5
G00 X0.0000 Y0.0000
M2
(Using default footer. To add your own footer create file "footer" in the output dir.)
(end)
%