%
(Header)
(Generated by gcodetools from Inkscape.)
(Using default header. To add your own header create file "header" in the output dir.)
M3
(Header end.)
G21 (All units in mm)

(Pass at depth -1.0)
(Start cutting path id: path847)
(Change tool to Cylindrical cutter)

G00 Z5.000000
G00 X1.388430 Y0.425667

G01 Z-1.000000 F1000.0(Penetrate)
G02 X1.379812 Y0.638035 Z-1.000000 I6.230871 J0.359223 F1100.000000
G02 X1.364640 Y1.437947 Z-1.000000 I87.570620 J2.061096
G03 X1.305352 Y2.189530 Z-1.000000 I-5.864101 J-0.084452
G03 X1.249416 Y2.237987 Z-1.000000 I-0.055936 J-0.008056
G02 X1.056728 Y2.305734 Z-1.000000 I0.000001 J0.307898
G02 X0.988968 Y2.446978 Z-1.000000 I0.113328 J0.141243
G01 X1.012015 Y2.476117 Z-1.000000
G02 X1.209531 Y2.499177 Z-1.000000 I0.197515 J-0.834337
G01 X1.430093 Y2.499177 Z-1.000000
G01 X1.568732 Y3.051927 Z-1.000000
G03 X1.703355 Y3.605201 Z-1.000000 I-39.138518 J9.816261
G03 X1.707369 Y3.639706 Z-1.000000 I-0.146296 J0.034506
G03 X1.535259 Y3.800707 Z-1.000000 I-0.161359 J0.000000
G03 X0.722574 Y3.574108 Z-1.000000 I0.137903 J-2.065209
G02 X0.491164 Y3.555774 Z-1.000000 I-0.137498 J0.265901
G02 X0.401191 Y3.680259 Z-1.000000 I0.041130 J0.124484
G02 X0.440553 Y3.781337 Z-1.000000 I0.149463 J-0.000000
G02 X0.580791 Y3.875879 Z-1.000000 I0.267613 J-0.245682
G03 X1.062762 Y4.071910 Z-1.000000 I-3.256545 J8.697193
G03 X1.608597 Y4.327866 Z-1.000000 I-5.020749 J11.416884
G03 X1.857074 Y4.546402 Z-1.000000 I-0.288647 J0.578722
G03 X1.980857 Y4.882996 Z-1.000000 I-0.630910 J0.423077
G02 X2.030564 Y5.274175 Z-1.000000 I15.937377 J-1.826415
G02 X2.083778 Y5.620345 Z-1.000000 I12.529630 J-1.748881
G03 X2.086611 Y5.898032 Z-1.000000 I-0.880385 J0.147841
G01 X2.038876 Y5.925806 Z-1.000000
G02 X1.933750 Y5.893637 Z-1.000000 I-0.270326 J0.695565
G02 X1.576758 Y5.820837 Z-1.000000 I-1.828786 J8.056088
G03 X1.219637 Y5.747058 Z-1.000000 I1.299414 J-7.190918
G03 X0.895487 Y5.662308 Z-1.000000 I1.404285 J-6.033375
G02 X0.276638 Y5.558256 Z-1.000000 I-0.755131 J2.598803
G01 X0.234819 Y5.629009 Z-1.000000
G02 X0.284180 Y5.672276 Z-1.000000 I0.095091 J-0.058695
G02 X0.461865 Y5.731009 Z-1.000000 I0.374717 J-0.835492
G03 X0.631301 Y5.811336 Z-1.000000 I-0.089536 J0.407724
G03 X1.391770 Y6.466567 Z-1.000000 I-7.421410 J9.382287
G03 X1.998982 Y7.300902 Z-1.000000 I-1.883229 J2.008701
G03 X2.115565 Y8.001495 Z-1.000000 I-1.179769 J0.556319
G03 X2.033439 Y8.258107 Z-1.000000 I-0.677573 J-0.075402
G03 X1.943193 Y8.310646 Z-1.000000 I-0.089454 J-0.049878
G03 X1.532460 Y8.175282 Z-1.000000 I0.005586 J-0.707771
G03 X1.148195 Y7.732387 Z-1.000000 I0.765118 J-1.051981
G02 X0.983134 Y7.456794 Z-1.000000 I-2.713100 J1.437729
G02 X0.853799 Y7.294568 Z-1.000000 I-1.062715 J0.714579
G01 X0.710671 Y7.142228 Z-1.000000
G01 X1.062080 Y7.275238 Z-1.000000
G03 X1.402750 Y7.427665 Z-1.000000 I-1.126972 J2.975641
G03 X1.621386 Y7.566086 Z-1.000000 I-0.702853 J1.352036
G02 X1.915134 Y7.717461 Z-1.000000 I0.578510 J-0.761918
G01 X1.957731 Y7.670956 Z-1.000000
G02 X1.764425 Y7.409960 Z-1.000000 I-0.613317 J0.252168
G02 X1.250216 Y7.091977 Z-1.000000 I-1.453921 J1.776379
G02 X1.085761 Y7.021588 Z-1.000000 I-2.103542 J4.687324
G02 X0.877152 Y6.939908 Z-1.000000 I-3.059939 J7.507822
G03 X0.441113 Y6.672745 Z-1.000000 I0.475309 J-1.265169
G03 X0.239583 Y6.357669 Z-1.000000 I0.487391 J-0.533735
G02 X0.179124 Y6.245467 Z-1.000000 I-0.326348 J0.103460
G02 X0.129517 Y6.221830 Z-1.000000 I-0.049607 J0.040236
G02 X0.027721 Y6.339485 Z-1.000000 I0.000000 J0.102865
G02 X0.293207 Y7.348409 Z-1.000000 I4.577163 J-0.665033
G03 X0.313013 Y7.670378 Z-1.000000 I-0.494603 J0.192019
G03 X0.199168 Y7.720670 Z-1.000000 I-0.076577 J-0.019345
G01 X0.133710 Y7.754467 Z-1.000000
G02 X0.089173 Y8.586020 Z-1.000000 I5.668600 J0.720570
G01 X0.107312 Y9.519930 Z-1.000000
G01 X0.531820 Y9.661619 Z-1.000000
G01 X0.956329 Y9.803318 Z-1.000000
G01 X1.013338 Y10.494318 Z-1.000000
G02 X1.095468 Y11.158028 Z-1.000000 I8.171293 J-0.674208
G01 X1.127630 Y11.185308 Z-1.000000
G02 X1.198559 Y11.119870 Z-1.000000 I-0.000000 J-0.071160
G02 X1.193384 Y10.370337 Z-1.000000 I-4.278945 J-0.345240
G01 X1.239036 Y10.352558 Z-1.000000
G03 X1.403674 Y10.647827 Z-1.000000 I-0.966728 J0.732570
G03 X1.483457 Y10.931932 Z-1.000000 I-1.450391 J0.560559
G03 X1.511460 Y11.244427 Z-1.000000 I-1.729684 J0.312499
G03 X1.385240 Y11.553124 Z-1.000000 I-0.440600 J0.000001
G03 X0.891027 Y11.876268 Z-1.000000 I-0.985432 J-0.967614
G03 X0.519989 Y11.991181 Z-1.000000 I-1.092387 J-2.870704
G03 X0.270592 Y12.026169 Z-1.000000 I-0.303225 J-1.255027
G02 X0.148790 Y12.105541 Z-1.000000 I0.005832 J0.142094
G02 X0.074666 Y12.424440 Z-1.000000 I0.648925 J0.318898
G01 X0.074667 Y12.814540 Z-1.000000
G01 X0.760411 Y13.153718 Z-1.000000
G01 X1.446156 Y13.492907 Z-1.000000
G01 X1.446157 Y13.971837 Z-1.000000
G03 X1.438107 Y14.442310 Z-1.000000 I-13.750106 J0.000030
G01 X1.429831 Y14.449907 Z-1.000000
G03 X1.070762 Y14.378836 Z-1.000000 I0.078118 J-1.337269
G03 X0.405108 Y14.093559 Z-1.000000 I1.633117 J-4.729895
G02 X0.147506 Y14.042364 Z-1.000000 I-0.217467 J0.420554
G02 X0.074670 Y14.121660 Z-1.000000 I0.006746 J0.079295
G02 X0.132858 Y14.208461 Z-1.000000 I0.093836 J-0.000000
G02 X0.940799 Y14.477358 Z-1.000000 I2.366728 J-5.762937
G03 X1.313369 Y14.583367 Z-1.000000 I-1.998470 J7.731377
G03 X1.381634 Y14.614467 Z-1.000000 I-0.088606 J0.284961
G03 X1.616239 Y15.051354 Z-1.000000 I-0.260180 J0.421148
G03 X1.359830 Y15.299737 Z-1.000000 I-0.256410 J-0.008156
G03 X1.032775 Y15.245249 Z-1.000000 I-0.000002 J-1.008768
G03 X0.392323 Y14.968169 Z-1.000000 I1.449114 J-4.228258
G02 X0.152816 Y14.850797 Z-1.000000 I-2.052488 J3.885199
G02 X0.114760 Y14.842580 Z-1.000000 I-0.038056 J0.084018
G01 X0.094658 Y14.892760 Z-1.000000
G02 X0.730642 Y15.430358 Z-1.000000 I4.770898 J-4.999032
G01 X1.386506 Y15.920177 Z-1.000000
G01 X1.353052 Y16.239247 Z-1.000000
G03 X1.308641 Y16.553089 Z-1.000000 I-4.367315 J-0.457950
G03 X1.290975 Y16.586947 Z-1.000000 I-0.062750 J-0.011203
G01 X1.258788 Y16.593650 Z-1.000000
G03 X0.879754 Y16.425728 Z-1.000000 I1.735763 J-4.429730
G02 X0.208623 Y16.170435 Z-1.000000 I-1.646619 J3.318939
G01 X0.153511 Y16.227540 Z-1.000000
G02 X0.312040 Y16.423678 Z-1.000000 I0.326436 J-0.101707
G02 X1.201287 Y16.818177 Z-1.000000 I2.497638 J-4.430484
G01 X1.234892 Y16.870767 Z-1.000000
G03 X1.129276 Y17.460178 Z-1.000000 I-4.538486 J-0.509084
G03 X0.960717 Y18.067271 Z-1.000000 I-10.957124 J-2.715278
G03 X0.917677 Y18.147278 Z-1.000000 I-0.224253 J-0.069059
G02 X0.875968 Y18.226005 Z-1.000000 I0.172792 J0.141956
G02 X0.850327 Y18.375848 Z-1.000000 I0.623625 J0.183828
G02 X0.883579 Y18.728756 Z-1.000000 I1.215195 J0.063522
G02 X1.344420 Y20.393827 Z-1.000000 I28.069597 J-6.872510
G03 X1.426233 Y20.689879 Z-1.000000 I-4.846638 J1.498680
G03 X1.477855 Y20.940657 Z-1.000000 I-3.424095 J0.835539
G02 X1.533537 Y21.189042 Z-1.000000 I2.332426 J-0.392442
G02 X1.578968 Y21.299867 Z-1.000000 I0.503793 J-0.141801
G03 X1.628930 Y21.409819 Z-1.000000 I-0.683322 J0.376824
G03 X1.843461 Y22.026546 Z-1.000000 I-21.489158 J7.820773
G02 X2.075170 Y22.634365 Z-1.000000 I7.060621 J-2.343529
G02 X2.224510 Y22.908215 Z-1.000000 I1.569971 J-0.678517
G02 X2.433072 Y23.104603 Z-1.000000 I0.533484 J-0.357615
G02 X2.657623 Y23.162234 Z-1.000000 I0.212786 J-0.362807
G02 X2.914787 Y23.146733 Z-1.000000 I-0.113384 J-4.021908
G02 X3.111546 Y23.120333 Z-1.000000 I-0.222213 J-2.402600
G03 X3.304316 Y23.120156 Z-1.000000 I0.096889 J0.546378
G03 X3.656338 Y23.215932 Z-1.000000 I-0.343136 J1.955987
G01 X4.005203 Y23.346311 Z-1.000000
G01 X3.961069 Y23.584421 Z-1.000000
G03 X3.883701 Y23.807714 Z-1.000000 I-0.776050 J-0.143842
G03 X3.661188 Y24.155102 Z-1.000000 I-2.128884 J-1.118662
G02 X3.457579 Y24.555422 Z-1.000000 I0.967623 J0.744087
G02 X3.519727 Y24.637062 Z-1.000000 I0.061128 J0.017942
G02 X3.643038 Y24.574083 Z-1.000000 I-0.001610 J-0.155361
G02 X4.195175 Y23.724561 Z-1.000000 I-6.744068 J-4.987412
G03 X4.486361 Y23.738194 Z-1.000000 I0.142138 J0.080612
G03 X4.543258 Y24.499150 Z-1.000000 I-1.021360 J0.458973
G02 X4.497938 Y24.672167 Z-1.000000 I5.081203 J1.423422
G02 X4.485275 Y24.736850 Z-1.000000 I0.697630 J0.170158
G03 X4.470584 Y24.800807 Z-1.000000 I-0.420189 J-0.062852
G03 X4.423933 Y24.932780 Z-1.000000 I-1.821056 J-0.569485
G02 X4.206566 Y25.554861 Z-1.000000 I7.605607 J3.006568
G02 X4.219066 Y25.604908 Z-1.000000 I0.047937 J0.014612
G01 X4.264183 Y25.598758 Z-1.000000
G02 X4.506677 Y25.096050 Z-1.000000 I-3.740975 J-2.114396
G03 X4.663523 Y24.826995 Z-1.000000 I1.010548 J0.408858
G01 X4.708233 Y24.842230 Z-1.000000
G02 X4.736847 Y25.153373 Z-1.000000 I2.023938 J-0.029242
G02 X4.907543 Y26.010376 Z-1.000000 I15.584371 J-2.658560
G03 X4.958104 Y26.239300 Z-1.000000 I-16.662614 J3.800184
G03 X5.031753 Y26.591676 Z-1.000000 I-39.355209 J8.409396
G02 X5.212079 Y27.048145 Z-1.000000 I1.383539 J-0.282708
G02 X5.319987 Y27.060856 Z-1.000000 I0.058970 J-0.036227
G02 X5.347167 Y26.993504 Z-1.000000 I-0.065656 J-0.065655
G02 X5.317267 Y26.911142 Z-1.000000 I-0.135193 J0.002471
G03 X5.265384 Y26.818858 Z-1.000000 I0.248609 J-0.200495
G03 X5.181034 Y26.532848 Z-1.000000 I2.384489 J-0.858682
G02 X5.111419 Y26.239303 Z-1.000000 I-29.784227 J6.908362
G02 X5.018792 Y25.863431 Z-1.000000 I-49.079924 J11.895461
G03 X4.948957 Y25.508850 Z-1.000000 I3.439835 J-0.861649
G01 X4.965133 Y25.491947 Z-1.000000
G03 X5.175698 Y25.616027 Z-1.000000 I-0.029064 J0.290029
G03 X6.093001 Y27.120626 Z-1.000000 I-12.453848 J8.624608
G02 X6.255125 Y27.411143 Z-1.000000 I7.457160 J-3.971016
G02 X6.368350 Y27.591965 Z-1.000000 I2.997019 J-1.750766
G03 X6.442742 Y27.778959 Z-1.000000 I-0.398143 J0.266688
G03 X6.442705 Y28.032801 Z-1.000000 I-0.751903 J0.126811
G02 X6.489433 Y28.213216 Z-1.000000 I0.224936 J0.038000
G02 X6.591465 Y28.218906 Z-1.000000 I0.053562 J-0.042804
G03 X6.666830 Y28.164450 Z-1.000000 I0.206751 J0.206755
G01 X6.688877 Y28.169926 Z-1.000000
G03 X6.708370 Y28.198632 Z-1.000000 I-0.636487 J0.453197
G03 X6.886819 Y28.475786 Z-1.000000 I-60.373768 J39.068459
G02 X7.083019 Y28.719727 Z-1.000000 I1.227170 J-0.786132
G02 X7.164139 Y28.753348 Z-1.000000 I0.081120 J-0.081049
G03 X7.223653 Y28.788562 Z-1.000000 I0.000000 J0.067898
G03 X7.244853 Y28.900293 Z-1.000000 I-0.161017 J0.088428
G02 X7.254582 Y29.027425 Z-1.000000 I0.313172 J0.039973
G01 X7.291363 Y29.062331 Z-1.000000
G01 X7.324157 Y29.037215 Z-1.000000
G02 X7.336297 Y27.821463 Z-1.000000 I-23.182052 J-0.839409
G03 X7.359260 Y26.579431 Z-1.000000 I17.894555 J-0.290378
G03 X7.409967 Y26.438578 Z-1.000000 I0.259349 J0.013810
G03 X7.509345 Y26.383734 Z-1.000000 I0.109668 J0.081263
G03 X7.615405 Y26.423047 Z-1.000000 I0.010218 J0.135154
G03 X7.719685 Y26.540435 Z-1.000000 I-0.941726 J0.941592
G03 X7.933589 Y26.826879 Z-1.000000 I-5.414958 J4.266733
G02 X8.149088 Y27.112433 Z-1.000000 I4.711215 J-3.331321
G02 X8.455707 Y27.475864 Z-1.000000 I7.942830 J-6.390134
G01 X8.771027 Y27.832410 Z-1.000000
G01 X8.707937 Y28.354255 Z-1.000000
G02 X8.607945 Y30.043382 Z-1.000000 I13.737096 J1.660725
G02 X8.711882 Y30.293616 Z-1.000000 I0.354949 J-0.000729
G02 X8.760804 Y30.320087 Z-1.000000 I0.068900 J-0.068895
G01 X8.792777 Y30.310576 Z-1.000000
G02 X8.809774 Y30.272195 Z-1.000000 I-0.041281 J-0.041236
G02 X8.847750 Y29.188890 Z-1.000000 I-38.867138 J-1.904829
G03 X8.929642 Y28.068474 Z-1.000000 I10.834574 J0.228700
G01 X8.990975 Y28.047446 Z-1.000000
G03 X9.016646 Y28.087063 Z-1.000000 I-0.079948 J0.079932
G03 X9.225713 Y28.662433 Z-1.000000 I-17.759506 J6.778779
G02 X9.679557 Y29.754486 Z-1.000000 I9.100885 J-3.141886
G02 X10.197591 Y30.647321 Z-1.000000 I6.588112 J-3.225805
G03 X10.426449 Y31.015238 Z-1.000000 I-4.516754 J3.064721
G03 X10.741698 Y31.604800 Z-1.000000 I-11.295997 J6.419211
G02 X11.098306 Y32.146281 Z-1.000000 I2.480346 J-1.245336
G02 X11.387223 Y32.372042 Z-1.000000 I0.679181 J-0.571432
G03 X11.726835 Y32.550708 Z-1.000000 I-2.904155 J5.932379
G03 X12.005760 Y32.720744 Z-1.000000 I-2.352537 J4.172871
G02 X12.280847 Y32.897777 Z-1.000000 I9.231060 J-14.041645
G02 X12.593541 Y33.090978 Z-1.000000 I11.327789 J-17.984219
G03 X13.598115 Y33.789913 Z-1.000000 I-5.029086 J8.299678
G03 X13.902239 Y34.129849 Z-1.000000 I-0.838213 J1.055917
G02 X14.270060 Y34.534264 Z-1.000000 I1.306634 J-0.818925
G02 X14.555462 Y34.631154 Z-1.000000 I0.285401 J-0.371898
G02 X14.628671 Y34.606966 Z-1.000000 I-0.000000 J-0.122884
G02 X14.907655 Y34.369919 Z-1.000000 I-1.650999 J-2.225775
G03 X15.183647 Y34.125469 Z-1.000000 I2.819309 J2.905063
G03 X15.231156 Y34.108681 Z-1.000000 I0.047509 J0.058833
G01 X15.261394 Y34.133945 Z-1.000000
G03 X15.304917 Y34.516863 Z-1.000000 I-2.892916 J0.522748
G02 X15.365298 Y34.882106 Z-1.000000 I1.593916 J-0.075890
G02 X15.422325 Y34.925041 Z-1.000000 I0.057027 J-0.016404
G02 X15.507655 Y34.844114 Z-1.000000 I-0.000000 J-0.085451
G02 X15.466223 Y34.097069 Z-1.000000 I-3.453834 J-0.183116
G03 X15.481134 Y33.810567 Z-1.000000 I0.660981 J-0.109239
G03 X15.609559 Y33.574643 Z-1.000000 I0.566401 J0.155404
G03 X15.802061 Y33.387383 Z-1.000000 I1.432165 J1.279682
G01 X15.827666 Y33.390327 Z-1.000000
G03 X15.847718 Y33.425326 Z-1.000000 I-0.135302 J0.100760
G03 X16.069079 Y33.960632 Z-1.000000 I-32.054245 J13.568562
G03 X16.230350 Y34.507554 Z-1.000000 I-2.728512 J1.101796
G03 X16.260314 Y34.956590 Z-1.000000 I-1.800067 J0.345635
G02 X16.299821 Y35.308844 Z-1.000000 I1.057273 J0.059763
G01 X16.362321 Y35.311551 Z-1.000000
G02 X16.390210 Y35.206056 Z-1.000000 I-0.473302 J-0.181558
G02 X16.401960 Y35.050316 Z-1.000000 I-1.026184 J-0.155738
G03 X16.477248 Y35.003667 Z-1.000000 I0.052096 J-0.000000
G03 X16.642590 Y35.169947 Z-1.000000 I-0.162572 J0.327000
G02 X16.800179 Y35.433502 Z-1.000000 I1.659037 J-0.813103
G02 X17.216271 Y35.969982 Z-1.000000 I7.341236 J-5.264246
G03 X17.639973 Y36.501784 Z-1.000000 I-10.624881 J8.899839
G03 X17.748013 Y36.672051 Z-1.000000 I-0.971964 J0.736151
G02 X17.901815 Y36.819795 Z-1.000000 I0.297719 J-0.156001
G02 X17.999135 Y36.791031 Z-1.000000 I0.032585 J-0.068772
G02 X17.997150 Y36.645964 Z-1.000000 I-0.114855 J-0.070976
G02 X17.340845 Y35.788233 Z-1.000000 I-6.253646 J4.105109
G03 X16.852799 Y35.115004 Z-1.000000 I3.175589 J-2.815601
G03 X16.511458 Y34.369916 Z-1.000000 I3.559041 J-2.081209
G02 X16.400094 Y34.080448 Z-1.000000 I-3.940056 J1.349664
G02 X16.210442 Y33.666805 Z-1.000000 I-8.240845 J3.528054
G03 X16.022036 Y33.130384 Z-1.000000 I2.178014 J-1.066276
G03 X16.075411 Y33.063737 Z-1.000000 I0.053375 J-0.011951
G02 X16.121264 Y33.044277 Z-1.000000 I-0.000000 J-0.063754
G02 X16.140711 Y32.996156 Z-1.000000 I-0.049814 J-0.048121
G03 X16.162462 Y32.930509 Z-1.000000 I0.109939 J-0.000000
G03 X17.062731 Y31.757556 Z-1.000000 I40.316796 J30.012125
G02 X17.382347 Y31.323375 Z-1.000000 I-6.082935 J-4.812593
G02 X17.475237 Y31.154350 Z-1.000000 I-0.819364 J-0.560326
G03 X17.921774 Y30.505125 Z-1.000000 I1.847159 J0.792302
G03 X18.122704 Y30.525248 Z-1.000000 I0.091990 J0.094677
G03 X18.593105 Y31.369087 Z-1.000000 I-4.359165 J2.983067
G03 X18.878681 Y32.231982 Z-1.000000 I-4.274366 J1.893306
G03 X18.973795 Y33.530308 Z-1.000000 I-4.273561 J0.965724
G03 X18.696035 Y34.631322 Z-1.000000 I-3.324246 J-0.253086
G02 X18.456460 Y35.356830 Z-1.000000 I3.520152 J1.564726
G02 X18.258804 Y36.590110 Z-1.000000 I10.048226 J2.242888
G02 X18.258922 Y37.005919 Z-1.000000 I2.104323 J0.207311
G01 X18.302835 Y37.034387 Z-1.000000
G02 X18.358336 Y36.977357 Z-1.000000 I-0.027372 J-0.082159
G02 X18.409391 Y36.682976 Z-1.000000 I-1.168132 J-0.354208
G03 X18.434613 Y36.362889 Z-1.000000 I5.450473 J0.268458
G03 X18.475369 Y36.075303 Z-1.000000 I4.413504 J0.478789
G01 X18.525589 Y35.788767 Z-1.000000
G01 X18.804085 Y36.630430 Z-1.000000
G03 X19.071026 Y37.475051 Z-1.000000 I-31.291545 J10.354138
G03 X19.122427 Y37.686893 Z-1.000000 I-1.910962 J0.575830
G02 X19.183887 Y37.865051 Z-1.000000 I0.625258 J-0.116017
G01 X19.223806 Y37.881186 Z-1.000000
G02 X19.268097 Y37.801782 Z-1.000000 I-0.021326 J-0.063949
G02 X18.904417 Y36.525106 Z-1.000000 I-13.988878 J3.294797
G03 X18.703160 Y35.392498 Z-1.000000 I3.701436 J-1.241906
G03 X18.849973 Y34.581002 Z-1.000000 I2.005675 J-0.056170
G02 X18.984845 Y34.170821 Z-1.000000 I-2.932086 J-1.191366
G02 X19.014304 Y33.935814 Z-1.000000 I-0.922636 J-0.235005
G01 X19.092837 Y33.929432 Z-1.000000
G03 X19.245594 Y35.349544 Z-1.000000 I-12.818101 J2.097073
G02 X19.413503 Y37.263607 Z-1.000000 I27.136420 J-1.416120
G02 X19.588329 Y38.125173 Z-1.000000 I5.646583 J-0.697263
G02 X19.721134 Y38.211514 Z-1.000000 I0.115945 J-0.033032
G02 X19.819511 Y38.092522 Z-1.000000 I-0.016017 J-0.113405
G03 X19.750475 Y36.365124 Z-1.000000 I97.517359 J-4.762374
G01 X19.765687 Y36.361836 Z-1.000000
G03 X19.924929 Y36.884757 Z-1.000000 I-2.548106 J1.061664
G03 X20.192120 Y38.504976 Z-1.000000 I-24.415462 J4.858507
G02 X20.250814 Y38.880397 Z-1.000000 I7.655992 J-1.004655
G02 X20.265381 Y38.908197 Z-1.000000 I0.051754 J-0.009401
G02 X20.292938 Y38.923012 Z-1.000000 I0.038443 J-0.038473
G02 X20.484251 Y38.952907 Z-1.000000 I0.416875 J-2.040681
G01 X20.679688 Y38.974186 Z-1.000000
G01 X20.655246 Y37.960542 Z-1.000000
G03 X20.683882 Y35.821281 Z-1.000000 I28.522011 J-0.688022
G03 X20.768255 Y35.741721 Z-1.000000 I0.083718 J0.004264
G01 X20.796189 Y35.760834 Z-1.000000
G03 X20.965116 Y36.247864 Z-1.000000 I-6.520115 J2.534319
G02 X21.578212 Y38.092769 Z-1.000000 I39.015994 J-11.941422
G02 X21.927492 Y38.928646 Z-1.000000 I8.339222 J-2.993713
G03 X22.153136 Y39.541981 Z-1.000000 I-3.125422 J1.498009
G03 X22.151628 Y39.777659 Z-1.000000 I-0.435818 J0.115055
G02 X22.109130 Y40.234833 Z-1.000000 I1.247814 J0.346556
G02 X22.196489 Y40.300902 Z-1.000000 I0.073424 J-0.006295
G02 X22.289512 Y40.253346 Z-1.000000 I-0.035399 J-0.184001
G02 X22.388313 Y40.120399 Z-1.000000 I-0.323153 J-0.343341
G01 X22.467483 Y39.961589 Z-1.000000
G01 X22.585876 Y40.174051 Z-1.000000
G02 X22.708657 Y40.383871 Z-1.000000 I5.036786 J-2.806563
G02 X22.954531 Y40.774637 Z-1.000000 I17.740189 J-10.889527
G03 X23.146563 Y41.177715 Z-1.000000 I-1.468492 J0.946895
G03 X23.183115 Y41.472612 Z-1.000000 I-0.735519 J0.240881
G02 X23.205055 Y41.741812 Z-1.000000 I0.894561 J0.062586
G02 X23.256456 Y41.782463 Z-1.000000 I0.051400 J-0.012170
G02 X23.326420 Y41.749986 Z-1.000000 I-0.000000 J-0.091600
G02 X23.394411 Y41.619191 Z-1.000000 I-0.255428 J-0.215847
G03 X23.443752 Y41.565910 Z-1.000000 I0.074632 J0.019627
G01 X23.488530 Y41.586540 Z-1.000000
G02 X23.551929 Y41.710393 Z-1.000000 I0.652108 J-0.255652
G02 X23.795258 Y42.062323 Z-1.000000 I5.560510 J-3.584523
G03 X24.237481 Y42.787486 Z-1.000000 I-3.811496 J2.821772
G03 X24.397689 Y43.284571 Z-1.000000 I-1.608266 J0.792696
G02 X24.612249 Y44.102411 Z-1.000000 I4.592370 J-0.767743
G02 X24.701073 Y44.122178 Z-1.000000 I0.050698 J-0.018362
G02 X24.724802 Y44.057301 Z-1.000000 I-0.058046 J-0.058008
G02 X24.663552 Y43.675478 Z-1.000000 I-2.562551 J0.215243
G03 X24.693125 Y43.483204 Z-1.000000 I0.250704 J-0.059852
G03 X24.779504 Y43.481850 Z-1.000000 I0.043609 J0.026115
G02 X25.001500 Y43.800508 Z-1.000000 I4.347051 J-2.791764
G02 X25.134996 Y43.953308 Z-1.000000 I1.126064 J-0.849088
G03 X25.270937 Y44.104660 Z-1.000000 I-1.228178 J1.239851
G03 X25.733218 Y44.702998 Z-1.000000 I-18.852348 J15.043228
G02 X26.193542 Y45.303432 Z-1.000000 I25.352167 J-18.959612
G02 X26.389142 Y45.537724 Z-1.000000 I4.052410 J-3.184389
G03 X26.582311 Y45.773747 Z-1.000000 I-2.900413 J2.570843
G03 X26.966484 Y46.302700 Z-1.000000 I-14.205093 J10.721013
G02 X27.384664 Y46.806096 Z-1.000000 I3.220210 J-2.249687
G01 X27.439178 Y46.783797 Z-1.000000
G02 X27.398137 Y46.647072 Z-1.000000 I-0.248268 J0.000001
G02 X26.530868 Y45.407108 Z-1.000000 I-23.288831 J15.365651
G03 X26.433713 Y45.141978 Z-1.000000 I0.401853 J-0.297621
G03 X26.313326 Y42.066047 Z-1.000000 I59.304934 J-3.861439
G03 X26.448136 Y41.223119 Z-1.000000 I2.497236 J-0.032859
G03 X26.888181 Y40.389746 Z-1.000000 I2.878305 J0.986963
G03 X27.160686 Y40.162724 Z-1.000000 I0.610561 J0.455823
G03 X27.243237 Y40.213969 Z-1.000000 I0.025370 J0.051245
G02 X27.257535 Y40.300362 Z-1.000000 I0.268163 J-0.000001
G02 X27.445331 Y40.807841 Z-1.000000 I9.699009 J-3.300690
G03 X27.633830 Y41.317002 Z-1.000000 I-9.584791 J3.837912
G03 X27.741744 Y41.678120 Z-1.000000 I-4.709272 J1.603962
G02 X27.847175 Y42.040191 Z-1.000000 I5.912546 J-1.525280
G02 X28.019741 Y42.533510 Z-1.000000 I11.163404 J-3.628181
G03 X28.180195 Y43.029621 Z-1.000000 I-5.311366 J1.991827
G03 X28.287533 Y43.513143 Z-1.000000 I-4.939435 J1.350190
G02 X28.382127 Y44.000743 Z-1.000000 I11.353115 J-1.949518
G02 X28.526046 Y44.614991 Z-1.000000 I18.167669 J-3.932732
G01 X28.680446 Y45.227020 Z-1.000000
G01 X28.425273 Y45.692587 Z-1.000000
G02 X28.163838 Y46.292272 Z-1.000000 I3.182141 J1.744097
G02 X27.765809 Y47.676935 Z-1.000000 I16.701969 J5.550609
G02 X27.793150 Y47.866060 Z-1.000000 I0.248686 J0.060587
G02 X27.878977 Y47.871799 Z-1.000000 I0.044847 J-0.026043
G02 X27.929182 Y47.784286 Z-1.000000 I-0.288415 J-0.223616
G02 X28.055874 Y47.431681 Z-1.000000 I-4.669260 J-1.876749
G03 X28.181808 Y47.078873 Z-1.000000 I5.077416 J1.613481
G03 X28.225253 Y47.005129 Z-1.000000 I0.258659 J0.102716
G02 X28.275219 Y46.934166 Z-1.000000 I-0.458273 J-0.375747
G02 X28.577739 Y46.417347 Z-1.000000 I-24.197161 J-14.510757
G03 X28.863402 Y45.957437 Z-1.000000 I6.380398 J3.644363
G01 X28.884220 Y45.962228 Z-1.000000
G03 X28.898654 Y46.142711 Z-1.000000 I-1.486191 J0.209678
G03 X28.966159 Y50.174653 Z-1.000000 I-743.337061 J14.461905
G03 X28.960885 Y50.728790 Z-1.000000 I-11.739514 J0.165360
G03 X28.941291 Y50.925706 Z-1.000000 I-1.498079 J-0.049634
G02 X28.951959 Y51.084941 Z-1.000000 I0.342243 J0.057047
G02 X29.001661 Y51.121633 Z-1.000000 I0.049703 J-0.015318
G02 X29.150133 Y51.006458 Z-1.000000 I-0.000000 J-0.153285
G02 X29.227972 Y50.239962 Z-1.000000 I-2.496014 J-0.640673
G02 X29.216060 Y50.011415 Z-1.000000 I-40.933730 J2.018776
G02 X29.144158 Y48.715593 Z-1.000000 I-1139.857651 J62.598045
G03 X29.089831 Y47.424455 Z-1.000000 I46.256778 J-2.593054
G03 X29.106155 Y47.363771 Z-1.000000 I0.109512 J-0.003079
G02 X29.124515 Y47.303107 Z-1.000000 I-0.104958 J-0.064875
G02 X29.141153 Y46.338865 Z-1.000000 I-28.549807 J-0.974901
G03 X29.194114 Y45.385897 Z-1.000000 I8.658534 J0.003242
G03 X29.270323 Y45.176292 Z-1.000000 I0.469987 J0.052223
G02 X29.398055 Y44.981901 Z-1.000000 I-17.638413 J-11.729083
G02 X29.544488 Y44.754010 Z-1.000000 I-24.066687 J-15.625328
G03 X29.691720 Y44.526653 Z-1.000000 I13.859732 J8.813944
G03 X29.953574 Y44.133575 Z-1.000000 I41.638018 J27.453916
G02 X30.206768 Y43.735820 Z-1.000000 I-7.664937 J-5.158645
G02 X30.306985 Y43.545793 Z-1.000000 I-1.643644 J-0.988265
G01 X30.396674 Y43.349867 Z-1.000000
G01 X30.522263 Y43.872339 Z-1.000000
G03 X30.999630 Y45.902235 Z-1.000000 I-205.754444 J49.457987
G03 X31.160586 Y46.647966 Z-1.000000 I-27.601520 J6.347650
G02 X31.225618 Y46.940529 Z-1.000000 I7.474367 J-1.507940
G02 X31.389320 Y47.589270 Z-1.000000 I36.969800 J-8.983829
G03 X31.587234 Y48.657707 Z-1.000000 I-7.225678 J1.891012
G03 X31.679412 Y50.207301 Z-1.000000 I-15.150874 J1.678799
G03 X31.553868 Y50.942699 Z-1.000000 I-2.111771 J0.017901
G03 X31.134201 Y51.716599 Z-1.000000 I-2.765902 J-0.999143
G02 X30.376171 Y52.788653 Z-1.000000 I16.538611 J12.498177
G02 X29.580678 Y54.068299 Z-1.000000 I22.776680 J15.046226
G02 X29.255980 Y54.792201 Z-1.000000 I3.208808 J1.874046
G02 X29.317481 Y54.876896 Z-1.000000 I0.061501 J0.020018
G02 X29.449672 Y54.797489 Z-1.000000 I-0.000000 J-0.149735
G02 X29.529079 Y54.479164 Z-1.000000 I-0.598337 J-0.318324
G03 X29.545061 Y54.418924 Z-1.000000 I0.121519 J-0.000000
G03 X29.797587 Y54.008742 Z-1.000000 I6.306164 J3.599529
G01 X30.066095 Y53.603369 Z-1.000000
G01 X30.026306 Y53.972830 Z-1.000000
G02 X29.986986 Y54.342334 Z-1.000000 I148.030911 J15.939140
G02 X29.920940 Y54.974785 Z-1.000000 I442.971235 J46.578590
G03 X29.839210 Y55.604771 Z-1.000000 I-12.309643 J-1.276672
G03 X29.724875 Y56.232127 Z-1.000000 I-12.312360 J-1.919826
G02 X29.564807 Y57.418785 Z-1.000000 I8.171342 J1.706352
G01 X29.648697 Y57.453332 Z-1.000000
G02 X29.801179 Y57.138154 Z-1.000000 I-0.496334 J-0.434599
G02 X30.086911 Y55.072821 Z-1.000000 I-23.022129 J-4.237463
G03 X30.354983 Y53.302212 Z-1.000000 I15.558494 J1.449976
G03 X30.565410 Y52.801054 Z-1.000000 I1.408610 J0.296692
G03 X31.605428 Y51.324265 Z-1.000000 I28.791992 J19.171937
G03 X31.673942 Y51.311173 Z-1.000000 I0.041392 J0.030798
G03 X31.700096 Y51.351875 Z-1.000000 I-0.029508 J0.047716
G03 X31.737883 Y51.818579 Z-1.000000 I-5.214358 J0.657061
G02 X31.773957 Y52.295107 Z-1.000000 I6.108375 J-0.222784
G02 X31.853262 Y52.819658 Z-1.000000 I7.447245 J-0.857656
G03 X31.867566 Y54.044302 Z-1.000000 I-3.480932 J0.653062
G03 X31.426059 Y55.432018 Z-1.000000 I-4.941681 J-0.808122
G02 X30.824561 Y56.789286 Z-1.000000 I18.132057 J8.847463
G02 X30.769941 Y57.073023 Z-1.000000 I0.709645 J0.283736
G03 X30.753277 Y57.303821 Z-1.000000 I-1.606617 J0.000004
G03 X30.644640 Y57.936152 Z-1.000000 I-12.215756 J-1.773213
G02 X30.524555 Y58.567746 Z-1.000000 I38.268234 J7.603165
G02 X30.476722 Y58.860737 Z-1.000000 I8.196219 J1.488487
G03 X30.424699 Y59.152821 Z-1.000000 I-4.552154 J-0.660110
G03 X30.269437 Y59.840372 Z-1.000000 I-25.395482 J-5.373496
G02 X30.156901 Y60.533058 Z-1.000000 I4.576767 J1.099037
G02 X30.051552 Y62.354767 Z-1.000000 I31.704949 J2.747391
G03 X29.940886 Y64.176211 Z-1.000000 I-28.878224 J-0.840478
G03 X29.800760 Y65.065087 Z-1.000000 I-6.995383 J-0.647297
G03 X29.442925 Y66.211224 Z-1.000000 I-7.137671 J-1.599520
G03 X29.300511 Y66.300349 Z-1.000000 I-0.132734 J-0.053754
G02 X29.167356 Y66.348620 Z-1.000000 I-0.011865 J0.175055
G02 X29.164415 Y66.430522 Z-1.000000 I0.040622 J0.042462
G03 X29.220118 Y66.566888 Z-1.000000 I-0.160263 J0.145024
G03 X29.180776 Y66.838705 Z-1.000000 I-0.750739 J0.030095
G03 X29.073124 Y67.117763 Z-1.000000 I-3.489452 J-1.185825
G03 X28.760739 Y67.808378 Z-1.000000 I-21.706873 J-9.402693
G02 X28.453740 Y68.501137 Z-1.000000 I14.482419 J6.832353
G02 X28.272461 Y68.984569 Z-1.000000 I6.866759 J2.850627
G03 X27.838111 Y70.088404 Z-1.000000 I-11.060020 J-3.714651
G03 X27.549338 Y70.579188 Z-1.000000 I-2.448580 J-1.110372
G02 X26.712499 Y71.876437 Z-1.000000 I9.543573 J7.074983
G02 X26.668213 Y72.162243 Z-1.000000 I0.364336 J0.202789
G01 X26.712380 Y72.175991 Z-1.000000
G02 X26.935237 Y71.904936 Z-1.000000 I-1.053554 J-1.093355
G02 X27.167173 Y71.524702 Z-1.000000 I-7.612159 J-4.904130
G02 X27.180063 Y71.480426 Z-1.000000 I-0.084087 J-0.048495
G03 X27.193097 Y71.436773 Z-1.000000 I0.094018 J0.004298
G03 X27.285750 Y71.302096 Z-1.000000 I1.034923 J0.612784
G01 X27.333610 Y71.314824 Z-1.000000
G03 X27.349911 Y71.724572 Z-1.000000 I-1.830673 J0.278025
G02 X27.343720 Y72.273056 Z-1.000000 I4.571524 J0.325874
G02 X27.387102 Y72.489585 Z-1.000000 I0.742204 J-0.036093
G03 X27.358738 Y72.729879 Z-1.000000 I-0.253982 J0.091841
G03 X26.894543 Y73.238183 Z-1.000000 I-1.826144 J-1.201569
G02 X26.657273 Y73.462396 Z-1.000000 I1.205007 J1.512835
G01 X26.669603 Y73.489946 Z-1.000000
G02 X26.842668 Y73.436570 Z-1.000000 I-0.000001 J-0.307259
G02 X27.272965 Y73.078654 Z-1.000000 I-1.653007 J-2.424910
G01 X27.325224 Y73.108125 Z-1.000000
G03 X27.181376 Y73.444248 Z-1.000000 I-1.120651 J-0.280754
G03 X26.644384 Y74.133121 Z-1.000000 I-3.742308 J-2.363477
G03 X26.211861 Y74.462349 Z-1.000000 I-1.241391 J-1.182148
G03 X26.141149 Y74.443747 Z-1.000000 I-0.025344 J-0.047359
G03 X26.113020 Y74.306419 Z-1.000000 I0.166755 J-0.105701
G02 X26.001742 Y74.246828 Z-1.000000 I-0.065871 J-0.010689
G02 X25.381728 Y74.985460 Z-1.000000 I2.650301 J2.854223
G02 X24.821935 Y76.076298 Z-1.000000 I5.152815 J3.333364
G02 X24.697684 Y76.727999 Z-1.000000 I1.672575 J0.656582
G01 X24.696185 Y77.255727 Z-1.000000
G01 X24.401579 Y77.467302 Z-1.000000
G03 X23.752805 Y77.859872 Z-1.000000 I-2.815085 J-3.919928
G03 X22.912380 Y78.215380 Z-1.000000 I-3.137239 J-6.245337
G02 X22.834715 Y78.271086 Z-1.000000 I0.055431 J0.159274
G01 X22.832170 Y78.318429 Z-1.000000
G02 X23.088689 Y78.395802 Z-1.000000 I0.171987 J-0.106285
G02 X24.473027 Y77.563197 Z-1.000000 I-3.072869 J-6.676277
G03 X24.672701 Y77.444032 Z-1.000000 I0.622223 J0.815729
G01 X24.718268 Y77.452346 Z-1.000000
G03 X24.742240 Y77.503573 Z-1.000000 I-0.058728 J0.058704
G03 X24.761499 Y77.930533 Z-1.000000 I-4.723167 J0.426970
G03 X24.685781 Y78.344386 Z-1.000000 I-1.168839 J0.000003
G03 X24.320666 Y79.094932 Z-1.000000 I-4.302260 J-1.628819
G03 X23.856490 Y79.807617 Z-1.000000 I-10.807257 J-6.531339
G03 X23.469701 Y80.309948 Z-1.000000 I-5.747107 J-4.025124
G02 X23.071515 Y80.804504 Z-1.000000 I10.316306 J8.713621
G02 X22.805691 Y81.175565 Z-1.000000 I5.536715 J4.247203
G03 X22.538838 Y81.544622 Z-1.000000 I-5.105058 J-3.410284
G03 X22.390668 Y81.706866 Z-1.000000 I-1.126153 J-0.879689
G01 X22.229527 Y81.858117 Z-1.000000
G01 X21.715848 Y81.266661 Z-1.000000
G02 X21.190685 Y80.700102 Z-1.000000 I-9.013828 J7.828543
G02 X21.130293 Y80.674573 Z-1.000000 I-0.061159 J0.060485
G02 X20.789244 Y80.862817 Z-1.000000 I-0.003219 J0.397237
G02 X20.632877 Y81.478864 Z-1.000000 I0.898727 J0.555985
G02 X20.669837 Y81.585659 Z-1.000000 I0.206451 J-0.011655
G02 X21.014378 Y82.024833 Z-1.000000 I4.141020 J-2.893983
G01 X21.389090 Y82.451635 Z-1.000000
G01 X21.104625 Y82.689366 Z-1.000000
G03 X20.468949 Y83.183493 Z-1.000000 I-7.298659 J-8.733499
G03 X19.259232 Y84.021876 Z-1.000000 I-22.271860 J-30.844500
G02 X18.793610 Y84.380061 Z-1.000000 I2.357526 J3.546392
G02 X18.753088 Y84.470070 Z-1.000000 I0.079703 J0.090009
G03 X18.743047 Y84.579928 Z-1.000000 I-0.605969 J0.000001
G03 X18.713448 Y84.685098 Z-1.000000 I-0.584524 J-0.107755
G01 X18.768723 Y84.737534 Z-1.000000
G02 X19.226250 Y84.456650 Z-1.000000 I-0.833165 J-1.870195
G03 X19.647287 Y84.144191 Z-1.000000 I3.786629 J4.662573
G03 X19.961304 Y83.959388 Z-1.000000 I1.625354 J2.402606
G02 X20.280193 Y83.782587 Z-1.000000 I-2.220829 J-4.381594
G02 X20.402538 Y83.692871 Z-1.000000 I-0.439450 J-0.727560
G03 X20.498686 Y83.695911 Z-1.000000 I0.046454 J0.052749
G03 X20.501748 Y83.792041 Z-1.000000 I-0.049680 J0.049697
G02 X20.411675 Y83.914006 Z-1.000000 I0.662725 J0.583679
G02 X20.271141 Y84.167965 Z-1.000000 I2.766218 J1.696605
G03 X19.447617 Y85.598511 Z-1.000000 I-11.998719 J-5.955007
G03 X18.910320 Y86.227046 Z-1.000000 I-2.804398 J-1.853393
G03 X18.334196 Y86.731764 Z-1.000000 I-12.436642 J-13.614950
G03 X18.290533 Y86.747670 Z-1.000000 I-0.043664 J-0.051981
G01 X18.266231 Y86.723994 Z-1.000000
G03 X18.277742 Y86.257860 Z-1.000000 I4.591680 J-0.119825
G02 X18.184346 Y85.953881 Z-1.000000 I-0.434452 J-0.032854
G02 X18.039144 Y85.957721 Z-1.000000 I-0.071156 J0.056566
G02 X17.951397 Y86.162524 Z-1.000000 I0.427310 J0.304278
G02 X17.904081 Y86.657041 Z-1.000000 I2.560444 J0.494511
G03 X17.829435 Y87.136258 Z-1.000000 I-1.575556 J0.000003
G03 X17.662246 Y87.414337 Z-1.000000 I-0.671406 J-0.214368
G02 X17.500662 Y87.628201 Z-1.000000 I0.760412 J0.742504
G01 X17.520245 Y87.662002 Z-1.000000
G02 X17.608797 Y87.635931 Z-1.000000 I-0.000000 J-0.163424
G02 X17.773463 Y87.498727 Z-1.000000 I-0.477060 J-0.739959
G03 X17.965623 Y87.366070 Z-1.000000 I0.403658 J0.379211
G01 X17.999130 Y87.405486 Z-1.000000
G02 X17.979775 Y87.480780 Z-1.000000 I0.111290 J0.068743
G02 X18.035372 Y88.124561 Z-1.000000 I8.952186 J-0.448820
G03 X18.080555 Y88.763784 Z-1.000000 I-6.199574 J0.759421
G03 X18.049423 Y88.854571 Z-1.000000 I-0.140081 J0.002696
G02 X17.539993 Y89.632603 Z-1.000000 I3.612268 J2.920993
G02 X17.446934 Y90.013325 Z-1.000000 I0.732264 J0.380720
G01 X17.509262 Y90.035734 Z-1.000000
G02 X17.802908 Y89.582258 Z-1.000000 I-1.804776 J-1.490484
G03 X18.057192 Y89.145144 Z-1.000000 I3.342742 J1.652069
G01 X18.101106 Y89.141427 Z-1.000000
G03 X18.141427 Y89.204450 Z-1.000000 I-0.140013 J0.133988
G03 X18.354161 Y89.784540 Z-1.000000 I-12.281917 J4.833138
G01 X18.554290 Y90.372304 Z-1.000000
G01 X18.372521 Y90.731510 Z-1.000000
G03 X18.188575 Y91.089580 Z-1.000000 I-29.664870 J-15.012921
G03 X17.844713 Y91.743794 Z-1.000000 I-98.824455 J-51.525854
G02 X16.833857 Y94.027491 Z-1.000000 I15.659639 J8.297153
G02 X16.905365 Y94.347882 Z-1.000000 I0.288014 J0.103894
G02 X17.032260 Y94.350059 Z-1.000000 I0.064574 J-0.064563
G02 X17.120452 Y94.147041 Z-1.000000 I-0.189576 J-0.203017
G03 X17.134691 Y94.054588 Z-1.000000 I0.307265 J-0.000001
G03 X17.277625 Y93.648899 Z-1.000000 I6.193815 J1.954206
G03 X17.434858 Y93.245925 Z-1.000000 I1578.726009 J615.776889
G03 X17.664366 Y92.658124 Z-1.000000 I2795.460721 J1091.113633
G03 X18.464089 Y90.936066 Z-1.000000 I14.176880 J5.537016
G03 X18.621566 Y90.894167 Z-1.000000 I0.098540 J0.053472
G03 X18.658141 Y90.939062 Z-1.000000 I-0.046635 J0.075338
G03 X18.753169 Y91.253981 Z-1.000000 I-2.680382 J0.980614
G02 X18.849666 Y91.567859 Z-1.000000 I2.543798 J-0.610283
G02 X18.890351 Y91.617231 Z-1.000000 I0.092851 J-0.035063
G03 X18.929151 Y91.664627 Z-1.000000 I-0.049369 J0.079996
G03 X18.949091 Y91.776052 Z-1.000000 I-0.301359 J0.111426
G02 X18.963590 Y91.895709 Z-1.000000 I0.501000 J-0.000001
G02 X19.024432 Y92.082414 Z-1.000000 I1.292235 J-0.317834
G03 X19.096052 Y92.267460 Z-1.000000 I-4.665546 J1.912132
G03 X19.115272 Y92.331579 Z-1.000000 I-0.539043 J0.196525
G02 X19.131392 Y92.396675 Z-1.000000 I3.199894 J-0.757854
G02 X19.235856 Y92.798165 Z-1.000000 I125.425749 J-32.420357
G03 X19.333883 Y93.200354 Z-1.000000 I-11.699691 J3.064650
G03 X19.340937 Y93.263653 Z-1.000000 I-0.280492 J0.063300
G03 X19.283418 Y93.425313 Z-1.000000 I-0.255935 J0.000001
G03 X18.264599 Y94.584738 Z-1.000000 I-16.057722 J-13.083031
G02 X17.337718 Y95.675306 Z-1.000000 I9.666136 J9.154482
G02 X16.933740 Y96.332978 Z-1.000000 I3.081141 J2.345513
G02 X16.817875 Y96.577656 Z-1.000000 I13.915749 J6.739435
G02 X16.715135 Y96.805245 Z-1.000000 I11.975848 J5.543213
G01 X16.655864 Y96.800795 Z-1.000000
G03 X16.564661 Y96.250120 Z-1.000000 I2.682820 J-0.727221
G03 X16.524305 Y93.877505 Z-1.000000 I25.444783 J-1.619439
G03 X16.696808 Y91.776458 Z-1.000000 I20.125802 J0.594789
G02 X16.791396 Y91.024653 Z-1.000000 I-40.891794 J-5.526643
G02 X16.833766 Y90.600890 Z-1.000000 I-12.959900 J-1.509804
G03 X16.875177 Y90.177074 Z-1.000000 I15.120271 J1.263459
G03 X16.919655 Y89.833324 Z-1.000000 I9.990149 J1.117865
G02 X16.931061 Y89.505225 Z-1.000000 I-1.462960 J-0.215106
G02 X16.888174 Y89.422295 Z-1.000000 I-0.119306 J0.009143
G02 X16.660103 Y89.510202 Z-1.000000 I-0.089439 J0.107768
G02 X16.340396 Y93.245907 Z-1.000000 I32.620063 J4.673205
G01 X16.297649 Y94.748010 Z-1.000000
G01 X16.014116 Y95.303136 Z-1.000000
G02 X15.661422 Y96.121910 Z-1.000000 I6.066927 J3.098726
G02 X15.225492 Y97.523640 Z-1.000000 I17.406412 J6.181952
G03 X15.102542 Y97.945208 Z-1.000000 I-9.631824 J-2.580394
G03 X14.975619 Y98.315145 Z-1.000000 I-7.547594 J-2.382784
G02 X14.639922 Y99.432286 Z-1.000000 I8.642397 J3.206019
G02 X14.575471 Y100.034984 Z-1.000000 I2.424276 J0.564041
G01 X14.654256 Y100.050462 Z-1.000000
G02 X14.832253 Y99.433632 Z-1.000000 I-2.413477 J-1.030546
G03 X14.936828 Y98.933824 Z-1.000000 I5.258261 J0.839349
G03 X15.107930 Y98.372657 Z-1.000000 I6.805887 J1.768473
G02 X15.292129 Y97.814259 Z-1.000000 I-14.560898 J-5.112784
G02 X15.430693 Y97.327712 Z-1.000000 I-10.920261 J-3.372992
G03 X15.558801 Y96.837972 Z-1.000000 I443.640659 J115.787046
G03 X15.610873 Y96.640434 Z-1.000000 I73.743921 J19.333618
G03 X15.672920 Y96.446797 Z-1.000000 I1.926266 J0.510474
G03 X15.738735 Y96.301857 Z-1.000000 I1.144286 J0.432194
G02 X15.799200 Y96.156956 Z-1.000000 I-0.722013 J-0.386349
G02 X15.814254 Y96.057107 Z-1.000000 I-0.323585 J-0.099848
G03 X16.014858 Y95.217143 Z-1.000000 I1.858826 J-0.000004
G03 X16.277102 Y95.143377 Z-1.000000 I0.165007 J0.083583
G03 X16.306565 Y95.188146 Z-1.000000 I-0.033370 J0.054041
G03 X16.327413 Y95.484284 Z-1.000000 I-1.928219 J0.284547
G02 X16.337359 Y95.792386 Z-1.000000 I4.040082 J0.023789
G02 X16.402185 Y96.544009 Z-1.000000 I24.112669 J-1.701068
G03 X16.469074 Y97.295444 Z-1.000000 I-29.179417 J2.976079
G03 X16.474297 Y97.492283 Z-1.000000 I-1.988533 J0.151259
G03 X16.361594 Y98.087163 Z-1.000000 I-1.848108 J-0.042017
G03 X15.888451 Y99.088718 Z-1.000000 I-5.811183 J-2.132717
G02 X15.580770 Y99.640166 Z-1.000000 I12.376907 J7.267269
G02 X15.088748 Y100.599162 Z-1.000000 I36.960853 J19.568823
G03 X14.957398 Y100.824079 Z-1.000000 I-1.729988 J-0.859492
G03 X14.745935 Y101.104555 Z-1.000000 I-2.909087 J-1.973331
G02 X14.322953 Y101.806639 Z-1.000000 I2.053382 J1.715552
G02 X14.240246 Y102.340182 Z-1.000000 I1.074497 J0.439745
G02 X14.344466 Y102.387383 Z-1.000000 I0.065192 J-0.005283
G02 X14.746261 Y101.963873 Z-1.000000 I-1.015896 J-1.366156
G03 X14.958328 Y101.768552 Z-1.000000 I0.505679 J0.336249
G01 X15.012098 Y101.817036 Z-1.000000
G02 X14.860816 Y102.404919 Z-1.000000 I1.876153 J0.796203
G02 X14.772586 Y104.148037 Z-1.000000 I16.760460 J1.722144
G02 X14.819497 Y105.378412 Z-1.000000 I16.722120 J-0.021484
G02 X14.909888 Y105.976250 Z-1.000000 I4.016504 J-0.301531
G03 X15.004268 Y106.573594 Z-1.000000 I-4.307505 J0.986708
G03 X15.044917 Y107.502762 Z-1.000000 I-10.411807 J0.920964
G02 X15.080527 Y108.386290 Z-1.000000 I10.770901 J0.008363
G01 X15.119029 Y108.411773 Z-1.000000
G02 X15.160140 Y108.361953 Z-1.000000 I-0.019067 J-0.057607
G02 X15.212397 Y107.690199 Z-1.000000 I-6.548937 J-0.847367
G03 X15.252938 Y107.016618 Z-1.000000 I10.075607 J0.268417
G01 X15.277695 Y106.994661 Z-1.000000
G03 X15.671278 Y107.265578 Z-1.000000 I-0.012819 J0.439976
G03 X16.499081 Y109.932338 Z-1.000000 I-13.846615 J5.760063
G02 X16.565342 Y110.154838 Z-1.000000 I1.391943 J-0.293408
G02 X16.778657 Y110.650731 Z-1.000000 I7.166507 J-2.788948
G03 X16.996092 Y111.142247 Z-1.000000 I-9.784705 J4.622354
G03 X17.000501 Y111.187887 Z-1.000000 I-0.072798 J0.030065
G02 X16.994251 Y111.235658 Z-1.000000 I0.334153 J0.068010
G02 X16.953822 Y111.971596 Z-1.000000 I81.653955 J4.854717
G03 X16.732020 Y115.186346 Z-1.000000 I-87.000365 J-4.387569
G03 X16.634609 Y115.615060 Z-1.000000 I-1.614660 J-0.141454
G02 X16.609231 Y115.714808 Z-1.000000 I0.437540 J0.164425
G02 X16.540071 Y116.291563 Z-1.000000 I14.769726 J2.063588
G02 X16.524495 Y116.896877 Z-1.000000 I4.068082 J0.407534
G02 X16.622725 Y117.997990 Z-1.000000 I13.609078 J-0.659114
G03 X16.756746 Y119.196999 Z-1.000000 I-32.816084 J4.275063
G03 X16.901738 Y120.986740 Z-1.000000 I-72.983264 J6.813346
G02 X17.048322 Y122.622758 Z-1.000000 I39.449371 J-2.710004
G01 X17.085243 Y122.646245 Z-1.000000
G02 X17.136778 Y122.573513 Z-1.000000 I-0.024470 J-0.071963
G02 X17.067589 Y120.904233 Z-1.000000 I-26.694572 J0.270377
G03 X16.990149 Y119.826566 Z-1.000000 I541.688155 J-39.466549
G03 X16.951892 Y119.271509 Z-1.000000 I144.154658 J-10.214631
G02 X16.906576 Y118.717207 Z-1.000000 I-18.886778 J1.265082
G02 X16.857320 Y118.291879 Z-1.000000 I-11.199972 J1.081501
G03 X16.704306 Y116.608363 Z-1.000000 I19.161176 J-2.590261
G03 X16.748270 Y115.969017 Z-1.000000 I2.775752 J-0.130313
G02 X16.846368 Y115.384145 Z-1.000000 I-16.179708 J-3.014402
G02 X16.893815 Y114.993777 Z-1.000000 I-7.148039 J-1.066874
G03 X16.934047 Y114.602300 Z-1.000000 I22.567336 J2.121436
G03 X16.988523 Y114.144762 Z-1.000000 I30.882072 J3.444914
G02 X17.037311 Y113.686708 Z-1.000000 I-11.536000 J-1.460332
G02 X17.125549 Y112.561017 Z-1.000000 I-69.646052 J-6.025550
G03 X17.222741 Y111.454206 Z-1.000000 I31.784239 J2.233383
G01 X17.244236 Y111.435247 Z-1.000000
G01 X17.276025 Y111.450297 Z-1.000000
G03 X17.426341 Y111.647503 Z-1.000000 I-1.622413 J1.392541
G02 X17.569482 Y111.858568 Z-1.000000 I39.738144 J-26.795646
G02 X17.971473 Y112.446727 Z-1.000000 I308.040688 J-210.106461
G03 X18.364155 Y113.040316 Z-1.000000 I-18.266767 J12.510852
G03 X18.472005 Y113.230434 Z-1.000000 I-1.759966 J1.124041
G02 X19.768857 Y115.404030 Z-1.000000 I15.253539 J-7.627178
G02 X20.013254 Y115.425244 Z-1.000000 I0.131111 J-0.092070
G02 X20.026712 Y115.334560 Z-1.000000 I-0.054443 J-0.054420
G02 X19.476989 Y114.421245 Z-1.000000 I-9.171309 J4.898100
G03 X19.054166 Y113.779007 Z-1.000000 I29.540066 J-19.908218
G03 X18.883843 Y113.498768 Z-1.000000 I5.449108 J-3.503748
G02 X18.096938 Y112.205105 Z-1.000000 I-25.575370 J14.670731
G02 X17.806725 Y111.826295 Z-1.000000 I-2.461866 J1.585503
G03 X17.355478 Y111.255425 Z-1.000000 I4.066954 J-3.678529
G03 X16.966800 Y110.605131 Z-1.000000 I4.897124 J-3.368286
G03 X16.873487 Y110.390419 Z-1.000000 I1.604387 J-0.824897
G03 X16.602972 Y109.592839 Z-1.000000 I21.959242 J-7.892574
G02 X16.089888 Y108.204278 Z-1.000000 I-15.675376 J5.003098
G02 X15.383303 Y106.699545 Z-1.000000 I-19.120343 J8.060174
G03 X15.192519 Y106.084706 Z-1.000000 I1.611380 J-0.837029
G03 X15.085057 Y104.280518 Z-1.000000 I14.205508 J-1.751407
G03 X15.138719 Y103.173611 Z-1.000000 I12.380061 J0.045414
G03 X15.252933 Y102.484516 Z-1.000000 I4.898998 J0.457978
G03 X15.432429 Y101.806273 Z-1.000000 I14.558120 J3.489904
G03 X15.555084 Y101.442175 Z-1.000000 I4.314022 J1.250570
G02 X15.689315 Y101.081538 Z-1.000000 I-15.730170 J-6.060162
G02 X15.751932 Y100.894275 Z-1.000000 I-4.183021 J-1.502814
G03 X15.912058 Y100.446610 Z-1.000000 I5.275438 J1.634508
G03 X16.339718 Y99.450253 Z-1.000000 I26.603200 J10.828758
G02 X16.395085 Y99.318125 Z-1.000000 I-2.387351 J-1.078056
G02 X16.535998 Y98.943338 Z-1.000000 I-18.991146 J-7.354206
G03 X16.696034 Y98.790277 Z-1.000000 I0.235312 J0.085841
G03 X16.793924 Y98.862067 Z-1.000000 I0.022621 J0.071790
G02 X16.810923 Y99.079427 Z-1.000000 I1.398275 J-0.000003
G02 X16.853125 Y99.238272 Z-1.000000 I0.784961 J-0.123525
G03 X16.896118 Y99.398041 Z-1.000000 I-0.770578 J0.293028
G03 X17.023225 Y100.276696 Z-1.000000 I-23.438574 J3.839144
G03 X17.069667 Y101.148102 Z-1.000000 I-6.040949 J0.758896
G03 X17.002127 Y101.418111 Z-1.000000 I-0.619243 J-0.011445
G02 X16.889959 Y101.683409 Z-1.000000 I1.788896 J0.912704
G02 X16.826081 Y101.935023 Z-1.000000 I1.545025 J0.526156
G03 X16.779975 Y102.192855 Z-1.000000 I-16.208992 J-2.765473
G03 X16.657358 Y102.837041 Z-1.000000 I-101.387612 J-18.964789
G02 X16.548709 Y103.675295 Z-1.000000 I6.656988 J1.289009
G01 X16.598000 Y103.727979 Z-1.000000
G01 X16.637797 Y103.702295 Z-1.000000
G02 X16.664410 Y103.581038 Z-1.000000 I-0.273243 J-0.123519
G03 X16.837976 Y101.992439 Z-1.000000 I7.906877 J0.060103
G03 X17.109995 Y101.491829 Z-1.000000 I0.981914 J0.209339
G01 X17.177093 Y101.516918 Z-1.000000
G03 X17.288590 Y104.054529 Z-1.000000 I-49.368309 J3.440379
G02 X17.315161 Y105.458634 Z-1.000000 I1037.967431 J-18.939741
G02 X17.317383 Y105.523978 Z-1.000000 I2.269450 J-0.044482
G01 X17.337314 Y105.535234 Z-1.000000
G02 X17.406383 Y105.476238 Z-1.000000 I-0.100903 J-0.188061
G02 X17.456008 Y105.351737 Z-1.000000 I-0.200036 J-0.151873
G02 X17.474402 Y104.855805 Z-1.000000 I-3.422550 J-0.375245
G03 X17.457430 Y104.348351 Z-1.000000 I151.946803 J-5.335908
G03 X17.415428 Y103.000106 Z-1.000000 I1087.449252 J-34.552324
G02 X17.316803 Y101.195395 Z-1.000000 I-37.538145 J1.146351
G02 X17.211551 Y100.413523 Z-1.000000 I-7.133826 J0.562303
G03 X17.200824 Y100.226199 Z-1.000000 I0.701663 J-0.134148
G01 X17.227360 Y100.201804 Z-1.000000
G03 X17.284053 Y100.234399 Z-1.000000 I-0.000655 J0.066741
G03 X17.888106 Y101.311519 Z-1.000000 I-20.452456 J12.177751
G02 X18.651057 Y102.645131 Z-1.000000 I19.707868 J-10.389703
G02 X19.140933 Y103.336090 Z-1.000000 I5.757336 J-3.562701
G03 X19.260862 Y103.503777 Z-1.000000 I-1.373415 J1.108984
G03 X19.274232 Y103.547577 Z-1.000000 I-0.073647 J0.046422
G02 X19.286614 Y103.592598 Z-1.000000 I0.098740 J-0.002943
G02 X19.667540 Y104.255724 Z-1.000000 I23.167869 J-12.867597
G03 X20.048175 Y104.918744 Z-1.000000 I-22.381544 J13.289842
G03 X20.059395 Y104.962099 Z-1.000000 I-0.078156 J0.043355
G02 X20.267247 Y105.608707 Z-1.000000 I1.109702 J-0.000002
G02 X20.498717 Y105.574848 Z-1.000000 I0.106991 J-0.076710
G02 X20.494737 Y105.500239 Z-1.000000 I-0.094065 J-0.032392
G02 X20.358085 Y105.274797 Z-1.000000 I-1.120822 J0.525254
G03 X20.204082 Y105.049694 Z-1.000000 I2.103942 J-1.604629
G03 X20.190012 Y104.999679 Z-1.000000 I0.081864 J-0.050016
G02 X20.118839 Y104.706335 Z-1.000000 I-0.640102 J0.000001
G02 X19.364562 Y103.398760 Z-1.000000 I-14.227657 J7.335898
G02 X19.172559 Y103.111054 Z-1.000000 I-8.040056 J5.157695
G02 X18.913247 Y102.748310 Z-1.000000 I-13.045391 J9.051594
G03 X18.539113 Y102.185598 Z-1.000000 I5.681690 J-4.183347
G03 X18.034699 Y101.278864 Z-1.000000 I14.278498 J-8.536778
G02 X17.524941 Y100.344265 Z-1.000000 I-20.694925 J10.681294
G02 X17.283041 Y99.972685 Z-1.000000 I-3.501939 J2.015250
G03 X17.154090 Y99.693877 Z-1.000000 I0.627564 J-0.459479
G03 X16.888445 Y98.320423 Z-1.000000 I15.689603 J-3.746994
G03 X16.938144 Y97.868509 Z-1.000000 I0.883778 J-0.131496
G03 X17.759043 Y96.054149 Z-1.000000 I16.003989 J6.148044
G03 X18.039551 Y95.626510 Z-1.000000 I2.325166 J1.219364
G03 X18.751519 Y94.822053 Z-1.000000 I9.020984 J7.266541
G01 X19.504246 Y94.047115 Z-1.000000
G01 X19.545308 Y94.952665 Z-1.000000
G03 X19.560310 Y95.849790 Z-1.000000 I-15.679788 J0.710899
G03 X19.533780 Y95.924437 Z-1.000000 I-0.122365 J-0.001452
G02 X18.892815 Y97.274526 Z-1.000000 I2.589750 J2.056699
G02 X18.834065 Y99.123667 Z-1.000000 I4.950684 J1.082795
G01 X18.862056 Y99.124543 Z-1.000000
G02 X19.175362 Y97.556248 Z-1.000000 I-45.368811 J-9.878981
G03 X19.454858 Y96.388425 Z-1.000000 I10.754275 J1.956476
G03 X19.600018 Y96.132519 Z-1.000000 I0.628777 J0.187545
G01 X19.623399 Y96.141472 Z-1.000000
G03 X19.615772 Y97.694897 Z-1.000000 I-51.799350 J0.522416
G02 X19.660389 Y99.903995 Z-1.000000 I27.547306 J0.548626
G02 X19.833805 Y101.306307 Z-1.000000 I11.248028 J-0.679099
G02 X19.948671 Y101.777790 Z-1.000000 I4.484195 J-0.842739
G02 X20.000771 Y101.861433 Z-1.000000 I0.180216 J-0.054206
G01 X20.031009 Y101.851264 Z-1.000000
G02 X20.028481 Y101.703364 Z-1.000000 I-0.384514 J-0.067399
G03 X19.926473 Y100.948183 Z-1.000000 I5.075800 J-1.070105
G03 X19.794117 Y97.850136 Z-1.000000 I85.739432 J-5.214837
G02 X19.723607 Y95.205307 Z-1.000000 I-657.034015 J16.192938
G02 X19.697930 Y94.495685 Z-1.000000 I-47.305214 J1.356429
G01 X19.666938 Y93.786248 Z-1.000000
G01 X19.898183 Y93.548707 Z-1.000000
G02 X20.119737 Y93.303241 Z-1.000000 I-3.140723 J-3.057483
G02 X20.273998 Y93.099360 Z-1.000000 I-2.010837 J-1.681750
G03 X20.430674 Y92.910290 Z-1.000000 I1.090859 J0.744509
G03 X20.486101 Y92.887104 Z-1.000000 I0.055955 J0.055919
G03 X20.544518 Y92.909096 Z-1.000000 I0.000639 J0.086884
G03 X21.200811 Y93.523421 Z-1.000000 I-12.000446 J13.477980
G01 X21.847987 Y94.160180 Z-1.000000
G01 X21.864720 Y95.335739 Z-1.000000
G02 X21.906746 Y96.508626 Z-1.000000 I27.381143 J-0.393907
G02 X21.952863 Y96.870502 Z-1.000000 I2.621939 J-0.150262
G03 X22.010728 Y97.231510 Z-1.000000 I-4.809391 J0.956022
G03 X22.062046 Y97.763602 Z-1.000000 I-10.406878 J1.272222
G03 X22.042359 Y98.281915 Z-1.000000 I-2.386306 J0.168890
G03 X21.951153 Y98.514659 Z-1.000000 I-0.549662 J-0.081155
G03 X21.794982 Y98.725005 Z-1.000000 I-2.827554 J-1.936166
G03 X21.723735 Y98.797660 Z-1.000000 I-0.402407 J-0.323343
G02 X21.446112 Y99.186057 Z-1.000000 I0.610256 J0.729627
G02 X21.266302 Y99.987889 Z-1.000000 I2.630551 J1.010975
G02 X21.380776 Y101.348369 Z-1.000000 I4.320598 J0.321512
G02 X21.989001 Y102.913639 Z-1.000000 I6.363297 J-1.571818
G01 X22.295831 Y103.476519 Z-1.000000
G01 X22.157820 Y104.010407 Z-1.000000
G02 X22.029626 Y104.546389 Z-1.000000 I14.653044 J3.787967
G02 X21.953442 Y104.939335 Z-1.000000 I7.802434 J1.716595
G03 X21.874782 Y105.331553 Z-1.000000 I-6.266288 J-1.052717
G03 X21.755182 Y105.788351 Z-1.000000 I-8.623063 J-2.013658
G02 X21.625825 Y106.243046 Z-1.000000 I40.516517 J11.772300
G02 X21.457152 Y106.858636 Z-1.000000 I74.507583 J20.746199
G03 X21.275193 Y107.468804 Z-1.000000 I-11.591553 J-3.124516
G03 X21.194036 Y107.662485 Z-1.000000 I-1.241543 J-0.406392
G02 X20.642806 Y109.035915 Z-1.000000 I6.887303 J3.561571
G02 X20.711163 Y109.303982 Z-1.000000 I0.259939 J0.076464
G01 X20.777053 Y109.294543 Z-1.000000
G02 X20.992808 Y108.789385 Z-1.000000 I-2.483624 J-1.359424
G03 X21.161573 Y108.268027 Z-1.000000 I40.167509 J12.714351
G03 X21.360215 Y107.679132 Z-1.000000 I51.169799 J16.932246
G02 X21.790317 Y106.297765 Z-1.000000 I-23.399074 J-8.043166
G02 X22.180591 Y104.744671 Z-1.000000 I-29.197062 J-8.162472
G03 X22.408157 Y103.856744 Z-1.000000 I14.379287 J3.212128
G03 X22.450654 Y103.812523 Z-1.000000 I0.063358 J0.018356
G03 X22.504220 Y103.823547 Z-1.000000 I0.017260 J0.051781
G03 X22.601107 Y103.946533 Z-1.000000 I-0.297627 J0.334123
G02 X22.704595 Y104.087802 Z-1.000000 I0.549772 J-0.294202
G02 X23.825234 Y105.201056 Z-1.000000 I36.311613 J-35.431860
G03 X24.940593 Y106.321886 Z-1.000000 I-25.730401 J26.720145
G03 X25.374666 Y106.825933 Z-1.000000 I-4.750653 J4.530081
G03 X26.521095 Y108.583338 Z-1.000000 I-10.088007 J7.833466
G03 X27.231317 Y110.258819 Z-1.000000 I-8.450242 J4.570250
G02 X27.678313 Y111.575993 Z-1.000000 I31.446433 J-9.937237
G02 X27.939274 Y112.208833 Z-1.000000 I7.507718 J-2.725693
G03 X28.106145 Y112.579008 Z-1.000000 I-17.574658 J8.145183
G03 X28.357626 Y113.163450 Z-1.000000 I-43.587089 J19.101507
G02 X28.671553 Y113.716590 Z-1.000000 I2.519247 J-1.064112
G01 X28.745510 Y113.692379 Z-1.000000
G02 X28.694584 Y113.432476 Z-1.000000 I-0.688684 J0.000002
G02 X28.024925 Y111.924195 Z-1.000000 I-24.761507 J10.091020
G03 X27.699778 Y111.151881 Z-1.000000 I7.519204 J-3.620211
G03 X27.402952 Y110.211008 Z-1.000000 I10.873267 J-3.947546
G02 X26.924535 Y108.968515 Z-1.000000 I-6.156369 J1.657133
G02 X25.743094 Y106.960721 Z-1.000000 I-17.383472 J8.877421
G03 X25.685588 Y106.709587 Z-1.000000 I0.298402 J-0.200481
G03 X25.787774 Y106.646787 Z-1.000000 I0.077137 J0.010978
G03 X27.374542 Y107.548422 Z-1.000000 I-1.558026 J4.589015
G03 X29.461212 Y109.779683 Z-1.000000 I-8.811728 J10.332059
G03 X30.042342 Y110.577162 Z-1.000000 I-41.828599 J31.091395
G03 X30.051682 Y110.606306 Z-1.000000 I-0.040800 J0.029144
G02 X30.059447 Y110.636436 Z-1.000000 I0.062342 J-0.000000
G02 X30.508847 Y111.434371 Z-1.000000 I47.168929 J-26.040212
G03 X30.955574 Y112.232998 Z-1.000000 I-34.787616 J19.983340
G03 X30.966012 Y112.273997 Z-1.000000 I-0.075298 J0.040999
G02 X30.977098 Y112.314450 Z-1.000000 I0.079351 J-0.000000
G02 X31.184925 Y112.643454 Z-1.000000 I5.885936 J-3.487909
G03 X31.391576 Y112.976432 Z-1.000000 I-4.472308 J3.006205
G03 X31.762777 Y113.654871 Z-1.000000 I-18.220970 J10.410177
G02 X32.121979 Y114.340483 Z-1.000000 I879.993247 J-460.604509
G02 X32.259380 Y114.601855 Z-1.000000 I130.324276 J-68.343523
G03 X32.930794 Y116.004218 Z-1.000000 I-17.881060 J9.422878
G03 X32.990598 Y116.293260 Z-1.000000 I-0.668595 J0.289044
G02 X32.998904 Y116.331736 Z-1.000000 I0.093268 J-0.000000
G02 X33.349798 Y117.086476 Z-1.000000 I38.071787 J-17.241374
G03 X33.652202 Y117.852245 Z-1.000000 I-5.385688 J2.569424
G03 X33.709000 Y118.219271 Z-1.000000 I-1.157480 J0.367029
G02 X33.874852 Y119.450382 Z-1.000000 I4.652244 J-0.000010
G02 X34.719802 Y121.902796 Z-1.000000 I19.561509 J-5.367919
G01 X34.784985 Y121.899039 Z-1.000000
G02 X34.777042 Y121.704191 Z-1.000000 I-0.296638 J-0.085493
G03 X33.891089 Y118.974233 Z-1.000000 I27.807832 J-10.533205
G03 X33.849537 Y118.293623 Z-1.000000 I1.619614 J-0.440452
G01 X33.900970 Y118.274983 Z-1.000000
G03 X34.116983 Y118.533828 Z-1.000000 I-0.787311 J0.876585
G02 X34.380039 Y118.917586 Z-1.000000 I4.042004 J-2.488656
G02 X34.737419 Y119.350069 Z-1.000000 I5.494221 J-4.176207
G03 X35.969581 Y120.742184 Z-1.000000 I-102.778999 J92.211164
G03 X36.252287 Y121.084973 Z-1.000000 I-5.944781 J5.190783
G02 X37.533302 Y122.567111 Z-1.000000 I15.084172 J-11.742620
G02 X37.768505 Y122.667496 Z-1.000000 I0.235202 J-0.225346
G01 X37.805019 Y122.600439 Z-1.000000
G02 X37.373798 Y122.056429 Z-1.000000 I-3.018570 J1.949821
G03 X36.935101 Y121.580340 Z-1.000000 I10.384055 J-10.008647
G03 X36.606416 Y121.185176 Z-1.000000 I6.819335 J-6.006394
G02 X36.279062 Y120.788573 Z-1.000000 I-8.254800 J6.480057
G02 X35.445041 Y119.846344 Z-1.000000 I-47.448343 J41.159042
G03 X34.628264 Y118.891595 Z-1.000000 I17.337199 J-15.658536
G03 X34.255515 Y118.377707 Z-1.000000 I4.635069 J-3.754168
G03 X33.646158 Y117.309796 Z-1.000000 I9.261697 J-5.992595
G03 X33.086831 Y116.035204 Z-1.000000 I12.651560 J-6.311882
G02 X32.585013 Y114.844089 Z-1.000000 I-17.529179 J6.683796
G02 X32.167186 Y114.046729 Z-1.000000 I-8.258912 J3.819629
G03 X31.774503 Y113.330976 Z-1.000000 I11.590436 J-6.824441
G03 X31.749719 Y113.227788 Z-1.000000 I0.202420 J-0.103189
G02 X31.733641 Y113.162723 Z-1.000000 I-0.139698 J0.000000
G02 X31.542946 Y112.834970 Z-1.000000 I-3.953031 J2.080623
G03 X31.341809 Y112.508602 Z-1.000000 I9.428383 J-6.035802
G03 X31.099739 Y112.087465 Z-1.000000 I15.469411 J-9.171961
G02 X30.861600 Y111.663924 Z-1.000000 I-52.529463 J29.256330
G02 X30.735056 Y111.444945 Z-1.000000 I-14.186386 J8.052007
G03 X30.607334 Y111.226632 Z-1.000000 I44.769488 J-26.338420
G03 X30.317107 Y110.726552 Z-1.000000 I236.591839 J-137.643385
G02 X30.010947 Y110.237142 Z-1.000000 I-7.303489 J4.228357
G02 X29.620710 Y109.693674 Z-1.000000 I-9.397180 J6.335804
G03 X29.223352 Y109.155176 Z-1.000000 I16.071221 J-12.274842
G03 X29.132010 Y109.007935 Z-1.000000 I1.104638 J-0.787221
G02 X28.641716 Y108.338408 Z-1.000000 I-2.607520 J1.395201
G02 X27.454021 Y107.287260 Z-1.000000 I-7.734862 J7.543070
G02 X26.823779 Y106.886099 Z-1.000000 I-2.692554 J3.534471
G02 X25.751508 Y106.395124 Z-1.000000 I-5.139153 J9.807350
G03 X25.103608 Y106.047723 Z-1.000000 I1.165743 J-2.951965
G03 X24.402447 Y105.455729 Z-1.000000 I2.825817 J-4.058140
G03 X22.663088 Y103.464780 Z-1.000000 I16.086556 J-15.808999
G03 X22.565668 Y103.086198 Z-1.000000 I0.389746 J-0.302118
G02 X22.698111 Y101.791038 Z-1.000000 I-11.963545 J-1.877742
G02 X22.703044 Y100.233910 Z-1.000000 I-17.303385 J-0.833388
G03 X22.665590 Y99.123624 Z-1.000000 I68.660239 J-2.871883
G03 X22.666860 Y98.823648 Z-1.000000 I5.020341 J-0.128735
G02 X22.655777 Y98.525340 Z-1.000000 I-2.101015 J-0.071297
G02 X22.581669 Y98.039939 Z-1.000000 I-5.637784 J0.612386
G03 X22.457029 Y97.040228 Z-1.000000 I6.989086 J-1.378992
G03 X22.477509 Y96.086336 Z-1.000000 I6.380359 J-0.340180
G02 X22.548218 Y95.335590 Z-1.000000 I-163.289031 J-15.758050
G02 X22.569157 Y95.088976 Z-1.000000 I-17.842679 J-1.639146
G03 X22.599677 Y94.847435 Z-1.000000 I2.515866 J0.195195
G03 X22.617597 Y94.812999 Z-1.000000 I0.063485 J0.011156
G03 X22.854022 Y94.800594 Z-1.000000 I0.125102 J0.125101
G03 X23.957627 Y95.897821 Z-1.000000 I-4.811159 J5.942751
G03 X24.014005 Y96.003149 Z-1.000000 I-0.238931 J0.195644
G03 X24.195753 Y96.676467 Z-1.000000 I-10.058276 J3.076201
G02 X24.743364 Y98.372781 Z-1.000000 I10.622182 J-2.492546
G02 X25.529247 Y99.883631 Z-1.000000 I9.195921 J-3.823531
G02 X26.385133 Y101.097001 Z-1.000000 I12.779551 J-8.105880
G01 X26.458405 Y101.072454 Z-1.000000
G02 X26.439415 Y101.003417 Z-1.000000 I-0.127045 J-0.002183
G02 X26.214773 Y100.678657 Z-1.000000 I-3.287709 J2.034087
G03 X25.809952 Y100.133227 Z-1.000000 I15.167981 J-11.680704
G03 X25.651711 Y99.891201 Z-1.000000 I2.821326 J-2.017378
G01 X25.668122 Y99.872261 Z-1.000000
G03 X26.080407 Y100.069882 Z-1.000000 I-1.685193 J4.044600
G02 X26.560802 Y100.318042 Z-1.000000 I5.815270 J-10.668273
G02 X26.614623 Y100.330948 Z-1.000000 I0.055874 J-0.114333
G01 X26.638417 Y100.267360 Z-1.000000
G02 X26.169893 Y99.959038 Z-1.000000 I-1.568382 J1.873165
G03 X25.546028 Y99.495611 Z-1.000000 I1.022696 J-2.028388
G03 X25.047991 Y98.778636 Z-1.000000 I2.077608 J-1.974645
G03 X24.699441 Y98.013701 Z-1.000000 I14.153512 J-6.911071
G03 X24.599125 Y97.719512 Z-1.000000 I1.982585 J-0.840242
G01 X24.372172 Y96.854170 Z-1.000000
G03 X24.304877 Y96.293836 Z-1.000000 I1.998742 J-0.524251
G01 X24.382381 Y96.269370 Z-1.000000
G02 X24.478896 Y96.375951 Z-1.000000 I0.545361 J-0.396866
G02 X24.924883 Y96.753035 Z-1.000000 I7.404952 J-8.305741
G03 X25.367753 Y97.135310 Z-1.000000 I-5.018781 J6.261993
G03 X26.099332 Y97.843978 Z-1.000000 I-16.554250 J17.821410
G02 X26.828083 Y98.541041 Z-1.000000 I13.149789 J-13.018085
G02 X26.899368 Y98.568523 Z-1.000000 I0.071284 J-0.078711
G02 X26.974711 Y98.560618 Z-1.000000 I-0.000001 J-0.363031
G01 X26.982128 Y98.551463 Z-1.000000
G02 X26.890941 Y98.333024 Z-1.000000 I-0.307230 J0.000001
G02 X25.007532 Y96.598400 Z-1.000000 I-25.303691 J25.584292
G03 X24.607860 Y96.243031 Z-1.000000 I9.629871 J-11.232821
G03 X24.338559 Y95.981573 Z-1.000000 I4.939595 J-5.357194
G02 X24.065222 Y95.724838 Z-1.000000 I-3.170432 J3.101577
G02 X23.422719 Y95.191506 Z-1.000000 I-14.368026 J16.655421
G03 X22.777946 Y94.661404 Z-1.000000 I18.253889 J-22.859718
G03 X22.682475 Y94.565011 Z-1.000000 I0.499582 J-0.590278
G03 X22.635084 Y94.448096 Z-1.000000 I0.160261 J-0.133024
G03 X22.641154 Y94.032580 Z-1.000000 I2.254151 J-0.174871
G03 X22.707325 Y93.627778 Z-1.000000 I3.683381 J0.394292
G01 X22.735583 Y93.605081 Z-1.000000
G03 X22.781400 Y93.616010 Z-1.000000 I0.000000 J0.101501
G03 X23.266773 Y93.873790 Z-1.000000 I-6.236446 J12.328427
G02 X25.138981 Y94.864464 Z-1.000000 I24.075863 J-43.234921
G02 X25.913961 Y95.202829 Z-1.000000 I3.539314 J-7.049662
G03 X26.226473 Y95.329810 Z-1.000000 I-2.132953 J5.697430
G03 X26.296359 Y95.370774 Z-1.000000 I-0.140068 J0.319056
G02 X26.365664 Y95.413167 Z-1.000000 I0.249953 J-0.330786
G02 X26.614585 Y95.524884 Z-1.000000 I2.052254 J-4.239505
G01 X26.642052 Y95.479623 Z-1.000000
G02 X26.315951 Y95.274320 Z-1.000000 I-0.912024 J1.087009
G03 X23.944917 Y94.133286 Z-1.000000 I23.761272 J-52.409192
G03 X22.830534 Y93.497738 Z-1.000000 I6.211408 J-12.185968
G03 X22.716454 Y93.310874 Z-1.000000 I0.132739 J-0.209291
G03 X22.611822 Y91.090687 Z-1.000000 I25.438213 J-2.311401
G03 X22.688190 Y88.760041 Z-1.000000 I32.102150 J-0.114698
G03 X22.806124 Y88.282403 Z-1.000000 I1.425724 J0.098650
G02 X22.861417 Y88.150800 Z-1.000000 I-3.801919 J-1.674802
G02 X23.067390 Y87.629316 Z-1.000000 I-59.008629 J-23.608272
G03 X23.304198 Y87.060141 Z-1.000000 I12.757510 J4.973988
G03 X23.856207 Y85.847558 Z-1.000000 I58.490587 J25.894943
G03 X24.204749 Y85.579748 Z-1.000000 I0.432720 J0.202454
G03 X24.601678 Y85.714115 Z-1.000000 I0.076512 J0.427438
G02 X25.580978 Y86.703731 Z-1.000000 I13.070717 J-11.955120
G02 X26.084877 Y87.099539 Z-1.000000 I2.561069 J-2.741809
G03 X26.423994 Y87.328142 Z-1.000000 I-8.773218 J13.380282
G03 X26.884123 Y87.653318 Z-1.000000 I-17.268994 J24.924042
G02 X27.871579 Y88.257287 Z-1.000000 I4.482904 J-6.220096
G02 X28.989070 Y88.731520 Z-1.000000 I3.844537 J-7.505581
G03 X29.618788 Y88.968625 Z-1.000000 I-3.533076 J10.338137
G03 X29.986300 Y89.142507 Z-1.000000 I-1.518939 J3.685710
G02 X30.350079 Y89.325920 Z-1.000000 I3.721435 J-6.928594
G02 X30.867972 Y89.558749 Z-1.000000 I6.519802 J-13.809894
G03 X31.436590 Y89.890635 Z-1.000000 I-1.042440 J2.439053
G03 X32.316396 Y90.666162 Z-1.000000 I-5.112019 J6.686213
G03 X33.205718 Y91.696053 Z-1.000000 I-7.310613 J7.211702
G03 X33.584202 Y92.347864 Z-1.000000 I-2.515835 J1.896652
G02 X33.688389 Y92.540530 Z-1.000000 I1.125143 J-0.483937
G01 X33.724859 Y92.560112 Z-1.000000
G01 X33.756178 Y92.578166 Z-1.000000
G03 X33.774229 Y92.645352 Z-1.000000 I-0.116010 J0.067186
G02 X34.420879 Y94.255870 Z-1.000000 I2.328881 J-0.000005
G02 X35.943239 Y94.910970 Z-1.000000 I1.534172 J-1.468777
G01 X35.973869 Y94.931443 Z-1.000000
G03 X36.059857 Y95.188788 Z-1.000000 I-1.672007 J0.701719
G02 X36.470117 Y96.406953 Z-1.000000 I8.069966 J-2.039675
G02 X36.753595 Y96.819884 Z-1.000000 I1.163066 J-0.494677
G03 X36.999476 Y97.112104 Z-1.000000 I-1.310636 J1.352357
G03 X37.075015 Y97.291797 Z-1.000000 I-0.405510 J0.276191
G02 X37.213549 Y97.779569 Z-1.000000 I3.160135 J-0.633966
G02 X37.520192 Y98.490932 Z-1.000000 I7.050329 J-2.617362
G02 X37.769305 Y98.860232 Z-1.000000 I1.484781 J-0.732900
G02 X38.059045 Y99.095037 Z-1.000000 I0.866059 J-0.772513
G02 X38.529147 Y99.226317 Z-1.000000 I0.494978 J-0.865140
G02 X39.034638 Y99.119395 Z-1.000000 I0.027875 J-1.116577
G01 X39.388775 Y98.951856 Z-1.000000
G01 X39.602047 Y99.151887 Z-1.000000
G02 X39.826283 Y99.335867 Z-1.000000 I1.498229 J-1.597403
G02 X40.014693 Y99.446993 Z-1.000000 I0.724373 J-1.012868
G03 X40.276143 Y99.659504 Z-1.000000 I-0.308136 J0.646182
G03 X40.780711 Y100.453082 Z-1.000000 I-4.437478 J3.378603
G02 X41.855032 Y102.184102 Z-1.000000 I12.288455 J-6.427688
G02 X42.051283 Y102.199482 Z-1.000000 I0.104698 J-0.076172
G02 X42.060219 Y102.121279 Z-1.000000 I-0.044761 J-0.044727
G02 X41.762385 Y101.736004 Z-1.000000 I-2.057044 J1.282424
G03 X40.597620 Y100.192927 Z-1.000000 I6.269628 J-5.943657
G03 X40.641780 Y99.842841 Z-1.000000 I0.247651 J-0.146590
G01 X40.670460 Y99.837433 Z-1.000000
G03 X41.220899 Y100.096833 Z-1.000000 I-4.529299 J10.324734
G02 X41.784651 Y100.351600 Z-1.000000 I3.247253 J-6.434450
G02 X42.460333 Y100.594059 Z-1.000000 I3.613782 J-9.008146
G03 X43.141980 Y100.822620 Z-1.000000 I-6.796507 J21.400226
G03 X43.407313 Y100.928531 Z-1.000000 I-1.182273 J3.347175
G02 X43.672380 Y101.034986 Z-1.000000 I1.529435 J-3.425016
G02 X44.125713 Y101.185713 Z-1.000000 I3.528602 J-9.855637
G03 X44.577551 Y101.339432 Z-1.000000 I-2.367364 J7.699519
G03 X44.811455 Y101.441979 Z-1.000000 I-0.803830 J2.151511
G02 X45.044175 Y101.548515 Z-1.000000 I1.460672 J-2.883290
G02 X46.083097 Y101.964290 Z-1.000000 I23.545128 J-57.327815
G03 X47.096757 Y102.427642 Z-1.000000 I-3.545524 J9.096876
G03 X48.221391 Y103.093483 Z-1.000000 I-6.268881 J11.871100
G03 X49.281482 Y103.819710 Z-1.000000 I-20.361945 J30.859662
G01 X49.283926 Y103.848847 Z-1.000000
G03 X49.244703 Y103.866953 Z-1.000000 I-0.044127 J-0.044053
G03 X48.288543 Y103.927439 Z-1.000000 I-2.424180 J-30.733763
G02 X47.333850 Y104.008758 Z-1.000000 I0.610771 J12.815257
G02 X47.080948 Y104.075872 Z-1.000000 I0.116821 J0.950259
G03 X46.852479 Y104.153719 Z-1.000000 I-0.684597 J-1.635012
G01 X46.836038 Y104.141083 Z-1.000000
G01 X46.822692 Y104.132221 Z-1.000000
G02 X46.743888 Y104.180253 Z-1.000000 I0.120650 J0.286604
G03 X46.659023 Y104.212607 Z-1.000000 I-0.089891 J-0.108306
G03 X46.607589 Y104.185053 Z-1.000000 I-0.002069 J-0.057919
G01 X46.556849 Y104.173867 Z-1.000000
G02 X46.290527 Y104.394137 Z-1.000000 I0.881625 J1.337083
G03 X45.157998 Y105.230571 Z-1.000000 I-3.108781 J-3.024341
G03 X41.807258 Y106.689027 Z-1.000000 I-13.313961 J-26.009940
G02 X41.187471 Y106.915826 Z-1.000000 I39.654257 J109.325905
G02 X40.664352 Y107.110930 Z-1.000000 I28.856838 J78.170827
G03 X40.136327 Y107.290383 Z-1.000000 I-3.003277 J-7.970299
G03 X39.214738 Y107.551211 Z-1.000000 I-7.301970 J-24.041687
G03 X38.284591 Y107.746649 Z-1.000000 I-2.432413 J-9.265429
G03 X37.957541 Y107.750835 Z-1.000000 I-0.177894 J-1.120330
G02 X37.668603 Y107.753978 Z-1.000000 I-0.133534 J1.007031
G01 X37.627489 Y107.801946 Z-1.000000
G02 X37.666022 Y107.865722 Z-1.000000 I0.072044 J-0.000000
G02 X37.931446 Y107.961696 Z-1.000000 I0.481208 J-0.915807
G02 X38.234132 Y107.981377 Z-1.000000 I0.218571 J-1.024063
G02 X38.698826 Y107.899934 Z-1.000000 I-0.203858 J-2.529591
G03 X39.162626 Y107.774769 Z-1.000000 I20.715769 J75.840422
G03 X39.880646 Y107.584860 Z-1.000000 I48.653309 J182.499644
G02 X40.592808 Y107.378458 Z-1.000000 I-3.692192 J-14.071201
G02 X40.925588 Y107.252916 Z-1.000000 I-1.013274 J-3.189761
G03 X41.254688 Y107.115860 Z-1.000000 I3.703419 J8.429018
G03 X41.676639 Y106.957045 Z-1.000000 I5.410647 J13.735515
G02 X42.643140 Y106.596289 Z-1.000000 I-13.916391 J-38.758407
G02 X42.938451 Y106.467961 Z-1.000000 I-1.449031 J-3.738479
G03 X43.205599 Y106.350182 Z-1.000000 I1.834774 J3.799811
G03 X43.258380 Y106.340014 Z-1.000000 I0.052782 J0.131904
G01 X43.270726 Y106.361581 Z-1.000000
G03 X43.044748 Y106.703785 Z-1.000000 I-3.358597 J-1.972172
G02 X42.786895 Y107.074794 Z-1.000000 I6.293017 J4.648776
G02 X42.458349 Y107.601783 Z-1.000000 I12.376105 J8.081691
G03 X42.131496 Y108.129939 Z-1.000000 I-15.071180 J-8.961671
G03 X41.925351 Y108.429899 Z-1.000000 I-5.062467 J-3.258334
G02 X41.092484 Y109.683232 Z-1.000000 I13.250642 J9.708724
G02 X41.023558 Y109.931946 Z-1.000000 I0.414261 J0.248712
G01 X41.098336 Y109.971531 Z-1.000000
G02 X41.277073 Y109.759594 Z-1.000000 I-0.288934 J-0.425012
G03 X41.362878 Y109.600250 Z-1.000000 I1.239839 J0.564862
G03 X41.802526 Y108.922265 Z-1.000000 I23.019556 J14.445766
G02 X42.243288 Y108.244627 Z-1.000000 I-24.904766 J-16.681184
G02 X42.366031 Y108.029819 Z-1.000000 I-2.374249 J-1.499137
G03 X42.841264 Y107.227153 Z-1.000000 I6.973121 J3.586548
G03 X43.494664 Y106.358968 Z-1.000000 I8.816808 J5.955606
G03 X43.753038 Y106.104158 Z-1.000000 I1.450937 J1.212834
G03 X43.896852 Y106.032159 Z-1.000000 I0.234265 J0.288302
G02 X44.054541 Y105.976553 Z-1.000000 I-0.218279 J-0.870394
G02 X44.615391 Y105.700631 Z-1.000000 I-5.262092 J-11.403861
G01 X45.481437 Y105.247469 Z-1.000000
G02 X45.781804 Y105.073682 Z-1.000000 I-1.892028 J-3.616584
G02 X45.828163 Y105.026697 Z-1.000000 I-0.079435 J-0.124740
G03 X45.875174 Y104.988418 Z-1.000000 I0.078763 J0.048721
G03 X45.987635 Y104.968537 Z-1.000000 I0.112462 J0.308148
G02 X46.096770 Y104.943037 Z-1.000000 I-0.000001 J-0.246297
G02 X46.163380 Y104.881736 Z-1.000000 I-0.071368 J-0.144388
G03 X46.413071 Y104.637245 Z-1.000000 I0.595328 J0.358243
G03 X47.162584 Y104.308751 Z-1.000000 I1.895240 J3.304992
G03 X47.594268 Y104.217765 Z-1.000000 I0.679910 J2.156272
G03 X48.619917 Y104.147780 Z-1.000000 I1.347823 J12.202163
G01 X49.652743 Y104.120618 Z-1.000000
G01 X50.096313 Y104.474535 Z-1.000000
G02 X50.549765 Y104.814409 Z-1.000000 I5.842140 J-7.322006
G02 X51.026514 Y105.128765 Z-1.000000 I5.474454 J-7.783828
G01 X51.513148 Y105.429078 Z-1.000000
G01 X51.426349 Y105.900848 Z-1.000000
G02 X51.352977 Y106.374442 Z-1.000000 I8.344356 J1.535239
G02 X51.276241 Y107.091020 Z-1.000000 I19.040483 J2.401388
G03 X51.207769 Y107.808831 Z-1.000000 I-49.839577 J-4.392020
G03 X51.172333 Y108.103302 Z-1.000000 I-8.452849 J-0.867825
G03 X50.969727 Y109.084058 Z-1.000000 I-7.471776 J-1.032221
G03 X50.656867 Y109.964612 Z-1.000000 I-6.326300 J-1.751877
G02 X50.047662 Y111.521401 Z-1.000000 I19.332894 J8.462965
G02 X49.865264 Y112.250424 Z-1.000000 I4.029803 J1.395567
G02 X49.843680 Y112.447271 Z-1.000000 I2.046780 J0.324037
G02 X49.802986 Y113.262715 Z-1.000000 I35.267609 J2.168711
G03 X49.608590 Y115.022046 Z-1.000000 I-12.333864 J-0.472417
G03 X49.274701 Y116.136292 Z-1.000000 I-5.242539 J-0.963801
G03 X48.739635 Y117.186949 Z-1.000000 I-7.699467 J-3.259523
G03 X48.220089 Y117.889258 Z-1.000000 I-3.932671 J-2.365937
G02 X47.531386 Y118.913940 Z-1.000000 I3.279150 J2.947749
G02 X47.358535 Y119.666906 Z-1.000000 I1.553583 J0.752962
G03 X47.304919 Y119.904865 Z-1.000000 I-0.554857 J0.000001
G03 X46.817821 Y120.805887 Z-1.000000 I-8.838230 J-4.195829
G02 X46.298209 Y121.790526 Z-1.000000 I7.625663 J4.653629
G02 X45.891141 Y122.863147 Z-1.000000 I8.649266 J3.896011
G03 X45.623533 Y123.518220 Z-1.000000 I-3.950308 J-1.231571
G03 X45.358737 Y123.902388 Z-1.000000 I-1.601070 J-0.820227
G02 X44.848377 Y124.582056 Z-1.000000 I3.533247 J3.184548
G02 X44.862457 Y124.703522 Z-1.000000 I0.083697 J0.051847
G01 X44.918345 Y124.707814 Z-1.000000
G02 X45.100161 Y124.529624 Z-1.000000 I-0.524590 J-0.717117
G03 X45.284907 Y124.302153 Z-1.000000 I3.813920 J2.908823
G03 X45.399746 Y124.182940 Z-1.000000 I1.159472 J1.002003
G02 X45.727503 Y123.771766 Z-1.000000 I-1.217042 J-1.306355
G02 X45.950812 Y123.231973 Z-1.000000 I-1.906580 J-1.104826
G03 X46.289144 Y122.244905 Z-1.000000 I7.119072 J1.888648
G03 X46.841219 Y121.132452 Z-1.000000 I9.605604 J4.073743
G02 X47.263181 Y120.336495 Z-1.000000 I-11.937230 J-6.838131
G02 X47.447856 Y119.891585 Z-1.000000 I-3.533710 J-1.727564
G03 X47.655085 Y119.342560 Z-1.000000 I9.646134 J3.327313
G03 X48.007010 Y118.530037 Z-1.000000 I21.491990 J8.826258
G03 X48.174771 Y118.228912 Z-1.000000 I1.949206 J0.888636
G03 X48.399551 Y117.942257 Z-1.000000 I1.990403 J1.329318
G02 X48.629244 Y117.657702 Z-1.000000 I-2.176332 J-1.991712
G02 X48.858404 Y117.295546 Z-1.000000 I-3.303274 J-2.343786
G03 X49.077451 Y116.934333 Z-1.000000 I5.439067 J3.051326
G01 X49.103904 Y116.920022 Z-1.000000
G01 X49.119951 Y116.936468 Z-1.000000
G03 X49.095905 Y117.242368 Z-1.000000 I-2.847491 J-0.069943
G02 X49.094938 Y118.328311 Z-1.000000 I4.120965 J0.546642
G02 X49.459613 Y120.022195 Z-1.000000 I10.493428 J-1.372927
G02 X49.684143 Y120.664197 Z-1.000000 I7.673899 J-2.323555
G02 X49.901604 Y121.132445 Z-1.000000 I4.291578 J-1.708456
G03 X50.248336 Y121.933259 Z-1.000000 I-4.693861 J2.507788
G03 X50.560120 Y123.077002 Z-1.000000 I-9.302119 J3.150121
G02 X50.727003 Y123.766644 Z-1.000000 I10.964742 J-2.288292
G02 X50.763889 Y123.815872 Z-1.000000 I0.081167 J-0.022385
G02 X50.851577 Y123.775099 Z-1.000000 I0.030427 J-0.049242
G02 X50.830278 Y123.367014 Z-1.000000 I-1.022554 J-0.151229
G03 X50.761489 Y123.091259 Z-1.000000 I20.769408 J-5.327539
G03 X50.628967 Y122.536585 Z-1.000000 I83.545103 J-20.253759
G02 X50.344922 Y121.612072 Z-1.000000 I-7.043679 J1.658191
G02 X49.971327 Y120.815355 Z-1.000000 I-5.595918 J2.138074
G03 X49.644331 Y120.011660 Z-1.000000 I3.019573 J-1.696928
G03 X49.344918 Y118.468460 Z-1.000000 I10.984474 J-2.931869
G03 X49.311392 Y116.961662 Z-1.000000 I7.476666 J-0.920125
G03 X49.542047 Y115.944901 Z-1.000000 I3.593903 J0.280745
G02 X49.809207 Y114.986978 Z-1.000000 I-4.829100 J-1.863027
G02 X49.972012 Y113.523957 Z-1.000000 I-11.166307 J-1.983154
G03 X50.171433 Y111.931297 Z-1.000000 I10.200243 J0.468383
G03 X50.557500 Y110.683019 Z-1.000000 I6.626814 J1.365702
G02 X50.813870 Y110.024038 Z-1.000000 I-12.724489 J-5.329690
G02 X50.945660 Y109.604251 Z-1.000000 I-5.026806 J-1.808721
G03 X51.072194 Y109.183300 Z-1.000000 I7.315441 J1.969461
G03 X51.131387 Y109.045687 Z-1.000000 I0.835183 J0.277710
G02 X51.267866 Y108.648091 Z-1.000000 I-1.157962 J-0.619703
G02 X51.472382 Y107.058372 Z-1.000000 I-18.819105 J-3.229075
G03 X51.737463 Y105.658678 Z-1.000000 I7.023804 J0.605256
G03 X51.900707 Y105.614479 Z-1.000000 I0.095257 J0.028258
G02 X52.118509 Y105.744344 Z-1.000000 I0.404979 J-0.431628
G02 X53.285258 Y106.076007 Z-1.000000 I4.281267 J-12.842920
G03 X53.558026 Y106.212591 Z-1.000000 I-0.152684 J0.645579
G03 X53.628338 Y106.362805 Z-1.000000 I-0.125723 J0.150411
G03 X53.609222 Y106.565923 Z-1.000000 I-1.075454 J0.001247
G03 X53.501684 Y107.025705 Z-1.000000 I-5.667143 J-1.083016
G02 X53.376751 Y107.483387 Z-1.000000 I54.528469 J15.130584
G02 X53.194849 Y108.168612 Z-1.000000 I121.877971 J32.720808
G03 X52.918502 Y109.032367 Z-1.000000 I-8.282836 J-2.173901
G03 X52.401943 Y110.258503 Z-1.000000 I-17.232239 J-6.537898
G02 X51.888640 Y111.520942 Z-1.000000 I12.709940 J5.903386
G02 X51.916279 Y111.642282 Z-1.000000 I0.110268 J0.038701
G02 X51.999576 Y111.631519 Z-1.000000 I0.037499 J-0.037499
G02 X52.285618 Y111.009559 Z-1.000000 I-3.041612 J-1.775607
G03 X52.483653 Y110.494015 Z-1.000000 I7.896928 J2.737624
G03 X52.820470 Y109.743745 Z-1.000000 I17.087696 J7.220407
G02 X53.155586 Y108.993853 Z-1.000000 I-15.530856 J-7.390329
G02 X53.230474 Y108.764115 Z-1.000000 I-1.372902 J-0.574605
G03 X53.290261 Y108.528719 Z-1.000000 I7.944282 J1.892438
G03 X53.496937 Y107.776761 Z-1.000000 I81.289744 J21.938131
G02 X53.706740 Y107.025601 Z-1.000000 I-757.314506 J-211.926307
G02 X53.815548 Y106.633856 Z-1.000000 I-207.123557 J-57.739884
G03 X53.954551 Y106.282176 Z-1.000000 I1.715206 J0.474636
G03 X54.020967 Y106.242005 Z-1.000000 I0.066415 J0.034818
G03 X54.080657 Y106.283844 Z-1.000000 I0.000000 J0.063498
G03 X54.163150 Y106.633855 Z-1.000000 I-1.452649 J0.527097
G02 X54.547324 Y108.650372 Z-1.000000 I13.901906 J-1.603652
G02 X55.055150 Y109.964608 Z-1.000000 I6.368154 J-1.705449
G02 X55.263745 Y110.269911 Z-1.000000 I1.333117 J-0.686925
G01 X55.311527 Y110.255164 Z-1.000000
G02 X55.298133 Y110.093385 Z-1.000000 I-0.392034 J-0.048987
G02 X55.100673 Y109.547306 Z-1.000000 I-4.846192 J1.443621
G03 X54.884723 Y109.002837 Z-1.000000 I10.035853 J-4.295539
G03 X54.869005 Y108.914136 Z-1.000000 I0.242424 J-0.088702
G02 X54.856877 Y108.824242 Z-1.000000 I-0.339234 J0.000001
G02 X54.740466 Y108.446436 Z-1.000000 I-6.210102 J1.706647
G03 X54.632127 Y108.065476 Z-1.000000 I3.568523 J-1.220716
G03 X54.475640 Y107.286940 Z-1.000000 I14.787214 J-3.377243
G02 X54.333165 Y106.504681 Z-1.000000 I-49.147542 J8.547272
G02 X54.302859 Y106.379412 Z-1.000000 I-1.286207 J0.244867
G03 X54.336137 Y106.316966 Z-1.000000 I0.048434 J-0.014279
G03 X54.551357 Y106.301221 Z-1.000000 I0.140959 J0.447982
G02 X54.836781 Y106.343667 Z-1.000000 I2.067005 J-12.918472
G02 X55.130237 Y106.380770 Z-1.000000 I1.858680 J-13.521807
G01 X55.424126 Y106.414659 Z-1.000000
G01 X55.282066 Y106.289173 Z-1.000000
G02 X55.123844 Y106.200448 Z-1.000000 I-0.284658 J0.322187
G02 X54.737711 Y106.121645 Z-1.000000 I-0.597231 J1.940972
G03 X54.340287 Y106.065366 Z-1.000000 I0.573426 J-5.480780
G03 X54.267030 Y106.037326 Z-1.000000 I0.036880 J-0.206063
G03 X54.145828 Y105.794636 Z-1.000000 I0.135501 J-0.219281
G03 X54.403866 Y104.536328 Z-1.000000 I5.757154 J0.524992
G02 X54.589054 Y103.800911 Z-1.000000 I-5.393282 J-1.749129
G02 X54.766391 Y102.541369 Z-1.000000 I-15.693732 J-2.851842
G03 X54.984099 Y101.342867 Z-1.000000 I7.609829 J0.763306
G03 X55.361497 Y100.298906 Z-1.000000 I6.140619 J1.629671
G02 X55.448184 Y100.101198 Z-1.000000 I-4.631349 J-2.148516
G02 X55.583629 Y99.761669 Z-1.000000 I-13.518537 J-5.589627
G03 X55.736901 Y99.432084 Z-1.000000 I2.488340 J0.956757
G03 X55.979382 Y99.043267 Z-1.000000 I3.711200 J2.044424
G02 X57.061848 Y97.485461 Z-1.000000 I-174.933242 J-122.710142
G02 X57.227879 Y97.229383 Z-1.000000 I-4.552959 J-3.133820
G02 X57.583521 Y96.591606 Z-1.000000 I-8.004361 J-4.881495
G02 X57.611954 Y96.472775 Z-1.000000 I-0.234092 J-0.118830
G03 X57.624711 Y96.399339 Z-1.000000 I0.217745 J-0.000000
G03 X57.782516 Y95.996679 Z-1.000000 I6.900047 J2.471918
G02 X57.952683 Y95.596489 Z-1.000000 I-201.454906 J-85.897776
G02 X58.007531 Y95.466043 Z-1.000000 I-21.481148 J-9.108918
G03 X58.062757 Y95.335731 Z-1.000000 I10.954722 J4.565710
G03 X58.191391 Y95.039264 Z-1.000000 I57.888899 J24.941296
G02 X58.311058 Y94.739788 Z-1.000000 I-4.649317 J-2.031458
G02 X58.369274 Y94.549453 Z-1.000000 I-1.815721 J-0.659427
G03 X58.427191 Y94.359023 Z-1.000000 I1.931642 J0.483464
G03 X58.532871 Y94.094553 Z-1.000000 I3.839658 J1.380948
G02 X58.634256 Y93.828500 Z-1.000000 I-2.554897 J-1.125940
G02 X58.786568 Y93.310845 Z-1.000000 I-9.538713 J-3.087857
G03 X59.164345 Y92.143498 Z-1.000000 I11.040506 J2.928125
G03 X59.476397 Y91.514851 Z-1.000000 I3.488769 J1.340009
G03 X60.949700 Y89.745030 Z-1.000000 I7.041227 J4.363387
G03 X61.778449 Y89.424957 Z-1.000000 I0.828751 J0.912890
G02 X62.024519 Y89.346395 Z-1.000000 I-0.000001 J-0.424650
G02 X63.029072 Y88.535747 Z-1.000000 I-6.144654 J-8.642190
G03 X63.371211 Y88.262902 Z-1.000000 I2.213868 J2.425174
G01 X63.394771 Y88.282048 Z-1.000000
G02 X63.326224 Y88.488779 Z-1.000000 I1.248892 J0.528831
G02 X63.043489 Y89.718844 Z-1.000000 I44.244597 J10.817305
G02 X62.963157 Y90.310777 Z-1.000000 I3.785893 J0.815206
G02 X62.950603 Y91.327118 Z-1.000000 I11.195652 J0.646544
G03 X62.887507 Y93.577451 Z-1.000000 I-18.452330 J0.608675
G03 X62.575272 Y95.531340 Z-1.000000 I-14.205423 J-1.268157
G02 X62.394822 Y96.374584 Z-1.000000 I24.601650 J5.705565
G02 X62.081942 Y98.045734 Z-1.000000 I96.327341 J18.899707
G03 X61.953071 Y98.661297 Z-1.000000 I-10.342304 J-1.843937
G03 X61.853887 Y98.992712 Z-1.000000 I-3.088192 J-0.743668
G02 X61.749115 Y99.323067 Z-1.000000 I4.279799 J1.539127
G02 X61.529814 Y100.168279 Z-1.000000 I27.799358 J7.663940
G03 X60.995974 Y101.647317 Z-1.000000 I-7.109664 J-1.730281
G03 X60.242707 Y102.805534 Z-1.000000 I-5.076772 J-2.477710
G02 X59.854440 Y103.301245 Z-1.000000 I6.928124 J5.826400
G02 X59.576206 Y103.720299 Z-1.000000 I4.670413 J3.402841
G02 X59.371137 Y104.171161 Z-1.000000 I1.836980 J1.107598
G02 X59.242635 Y104.757507 Z-1.000000 I2.999051 J0.964514
G02 X59.195293 Y105.363949 Z-1.000000 I7.114981 J0.860509
G02 X59.196288 Y106.063687 Z-1.000000 I9.482756 J0.336378
G03 X59.148440 Y107.223409 Z-1.000000 I-7.299385 J0.279686
G03 X58.941985 Y108.159160 Z-1.000000 I-4.942513 J-0.599816
G03 X58.262336 Y109.854273 Z-1.000000 I-12.824405 J-4.158091
G03 X57.262848 Y111.643190 Z-1.000000 I-15.290523 J-7.369316
G02 X57.033876 Y112.018412 Z-1.000000 I8.412702 J5.391170
G02 X57.024209 Y112.054324 Z-1.000000 I0.061870 J0.035912
G03 X57.014021 Y112.089956 Z-1.000000 I-0.067410 J0.000000
G03 X56.707082 Y112.563610 Z-1.000000 I-13.276348 J-8.267124
G02 X56.399002 Y113.039696 Z-1.000000 I12.574979 J8.475117
G02 X56.171625 Y113.426005 Z-1.000000 I8.050061 J4.998245
G03 X55.945698 Y113.811236 Z-1.000000 I-8.839708 J-4.925375
G03 X55.909909 Y113.850510 Z-1.000000 I-0.121955 J-0.075188
G02 X55.415279 Y114.468091 Z-1.000000 I0.961416 J1.276882
G02 X55.476963 Y114.806764 Z-1.000000 I0.275547 J0.124768
G02 X55.568499 Y114.807025 Z-1.000000 I0.045899 J-0.045893
G02 X55.775209 Y114.511865 Z-1.000000 I-0.707317 J-0.715320
G03 X56.212308 Y113.667718 Z-1.000000 I9.216559 J4.237089
G03 X56.772984 Y112.787915 Z-1.000000 I10.571625 J6.118477
G02 X56.892708 Y112.602785 Z-1.000000 I-2.512446 J-1.756079
G02 X57.104288 Y112.232788 Z-1.000000 I-9.826333 J-5.864614
G03 X57.315655 Y111.862468 Z-1.000000 I10.490443 J5.742126
G03 X57.540403 Y111.499388 Z-1.000000 I10.309318 J6.130430
G01 X57.771690 Y111.140183 Z-1.000000
G01 X57.819231 Y111.499388 Z-1.000000
G02 X57.882899 Y111.855289 Z-1.000000 I3.943326 J-0.521778
G02 X58.048232 Y112.511671 Z-1.000000 I13.601788 J-3.077075
G03 X58.167220 Y113.263685 Z-1.000000 I-3.221790 J0.895195
G03 X58.161689 Y115.158970 Z-1.000000 I-20.701498 J0.887236
G02 X58.194590 Y115.966440 Z-1.000000 I4.520375 J0.220223
G02 X58.349705 Y116.595764 Z-1.000000 I2.886952 J-0.377797
G03 X58.577014 Y117.214123 Z-1.000000 I-327.767591 J120.838349
G03 X58.706923 Y117.570339 Z-1.000000 I-109.695411 J40.206661
G02 X58.909047 Y117.909132 Z-1.000000 I0.982582 J-0.356519
G01 X58.983494 Y117.880779 Z-1.000000
G02 X58.922287 Y117.488543 Z-1.000000 I-1.287396 J0.000003
G02 X58.561262 Y116.560827 Z-1.000000 I-7.710515 J2.466470
G03 X58.392653 Y115.873172 Z-1.000000 I1.682614 J-0.777066
G03 X58.434653 Y113.939404 Z-1.000000 I13.815760 J-0.667276
G02 X58.420848 Y113.451371 Z-1.000000 I-2.030914 J-0.186764
G02 X58.161559 Y112.110936 Z-1.000000 I-15.773653 J2.355907
G03 X58.088316 Y110.849126 Z-1.000000 I3.512891 J-0.836940
G03 X58.436622 Y109.789259 Z-1.000000 I2.793953 J0.331016
G02 X58.828586 Y108.982159 Z-1.000000 I-6.003683 J-3.414388
G02 X59.257044 Y107.776772 Z-1.000000 I-13.001301 J-5.300189
G02 X59.342767 Y107.344921 Z-1.000000 I-2.109128 J-0.643098
G02 X59.441948 Y105.855636 Z-1.000000 I-25.225320 J-2.427857
G03 X59.552893 Y104.378430 Z-1.000000 I19.522733 J0.723484
G03 X59.632292 Y104.176576 Z-1.000000 I0.416257 J0.047190
G02 X59.757007 Y103.990795 Z-1.000000 I-1.981571 J-1.464985
G02 X59.767171 Y103.954481 Z-1.000000 I-0.059792 J-0.036313
G03 X59.822976 Y103.799921 Z-1.000000 I0.241938 J-0.000001
G03 X60.579226 Y102.976564 Z-1.000000 I8.613118 J7.152118
G02 X60.982740 Y102.478710 Z-1.000000 I-2.016074 J-2.046497
G02 X61.352541 Y101.768342 Z-1.000000 I-3.778753 J-2.418569
G02 X61.644665 Y101.011423 Z-1.000000 I-16.833012 J-6.931341
G02 X61.788165 Y100.560129 Z-1.000000 I-5.836179 J-2.104219
G03 X62.095335 Y99.640701 Z-1.000000 I8.862213 J2.449733
G01 X62.155157 Y99.628253 Z-1.000000
G03 X62.172227 Y99.663296 Z-1.000000 I-0.042422 J0.042343
G03 X62.316871 Y100.946018 Z-1.000000 I-65.221787 J8.004147
G02 X62.570370 Y102.461392 Z-1.000000 I12.083076 J-1.242425
G02 X62.852884 Y103.245238 Z-1.000000 I3.478865 J-0.811019
G03 X62.957761 Y103.801073 Z-1.000000 I-0.927602 J0.462834
G03 X62.685315 Y105.105575 Z-1.000000 I-5.731008 J-0.516220
G02 X62.048209 Y107.580815 Z-1.000000 I17.325979 J5.779177
G02 X62.176767 Y107.870495 Z-1.000000 I0.276183 J0.050798
G01 X62.250881 Y107.841977 Z-1.000000
G02 X62.314503 Y107.395898 Z-1.000000 I-1.542209 J-0.447536
G03 X62.364463 Y106.958918 Z-1.000000 I1.951417 J0.001758
G03 X62.897204 Y104.870520 Z-1.000000 I45.659683 J10.535425
G02 X63.001051 Y104.409907 Z-1.000000 I-4.460793 J-1.247718
G02 X63.028852 Y104.106990 Z-1.000000 I-1.893629 J-0.326529
G03 X63.056808 Y103.814310 Z-1.000000 I1.765411 J0.020951
G03 X63.090481 Y103.764865 Z-1.000000 I0.072303 J0.013052
G03 X63.304426 Y103.820147 Z-1.000000 I0.080471 J0.130205
G03 X63.791027 Y105.012885 Z-1.000000 I-4.536020 J2.546187
G03 X64.193290 Y106.771120 Z-1.000000 I-22.737825 J6.127279
G03 X64.342119 Y107.931655 Z-1.000000 I-9.738199 J1.838654
G02 X64.569687 Y109.975378 Z-1.000000 I24.190130 J-1.659027
G02 X64.671387 Y110.062570 Z-1.000000 I0.101700 J-0.015715
G02 X64.730067 Y110.003468 Z-1.000000 I-0.000000 J-0.058681
G02 X64.665585 Y109.246208 Z-1.000000 I-4.890645 J0.035067
G03 X64.612611 Y108.852976 Z-1.000000 I6.754317 J-1.110086
G03 X64.534900 Y108.005342 Z-1.000000 I31.365401 J-3.302989
G02 X64.353112 Y106.459997 Z-1.000000 I-19.805733 J1.546489
G02 X64.173036 Y105.708597 Z-1.000000 I-4.838893 J0.762388
G03 X64.034414 Y105.237082 Z-1.000000 I8.282987 J-2.691255
G03 X63.953483 Y104.875588 Z-1.000000 I4.781624 J-1.260325
G02 X63.843522 Y104.527785 Z-1.000000 I-1.456675 J0.269255
G02 X63.559083 Y104.014805 Z-1.000000 I-3.482750 J1.595781
G03 X63.264635 Y103.505962 Z-1.000000 I4.210448 J-2.776036
G03 X63.189482 Y103.280398 Z-1.000000 I0.736658 J-0.370740
G02 X63.130756 Y103.046811 Z-1.000000 I-1.712592 J0.306388
G02 X63.016320 Y102.750051 Z-1.000000 I-2.882749 J0.941196
G03 X62.791325 Y102.002351 Z-1.000000 I2.786939 J-1.246336
G03 X62.599711 Y100.233583 Z-1.000000 I15.636950 J-2.588751
G03 X62.592402 Y98.474311 Z-1.000000 I18.459635 J-0.956339
G03 X62.706183 Y97.784497 Z-1.000000 I2.916805 J0.126821
G02 X62.824119 Y97.289923 Z-1.000000 I-4.941340 J-1.439659
G02 X62.903672 Y96.727263 Z-1.000000 I-6.318407 J-1.180293
G03 X62.978876 Y96.166002 Z-1.000000 I7.628620 J0.736506
G03 X63.021491 Y96.041522 Z-1.000000 I0.407745 J0.070055
G02 X63.065048 Y95.917348 Z-1.000000 I-0.382679 J-0.203957
G02 X63.129214 Y95.466032 Z-1.000000 I-5.115706 J-0.957553
G03 X63.187138 Y95.011003 Z-1.000000 I7.836549 J0.766377
G03 X63.262551 Y94.617016 Z-1.000000 I5.938392 J0.932451
G02 X63.431456 Y93.469612 Z-1.000000 I-7.415991 J-1.677813
G02 X63.486334 Y91.416874 Z-1.000000 I-23.777936 J-1.662784
G03 X63.520305 Y90.090760 Z-1.000000 I15.811650 J-0.258446
G03 X63.624558 Y89.373113 Z-1.000000 I4.721578 J0.319507
G02 X63.750971 Y88.804215 Z-1.000000 I-116.740786 J-26.239193
G02 X63.821179 Y88.477977 Z-1.000000 I-38.349871 J-8.423685
G03 X63.905782 Y88.156109 Z-1.000000 I3.301574 J0.695775
G03 X64.079413 Y87.661613 Z-1.000000 I7.982956 J2.525293
G02 X64.730821 Y85.805115 Z-1.000000 I-29.107891 J-11.255907
G02 X64.797144 Y85.389228 Z-1.000000 I-1.363601 J-0.430690
G03 X64.812523 Y85.280110 Z-1.000000 I0.431789 J0.005213
G03 X64.998257 Y84.657400 Z-1.000000 I14.304660 J3.927564
G02 X65.171901 Y84.031192 Z-1.000000 I-7.494877 J-2.415465
G02 X65.256708 Y83.549703 Z-1.000000 I-4.340106 J-1.012655
G03 X65.686764 Y81.506391 Z-1.000000 I11.798648 J1.416350
G03 X66.616071 Y79.082768 Z-1.000000 I17.568050 J5.346266
G02 X66.801565 Y78.680793 Z-1.000000 I-44.179408 J-20.630609
G02 X67.022310 Y78.191813 Z-1.000000 I-65.110332 J-29.687725
G03 X67.501606 Y77.278075 Z-1.000000 I7.506284 J3.354803
G03 X67.880290 Y76.779379 Z-1.000000 I2.588068 J1.572120
G02 X68.547396 Y75.946017 Z-1.000000 I-4.998385 J-4.684900
G02 X69.108055 Y74.973383 Z-1.000000 I-6.266591 J-4.260179
G03 X69.726674 Y74.027458 Z-1.000000 I3.915845 J1.885651
G03 X69.974048 Y73.964975 Z-1.000000 I0.168025 J0.144296
G03 X70.036671 Y74.026981 Z-1.000000 I-0.039232 J0.102249
G03 X70.474071 Y75.230496 Z-1.000000 I-21.510103 J8.498780
G02 X70.911718 Y76.449303 Z-1.000000 I25.787880 J-8.571867
G02 X71.176367 Y77.048899 Z-1.000000 I6.493463 J-2.507882
G03 X71.452894 Y77.644061 Z-1.000000 I-10.557837 J5.267255
G03 X71.824123 Y78.550999 Z-1.000000 I-24.166077 J10.421118
G02 X72.180777 Y79.464457 Z-1.000000 I194.232964 J-75.310869
G02 X72.242573 Y79.615338 Z-1.000000 I5.370061 J-2.111291
G03 X72.234515 Y79.876588 Z-1.000000 I-0.286105 J0.121924
G03 X71.866650 Y80.365553 Z-1.000000 I-1.523860 J-0.763591
G02 X71.434089 Y80.778545 Z-1.000000 I11.985402 J12.986334
G02 X71.262545 Y80.962186 Z-1.000000 I2.193470 J2.220916
G03 X71.095361 Y81.150245 Z-1.000000 I-6.094849 J-5.249969
G03 X70.503272 Y81.789830 Z-1.000000 I-71.187815 J-65.307543
G01 X69.908290 Y82.426795 Z-1.000000
G01 X69.795236 Y83.035948 Z-1.000000
G03 X69.461310 Y84.546971 Z-1.000000 I-22.389433 J-4.155502
G03 X69.303861 Y84.948497 Z-1.000000 I-1.713180 J-0.440152
G03 X68.718936 Y85.842237 Z-1.000000 I-5.625518 J-3.043447
G03 X67.796680 Y86.878077 Z-1.000000 I-8.498724 J-6.638320
G02 X67.029795 Y87.729140 Z-1.000000 I6.897422 J6.986250
G02 X66.494076 Y88.505341 Z-1.000000 I5.194360 J4.158023
G03 X66.325638 Y88.778688 Z-1.000000 I-7.246007 J-4.276454
G03 X66.120060 Y89.087145 Z-1.000000 I-9.428086 J-6.060827
G02 X65.910464 Y89.393073 Z-1.000000 I41.215342 J28.461990
G02 X65.543705 Y89.935120 Z-1.000000 I128.706965 J87.480668
G03 X65.163445 Y90.466764 Z-1.000000 I-9.630070 J-6.486130
G03 X64.788088 Y90.931078 Z-1.000000 I-7.721439 J-5.858208
G02 X64.459339 Y91.356125 Z-1.000000 I3.894165 J3.351573
G01 X64.474052 Y91.384223 Z-1.000000
G02 X65.316559 Y90.990397 Z-1.000000 I-0.000002 J-1.098100
G02 X65.710374 Y89.905246 Z-1.000000 I-1.298140 J-1.085147
G03 X65.722881 Y89.867202 Z-1.000000 I0.064113 J-0.000000
G03 X66.010840 Y89.497709 Z-1.000000 I7.049458 J5.196922
G02 X66.295264 Y89.122228 Z-1.000000 I-4.495165 J-3.700514
G02 X66.439363 Y88.881714 Z-1.000000 I-1.692739 J-1.177594
G03 X66.958510 Y88.085802 Z-1.000000 I3.991865 J2.036496
G03 X67.967178 Y87.008515 Z-1.000000 I8.375775 J6.831425
G02 X68.339501 Y86.637250 Z-1.000000 I-5.267994 J-5.655317
G02 X68.575482 Y86.359200 Z-1.000000 I-2.713587 J-2.542185
G03 X68.802326 Y86.072603 Z-1.000000 I9.773592 J7.502805
G03 X68.910999 Y85.947994 Z-1.000000 I1.952024 J1.592700
G02 X69.013336 Y85.819421 Z-1.000000 I-0.771241 J-0.718872
G02 X69.145280 Y85.601351 Z-1.000000 I-2.107796 J-1.424290
G03 X69.255816 Y85.509781 Z-1.000000 I0.168263 J0.090613
G01 X69.296934 Y85.553291 Z-1.000000
G02 X69.249317 Y85.735411 Z-1.000000 I0.819789 J0.311627
G02 X69.167742 Y86.418634 Z-1.000000 I11.585537 J1.729764
G03 X69.083039 Y87.102110 Z-1.000000 I-10.133894 J-0.908908
G03 X69.001827 Y87.465645 Z-1.000000 I-2.938937 J-0.465701
G02 X68.928549 Y87.830075 Z-1.000000 I2.128756 J0.617623
G02 X68.844129 Y88.837134 Z-1.000000 I16.276501 J1.871498
G03 X68.777752 Y89.847941 Z-1.000000 I-39.510499 J-2.086995
G03 X68.744115 Y90.110662 Z-1.000000 I-2.697544 J-0.211856
G02 X68.743624 Y90.287194 Z-1.000000 I0.503246 J0.089668
G01 X68.776466 Y90.298243 Z-1.000000
G02 X68.879309 Y90.107899 Z-1.000000 I-0.231655 J-0.248120
G02 X69.005528 Y88.972009 Z-1.000000 I-9.333020 J-1.612028
G03 X69.120477 Y87.636976 Z-1.000000 I18.806626 J0.946829
G03 X69.209677 Y87.299806 Z-1.000000 I1.266074 J0.154561
G02 X69.274055 Y87.072251 Z-1.000000 I-0.910644 J-0.380518
G02 X69.303716 Y86.700362 Z-1.000000 I-2.426249 J-0.380634
G03 X69.352102 Y86.196650 Z-1.000000 I2.761530 J0.011094
G03 X69.598631 Y85.147180 Z-1.000000 I12.259865 J2.326249
G02 X69.694380 Y84.752394 Z-1.000000 I-5.435199 J-1.527214
G02 X69.759094 Y84.363472 Z-1.000000 I-5.210960 J-1.066913
G03 X69.916219 Y83.414035 Z-1.000000 I13.183928 J1.694128
G03 X70.089692 Y82.734335 Z-1.000000 I6.922985 J1.404900
G03 X70.281951 Y82.338769 Z-1.000000 I1.380194 J0.426317
G03 X70.823756 Y81.673342 Z-1.000000 I4.521681 J3.128362
G03 X72.230151 Y80.257282 Z-1.000000 I35.216999 J33.570215
G03 X72.331415 Y80.216347 Z-1.000000 I0.101264 J0.104786
G03 X72.465717 Y80.318417 Z-1.000000 I0.000000 J0.139391
G03 X72.567790 Y81.066973 Z-1.000000 I-2.693794 J0.748562
G02 X72.672290 Y81.741613 Z-1.000000 I2.229982 J-0.000005
G02 X73.044059 Y82.567463 Z-1.000000 I3.740705 J-1.187328
G02 X73.184173 Y82.793845 Z-1.000000 I7.339918 J-4.386341
G02 X73.608952 Y83.449164 Z-1.000000 I61.814212 J-39.602716
G03 X74.021913 Y84.110659 Z-1.000000 I-14.596750 J9.572179
G03 X74.161525 Y84.379964 Z-1.000000 I-2.270438 J1.347871
G03 X74.224537 Y84.647927 Z-1.000000 I-0.665688 J0.297928
G03 X74.177845 Y84.776934 Z-1.000000 I-0.181002 J0.007443
G02 X74.080950 Y84.900483 Z-1.000000 I0.827149 J0.748477
G02 X74.069897 Y84.936556 Z-1.000000 I0.053339 J0.036073
G03 X73.960481 Y85.290715 Z-1.000000 I-0.627879 J0.000001
G03 X73.338810 Y86.006794 Z-1.000000 I-3.392752 J-2.317558
G02 X72.189690 Y87.296489 Z-1.000000 I5.678177 J6.216044
G02 X71.688987 Y88.293240 Z-1.000000 I2.846925 J2.054246
G03 X71.497228 Y88.806323 Z-1.000000 I-5.057431 J-1.597784
G03 X71.384180 Y88.995805 Z-1.000000 I-0.789142 J-0.342352
G02 X70.875384 Y89.792086 Z-1.000000 I3.798419 J2.987750
G02 X70.335140 Y91.057633 Z-1.000000 I9.133558 J4.647065
G02 X70.241417 Y91.423597 Z-1.000000 I2.086915 J0.729445
G02 X70.144969 Y92.198521 Z-1.000000 I9.318372 J1.553238
G03 X69.640679 Y94.696184 Z-1.000000 I-10.899106 J-0.900840
G03 X68.811644 Y96.276666 Z-1.000000 I-5.099469 J-1.667231
G02 X67.709490 Y98.001758 Z-1.000000 I9.989494 J7.596871
G02 X67.751286 Y98.279717 Z-1.000000 I0.209077 J0.110683
G02 X67.866467 Y98.271566 Z-1.000000 I0.054054 J-0.054054
G02 X68.310134 Y97.535509 Z-1.000000 I-3.386093 J-2.542744
G03 X68.662778 Y96.851084 Z-1.000000 I9.956695 J4.697049
G03 X68.939133 Y96.412967 Z-1.000000 I4.346875 J2.435701
G02 X69.677313 Y95.047907 Z-1.000000 I-5.338438 J-3.768973
G02 X70.153443 Y93.343445 Z-1.000000 I-7.902605 J-3.126275
G03 X70.252304 Y92.861127 Z-1.000000 I7.126437 J1.209415
G03 X70.284517 Y92.798997 Z-1.000000 I0.141910 J0.034162
G03 X70.371234 Y92.810097 Z-1.000000 I0.039616 J0.034789
G03 X70.764787 Y93.753912 Z-1.000000 I-6.443946 J3.240967
G03 X70.822173 Y94.217685 Z-1.000000 I-1.109308 J0.372699
G03 X70.600547 Y95.857838 Z-1.000000 I-14.633716 J-1.142334
G02 X70.489459 Y96.578516 Z-1.000000 I9.480736 J1.830294
G02 X70.472112 Y96.968090 Z-1.000000 I2.742895 J0.317308
G02 X70.518907 Y97.594851 Z-1.000000 I6.515648 J-0.171334
G02 X70.907294 Y100.494773 Z-1.000000 I139.830641 J-17.251594
G03 X70.989766 Y101.676883 Z-1.000000 I-7.947426 J1.148394
G03 X70.898699 Y102.542076 Z-1.000000 I-4.328124 J-0.018173
G02 X70.912390 Y102.702410 Z-1.000000 I0.274704 J0.057294
G02 X70.975739 Y102.737251 Z-1.000000 I0.052697 J-0.020803
G02 X71.088555 Y102.623624 Z-1.000000 I-0.026665 J-0.139294
G02 X71.190094 Y101.572370 Z-1.000000 I-6.068084 J-1.116641
G02 X71.137760 Y100.468885 Z-1.000000 I-9.517315 J-0.101609
G02 X70.966453 Y99.458816 Z-1.000000 I-8.150191 J0.862705
G03 X70.631988 Y97.564412 Z-1.000000 I16.790055 J-3.941084
G03 X70.712285 Y97.332404 Z-1.000000 I0.278984 J-0.033343
G01 X70.770892 Y97.337538 Z-1.000000
G03 X72.148936 Y99.384518 Z-1.000000 I-55.333538 J38.738317
G02 X72.376485 Y99.655946 Z-1.000000 I1.207649 J-0.781328
G01 X72.423031 Y99.639698 Z-1.000000
G02 X72.351315 Y99.272802 Z-1.000000 I-0.550603 J-0.082831
G02 X71.264394 Y97.686489 Z-1.000000 I-12.667393 J7.514003
G03 X70.969345 Y97.286093 Z-1.000000 I6.316625 J-4.963575
G03 X70.806414 Y97.022893 Z-1.000000 I2.559078 J-1.766199
G03 X70.719307 Y96.740348 Z-1.000000 I0.634199 J-0.350219
G03 X70.735953 Y96.271838 Z-1.000000 I1.813307 J-0.170127
G02 X70.813348 Y95.792190 Z-1.000000 I-52.179935 J-8.665692
G02 X70.867311 Y95.433333 Z-1.000000 I-29.249109 J-4.581835
G03 X70.928659 Y95.076121 Z-1.000000 I6.653195 J0.958745
G03 X70.993017 Y94.803631 Z-1.000000 I3.935489 J0.785658
G02 X71.014243 Y94.069122 Z-1.000000 I-1.503812 J-0.411019
G02 X70.569986 Y92.809308 Z-1.000000 I-5.040209 J1.069124
G03 X70.434059 Y92.475543 Z-1.000000 I1.956449 J-0.991334
G03 X70.367418 Y92.164697 Z-1.000000 I1.627572 J-0.511496
G03 X70.386049 Y91.490872 Z-1.000000 I2.307830 J-0.273358
G03 X70.614725 Y90.750998 Z-1.000000 I3.021395 J0.528556
G02 X70.732660 Y90.475611 Z-1.000000 I-6.270279 J-2.848219
G02 X70.739165 Y90.442047 Z-1.000000 I-0.083337 J-0.033564
G03 X70.747874 Y90.409624 Z-1.000000 I0.064711 J-0.000000
G03 X70.958667 Y90.062942 Z-1.000000 I8.165554 J4.727483
G02 X71.165178 Y89.712750 Z-1.000000 I-4.906968 J-3.129655
G02 X71.222482 Y89.577585 Z-1.000000 I-0.666667 J-0.362371
G03 X71.283004 Y89.445020 Z-1.000000 I0.561599 J0.176299
G03 X71.457384 Y89.196549 Z-1.000000 I2.171006 J1.338208
G02 X71.615017 Y88.939023 Z-1.000000 I-0.969059 J-0.770172
G02 X71.851775 Y88.329788 Z-1.000000 I-5.281564 J-2.403121
G03 X72.189564 Y87.563949 Z-1.000000 I3.944089 J1.282206
G03 X72.726338 Y86.789823 Z-1.000000 I4.567517 J2.593926
G03 X73.176274 Y86.359266 Z-1.000000 I2.150514 J1.796936
G03 X73.380921 Y86.290077 Z-1.000000 I0.204648 J0.268056
G03 X73.470534 Y86.381545 Z-1.000000 I0.000000 J0.089631
G03 X73.350124 Y87.792180 Z-1.000000 I-10.954893 J-0.224636
G02 X73.281150 Y88.630909 Z-1.000000 I6.148057 J0.927793
G02 X73.284714 Y92.358361 Z-1.000000 I121.957350 J1.747122
G02 X73.305410 Y92.403404 Z-1.000000 I0.061310 J-0.000893
G01 X73.334564 Y92.402501 Z-1.000000
G02 X73.360169 Y92.344464 Z-1.000000 I-0.062078 J-0.062054
G02 X73.416200 Y90.621089 Z-1.000000 I-64.825751 J-2.970246
G01 X73.449487 Y88.888025 Z-1.000000
G01 X73.739146 Y89.336050 Z-1.000000
G03 X74.017659 Y89.790416 Z-1.000000 I-9.307655 J6.017876
G03 X74.207634 Y90.143270 Z-1.000000 I-5.421802 J3.146643
G02 X74.363751 Y90.395586 Z-1.000000 I1.443008 J-0.718385
G01 X74.391459 Y90.386969 Z-1.000000
G02 X74.338723 Y90.136458 Z-1.000000 I-0.513411 J-0.022727
G02 X73.861016 Y89.313730 Z-1.000000 I-6.382502 J3.155873
G03 X73.689985 Y89.031759 Z-1.000000 I2.870971 J-1.934261
G03 X73.541944 Y88.726279 Z-1.000000 I3.221863 J-1.749983
G03 X73.469778 Y88.405556 Z-1.000000 I0.827283 J-0.354627
G03 X73.506742 Y87.792482 Z-1.000000 I3.139726 J-0.118349
G02 X73.600613 Y87.170985 Z-1.000000 I-37.948363 J-6.049574
G02 X73.678886 Y86.585896 Z-1.000000 I-33.437047 J-4.770983
G03 X73.804179 Y86.016230 Z-1.000000 I3.142894 J0.392638
G03 X74.049126 Y85.424907 Z-1.000000 I3.633304 J1.158650
G03 X74.391264 Y85.217093 Z-1.000000 I0.341227 J0.176235
G03 X74.723483 Y85.426506 Z-1.000000 I-0.000877 J0.369619
G03 X75.205281 Y87.043702 Z-1.000000 I-4.811580 J2.313843
G03 X75.212373 Y89.141292 Z-1.000000 I-8.179344 J1.076461
G02 X75.135569 Y89.915831 Z-1.000000 I15.295052 J1.907743
G02 X75.114446 Y90.469712 Z-1.000000 I7.794392 J0.574598
G02 X75.187594 Y92.538509 Z-1.000000 I27.239222 J0.072578
G02 X75.344792 Y93.604536 Z-1.000000 I7.361547 J-0.540942
G03 X75.434231 Y94.030093 Z-1.000000 I-17.229367 J3.843252
G03 X75.531669 Y94.551521 Z-1.000000 I-25.766229 J5.084710
G02 X75.640241 Y95.069568 Z-1.000000 I8.159520 J-1.439673
G02 X75.727369 Y95.356338 Z-1.000000 I2.582112 J-0.627883
G03 X76.001847 Y96.397047 Z-1.000000 I-5.410899 J1.983629
G03 X75.998827 Y96.993116 Z-1.000000 I-1.743794 J0.289208
G03 X75.934457 Y97.221754 Z-1.000000 I-1.171486 J-0.206438
G03 X75.700746 Y97.751654 Z-1.000000 I-6.584485 J-2.587577
G02 X75.469674 Y98.284120 Z-1.000000 I5.556434 J2.727677
G02 X75.217692 Y99.025183 Z-1.000000 I10.525449 J3.992320
G03 X74.568514 Y100.620840 Z-1.000000 I-8.842351 J-2.667541
G03 X73.949202 Y101.463023 Z-1.000000 I-3.017276 J-1.569996
G03 X72.898535 Y102.427254 Z-1.000000 I-12.598587 J-12.673409
G03 X71.980083 Y103.130409 Z-1.000000 I-7.597420 J-8.972255
G02 X70.871559 Y104.090958 Z-1.000000 I3.801274 J5.506793
G02 X69.464924 Y105.846697 Z-1.000000 I11.550174 J10.694922
G03 X68.551950 Y106.933931 Z-1.000000 I-6.187421 J-4.268772
G03 X67.399540 Y107.880633 Z-1.000000 I-5.820637 J-5.910641
G02 X66.736812 Y108.404105 Z-1.000000 I3.357555 J4.931994
G02 X66.723848 Y108.496814 Z-1.000000 I0.049398 J0.054168
G01 X66.774179 Y108.515639 Z-1.000000
G02 X66.939956 Y108.429594 Z-1.000000 I-0.157523 J-0.506202
G03 X67.117814 Y108.299842 Z-1.000000 I2.643861 J3.437326
G03 X67.473778 Y108.060558 Z-1.000000 I9.349733 J13.524408
G02 X68.626073 Y107.125578 Z-1.000000 I-3.951653 J-6.047683
G02 X69.634067 Y105.903971 Z-1.000000 I-5.814250 J-5.824223
G03 X70.092803 Y105.250544 Z-1.000000 I17.791800 J12.002930
G03 X70.149517 Y105.198041 Z-1.000000 I0.162514 J0.118665
G01 X70.198054 Y105.230325 Z-1.000000
G03 X70.094318 Y105.547160 Z-1.000000 I-1.035920 J-0.163774
G02 X69.655714 Y106.598840 Z-1.000000 I6.268860 J3.231735
G02 X69.563662 Y107.179869 Z-1.000000 I1.787663 J0.581025
G03 X69.551126 Y107.311412 Z-1.000000 I-0.696415 J0.000002
G03 X69.465693 Y107.689131 Z-1.000000 I-5.867207 J-1.128531
G02 X69.366710 Y108.304909 Z-1.000000 I3.167203 J0.824953
G02 X69.422454 Y108.364337 Z-1.000000 I0.055744 J0.003570
G01 X69.456915 Y108.338804 Z-1.000000
G02 X69.656031 Y107.596954 Z-1.000000 I-11.057263 J-3.365462
G03 X69.926415 Y106.576945 Z-1.000000 I17.060650 J3.976609
G03 X70.292539 Y105.458091 Z-1.000000 I20.894522 J6.218005
G03 X70.634556 Y104.730690 Z-1.000000 I3.937191 J1.407121
G03 X71.089867 Y104.115161 Z-1.000000 I3.261664 J1.936512
G03 X72.034104 Y103.268728 Z-1.000000 I4.606931 J4.189369
G03 X72.431127 Y103.139614 Z-1.000000 I0.397024 J0.545865
G02 X72.619412 Y103.078382 Z-1.000000 I-0.000001 J-0.320105
G02 X73.474808 Y102.380506 Z-1.000000 I-5.853055 J-8.047341
G03 X74.252852 Y101.722381 Z-1.000000 I9.104647 J9.974658
G01 X74.310735 Y101.725887 Z-1.000000
G01 X74.324029 Y101.770766 Z-1.000000
G03 X74.242665 Y102.046415 Z-1.000000 I-1.808099 J-0.383864
G02 X74.154820 Y102.331229 Z-1.000000 I2.122021 J0.810452
G02 X74.135272 Y102.497884 Z-1.000000 I0.700638 J0.166653
G03 X74.117863 Y102.665888 Z-1.000000 I-0.819304 J0.000002
G03 X73.964708 Y103.312067 Z-1.000000 I-12.404683 J-2.598860
G02 X73.823209 Y103.960953 Z-1.000000 I7.259069 J1.922821
G02 X73.741451 Y104.609068 Z-1.000000 I7.157880 J1.232159
G03 X73.674440 Y105.260334 Z-1.000000 I-14.812339 J-1.195026
G03 X73.586091 Y105.849934 Z-1.000000 I-12.236430 J-1.532148
G02 X73.485629 Y106.438084 Z-1.000000 I75.917965 J13.270178
G02 X73.411728 Y106.894871 Z-1.000000 I46.464398 J7.751578
G03 X73.051513 Y108.361797 Z-1.000000 I-8.755500 J-1.372294
G03 X72.343105 Y110.054711 Z-1.000000 I-12.392770 J-4.191137
G02 X72.023197 Y111.041800 Z-1.000000 I3.038370 J1.530098
G02 X71.650194 Y114.340095 Z-1.000000 I34.364885 J5.556552
G03 X71.560682 Y115.447904 Z-1.000000 I-35.322088 J-2.296536
G03 X71.514994 Y115.739214 Z-1.000000 I-2.478552 J-0.239490
G03 X71.290587 Y116.559845 Z-1.000000 I-7.976437 J-1.740206
G03 X70.958891 Y117.422627 Z-1.000000 I-9.151608 J-3.023179
G02 X70.389712 Y119.008563 Z-1.000000 I10.955950 J4.827101
G02 X70.284216 Y119.821716 Z-1.000000 I2.729061 J0.767482
G01 X70.321962 Y119.856031 Z-1.000000
G02 X70.407100 Y119.812036 Z-1.000000 I-0.009702 J-0.123150
G02 X70.492508 Y119.654328 Z-1.000000 I-0.348013 J-0.290452
G02 X70.531424 Y119.406118 Z-1.000000 I-0.850610 J-0.260518
G03 X70.643990 Y118.701938 Z-1.000000 I2.467751 J0.033396
G03 X71.113021 Y117.548446 Z-1.000000 I7.192381 J2.252445
G02 X71.236061 Y117.252390 Z-1.000000 I-1.909429 J-0.967151
G02 X71.633254 Y115.972816 Z-1.000000 I-35.468496 J-11.711224
G02 X71.700618 Y115.641314 Z-1.000000 I-1.970004 J-0.572916
G02 X71.818971 Y114.405407 Z-1.000000 I-27.434539 J-3.250802
G03 X72.063975 Y111.427537 Z-1.000000 I163.869667 J11.983358
G03 X72.097865 Y111.355225 Z-1.000000 I0.116897 J0.010689
G03 X72.297998 Y111.381420 Z-1.000000 I0.090001 J0.089998
G03 X73.127144 Y113.131876 Z-1.000000 I-10.141691 J5.875457
G01 X73.311317 Y113.621695 Z-1.000000
G01 X73.316921 Y115.450349 Z-1.000000
G02 X73.406707 Y117.423861 Z-1.000000 I23.313829 J-0.071871
G02 X73.498119 Y117.507576 Z-1.000000 I0.091412 J-0.008051
G01 X73.530519 Y117.475871 Z-1.000000
G02 X73.510507 Y116.936123 Z-1.000000 I-4.597495 J-0.099787
G03 X73.473711 Y116.237178 Z-1.000000 I8.063822 J-0.774960
G03 X73.492113 Y114.975726 Z-1.000000 I26.317238 J-0.246956
G02 X73.465891 Y113.512231 Z-1.000000 I-12.959030 J-0.499789
G02 X73.362477 Y113.235949 Z-1.000000 I-0.525357 J0.039148
G03 X73.320306 Y113.158986 Z-1.000000 I0.249998 J-0.187022
G03 X73.224849 Y112.870640 Z-1.000000 I3.504271 J-1.320052
G02 X72.880458 Y111.998941 Z-1.000000 I-4.646908 J1.332021
G02 X72.404019 Y111.268056 Z-1.000000 I-3.728202 J1.909559
