%
(Header)
(Generated by gcodetools from Inkscape.)
(Using default header. To add your own header create file "header" in the output dir.)
M3
(Header end.)
G21 (All units in mm)

(Start cutting path id: path4812)
(Change tool to Cylindrical cutter)

G00 Z5.000000
G00 X45.227469 Y1.729689

G01 Z-0.125000 F1000.0(Penetrate)
G03 X45.030719 Y2.049615 Z-0.125000 I-0.582061 J-0.137497 F1100.000000
G03 X44.644725 Y2.220566 Z-0.125000 I-0.486799 J-0.577903
G02 X44.057375 Y2.592930 Z-0.125000 I0.110980 J0.824467
G02 X43.804375 Y3.518583 Z-0.125000 I1.329647 J0.860822
G03 X43.766022 Y4.179054 Z-0.125000 I-3.344682 J0.137127
G03 X43.661968 Y4.418400 Z-0.125000 I-0.514700 J-0.081470
G03 X43.480719 Y4.509851 Z-0.125000 I-0.187677 J-0.146625
G03 X43.262635 Y4.429181 Z-0.125000 I-0.008432 J-0.312323
G03 X43.106918 Y4.189429 Z-0.125000 I0.374191 J-0.413479
G03 X43.033637 Y3.730675 Z-0.125000 I1.399308 J-0.458754
G02 X42.615424 Y2.447861 Z-0.125000 I-2.176537 J0.000000
G02 X41.955641 Y2.253090 Z-0.125000 I-0.457083 J0.333473
G03 X41.818421 Y2.232743 Z-0.125000 I-0.050578 J-0.131782
G03 X41.615411 Y1.988560 Z-0.125000 I0.454037 J-0.583961
G02 X41.296764 Y1.663114 Z-0.125000 I-0.689872 J0.356742
G02 X41.126269 Y1.722385 Z-0.125000 I-0.058303 J0.107142
G03 X40.674658 Y2.470352 Z-0.125000 I-2.881781 J-1.229655
G03 X40.175604 Y2.890590 Z-0.125000 I-1.354961 J-1.102639
G02 X39.814396 Y3.178755 Z-0.125000 I0.704537 J1.253582
G02 X39.527398 Y3.606150 Z-0.125000 I1.323017 J1.198470
G02 X39.019836 Y5.188682 Z-0.125000 I5.516100 J2.641829
G02 X39.073311 Y6.188258 Z-0.125000 I2.185350 J0.384307
G03 X39.142895 Y6.475161 Z-0.125000 I-3.297552 J0.951657
G03 X39.510617 Y8.403350 Z-0.125000 I-148.789898 J29.374700
G02 X39.891387 Y10.329061 Z-0.125000 I72.928149 J-13.419517
G02 X40.303521 Y12.151961 Z-0.125000 I65.767613 J-13.911171
G03 X40.730760 Y13.971710 Z-0.125000 I-160.904881 J38.737100
G03 X40.862380 Y14.594244 Z-0.125000 I-18.687179 J4.276155
G03 X40.983488 Y15.219047 Z-0.125000 I-1021.477044 J198.320144
G03 X41.049222 Y15.559794 Z-0.125000 I-293.453320 J56.787944
G03 X41.179271 Y17.070139 Z-0.125000 I-7.161651 J1.377428
G03 X40.985308 Y19.065288 Z-0.125000 I-12.748620 J-0.232389
G03 X40.860285 Y19.762553 Z-0.125000 I-190.614869 J-33.818158
G03 X40.689632 Y20.697136 Z-0.125000 I-343.587651 J-62.255666
G02 X40.543006 Y22.617547 Z-0.125000 I8.971711 J1.650806
G02 X40.789637 Y24.079372 Z-0.125000 I5.402307 J-0.159731
G02 X40.978114 Y24.643986 Z-0.125000 I16.264087 J-5.115441
G02 X41.484753 Y26.046692 Z-0.125000 I100.958576 J-35.672069
G03 X42.241076 Y28.470096 Z-0.125000 I-23.330733 J8.611039
G03 X42.701049 Y30.781441 Z-0.125000 I-20.757554 J5.332332
G02 X42.871275 Y31.677155 Z-0.125000 I9.737117 J-1.386453
G02 X42.992878 Y32.004762 Z-0.125000 I1.405107 J-0.335186
G02 X43.200266 Y32.281505 Z-0.125000 I0.927470 J-0.478955
G02 X43.974840 Y32.940438 Z-0.125000 I6.226222 J-6.534176
G03 X46.158932 Y34.745969 Z-0.125000 I-20.262885 J26.735136
G03 X46.404344 Y35.128002 Z-0.125000 I-0.576319 J0.640059
G03 X46.509484 Y35.557052 Z-0.125000 I-3.298917 J1.035820
G03 X46.546333 Y35.924597 Z-0.125000 I-2.379939 J0.424222
G02 X46.584200 Y36.292831 Z-0.125000 I2.343469 J-0.054925
G02 X46.775667 Y37.174136 Z-0.125000 I13.685412 J-2.511753
G03 X46.990112 Y38.234566 Z-0.125000 I-11.213616 J2.819576
G03 X47.234210 Y40.152977 Z-0.125000 I-36.516915 J5.621126
G03 X47.454481 Y43.334962 Z-0.125000 I-50.746148 J5.111489
G03 X47.502987 Y47.252627 Z-0.125000 I-76.898252 J2.911240
G03 X47.445532 Y50.318818 Z-0.125000 I-270.394243 J-3.533105
G03 X47.414285 Y50.887647 Z-0.125000 I-9.346761 J-0.228167
G02 X47.369749 Y51.455920 Z-0.125000 I39.783538 J3.403743
G02 X47.292974 Y52.591561 Z-0.125000 I158.969548 J11.317479
G03 X47.189431 Y53.722587 Z-0.125000 I-20.706777 J-1.325421
G03 X47.103806 Y54.178242 Z-0.125000 I-3.433965 J-0.409419
G02 X47.201131 Y54.582998 Z-0.125000 I0.429172 J0.110883
G02 X48.666254 Y55.942594 Z-0.125000 I7.650126 J-6.774679
G03 X49.776390 Y56.807088 Z-0.125000 I-36.907144 J48.539170
G03 X50.226262 Y57.186590 Z-0.125000 I-6.653275 J8.343383
G01 X50.665801 Y57.578628 Z-0.125000
G01 X50.876398 Y57.300184 Z-0.125000
G02 X51.566514 Y56.183696 Z-0.125000 I-5.581786 J-4.221704
G02 X53.376359 Y52.250777 Z-0.125000 I-68.236521 J-33.783871
G03 X53.838681 Y51.606254 Z-0.125000 I1.676355 J0.714389
G03 X54.004244 Y51.689832 Z-0.125000 I0.066373 J0.074294
G02 X53.869651 Y54.806546 Z-0.125000 I30.964090 J2.898424
G02 X54.049640 Y58.157686 Z-0.125000 I35.990366 J-0.252626
G02 X54.475136 Y61.145581 Z-0.125000 I36.490618 J-3.672266
G02 X54.846158 Y62.470862 Z-0.125000 I7.499212 J-1.384883
G02 X55.151658 Y62.921723 Z-0.125000 I1.106032 J-0.420507
G02 X56.778556 Y64.246173 Z-0.125000 I11.878121 J-12.929149
G02 X58.670001 Y65.485093 Z-0.125000 I15.141102 J-21.052458
G02 X60.217869 Y66.290450 Z-0.125000 I7.890295 J-13.274724
G02 X60.625655 Y66.269581 Z-0.125000 I0.183572 J-0.407525
G02 X60.668775 Y66.028909 Z-0.125000 I-0.080371 J-0.138599
G03 X59.899405 Y64.557451 Z-0.125000 I3.081416 J-2.548024
G03 X58.436448 Y58.044088 Z-0.125000 I62.242325 J-17.401131
G03 X57.853474 Y50.527835 Z-0.125000 I40.501927 J-6.922138
G03 X58.667238 Y42.084080 Z-0.125000 I52.019076 J0.752231
G03 X59.232894 Y39.411790 Z-0.125000 I43.508170 J7.813565
G03 X60.032737 Y36.491982 Z-0.125000 I52.749432 J12.880543
G01 X60.334302 Y35.500454 Z-0.125000
G01 X59.900643 Y34.390488 Z-0.125000
G02 X58.386452 Y31.263621 Z-0.125000 I-20.630902 J8.060495
G02 X57.129782 Y29.655696 Z-0.125000 I-6.596094 J3.860124
G02 X56.644405 Y29.600043 Z-0.125000 I-0.278592 J0.285304
G02 X56.284058 Y30.168615 Z-0.125000 I0.392558 J0.647269
G03 X55.732050 Y33.510290 Z-0.125000 I-28.292072 J-2.957105
G03 X54.481245 Y38.108280 Z-0.125000 I-54.907529 J-12.467542
G03 X53.515103 Y40.909382 Z-0.125000 I-58.343619 J-18.556405
G03 X52.599644 Y43.163230 Z-0.125000 I-38.671886 J-14.394761
G03 X51.542902 Y45.463600 Z-0.125000 I-75.572553 J-33.323543
G01 X51.496457 Y45.470789 Z-0.125000
G01 X51.484478 Y45.429238 Z-0.125000
G03 X51.790609 Y43.958388 Z-0.125000 I56.320584 J10.954834
G02 X52.238187 Y41.503583 Z-0.125000 I-32.098734 J-7.120688
G02 X52.710718 Y37.540308 Z-0.125000 I-83.277041 J-11.938708
G02 X53.121810 Y28.860563 Z-0.125000 I-90.867111 J-8.653280
G02 X52.707811 Y26.722964 Z-0.125000 I-5.734108 J0.001663
G02 X52.414346 Y26.338293 Z-0.125000 I-0.843662 J0.339351
G02 X50.257335 Y24.860803 Z-0.125000 I-16.066485 J21.142439
G03 X48.091004 Y23.325905 Z-0.125000 I10.687594 J-17.380518
G03 X47.918269 Y22.963361 Z-0.125000 I0.294095 J-0.362544
G02 X47.886323 Y22.599775 Z-0.125000 I-2.085053 J-0.000000
G02 X47.743110 Y21.974237 Z-0.125000 I-6.347932 J1.124157
G03 X47.601244 Y21.346459 Z-0.125000 I5.888781 J-1.660673
G03 X47.408587 Y20.021112 Z-0.125000 I26.115988 J-4.473000
G02 X47.233692 Y18.691519 Z-0.125000 I-56.840037 J6.800423
G02 X47.123367 Y18.033207 Z-0.125000 I-14.033945 J2.013516
G03 X46.628895 Y14.367489 Z-0.125000 I32.742078 J-6.282816
G03 X46.632354 Y11.797467 Z-0.125000 I16.045141 J-1.263419
G03 X46.798353 Y9.999827 Z-0.125000 I83.209554 J6.777293
G03 X46.832890 Y9.855355 Z-0.125000 I0.562329 J0.058065
G02 X46.843996 Y9.715883 Z-0.125000 I-0.230883 J-0.088563
G02 X46.718931 Y9.313838 Z-0.125000 I-2.189486 J0.460611
G03 X46.641111 Y8.908133 Z-0.125000 I0.930499 J-0.388799
G03 X46.735639 Y8.317103 Z-0.125000 I2.116882 J0.035493
G03 X47.337106 Y6.878604 Z-0.125000 I7.802208 J2.417278
G03 X47.665812 Y6.579982 Z-0.125000 I0.584178 J0.312809
G03 X48.065133 Y6.443079 Z-0.125000 I1.243363 J2.975828
G03 X48.272579 Y6.415453 Z-0.125000 I0.207446 J0.765036
G02 X48.782944 Y6.220953 Z-0.125000 I-0.000000 J-0.766848
G02 X49.685493 Y5.155570 Z-0.125000 I-3.335848 J-3.740988
G02 X49.910873 Y4.731433 Z-0.125000 I-2.722484 J-1.718631
G02 X50.109772 Y4.189388 Z-0.125000 I-4.259984 J-1.870685
G03 X50.289088 Y3.637156 Z-0.125000 I11.415651 J3.401559
G03 X50.462725 Y3.186319 Z-0.125000 I7.780849 J2.737890
G02 X50.564352 Y2.767046 Z-0.125000 I-1.255392 J-0.526246
G02 X50.505120 Y2.648483 Z-0.125000 I-0.128071 J-0.010096
G02 X50.278750 Y2.615655 Z-0.125000 I-0.149793 J0.236024
G02 X49.884192 Y2.825346 Z-0.125000 I0.292195 J1.025848
G03 X49.559536 Y2.961766 Z-0.125000 I-0.381506 J-0.453394
G03 X49.294920 Y2.882143 Z-0.125000 I-0.035006 J-0.363182
G02 X49.003143 Y2.739933 Z-0.125000 I-0.453513 J0.560058
G02 X48.360045 Y2.666836 Z-0.125000 I-0.643098 J2.792386
G03 X47.804169 Y2.553736 Z-0.125000 I-0.000000 J-1.422590
G03 X47.691063 Y2.382847 Z-0.125000 I0.072542 J-0.170889
G02 X47.574552 Y2.215161 Z-0.125000 I-0.178924 J0.000000
G02 X46.924305 Y2.097455 Z-0.125000 I-0.653691 J1.756265
G03 X46.228223 Y1.966329 Z-0.125000 I0.003634 J-1.932416
G03 X45.900910 Y1.699875 Z-0.125000 I0.248354 J-0.639341
G02 X45.508073 Y1.497418 Z-0.125000 I-0.373170 J0.241733
G02 X45.227525 Y1.729692 Z-0.125000 I0.013358 J0.301699
G01 X45.227469 Y1.729689 Z-0.125000
G00 Z5.000000

(End cutting path id: path4812)


(Start cutting path id: path4812)
(Change tool to Cylindrical cutter)

G00 Z5.000000
G00 X74.607449 Y2.672627

G01 Z-0.125000 F1000.0(Penetrate)
G03 X73.953219 Y2.950130 Z-0.125000 I-1.170839 J-1.850381 F1100.000000
G03 X72.561628 Y3.169316 Z-0.125000 I-2.030135 J-8.361999
G03 X71.829695 Y3.222142 Z-0.125000 I-12.321302 J-165.621063
G03 X70.693867 Y3.299968 Z-0.125000 I-27.837596 J-397.947707
G02 X69.343677 Y3.595122 Z-0.125000 I0.313196 J4.668539
G02 X68.575138 Y4.105808 Z-0.125000 I0.741479 J1.949500
G02 X67.598824 Y5.474983 Z-0.125000 I4.306924 J4.103800
G02 X67.080224 Y6.993960 Z-0.125000 I4.813100 J2.491280
G02 X66.596616 Y9.918586 Z-0.125000 I88.316265 J16.106022
G02 X66.547670 Y10.581668 Z-0.125000 I4.467021 J0.663082
G03 X66.399282 Y10.688681 Z-0.125000 I-0.112781 J-0.000000
G03 X66.111865 Y10.436659 Z-0.125000 I0.155447 J-0.467181
G02 X65.800150 Y9.977451 Z-0.125000 I-1.738008 J0.844378
G02 X65.516410 Y9.785152 Z-0.125000 I-0.544001 J0.497199
G03 X65.259487 Y9.576990 Z-0.125000 I0.185593 J-0.491702
G03 X64.941436 Y8.887801 Z-0.125000 I2.331739 J-1.494047
G02 X64.675751 Y8.162926 Z-0.125000 I-6.548143 J1.988934
G02 X64.609498 Y8.119375 Z-0.125000 I-0.066253 J0.028619
G02 X64.531285 Y8.153296 Z-0.125000 I0.000000 J0.107129
G02 X64.379408 Y8.365196 Z-0.125000 I0.731419 J0.684617
G02 X64.274183 Y8.891230 Z-0.125000 I0.816140 J0.436798
G02 X64.600870 Y10.651879 Z-0.125000 I10.266772 J-0.994363
G03 X65.115916 Y12.942578 Z-0.125000 I-22.998320 J6.374247
G03 X65.216490 Y14.196675 Z-0.125000 I-6.751478 J1.172524
G03 X65.060346 Y15.226237 Z-0.125000 I-3.767484 J-0.044756
G03 X63.932399 Y18.513255 Z-0.125000 I-40.226341 J-11.966721
G02 X63.584382 Y19.424431 Z-0.125000 I63.737102 J24.865967
G02 X63.347174 Y20.078875 Z-0.125000 I32.647665 J12.203582
G01 X63.116491 Y20.735733 Z-0.125000
G01 X63.422305 Y21.340162 Z-0.125000
G02 X63.753890 Y21.928554 Z-0.125000 I6.731803 J-3.406049
G02 X64.146687 Y22.500813 Z-0.125000 I6.757909 J-4.217680
G03 X64.532507 Y23.077095 Z-0.125000 I-5.026083 J3.782244
G03 X64.980871 Y23.908991 Z-0.125000 I-10.047406 J5.951991
G03 X66.142849 Y26.788071 Z-0.125000 I-19.871392 J9.693987
G03 X66.765910 Y29.418319 Z-0.125000 I-15.942325 J5.165385
G02 X66.911186 Y30.326038 Z-0.125000 I66.542139 J-10.184274
G02 X67.060050 Y31.179027 Z-0.125000 I58.874847 J-9.835395
G03 X67.203099 Y32.032786 Z-0.125000 I-30.399405 J5.532324
G03 X67.294955 Y32.712552 Z-0.125000 I-19.170794 J2.936628
G02 X67.456139 Y33.363872 Z-0.125000 I2.652159 J-0.310734
G02 X67.801253 Y34.023469 Z-0.125000 I3.066219 J-1.184221
G02 X68.245941 Y34.636269 Z-0.125000 I9.732441 J-6.594758
G02 X68.401721 Y34.797238 Z-0.125000 I0.812928 J-0.630855
G03 X69.101858 Y35.601600 Z-0.125000 I-2.113314 J2.546374
G03 X71.295839 Y39.471419 Z-0.125000 I-48.957352 J30.313045
G03 X72.402231 Y41.824671 Z-0.125000 I-30.693135 J15.867231
G03 X73.539709 Y44.751427 Z-0.125000 I-46.369164 J19.705697
G02 X73.909025 Y45.627093 Z-0.125000 I7.521894 J-2.656684
G02 X74.111895 Y45.910026 Z-0.125000 I0.959812 J-0.474010
G02 X74.386973 Y46.055228 Z-0.125000 I0.372471 J-0.372467
G02 X74.726978 Y46.025742 Z-0.125000 I0.117240 J-0.623162
G02 X75.177834 Y45.635198 Z-0.125000 I-0.301495 J-0.803568
G02 X75.489207 Y44.637285 Z-0.125000 I-2.310719 J-1.268533
G02 X75.392026 Y43.783255 Z-0.125000 I-1.993300 J-0.205725
G02 X74.829857 Y42.708861 Z-0.125000 I-3.773597 J1.290236
G03 X73.657085 Y40.552718 Z-0.125000 I7.261464 J-5.346683
G03 X73.096834 Y38.127584 Z-0.125000 I8.673286 J-3.280970
G03 X73.086491 Y37.527704 Z-0.125000 I3.974451 J-0.368562
G03 X73.150166 Y37.208144 Z-0.125000 I1.176442 J0.068293
G03 X74.379079 Y36.109731 Z-0.125000 I1.605621 J0.559716
G03 X77.159827 Y36.297198 Z-0.125000 I1.077079 J4.740909
G03 X77.930652 Y36.984784 Z-0.125000 I-0.500020 J1.336416
G03 X78.296883 Y38.524321 Z-0.125000 I-2.982865 J1.522904
G03 X78.151639 Y40.413128 Z-0.125000 I-13.207090 J-0.065603
G03 X77.156604 Y46.145094 Z-0.125000 I-123.186181 J-18.432033
G03 X75.937275 Y51.788817 Z-0.125000 I-161.435801 J-31.924694
G03 X75.126814 Y54.801468 Z-0.125000 I-46.775315 J-10.968126
G02 X74.714892 Y56.236991 Z-0.125000 I45.130931 J13.727144
G02 X73.745793 Y59.918408 Z-0.125000 I295.948443 J79.873911
G02 X72.744563 Y64.037089 Z-0.125000 I161.363498 J41.407687
G02 X72.180490 Y66.734069 Z-0.125000 I68.616546 J15.758612
G02 X71.674741 Y69.669395 Z-0.125000 I91.560681 J17.286896
G02 X71.706958 Y69.771793 Z-0.125000 I0.119588 J0.018642
G01 X71.739058 Y69.785955 Z-0.125000
G02 X73.276624 Y69.811891 Z-0.125000 I2.261408 J-88.472925
G02 X76.076425 Y69.540912 Z-0.125000 I0.109981 J-13.463156
G02 X81.144548 Y68.207636 Z-0.125000 I-9.335546 J-45.786031
G03 X83.533352 Y67.445998 Z-0.125000 I82.171858 J253.597295
G03 X84.030310 Y67.302473 Z-0.125000 I3.397227 J10.830811
G01 X84.530588 Y67.170263 Z-0.125000
G01 X84.453033 Y64.822273 Z-0.125000
G02 X83.979798 Y57.494006 Z-0.125000 I-116.633949 J3.852417
G02 X83.654748 Y56.528572 Z-0.125000 I-2.235259 J0.215148
G02 X83.549474 Y56.402199 Z-0.125000 I-0.497814 J0.307666
G02 X83.017375 Y55.952139 Z-0.125000 I-7.047425 J7.792482
G02 X82.438703 Y55.618869 Z-0.125000 I-1.419671 J1.796022
G02 X82.037457 Y55.565105 Z-0.125000 I-0.309083 J0.782554
G02 X81.617889 Y55.634674 Z-0.125000 I0.426970 J3.874983
G02 X81.546243 Y55.674370 Z-0.125000 I0.031410 J0.141195
G02 X81.514335 Y55.748109 Z-0.125000 I0.079309 J0.078092
G02 X81.485328 Y57.230947 Z-0.125000 I37.887505 J1.482838
G01 X81.485328 Y58.725663 Z-0.125000
G01 X81.087751 Y58.924280 Z-0.125000
G03 X79.750201 Y59.148511 Z-0.125000 I-1.034849 J-2.071535
G03 X79.034886 Y58.653609 Z-0.125000 I0.124517 J-0.944371
G03 X78.802661 Y57.775984 Z-0.125000 I1.735365 J-0.928725
G03 X78.923180 Y54.352283 Z-0.125000 I28.018796 J-0.727672
G03 X79.220758 Y52.401786 Z-0.125000 I17.844041 J1.724439
G03 X79.648815 Y50.887655 Z-0.125000 I11.158711 J2.337083
G02 X79.921426 Y50.088316 Z-0.125000 I-24.999803 J-8.972232
G02 X80.236583 Y49.070144 Z-0.125000 I-40.248046 J-13.015891
G03 X80.544132 Y48.049387 Z-0.125000 I100.797977 J29.813208
G03 X80.811689 Y47.195836 Z-0.125000 I70.700834 J21.693480
G02 X81.604065 Y43.776086 Z-0.125000 I-20.379351 J-6.523685
G02 X82.069054 Y38.619464 Z-0.125000 I-46.058474 J-6.752520
G02 X81.786192 Y36.015047 Z-0.125000 I-9.219557 J-0.316246
G02 X81.149538 Y35.028183 Z-0.125000 I-1.795985 J0.459848
G03 X80.555273 Y34.370634 Z-0.125000 I1.735644 J-2.165910
G03 X80.296747 Y33.710905 Z-0.125000 I1.489178 J-0.964080
G02 X79.868130 Y32.094621 Z-0.125000 I-9.500499 J1.654428
G02 X79.143177 Y30.511278 Z-0.125000 I-9.839123 J3.547328
G02 X78.108004 Y29.029668 Z-0.125000 I-8.121522 J4.571921
G02 X75.070189 Y25.743385 Z-0.125000 I-43.444533 J37.112597
G03 X72.134165 Y22.563369 Z-0.125000 I38.484882 J-38.477435
G03 X71.667760 Y21.750697 Z-0.125000 I1.941343 J-1.654343
G03 X71.190449 Y19.305097 Z-0.125000 I8.221618 J-2.874002
G03 X71.327693 Y14.845363 Z-0.125000 I27.892159 J-1.373623
G03 X71.575886 Y13.788279 Z-0.125000 I4.512040 J0.501705
G03 X72.066057 Y12.825684 Z-0.125000 I4.219694 J1.542646
G02 X72.657687 Y11.901738 Z-0.125000 I-20.750107 J-13.938298
G02 X72.681770 Y11.815989 Z-0.125000 I-0.140616 J-0.085749
G03 X72.705710 Y11.730149 Z-0.125000 I0.165868 J-0.000000
G03 X73.300297 Y10.793318 Z-0.125000 I22.001196 J13.306591
G03 X74.594812 Y9.279211 Z-0.125000 I6.911756 J4.598902
G03 X75.517553 Y8.755873 Z-0.125000 I1.592988 J1.733582
G03 X77.641077 Y8.293768 Z-0.125000 I4.161655 J14.013960
G03 X78.867596 Y8.284215 Z-0.125000 I0.649210 J4.611089
G02 X79.447981 Y8.307892 Z-0.125000 I0.431596 J-3.454338
G02 X79.745485 Y8.246629 Z-0.125000 I-0.040660 J-0.950446
G02 X81.056511 Y7.511888 Z-0.125000 I-1.817089 J-4.779329
G02 X83.623100 Y5.247656 Z-0.125000 I-16.223850 J-20.977101
G02 X84.263139 Y4.463708 Z-0.125000 I-3.640451 J-3.625423
G02 X84.254230 Y4.296898 Z-0.125000 I-0.116620 J-0.077415
G02 X83.872011 Y4.154401 Z-0.125000 I-0.315198 J0.261594
G02 X83.240635 Y4.465012 Z-0.125000 I0.199419 J1.202358
G03 X82.995165 Y4.652971 Z-0.125000 I-1.093049 J-1.173226
G03 X82.419244 Y4.976480 Z-0.125000 I-3.870011 J-6.215117
G03 X81.608299 Y5.175753 Z-0.125000 I-0.839377 J-1.666153
G03 X81.087751 Y4.996772 Z-0.125000 I-0.012354 J-0.810545
G02 X80.908425 Y4.875654 Z-0.125000 I-0.812637 J1.009859
G02 X80.713671 Y4.787287 Z-0.125000 I-0.618939 J1.105309
G03 X80.609268 Y4.676517 Z-0.125000 I0.055876 J-0.157249
G03 X80.628476 Y4.493499 Z-0.125000 I0.234255 J-0.067931
G02 X80.709870 Y4.262794 Z-0.125000 I-0.711253 J-0.380642
G02 X80.746970 Y3.867048 Z-0.125000 I-2.092129 J-0.395746
G02 X80.656050 Y3.553314 Z-0.125000 I-0.586752 J-0.000000
G02 X80.491381 Y3.463109 Z-0.125000 I-0.163825 J0.103660
G02 X80.244418 Y3.502736 Z-0.125000 I0.003251 J0.809645
G02 X79.653901 Y3.735160 Z-0.125000 I1.614107 J4.967307
G03 X79.053126 Y3.923975 Z-0.125000 I-1.015469 J-2.180854
G03 X78.006784 Y4.023413 Z-0.125000 I-1.155262 J-6.601456
G02 X76.943385 Y4.068644 Z-0.125000 I0.330357 J20.289782
G02 X75.720417 Y4.180862 Z-0.125000 I1.852817 J26.912494
G03 X74.544027 Y4.270830 Z-0.125000 I-1.773250 J-15.450318
G01 X74.499279 Y4.227767 Z-0.125000
G03 X74.517268 Y4.138836 Z-0.125000 I0.228816 J0.000000
G03 X74.726467 Y3.689189 Z-0.125000 I6.297363 J2.656379
G02 X74.885156 Y2.805077 Z-0.125000 I-1.379910 J-0.703977
G02 X74.607449 Y2.672624 Z-0.125000 I-0.180521 J0.021135
G01 X74.607449 Y2.672627 Z-0.125000
G00 Z5.000000

(End cutting path id: path4812)


(Start cutting path id: path4812)
(Change tool to Cylindrical cutter)

G00 Z5.000000
G00 X65.129879 Y34.709893

G01 Z-0.125000 F1000.0(Penetrate)
G02 X63.668358 Y35.407039 Z-0.125000 I19.374614 J42.498124 F1100.000000
G02 X63.028384 Y35.757409 Z-0.125000 I4.229594 J8.485314
G03 X62.396647 Y36.123934 Z-0.125000 I-13.746917 J-22.966293
G03 X61.967503 Y36.353713 Z-0.125000 I-5.821915 J-10.357593
G01 X61.533527 Y36.574761 Z-0.125000
G01 X61.300662 Y36.256617 Z-0.125000
G02 X61.069450 Y36.096728 Z-0.125000 I-0.346040 J0.253280
G02 X60.919219 Y36.150606 Z-0.125000 I-0.037013 J0.133180
G02 X60.580606 Y36.868615 Z-0.125000 I1.917880 J1.343322
G02 X59.635938 Y40.781402 Z-0.125000 I58.017805 J16.077729
G02 X58.817668 Y46.039961 Z-0.125000 I53.110072 J10.957252
G02 X58.549989 Y51.058047 Z-0.125000 I48.084200 J5.081133
G02 X58.626456 Y54.290067 Z-0.125000 I64.771739 J0.084465
G02 X58.797360 Y56.142577 Z-0.125000 I21.423657 J-1.042304
G02 X59.647637 Y60.749914 Z-0.125000 I49.280455 J-6.712507
G02 X60.897158 Y65.126243 Z-0.125000 I45.701446 J-10.682043
G02 X61.598408 Y66.773729 Z-0.125000 I11.197659 J-3.793287
G02 X61.913288 Y67.086576 Z-0.125000 I0.645060 J-0.334364
G02 X63.300489 Y67.697712 Z-0.125000 I6.070086 J-11.898372
G02 X66.377281 Y68.757653 Z-0.125000 I21.582112 J-57.652830
G02 X68.958927 Y69.513800 Z-0.125000 I19.819064 J-62.881248
G02 X69.614720 Y69.634577 Z-0.125000 I1.059159 J-3.910222
G02 X70.011114 Y69.448872 Z-0.125000 I0.042539 J-0.425110
G02 X71.039118 Y67.529230 Z-0.125000 I-8.756716 J-5.924466
G02 X72.273013 Y63.790635 Z-0.125000 I-26.156135 J-10.705552
G02 X73.133935 Y59.293639 Z-0.125000 I-37.047144 J-9.423351
G02 X73.640329 Y52.778710 Z-0.125000 I-62.747500 J-8.154393
G02 X73.425629 Y48.039700 Z-0.125000 I-33.336830 J-0.864050
G02 X72.232300 Y43.077696 Z-0.125000 I-21.250318 J2.486063
G02 X69.528532 Y37.545159 Z-0.125000 I-29.200754 J10.843561
G02 X67.551628 Y34.574312 Z-0.125000 I-45.211089 J27.941840
G02 X67.069406 Y34.105821 Z-0.125000 I-1.534886 J1.097452
G02 X66.810447 Y34.068023 Z-0.125000 I-0.168919 J0.251300
G02 X65.129879 Y34.709893 Z-0.125000 I4.254580 J13.660494
G01 X65.129879 Y34.709893 Z-0.125000
G00 Z5.000000

(End cutting path id: path4812)


(Start cutting path id: path4812)
(Change tool to Cylindrical cutter)

G00 Z5.000000
G00 X66.399334 Y49.637924

G01 Z-0.125000 F1000.0(Penetrate)
G03 X66.807818 Y50.230521 Z-0.125000 I-0.591929 J0.845109 F1100.000000
G03 X67.058848 Y52.250786 Z-0.125000 I-8.003948 J2.020265
G03 X66.803231 Y54.363241 Z-0.125000 I-8.856636 J-0.000000
G03 X66.305690 Y55.317328 Z-0.125000 I-2.199418 J-0.540188
G03 X65.807911 Y55.561805 Z-0.125000 I-0.543143 J-0.476887
G03 X65.373473 Y55.375951 Z-0.125000 I-0.032933 J-0.523698
G03 X64.390046 Y52.568974 Z-0.125000 I3.208675 J-2.699924
G03 X65.515377 Y49.819156 Z-0.125000 I4.183387 J0.106831
G03 X65.990106 Y49.553095 Z-0.125000 I0.654655 J0.611535
G03 X66.399334 Y49.637924 Z-0.125000 I0.106116 J0.517583
G01 X66.399334 Y49.637924 Z-0.125000
G00 Z5.000000

(End cutting path id: path4812)


(Start cutting path id: path4812)
(Change tool to Cylindrical cutter)

G00 Z5.000000
G00 X88.445326 Y45.954239

G01 Z-0.125000 F1000.0(Penetrate)
G03 X88.754264 Y46.116706 Z-0.125000 I-0.387649 J1.112090 F1100.000000
G03 X88.865626 Y46.262544 Z-0.125000 I-0.192506 J0.262435
G03 X89.603287 Y49.810935 Z-0.125000 I-10.525489 J4.038973
G03 X89.103649 Y51.727486 Z-0.125000 I-3.363661 J0.146509
G03 X88.780779 Y51.883021 Z-0.125000 I-0.283219 J-0.175040
G03 X88.010202 Y51.596324 Z-0.125000 I0.208683 J-1.739808
G03 X86.463667 Y49.503818 Z-0.125000 I2.172025 J-3.223067
G03 X86.626415 Y47.044892 Z-0.125000 I3.335456 J-1.014085
G03 X87.317807 Y46.049310 Z-0.125000 I3.086380 J1.405503
G03 X87.841678 Y45.832705 Z-0.125000 I0.523872 J0.525205
G03 X88.092470 Y45.857701 Z-0.125000 I-0.000000 J1.270638
G03 X88.445326 Y45.954239 Z-0.125000 I-0.528416 J2.624558
G01 X88.445326 Y45.954239 Z-0.125000
G00 Z5.000000

(End cutting path id: path4812)


(Start cutting path id: path4812)
(Change tool to Cylindrical cutter)

G00 Z5.000000
G00 X94.767976 Y49.312937

G01 Z-0.125000 F1000.0(Penetrate)
G03 X94.696835 Y49.523184 Z-0.125000 I-5.891451 J-1.876326 F1100.000000
G03 X94.607211 Y49.761371 Z-0.125000 I-7.647873 J-2.741751
G02 X94.553291 Y50.005852 Z-0.125000 I0.738053 J0.290965
G02 X94.503870 Y51.522085 Z-0.125000 I29.078043 J1.706706
G03 X94.382656 Y59.696261 Z-0.125000 I-492.887166 J-3.220987
G03 X94.304477 Y60.145594 Z-0.125000 I-1.534285 J-0.035480
G02 X94.272956 Y60.320382 Z-0.125000 I0.591322 J0.196876
G02 X94.147367 Y64.575775 Z-0.125000 I357.867826 J12.691258
G03 X93.914361 Y72.838237 Z-0.125000 I-891.586650 J-21.008737
G03 X93.861354 Y73.285096 Z-0.125000 I-2.641305 J-0.086738
G03 X93.749766 Y73.471645 Z-0.125000 I-0.323042 J-0.066586
G03 X93.479084 Y73.604430 Z-0.125000 I-0.406817 J-0.487008
G01 X93.147637 Y73.677230 Z-0.125000
G01 X93.390743 Y74.153056 Z-0.125000
G02 X94.404998 Y75.519159 Z-0.125000 I4.576505 J-2.338233
G02 X96.303587 Y76.954165 Z-0.125000 I6.969302 J-7.247284
G02 X98.685942 Y78.163449 Z-0.125000 I11.446616 J-19.599129
G02 X99.440676 Y78.320697 Z-0.125000 I0.754734 J-1.732609
G01 X99.468296 Y78.293250 Z-0.125000
G02 X99.443216 Y77.951513 Z-0.125000 I-2.155057 J-0.013627
G03 X99.411102 Y77.580241 Z-0.125000 I2.708211 J-0.421281
G03 X99.323495 Y71.391438 Z-0.125000 I756.144160 J-13.798801
G03 X99.285571 Y60.579778 Z-0.125000 I824.515320 J-8.298000
G03 X99.357319 Y60.295496 Z-0.125000 I0.606395 J0.001849
G03 X99.918454 Y59.657925 Z-0.125000 I1.640129 J0.877783
G03 X100.525058 Y59.464027 Z-0.125000 I0.606604 J0.851924
G03 X101.390664 Y59.651391 Z-0.125000 I0.000000 J2.093197
G03 X101.690241 Y59.993234 Z-0.125000 I-0.228004 J0.502003
G03 X101.768583 Y60.440169 Z-0.125000 I-1.795446 J0.545051
G03 X102.102692 Y67.870013 Z-0.125000 I-503.455426 J26.362087
G02 X102.405736 Y75.745048 Z-0.125000 I4372.703115 J-164.325214
G02 X102.496384 Y77.866319 Z-0.125000 I317.262607 J-12.494906
G01 X102.540879 Y78.831869 Z-0.125000
G01 X102.975117 Y78.869777 Z-0.125000
G02 X107.232595 Y78.925373 Z-0.125000 I2.503611 J-28.679561
G02 X108.042747 Y78.560501 Z-0.125000 I-0.076383 J-1.251456
G02 X108.082548 Y78.452597 Z-0.125000 I-0.097131 J-0.097120
G02 X107.844102 Y76.038323 Z-0.125000 I-60.924311 J4.798282
G03 X107.322018 Y71.590229 Z-0.125000 I1525.248621 J-181.276999
G03 X107.108072 Y69.687525 Z-0.125000 I279.094649 J-32.345619
G02 X106.058664 Y61.027476 Z-0.125000 I-360.517781 J39.293246
G02 X104.912784 Y53.231158 Z-0.125000 I-293.328306 J39.130170
G02 X104.322416 Y50.323528 Z-0.125000 I-35.672148 J5.729165
G02 X104.147711 Y50.123493 Z-0.125000 I-0.281112 J0.069207
G02 X101.869934 Y49.749086 Z-0.125000 I-2.002591 J5.067292
G02 X100.950901 Y50.285162 Z-0.125000 I0.058461 J1.156045
G02 X100.887469 Y50.442230 Z-0.125000 I0.396429 J0.251440
G02 X100.855216 Y50.751418 Z-0.125000 I1.548751 J0.317833
G01 X100.853523 Y51.069562 Z-0.125000
G01 X100.484339 Y50.720258 Z-0.125000
G02 X100.091069 Y50.461880 Z-0.125000 I-0.921175 J0.973615
G02 X99.831170 Y50.440378 Z-0.125000 I-0.162144 J0.378403
G03 X99.546460 Y50.506626 Z-0.125000 I-3.116644 J-12.749235
G03 X98.554354 Y50.722530 Z-0.125000 I-34.208020 J-154.803183
G02 X97.570458 Y50.959639 Z-0.125000 I4.173096 J19.476360
G02 X97.361613 Y51.042242 Z-0.125000 I0.253918 J0.947293
G03 X97.153196 Y51.123554 Z-0.125000 I-0.443270 J-0.828426
G03 X96.649981 Y51.225947 Z-0.125000 I-1.237105 J-4.792083
G01 X96.138255 Y51.302677 Z-0.125000
G01 X95.627741 Y50.318836 Z-0.125000
G02 X94.928315 Y49.280613 Z-0.125000 I-4.876034 J2.530163
G02 X94.768326 Y49.312937 Z-0.125000 I-0.071003 J0.060663
G01 X94.767976 Y49.312937 Z-0.125000
G00 Z5.000000

(End cutting path id: path4812)


(Start cutting path id: path4812)
(Change tool to Cylindrical cutter)

G00 Z5.000000
G00 X110.253106 Y49.206994

G01 Z-0.125000 F1000.0(Penetrate)
G02 X109.552203 Y49.771793 Z-0.125000 I3.498751 J5.059172 F1100.000000
G02 X109.486342 Y49.923474 Z-0.125000 I0.141735 J0.151681
G02 X109.511637 Y50.105393 Z-0.125000 I0.666819 J0.000000
G02 X109.766679 Y50.912073 Z-0.125000 I13.613493 J-3.860419
G03 X110.450738 Y53.157413 Z-0.125000 I-27.429172 J9.583358
G03 X111.371225 Y57.059344 Z-0.125000 I-82.018090 J21.408077
G03 X111.726705 Y59.586751 Z-0.125000 I-18.298837 J3.862435
G03 X111.642895 Y60.855397 Z-0.125000 I-4.629044 J0.331286
G03 X111.226392 Y62.078559 Z-0.125000 I-5.082676 J-1.048227
G03 X110.775037 Y62.638254 Z-0.125000 I-1.444818 J-0.703305
G03 X110.358890 Y62.558664 Z-0.125000 I-0.173500 J-0.220567
G03 X109.722796 Y60.827161 Z-0.125000 I4.599458 J-2.672272
G02 X109.609337 Y60.202613 Z-0.125000 I-162.998447 J29.288743
G02 X109.430739 Y59.236841 Z-0.125000 I-389.701442 J71.567376
G03 X108.835403 Y55.917537 Z-0.125000 I249.852247 J-46.525472
G03 X108.237893 Y52.322442 Z-0.125000 I292.538011 J-50.467431
G02 X107.863853 Y50.387948 Z-0.125000 I-29.993990 J4.796016
G02 X107.767222 Y50.251083 Z-0.125000 I-0.214170 J0.048666
G02 X105.878149 Y49.709012 Z-0.125000 I-1.868728 J2.949697
G02 X104.882750 Y50.267763 Z-0.125000 I0.006865 J1.178243
G02 X104.853913 Y50.394907 Z-0.125000 I0.170871 J0.105597
G02 X105.045152 Y51.772885 Z-0.125000 I22.737318 J-2.453276
G03 X105.755263 Y56.103211 Z-0.125000 I-374.112404 J63.572375
G03 X105.901685 Y57.192130 Z-0.125000 I-23.499881 J3.714241
G02 X105.979987 Y57.815724 Z-0.125000 I21.794045 J-2.419850
G02 X106.188248 Y59.236827 Z-0.125000 I113.409893 J-15.894306
G03 X106.391824 Y60.658641 Z-0.125000 I-74.155125 J11.343052
G03 X106.756607 Y63.496619 Z-0.125000 I-295.104151 J39.373988
G02 X107.111770 Y66.335960 Z-0.125000 I1005.836920 J-124.374715
G02 X107.273991 Y67.586016 Z-0.125000 I195.539894 J-24.739805
G03 X107.437010 Y68.835966 Z-0.125000 I-243.320723 J32.369554
G03 X107.607916 Y70.198685 Z-0.125000 I-289.090556 J36.948602
G02 X107.777643 Y71.561560 Z-0.125000 I459.779277 J-56.566996
G02 X108.058927 Y73.776910 Z-0.125000 I1211.552619 J-152.705897
G03 X108.339388 Y75.992350 Z-0.125000 I-862.638627 J110.329991
G03 X108.482331 Y77.156341 Z-0.125000 I-237.761257 J29.788949
G01 X108.622429 Y78.320683 Z-0.125000
G01 X109.139584 Y78.320423 Z-0.125000
G02 X109.654447 Y78.291852 Z-0.125000 I-0.004176 J-4.728626
G02 X110.735884 Y78.144141 Z-0.125000 I-2.325610 J-21.059115
G03 X111.819971 Y78.032501 Z-0.125000 I1.488625 J9.136011
G03 X114.314106 Y77.987604 Z-0.125000 I2.119757 J48.457192
G02 X116.799824 Y77.914242 Z-0.125000 I0.258228 J-33.398975
G02 X117.602808 Y77.767792 Z-0.125000 I-0.239986 J-3.590439
G02 X118.294836 Y77.118725 Z-0.125000 I-0.310107 J-1.024083
G02 X118.530955 Y75.287570 Z-0.125000 I-3.794978 J-1.420145
G02 X117.835187 Y69.582315 Z-0.125000 I-144.845214 J14.769129
G02 X117.611227 Y68.812353 Z-0.125000 I-2.805448 J0.398474
G02 X116.783238 Y67.767633 Z-0.125000 I-2.501833 J1.132346
G02 X114.001720 Y66.037172 Z-0.125000 I-10.108360 J13.147320
G03 X113.039893 Y65.527690 Z-0.125000 I8.145978 J-16.541049
G03 X113.007767 Y65.472491 Z-0.125000 I0.031360 J-0.055200
G01 X113.042732 Y65.428244 Z-0.125000
G03 X113.660939 Y65.317297 Z-0.125000 I1.304003 J5.488153
G02 X115.147809 Y64.974018 Z-0.125000 I-0.884937 J-7.224728
G02 X116.033751 Y64.499462 Z-0.125000 I-1.028795 J-2.984898
G02 X116.412988 Y63.781865 Z-0.125000 I-0.586527 J-0.768977
G02 X116.192970 Y61.506808 Z-0.125000 I-7.658987 J-0.407475
G02 X114.428198 Y55.694864 Z-0.125000 I-60.355467 J15.152768
G02 X112.433973 Y51.001433 Z-0.125000 I-41.299269 J14.777556
G02 X111.233585 Y48.746491 Z-0.125000 I-39.153326 J19.395763
G02 X111.106732 Y48.674830 Z-0.125000 I-0.123452 J0.070424
G02 X111.026954 Y48.698929 Z-0.125000 I0.004717 J0.159712
G02 X110.253106 Y49.207177 Z-0.125000 I10.235042 J16.426928
G01 X110.253106 Y49.206994 Z-0.125000
G00 Z5.000000

(End cutting path id: path4812)


(Start cutting path id: path4812)
(Change tool to Cylindrical cutter)

G00 Z5.000000
G00 X114.427701 Y46.244403

G01 Z-0.125000 F1000.0(Penetrate)
G02 X113.750444 Y46.767112 Z-0.125000 I33.362792 J43.927130 F1100.000000
G02 X113.646521 Y46.857045 Z-0.125000 I0.878488 J1.120159
G02 X113.629274 Y46.957397 Z-0.125000 I0.058931 J0.061786
G02 X113.943241 Y47.443119 Z-0.125000 I2.457253 J-1.244017
G03 X115.485235 Y49.496090 Z-0.125000 I-28.704131 J23.165364
G03 X115.935038 Y50.296628 Z-0.125000 I-3.868228 J2.700100
G03 X116.038581 Y50.621978 Z-0.125000 I-1.471943 J0.647599
G03 X116.074817 Y50.979964 Z-0.125000 I-1.750207 J0.357986
G03 X115.888889 Y51.851742 Z-0.125000 I-2.136748 J0.000000
G03 X115.546729 Y52.161764 Z-0.125000 I-0.523499 J-0.233940
G03 X115.464491 Y52.130250 Z-0.125000 I-0.021939 J-0.065805
G03 X114.209619 Y49.810554 Z-0.125000 I54.084636 J-30.757127
G01 X112.982553 Y47.422661 Z-0.125000
G01 X112.538090 Y47.672467 Z-0.125000
G02 X112.112084 Y47.945395 Z-0.125000 I2.146868 J3.819917
G02 X111.902390 Y48.133578 Z-0.125000 I0.798038 J1.100182
G02 X111.840932 Y48.359089 Z-0.125000 I0.191526 J0.173326
G02 X112.079360 Y48.991503 Z-0.125000 I2.115245 J-0.436323
G03 X114.028170 Y52.852371 Z-0.125000 I-37.452554 J21.326800
G03 X115.688971 Y57.134424 Z-0.125000 I-44.435657 J19.697546
G02 X116.329467 Y58.917965 Z-0.125000 I40.751825 J-13.627800
G02 X116.400219 Y58.985593 Z-0.125000 I0.106988 J-0.041106
G02 X116.731671 Y58.874018 Z-0.125000 I0.091798 J-0.275402
G02 X117.370768 Y57.565846 Z-0.125000 I-4.153596 J-2.839403
G03 X117.611178 Y56.920303 Z-0.125000 I6.945779 J2.219179
G03 X118.151538 Y55.738319 Z-0.125000 I23.868165 J10.197151
G03 X118.765970 Y54.685498 Z-0.125000 I7.366056 J3.593166
G03 X118.903624 Y54.645379 Z-0.125000 I0.093406 J0.064276
G02 X119.339477 Y54.630358 Z-0.125000 I0.201777 J-0.476076
G02 X119.369056 Y54.409083 Z-0.125000 I-0.061337 J-0.120814
G03 X119.188981 Y54.095067 Z-0.125000 I0.392547 J-0.433751
G03 X119.242121 Y53.801998 Z-0.125000 I0.387663 J-0.081060
G03 X119.363499 Y53.740154 Z-0.125000 I0.112903 J0.071556
G03 X119.689116 Y53.830398 Z-0.125000 I-0.052139 J0.820694
G02 X120.276846 Y54.005356 Z-0.125000 I0.753887 J-1.457856
G02 X120.391406 Y53.901862 Z-0.125000 I0.010532 J-0.103494
G02 X120.361013 Y53.803666 Z-0.125000 I-0.173824 J0.000000
G02 X120.050620 Y53.404087 Z-0.125000 I-3.475393 J2.379337
G03 X119.757071 Y52.998162 Z-0.125000 I1.996121 J-1.752623
G03 X119.709839 Y52.824696 Z-0.125000 I0.294929 J-0.173466
G02 X119.342999 Y52.106458 Z-0.125000 I-0.886541 J-0.000000
G02 X118.210232 Y51.739616 Z-0.125000 I-1.132767 J1.565511
G03 X117.715573 Y51.709286 Z-0.125000 I0.000000 J-4.048830
G03 X117.631798 Y51.668417 Z-0.125000 I0.017501 J-0.142174
G03 X117.610150 Y51.589527 Z-0.125000 I0.058462 J-0.058458
G03 X117.736951 Y51.256201 Z-0.125000 I1.521996 J0.388204
G02 X117.912553 Y50.437607 Z-0.125000 I-1.414787 J-0.731627
G02 X117.635831 Y49.407007 Z-0.125000 I-2.583681 J0.141283
G02 X115.613627 Y45.935531 Z-0.125000 I-31.179557 J15.837984
G02 X115.196065 Y45.722935 Z-0.125000 I-0.396638 J0.262673
G02 X115.117313 Y45.749414 Z-0.125000 I0.008240 J0.154853
G02 X114.427701 Y46.244405 Z-0.125000 I8.820001 J13.015733
G01 X114.427701 Y46.244403 Z-0.125000
G00 Z5.000000

(End cutting path id: path4812)


(Start cutting path id: path4812)
(Change tool to Cylindrical cutter)

G00 Z5.000000
G00 X116.756384 Y44.603814

G01 Z-0.125000 F1000.0(Penetrate)
G02 X115.943287 Y45.321186 Z-0.125000 I8.537922 J10.496696 F1100.000000
G02 X115.867136 Y45.454115 Z-0.125000 I0.186658 J0.195207
G02 X115.886198 Y45.601607 Z-0.125000 I0.204654 J0.048527
G02 X116.491902 Y46.625767 Z-0.125000 I11.880236 J-6.334965
G03 X117.146746 Y47.644682 Z-0.125000 I-71.970911 J46.974640
G03 X118.005920 Y49.018458 Z-0.125000 I-129.766989 J82.113239
G02 X118.857962 Y50.396769 Z-0.125000 I11526.260049 J-7123.235085
G02 X119.396113 Y51.267007 Z-0.125000 I4488.443070 J-2775.292377
G03 X119.893346 Y52.149013 Z-0.125000 I-10.606280 J6.560479
G03 X119.935685 Y52.322075 Z-0.125000 I-0.343786 J0.175817
G02 X119.974863 Y52.489160 Z-0.125000 I0.399522 J-0.005544
G02 X120.083665 Y52.628653 Z-0.125000 I0.372793 J-0.178594
G02 X120.952182 Y53.060004 Z-0.125000 I1.348117 J-1.624361
G02 X121.393044 Y52.934128 Z-0.125000 I0.107203 J-0.459503
G01 X121.397821 Y52.871036 Z-0.125000
G02 X121.014138 Y52.419092 Z-0.125000 I-3.432672 J2.525371
G03 X121.014709 Y52.175937 Z-0.125000 I0.124206 J-0.121286
G03 X121.339210 Y52.089309 Z-0.125000 I0.235884 J0.232515
G02 X121.767764 Y52.179873 Z-0.125000 I0.936697 J-3.373265
G02 X121.825713 Y52.160678 Z-0.125000 I0.009869 J-0.067275
G01 X121.830901 Y52.108803 Z-0.125000
G02 X121.471778 Y51.627484 Z-0.125000 I-4.552983 J3.022447
G03 X121.171818 Y51.143984 Z-0.125000 I1.556505 J-1.300444
G03 X121.192858 Y50.993658 Z-0.125000 I0.132126 J-0.058143
G03 X121.387097 Y50.930625 Z-0.125000 I0.146915 J0.121932
G03 X122.312453 Y51.280108 Z-0.125000 I-1.110343 J4.339766
G02 X122.524090 Y51.169204 Z-0.125000 I0.066534 J-0.130418
G02 X122.385656 Y50.735803 Z-0.125000 I-0.526129 J-0.070758
G03 X122.045773 Y50.190950 Z-0.125000 I1.214623 J-1.136128
G03 X122.097137 Y49.977251 Z-0.125000 I0.182082 J-0.069257
G03 X122.343394 Y49.892691 Z-0.125000 I0.221809 J0.245098
G03 X122.891469 Y50.036160 Z-0.125000 I-0.115744 J1.560763
G02 X123.448498 Y50.248464 Z-0.125000 I1.712512 J-3.656266
G02 X123.531786 Y50.227408 Z-0.125000 I0.023995 J-0.080337
G02 X123.546202 Y50.148048 Z-0.125000 I-0.050092 J-0.050089
G02 X123.294101 Y49.703640 Z-0.125000 I-2.587516 J1.174119
G03 X123.045781 Y49.252219 Z-0.125000 I2.057339 J-1.425725
G03 X123.054658 Y49.136994 Z-0.125000 I0.115998 J-0.049017
G02 X123.074782 Y49.015828 Z-0.125000 I-0.137727 J-0.085129
G02 X122.904008 Y48.477159 Z-0.125000 I-3.340549 J0.762648
G03 X122.690914 Y47.930715 Z-0.125000 I15.320799 J-6.289358
G03 X122.579912 Y47.600517 Z-0.125000 I5.479325 J-2.025719
G02 X122.343199 Y47.334739 Z-0.125000 I-0.405746 J0.123072
G02 X122.142508 Y47.410381 Z-0.125000 I-0.061381 J0.141203
G03 X122.014028 Y47.614661 Z-0.125000 I-0.900705 J-0.423944
G03 X121.483784 Y48.220088 Z-0.125000 I-8.586587 J-6.985385
G01 X120.929045 Y48.808843 Z-0.125000
G01 X120.520706 Y48.400498 Z-0.125000
G01 X120.112359 Y47.992157 Z-0.125000
G01 X120.876656 Y47.221967 Z-0.125000
G02 X121.603806 Y46.436477 Z-0.125000 I-10.953295 J-10.869083
G02 X121.640942 Y46.336630 Z-0.125000 I-0.115659 J-0.099847
G02 X121.597079 Y46.246199 Z-0.125000 I-0.115151 J0.000000
G02 X121.009128 Y45.838573 Z-0.125000 I-3.611657 J4.581532
G01 X120.377315 Y45.455651 Z-0.125000
G01 X119.669772 Y46.156900 Z-0.125000
G01 X118.962236 Y46.858146 Z-0.125000
G01 X118.597681 Y46.482011 Z-0.125000
G03 X118.266079 Y46.092963 Z-0.125000 I2.872374 J-2.784089
G03 X118.235632 Y45.997690 Z-0.125000 I0.122682 J-0.091707
G03 X118.273269 Y45.905897 Z-0.125000 I0.138782 J0.003291
G03 X118.803604 Y45.393556 Z-0.125000 I5.583139 J5.248580
G02 X119.334716 Y44.882053 Z-0.125000 I-5.218792 J-5.950340
G02 X119.369056 Y44.795776 Z-0.125000 I-0.091212 J-0.086277
G02 X119.038788 Y44.215867 Z-0.125000 I-0.674256 J-0.000000
G02 X117.869384 Y43.906214 Z-0.125000 I-1.130245 J1.905414
G02 X117.632381 Y43.976594 Z-0.125000 I0.008036 J0.461301
G02 X116.756384 Y44.603814 Z-0.125000 I4.656750 J7.429118
G01 X116.756384 Y44.603814 Z-0.125000
G00 Z5.000000

(End cutting path id: path4812)


(Start cutting path id: path4812)
(Change tool to Cylindrical cutter)

G00 Z5.000000
G00 X121.132640 Y42.306635

G01 Z-0.125000 F1000.0(Penetrate)
G02 X121.128929 Y42.390372 Z-0.125000 I0.073158 J0.045193 F1100.000000
G02 X121.252915 Y42.546400 Z-0.125000 I0.434054 J-0.217641
G03 X121.932186 Y43.364822 Z-0.125000 I-1.843229 J2.220938
G03 X121.816908 Y43.560816 Z-0.125000 I-0.115279 J0.064095
G03 X121.764809 Y43.547321 Z-0.125000 I-0.000000 J-0.107311
G03 X120.896468 Y43.049644 Z-0.125000 I17.990172 J-32.395425
G02 X120.024962 Y42.563663 Z-0.125000 I-10.058444 J17.013299
G02 X119.922762 Y42.538466 Z-0.125000 I-0.102200 J0.194670
G02 X119.821513 Y42.564945 Z-0.125000 I0.000000 J0.206820
G02 X119.120523 Y42.988868 Z-0.125000 I6.203573 J11.049632
G03 X118.422398 Y43.429843 Z-0.125000 I-17.508423 J-26.945119
G03 X118.301847 Y43.491392 Z-0.125000 I-0.451702 J-0.735880
G02 X118.286679 Y43.645039 Z-0.125000 I0.033588 J0.080888
G02 X118.744284 Y43.787867 Z-0.125000 I0.470016 J-0.701411
G03 X119.572054 Y43.927859 Z-0.125000 I-0.040812 J2.758609
G03 X121.774594 Y44.793061 Z-0.125000 I-6.898220 J20.796868
G03 X122.201218 Y45.125564 Z-0.125000 I-0.485054 J1.062301
G03 X122.492390 Y45.689751 Z-0.125000 I-1.256039 J1.005458
G02 X122.684998 Y46.342040 Z-0.125000 I35.081405 J-10.004270
G02 X122.952398 Y47.195836 Z-0.125000 I60.516967 J-18.484519
G03 X123.208541 Y48.051830 Z-0.125000 I-21.449831 J6.884844
G03 X123.267897 Y48.331783 Z-0.125000 I-2.225357 J0.618095
G02 X123.448398 Y48.921065 Z-0.125000 I2.035870 J-0.301314
G02 X123.595060 Y49.013350 Z-0.125000 I0.146663 J-0.070400
G03 X123.699130 Y49.039133 Z-0.125000 I0.000000 J0.222919
G03 X124.029310 Y49.242596 Z-0.125000 I-1.361699 J2.579409
G02 X124.191145 Y49.159573 Z-0.125000 I0.059410 J-0.083435
G02 X124.031285 Y48.747891 Z-0.125000 I-0.603760 J-0.002434
G03 X123.607319 Y48.235764 Z-0.125000 I4.594516 J-4.235138
G03 X123.571952 Y48.128730 Z-0.125000 I0.144278 J-0.107034
G01 X123.625095 Y48.085779 Z-0.125000
G03 X124.253518 Y48.274983 Z-0.125000 I-0.849819 J3.960820
G02 X124.882307 Y48.464707 Z-0.125000 I1.490786 J-3.803964
G01 X124.935088 Y48.422103 Z-0.125000
G02 X124.905162 Y48.311752 Z-0.125000 I-0.218422 J-0.000000
G02 X124.555663 Y47.773985 Z-0.125000 I-5.931046 J3.472185
G03 X124.269344 Y47.243054 Z-0.125000 I1.912680 J-1.374130
G03 X124.286270 Y47.071421 Z-0.125000 I0.179750 J-0.068924
G02 X124.321535 Y46.891518 Z-0.125000 I-0.214870 J-0.135526
G02 X124.160907 Y46.364849 Z-0.125000 I-2.256157 J0.400272
G03 X124.020215 Y45.894364 Z-0.125000 I1.788260 J-0.791034
G03 X124.072473 Y45.832705 Z-0.125000 I0.052258 J-0.008684
G03 X124.787672 Y46.088116 Z-0.125000 I0.000000 J1.129052
G03 X125.223344 Y46.774834 Z-0.125000 I-0.820223 J1.001932
G02 X125.345716 Y46.987187 Z-0.125000 I0.434838 J-0.109145
G02 X125.623355 Y47.163595 Z-0.125000 I0.562785 J-0.579054
G02 X125.781331 Y47.063070 Z-0.125000 I0.041318 J-0.109463
G02 X125.661977 Y46.659523 Z-0.125000 I-0.589239 J-0.045149
G03 X125.644396 Y46.392623 Z-0.125000 I0.192330 J-0.146698
G03 X125.850555 Y46.330204 Z-0.125000 I0.136131 J0.077953
G02 X126.152717 Y46.297728 Z-0.125000 I0.125737 J-0.252050
G02 X126.185479 Y46.061096 Z-0.125000 I-0.109015 J-0.135677
G03 X126.001164 Y45.717775 Z-0.125000 I1.262488 J-0.898915
G03 X125.850498 Y45.188716 Z-0.125000 I2.881911 J-1.106695
G02 X125.458440 Y44.515829 Z-0.125000 I-1.149223 J0.218935
G02 X124.821084 Y44.314739 Z-0.125000 I-0.557623 J0.656794
G03 X124.052453 Y44.348961 Z-0.125000 I-0.739179 J-7.953183
G03 X123.748163 Y44.310788 Z-0.125000 I0.004680 J-1.269192
G03 X123.563460 Y44.149387 Z-0.125000 I0.065624 J-0.261482
G03 X123.480944 Y43.642393 Z-0.125000 I1.097732 J-0.438876
G01 X123.515157 Y43.049644 Z-0.125000
G01 X123.969538 Y42.984679 Z-0.125000
G01 X124.423913 Y42.919712 Z-0.125000
G01 X123.979294 Y42.719777 Z-0.125000
G02 X121.681270 Y42.050622 Z-0.125000 I-3.536459 J7.864427
G02 X121.132550 Y42.306635 Z-0.125000 I-0.079262 J0.546166
G01 X121.132640 Y42.306635 Z-0.125000
G00 Z5.000000

(End cutting path id: path4812)


(Start cutting path id: path4812)
(Change tool to Cylindrical cutter)

G00 Z5.000000
G00 X118.360981 Y52.827580

G01 Z-0.125000 F1000.0(Penetrate)
G03 X118.426205 Y53.083012 Z-0.125000 I-0.099834 J0.161536 F1100.000000
G03 X117.663011 Y54.054536 Z-0.125000 I-3.624962 J-2.062110
G03 X116.854417 Y54.778232 Z-0.125000 I-14.213339 J-15.067152
G03 X116.777000 Y54.806661 Z-0.125000 I-0.077417 J-0.091197
G03 X115.679205 Y54.097490 Z-0.125000 I0.000000 J-1.204278
G03 X115.910095 Y52.884315 Z-0.125000 I0.980101 J-0.442027
G03 X116.032440 Y52.808128 Z-0.125000 I0.236343 J0.243200
G03 X116.358803 Y52.724157 Z-0.125000 I0.623267 J1.746202
G03 X117.780715 Y52.646427 Z-0.125000 I1.075550 J6.630664
G03 X118.360981 Y52.827580 Z-0.125000 I-0.063095 J1.222029
G01 X118.360981 Y52.827580 Z-0.125000
G00 Z5.000000

(End cutting path id: path4812)


(Start cutting path id: path4812)
(Change tool to Cylindrical cutter)

G00 Z5.000000
G00 X123.193401 Y55.336767

G01 Z-0.125000 F1000.0(Penetrate)
G02 X123.148981 Y55.425466 Z-0.125000 I0.111108 J0.111115 F1100.000000
G02 X123.117664 Y55.862276 Z-0.125000 I3.030694 J0.436810
G03 X122.891100 Y58.101585 Z-0.125000 I-11.179685 J-0.000000
G03 X122.613607 Y58.328086 Z-0.125000 I-0.277493 J-0.056732
G01 X122.589930 Y58.315283 Z-0.125000
G03 X121.980678 Y57.360868 Z-0.125000 I41.948009 J-27.449184
G02 X121.352078 Y56.582477 Z-0.125000 I-3.475461 J2.163643
G02 X121.173173 Y56.579488 Z-0.125000 I-0.091050 J0.094094
G02 X121.046405 Y56.801782 Z-0.125000 I0.275480 J0.304392
G02 X120.935203 Y57.745500 Z-0.125000 I5.545907 J1.131903
G03 X120.852412 Y58.667218 Z-0.125000 I-8.217449 J-0.273536
G03 X120.793107 Y58.712580 Z-0.125000 I-0.052952 J-0.007780
G03 X120.706135 Y58.655083 Z-0.125000 I0.013804 J-0.115408
G03 X120.289803 Y57.836740 Z-0.125000 I7.815782 J-4.491354
G02 X119.916304 Y57.693201 Z-0.125000 I-0.258686 J0.115416
G02 X119.355569 Y58.250952 Z-0.125000 I0.448562 J1.011706
G03 X119.065447 Y58.761167 Z-0.125000 I-2.839510 J-1.277025
G03 X118.854760 Y58.965349 Z-0.125000 I-0.637189 J-0.446700
G03 X118.613911 Y58.999415 Z-0.125000 I-0.156650 J-0.239085
G03 X118.245730 Y58.777615 Z-0.125000 I0.262905 J-0.852897
G02 X117.877178 Y58.482687 Z-0.125000 I-1.512931 J1.512866
G02 X117.756605 Y58.467986 Z-0.125000 I-0.075778 J0.119707
G02 X117.674326 Y58.552655 Z-0.125000 I0.040549 J0.121718
G02 X117.597104 Y58.996760 Z-0.125000 I1.790684 J0.540132
G03 X117.505590 Y59.444777 Z-0.125000 I-1.526092 J-0.078372
G03 X117.363102 Y59.634557 Z-0.125000 I-0.386533 J-0.141830
G03 X117.231656 Y59.618662 Z-0.125000 I-0.057273 J-0.077829
G03 X117.119034 Y59.342257 Z-0.125000 I0.376924 J-0.314726
G02 X116.877521 Y59.268554 Z-0.125000 I-0.135233 J0.010586
G02 X116.645504 Y59.939338 Z-0.125000 I0.839720 J0.665967
G02 X116.707902 Y60.576990 Z-0.125000 I3.440303 J-0.014771
G02 X117.035087 Y61.957032 Z-0.125000 I16.586785 J-3.203645
G03 X118.419967 Y68.198556 Z-0.125000 I-54.549416 J15.377925
G03 X119.322949 Y75.963613 Z-0.125000 I-83.628366 J13.659997
G02 X119.523056 Y76.906312 Z-0.125000 I3.455810 J-0.240975
G02 X119.666149 Y76.907579 Z-0.125000 I0.071783 J-0.026098
G03 X120.001020 Y76.559912 Z-0.125000 I0.578313 J0.221922
G03 X121.129764 Y76.282036 Z-0.125000 I1.411736 J3.303094
G02 X121.822878 Y76.113260 Z-0.125000 I-0.176383 J-2.231950
G02 X121.958360 Y75.932834 Z-0.125000 I-0.086982 J-0.206395
G02 X121.916646 Y75.665447 Z-0.125000 I-0.502331 J-0.058580
G02 X121.529061 Y74.985903 Z-0.125000 I-3.847452 J1.744129
G03 X121.170344 Y74.302870 Z-0.125000 I2.485261 J-1.740928
G03 X121.139092 Y73.937537 Z-0.125000 I0.642397 J-0.238957
G02 X121.144319 Y73.605774 Z-0.125000 I-0.965515 J-0.181135
G02 X121.078908 Y73.549730 Z-0.125000 I-0.065411 J0.010150
G01 X121.055845 Y73.457273 Z-0.125000
G03 X121.703054 Y73.217684 Z-0.125000 I1.209741 J2.273953
G02 X122.213585 Y72.996726 Z-0.125000 I-0.324495 J-1.450035
G02 X122.274765 Y72.829268 Z-0.125000 I-0.085766 J-0.126239
G03 X122.218283 Y72.581568 Z-0.125000 I2.480620 J-0.695943
G03 X122.080958 Y71.732222 Z-0.125000 I29.067305 J-5.135468
G02 X121.693864 Y69.441689 Z-0.125000 I-52.987661 J7.776803
G02 X120.961306 Y65.882111 Z-0.125000 I-128.769924 J24.645552
G03 X120.765837 Y64.077009 Z-0.125000 I8.152374 J-1.795929
G03 X120.963846 Y63.574845 Z-0.125000 I0.737820 J0.000811
G03 X121.452165 Y63.314523 Z-0.125000 I0.622924 J0.580336
G03 X121.948906 Y63.417114 Z-0.125000 I0.113093 J0.706306
G03 X122.144564 Y63.691459 Z-0.125000 I-0.240553 J0.378502
G03 X122.944335 Y67.586027 Z-0.125000 I-60.723443 J14.499284
G02 X123.129327 Y68.606727 Z-0.125000 I59.374707 J-10.233977
G02 X123.397903 Y69.971508 Z-0.125000 I106.674643 J-20.283737
G03 X123.660396 Y71.337105 Z-0.125000 I-62.926245 J12.803649
G03 X123.749980 Y71.916468 Z-0.125000 I-11.239879 J2.034576
G02 X124.132369 Y72.401746 Z-0.125000 I0.596294 J-0.076570
G02 X125.064253 Y72.416834 Z-0.125000 I0.486764 J-1.278546
G02 X126.718460 Y71.691270 Z-0.125000 I-3.589897 J-10.433070
G02 X126.866323 Y71.443333 Z-0.125000 I-0.133938 J-0.247936
G02 X126.848612 Y71.288721 Z-0.125000 I-0.683709 J-0.000000
G02 X126.255346 Y68.811527 Z-0.125000 I-178.453048 J41.428276
G03 X125.170961 Y63.953228 Z-0.125000 I107.811178 J-26.613900
G03 X124.026942 Y57.657517 Z-0.125000 I179.955550 J-35.952258
G02 X123.439849 Y55.391944 Z-0.125000 I-12.673992 J2.075442
G02 X123.193444 Y55.336767 Z-0.125000 I-0.140695 J0.050531
G01 X123.193401 Y55.336767 Z-0.125000
G00 Z5.000000

(End cutting path id: path4812)


(Start cutting path id: path4812)
(Change tool to Cylindrical cutter)

G00 Z5.000000
G00 X124.989182 Y55.606340

G01 Z-0.125000 F1000.0(Penetrate)
G02 X124.938458 Y55.745804 Z-0.125000 I0.310490 J0.191883 F1100.000000
G02 X124.868802 Y56.435899 Z-0.125000 I7.889354 J1.144883
G03 X124.798477 Y57.130384 Z-0.125000 I-7.952328 J-0.454469
G03 X124.696040 Y57.621017 Z-0.125000 I-4.062625 J-0.592206
G02 X124.629673 Y58.110368 Z-0.125000 I1.808424 J0.494438
G02 X124.692512 Y58.927351 Z-0.125000 I5.160257 J0.014003
G02 X125.321327 Y62.673937 Z-0.125000 I185.571240 J-29.219583
G02 X125.381374 Y62.791902 Z-0.125000 I0.224515 J-0.040020
G02 X125.481232 Y62.822755 Z-0.125000 I0.077772 J-0.074687
G02 X126.055476 Y62.650858 Z-0.125000 I-0.726718 J-3.472817
G03 X126.980939 Y62.357416 Z-0.125000 I2.603802 J6.605830
G03 X128.902004 Y61.958403 Z-0.125000 I6.854559 J28.177533
G03 X129.620411 Y61.918597 Z-0.125000 I0.530600 J3.073360
G03 X130.066348 Y62.028643 Z-0.125000 I-0.076537 J1.268700
G03 X130.355608 Y62.379745 Z-0.125000 I-0.211448 J0.468910
G03 X130.245757 Y62.791154 Z-0.125000 I-0.438727 J0.103225
G03 X129.911810 Y63.034934 Z-0.125000 I-0.810140 J-0.759166
G03 X128.172662 Y63.775452 Z-0.125000 I-9.953327 J-20.963435
G02 X126.752971 Y64.504907 Z-0.125000 I2.508861 J6.629083
G02 X126.358123 Y64.983747 Z-0.125000 I0.593994 J0.892018
G02 X126.236042 Y65.741606 Z-0.125000 I1.514253 J0.632687
G02 X126.571841 Y67.777603 Z-0.125000 I11.824336 J-0.904510
G03 X126.947902 Y69.292531 Z-0.125000 I-104.404843 J26.721224
G03 X127.149152 Y70.177448 Z-0.125000 I-35.417265 J8.520045
G02 X127.393156 Y71.018929 Z-0.125000 I6.031469 J-1.292821
G02 X127.499054 Y71.126223 Z-0.125000 I0.171312 J-0.063176
G02 X128.372720 Y71.029236 Z-0.125000 I0.342992 J-0.893812
G02 X131.539348 Y68.435460 Z-0.125000 I-11.507416 J-17.278790
G02 X133.216149 Y66.241001 Z-0.125000 I-7.343980 J-7.349444
G02 X133.226675 Y65.482783 Z-0.125000 I-0.680057 J-0.388623
G02 X133.073681 Y65.377929 Z-0.125000 I-0.177548 J0.095019
G02 X132.744741 Y65.423579 Z-0.125000 I-0.078717 J0.640749
G02 X132.384195 Y65.680088 Z-0.125000 I0.392345 J0.933120
G02 X132.164831 Y66.068883 Z-0.125000 I0.766238 J0.688604
G03 X132.071682 Y66.230405 Z-0.125000 I-0.394710 J-0.120007
G03 X131.699822 Y66.566999 Z-0.125000 I-2.182896 J-2.037894
G03 X129.723617 Y67.123779 Z-0.125000 I-1.691244 J-2.217300
G03 X128.967821 Y66.286369 Z-0.125000 I0.086021 J-0.837411
G03 X129.081018 Y66.090946 Z-0.125000 I0.225287 J0.000000
G03 X130.103765 Y65.634822 Z-0.125000 I2.755981 J4.804924
G02 X132.761561 Y64.508201 Z-0.125000 I-5.468961 J-16.600053
G02 X134.162256 Y63.503268 Z-0.125000 I-2.898172 J-5.518151
G02 X134.575907 Y62.864528 Z-0.125000 I-1.126974 J-1.183145
G02 X134.877170 Y61.480130 Z-0.125000 I-5.340392 J-1.887117
G03 X134.938005 Y61.000582 Z-0.125000 I6.435423 J0.572752
G03 X135.026082 Y60.577775 Z-0.125000 I5.101448 J0.842133
G02 X134.821570 Y59.962803 Z-0.125000 I-0.583888 J-0.147317
G02 X133.374162 Y59.237682 Z-0.125000 I-2.367227 J2.918063
G03 X132.994230 Y59.024848 Z-0.125000 I0.204771 J-0.811066
G03 X132.818012 Y58.694114 Z-0.125000 I0.432999 J-0.443018
G02 X132.407276 Y57.451037 Z-0.125000 I-4.717312 J0.869294
G02 X131.941187 Y56.906467 Z-0.125000 I-1.291085 J0.633276
G02 X131.789220 Y56.953761 Z-0.125000 I-0.057704 J0.082383
G02 X131.793458 Y57.303326 Z-0.125000 I0.454785 J0.169294
G03 X131.788915 Y57.598870 Z-0.125000 I-0.355736 J0.142340
G03 X131.648094 Y57.636542 Z-0.125000 I-0.085419 J-0.037263
G02 X131.315559 Y57.453832 Z-0.125000 I-0.842846 J1.140027
G02 X131.201895 Y57.464398 Z-0.125000 I-0.046193 J0.119733
G03 X131.113866 Y57.460179 Z-0.125000 I-0.040940 J-0.066247
G03 X131.018744 Y57.325353 Z-0.125000 I0.165050 J-0.217414
G02 X130.920486 Y57.134400 Z-0.125000 I-0.612266 J0.194295
G02 X130.655670 Y56.840927 Z-0.125000 I-1.741649 J1.305361
G02 X130.470513 Y56.746272 Z-0.125000 I-0.261488 J0.283081
G01 X130.426212 Y56.794561 Z-0.125000
G03 X130.823623 Y58.909036 Z-0.125000 I-10.366788 J3.042998
G03 X130.627095 Y59.123247 Z-0.125000 I-0.196528 J0.016953
G03 X130.481025 Y59.029966 Z-0.125000 I0.000000 J-0.161008
G03 X130.387748 Y58.607045 Z-0.125000 I0.912133 J-0.422921
G02 X130.365194 Y58.454279 Z-0.125000 I-0.528645 J0.000000
G02 X130.142726 Y57.795307 Z-0.125000 I-10.268615 J3.099634
G02 X129.899673 Y57.331596 Z-0.125000 I-1.970335 J0.737193
G01 X129.827173 Y57.341448 Z-0.125000
G03 X129.732715 Y57.370509 Z-0.125000 I-0.057954 J-0.020330
G03 X129.384180 Y57.014051 Z-0.125000 I0.928947 J-1.256921
G02 X129.009668 Y56.526775 Z-0.125000 I-6.082758 J4.287541
G01 X128.976341 Y56.526495 Z-0.125000
G02 X128.961831 Y56.573174 Z-0.125000 I0.046138 J0.039936
G02 X129.057014 Y57.251888 Z-0.125000 I11.910028 J-1.324230
G03 X129.116911 Y58.614152 Z-0.125000 I-5.436298 J0.921475
G03 X128.934276 Y58.782224 Z-0.125000 I-0.182091 J-0.014604
G03 X128.883441 Y58.745203 Z-0.125000 I0.000137 J-0.053601
G03 X128.643474 Y57.888254 Z-0.125000 I10.210071 J-3.321143
G02 X128.116972 Y56.356249 Z-0.125000 I-7.941025 J1.872606
G02 X127.817054 Y56.088486 Z-0.125000 I-0.456719 J0.209717
G02 X127.625243 Y56.207411 Z-0.125000 I-0.045972 J0.139998
G02 X127.612824 Y57.501843 Z-0.125000 I4.798003 J0.693309
G03 X127.485585 Y57.599638 Z-0.125000 I-0.092336 J0.011536
G03 X127.257286 Y57.357981 Z-0.125000 I0.149784 J-0.370172
G02 X126.811555 Y56.577154 Z-0.125000 I-2.241569 J0.761954
G02 X126.602217 Y56.595464 Z-0.125000 I-0.098098 J0.084275
G02 X126.567566 Y56.686543 Z-0.125000 I0.245300 J0.145455
G02 X126.474232 Y57.254371 Z-0.125000 I9.763670 J1.896444
G03 X126.257266 Y57.480723 Z-0.125000 I-0.263625 J-0.035533
G03 X126.027838 Y57.333904 Z-0.125000 I-0.035213 J-0.197642
G02 X125.301047 Y55.608255 Z-0.125000 I-6.369545 J1.666786
G02 X124.989224 Y55.606340 Z-0.125000 I-0.156495 J0.094085
G01 X124.989182 Y55.606340 Z-0.125000
G00 Z5.000000

(End cutting path id: path4812)


(Start cutting path id: path4812)
(Change tool to Cylindrical cutter)

G00 Z5.000000
G00 X131.627522 Y58.896055

G01 Z-0.125000 F1000.0(Penetrate)
G03 X131.582972 Y59.014618 Z-0.125000 I-0.170164 J0.003712 F1100.000000
G01 X131.523650 Y59.009652 Z-0.125000
G03 X131.449955 Y58.828880 Z-0.125000 I0.441776 J-0.285506
G03 X131.419781 Y58.498477 Z-0.125000 I1.489235 J-0.302583
G03 X131.468785 Y58.375610 Z-0.125000 I0.187135 J0.003430
G01 X131.523650 Y58.384880 Z-0.125000
G03 X131.596411 Y58.617477 Z-0.125000 I-1.092020 J0.469281
G03 X131.627522 Y58.896055 Z-0.125000 I-1.540939 J0.313119
G01 X131.627522 Y58.896055 Z-0.125000
G00 Z5.000000

(End cutting path id: path4812)


(Start cutting path id: path4812)
(Change tool to Cylindrical cutter)

G00 Z5.000000
G00 X111.871828 Y66.681375

G01 Z-0.125000 F1000.0(Penetrate)
G03 X113.100973 Y67.767130 Z-0.125000 I-7.358626 J9.569059 F1100.000000
G03 X114.168138 Y69.005952 Z-0.125000 I-8.536796 J8.432949
G03 X115.524064 Y71.558273 Z-0.125000 I-7.512608 J5.627421
G03 X115.673192 Y73.346482 Z-0.125000 I-3.418762 J1.185431
G03 X115.025387 Y74.357555 Z-0.125000 I-1.511495 J-0.255367
G03 X113.472847 Y74.847080 Z-0.125000 I-1.587324 J-2.327512
G01 X112.745185 Y74.856083 Z-0.125000
G01 X112.253624 Y72.811389 Z-0.125000
G03 X111.776202 Y70.763487 Z-0.125000 I148.276927 J-35.647027
G03 X111.304291 Y68.608400 Z-0.125000 I163.787935 J-36.994759
G02 X110.845026 Y66.450430 Z-0.125000 I-1562.313921 J331.367487
G02 X110.787542 Y66.188564 Z-0.125000 I-22.969159 J4.904938
G03 X110.837449 Y66.069282 Z-0.125000 I0.108841 J-0.024543
G03 X110.987810 Y66.063983 Z-0.125000 I0.079794 J0.128273
G03 X111.237270 Y66.216195 Z-0.125000 I-1.105141 J2.091749
G03 X111.871828 Y66.681398 Z-0.125000 I-9.818628 J14.058442
G01 X111.871828 Y66.681375 Z-0.125000
G00 Z5.000000

(End cutting path id: path4812)


(Start cutting path id: path4812)
(Change tool to Cylindrical cutter)

G00 Z5.000000
G00 X113.535534 Y71.215622

G01 Z-0.125000 F1000.0(Penetrate)
G02 X113.253666 Y71.873110 Z-0.125000 I0.598422 J0.645709 F1100.000000
G02 X113.553568 Y72.562926 Z-0.125000 I0.973238 J-0.013022
G02 X114.159649 Y72.814279 Z-0.125000 I0.626242 J-0.653651
G02 X114.751906 Y72.589624 Z-0.125000 I0.018791 J-0.843472
G02 X115.054177 Y71.780288 Z-0.125000 I-0.653554 J-0.705204
G02 X114.589981 Y71.103275 Z-0.125000 I-0.862906 J0.094009
G02 X114.018523 Y70.996013 Z-0.125000 I-0.464336 J0.897922
G02 X113.535543 Y71.215645 Z-0.125000 I0.089202 J0.837021
G01 X113.535534 Y71.215622 Z-0.125000
G00 Z5.000000

(End cutting path id: path4812)


(Start cutting path id: path4812)
(Change tool to Cylindrical cutter)

G00 Z5.000000
G00 X114.314106 Y71.959411

G01 Z-0.125000 F1000.0(Penetrate)
G03 X114.222781 Y72.016536 Z-0.125000 I-0.103564 J-0.064004 F1100.000000
G03 X114.118075 Y71.979223 Z-0.125000 I-0.013034 J-0.128993
G03 X114.059304 Y71.859240 Z-0.125000 I0.145804 J-0.145804
G03 X114.086903 Y71.732236 Z-0.125000 I0.193580 J-0.024433
G03 X114.178232 Y71.675111 Z-0.125000 I0.103566 J0.064008
G03 X114.282938 Y71.712424 Z-0.125000 I0.013032 J0.128997
G03 X114.341708 Y71.832409 Z-0.125000 I-0.145801 J0.145801
G03 X114.314106 Y71.959411 Z-0.125000 I-0.193580 J0.024429
G01 X114.314106 Y71.959411 Z-0.125000
G00 Z5.000000

(End cutting path id: path4812)


(Start cutting path id: path4812)
(Change tool to Cylindrical cutter)

G00 Z5.000000
G00 X99.002272 Y30.495640

G01 Z-0.125000 F1000.0(Penetrate)
G03 X98.986584 Y30.983317 Z-0.125000 I-0.831167 J0.217353 F1100.000000
G03 X98.628017 Y31.624656 Z-0.125000 I-1.849313 J-0.613028
G03 X98.274401 Y31.815826 Z-0.125000 I-0.419155 J-0.352696
G03 X98.126909 Y31.685041 Z-0.125000 I-0.015760 J-0.130785
G02 X97.878356 Y31.086801 Z-0.125000 I-0.844227 J-0.000000
G02 X97.276466 Y30.838247 Z-0.125000 I-0.601890 J0.604483
G02 X96.329521 Y31.037710 Z-0.125000 I0.000000 J2.347527
G02 X96.251127 Y31.290243 Z-0.125000 I0.070702 J0.160382
G02 X96.344951 Y31.366826 Z-0.125000 I0.157747 J-0.097494
G02 X96.571687 Y31.407958 Z-0.125000 I0.231428 J-0.630235
G03 X96.917799 Y31.557102 Z-0.125000 I-0.003294 J0.483821
G03 X97.135697 Y31.996724 Z-0.125000 I-0.592414 J0.567439
G03 X97.028308 Y32.527110 Z-0.125000 I-0.766396 J0.120891
G03 X95.855249 Y34.057361 Z-0.125000 I-8.366166 J-5.198586
G03 X95.111999 Y34.730297 Z-0.125000 I-4.418610 J-4.133378
G03 X94.794316 Y34.868651 Z-0.125000 I-0.438973 J-0.574051
G03 X93.638902 Y35.020330 Z-0.125000 I-2.566988 J-15.077518
G03 X91.027259 Y35.217802 Z-0.125000 I-7.128394 J-76.906854
G02 X89.354821 Y35.483130 Z-0.125000 I0.502005 J8.567896
G02 X88.630196 Y35.845603 Z-0.125000 I0.497785 J1.900668
G03 X88.214358 Y36.126867 Z-0.125000 I-2.035134 J-2.560833
G03 X88.138909 Y36.125519 Z-0.125000 I-0.036589 J-0.064219
G02 X88.055539 Y36.110600 Z-0.125000 I-0.060557 J0.097997
G02 X86.802133 Y36.395600 Z-0.125000 I5.253703 J26.003995
G02 X85.045526 Y37.052266 Z-0.125000 I2.096388 J8.285754
G02 X84.692375 Y37.461111 Z-0.125000 I0.319768 J0.633153
G03 X84.618191 Y37.504659 Z-0.125000 I-0.061999 J-0.020654
G03 X84.348919 Y37.395920 Z-0.125000 I0.138864 J-0.731643
G02 X83.724217 Y37.262712 Z-0.125000 I-0.484093 J0.738807
G02 X83.262078 Y37.571166 Z-0.125000 I0.106395 J0.659830
G02 X82.683470 Y39.195426 Z-0.125000 I3.495726 J2.160467
G02 X82.329969 Y44.653761 Z-0.125000 I41.001067 J5.395989
G02 X82.451058 Y48.062711 Z-0.125000 I50.172456 J-0.075543
G02 X82.688817 Y49.808508 Z-0.125000 I13.355417 J-0.929782
G02 X83.782382 Y52.716827 Z-0.125000 I9.647252 J-1.967732
G02 X85.216603 Y54.242817 Z-0.125000 I3.885729 J-2.215070
G02 X86.748074 Y54.984828 Z-0.125000 I3.627798 J-5.536143
G02 X88.528184 Y55.348575 Z-0.125000 I2.389518 J-7.156212
G01 X89.550531 Y55.431430 Z-0.125000
G01 X89.608629 Y56.794561 Z-0.125000
G03 X89.648213 Y58.155539 Z-0.125000 I-50.374270 J2.146184
G03 X89.631800 Y58.281728 Z-0.125000 I-0.440543 J0.006862
G03 X89.565313 Y58.380944 Z-0.125000 I-0.185086 J-0.052144
G03 X89.160655 Y58.650908 Z-0.125000 I-1.968049 J-2.511710
G03 X88.702991 Y58.814005 Z-0.125000 I-0.704772 J-1.253988
G03 X87.754822 Y58.896055 Z-0.125000 I-0.948169 J-5.437454
G03 X86.813193 Y58.779993 Z-0.125000 I-0.000000 J-3.877811
G03 X85.860188 Y58.421798 Z-0.125000 I1.084314 J-4.331767
G03 X84.971694 Y57.903242 Z-0.125000 I4.306466 J-8.399158
G03 X84.713818 Y57.666091 Z-0.125000 I0.602407 J-0.913834
G02 X84.489016 Y57.442019 Z-0.125000 I-1.037638 J0.816217
G01 X84.431545 Y57.445534 Z-0.125000
G02 X84.404204 Y57.518255 Z-0.125000 I0.066522 J0.066511
G02 X84.539822 Y59.081599 Z-0.125000 I38.230197 J-2.528881
G03 X84.840329 Y62.560901 Z-0.125000 I-83.368544 J8.953161
G03 X84.984729 Y65.882111 Z-0.125000 I-75.815003 J4.960027
G02 X85.106588 Y66.789556 Z-0.125000 I4.098318 J-0.088449
G02 X85.233979 Y66.877317 Z-0.125000 I0.113509 J-0.028428
G03 X87.981659 Y66.977068 Z-0.125000 I1.055081 J8.830152
G03 X89.196593 Y67.645562 Z-0.125000 I-0.430547 J2.220756
G03 X91.096279 Y70.007775 Z-0.125000 I-13.977485 J13.185628
G03 X92.187517 Y72.033037 Z-0.125000 I-9.144628 J6.233863
G02 X92.421950 Y72.479663 Z-0.125000 I2.504501 J-1.029764
G02 X92.508751 Y72.526957 Z-0.125000 I0.087175 J-0.056697
G02 X92.597610 Y72.479864 Z-0.125000 I0.000388 J-0.106648
G02 X92.948159 Y71.874216 Z-0.125000 I-4.284408 J-2.884093
G02 X93.171372 Y71.194301 Z-0.125000 I-2.306585 J-1.133838
G02 X93.422050 Y69.233144 Z-0.125000 I-19.310467 J-3.464889
G02 X93.704366 Y65.012450 Z-0.125000 I-212.323631 J-16.321817
G02 X93.868173 Y61.395133 Z-0.125000 I-155.780622 J-8.866734
G03 X93.928462 Y59.634456 Z-0.125000 I1507.946887 J50.753949
G03 X93.980915 Y58.157694 Z-0.125000 I1068.305499 J37.205590
G02 X94.025421 Y56.680721 Z-0.125000 I-121.971928 J-4.414583
G02 X94.105324 Y52.989152 Z-0.125000 I-759.690332 J-18.289942
G03 X94.246860 Y49.309585 Z-0.125000 I95.698923 J1.838579
G03 X94.347990 Y48.786875 Z-0.125000 I1.997686 J0.115360
G02 X94.386577 Y48.287781 Z-0.125000 I-0.968827 J-0.325943
G02 X94.138993 Y47.570915 Z-0.125000 I-2.312408 J0.397449
G01 X93.758259 Y46.865413 Z-0.125000
G01 X93.983097 Y46.567507 Z-0.125000
G03 X94.232393 Y46.298217 Z-0.125000 I1.461838 J1.103259
G03 X94.491921 Y46.118001 Z-0.125000 I0.898893 J1.017511
G02 X94.773963 Y45.962895 Z-0.125000 I-6.085499 J-11.399805
G02 X95.741457 Y45.410425 Z-0.125000 I-76.272868 J-134.693350
G03 X96.716015 Y44.872912 Z-0.125000 I15.072711 J26.175954
G03 X97.084933 Y44.701401 Z-0.125000 I1.883699 J3.569271
G02 X99.781874 Y42.789783 Z-0.125000 I-2.699911 J-6.667331
G02 X99.889361 Y41.518891 Z-0.125000 I-0.803379 J-0.707938
G02 X99.707072 Y41.420614 Z-0.125000 I-0.176415 J0.109027
G02 X99.603668 Y41.526990 Z-0.125000 I0.003014 J0.106376
G03 X99.384551 Y42.091408 Z-0.125000 I-0.836494 J0.000000
G03 X98.885965 Y42.312037 Z-0.125000 I-0.500642 J-0.457696
G02 X98.651197 Y42.355912 Z-0.125000 I0.001237 J0.656649
G02 X98.297329 Y42.538478 Z-0.125000 I0.659808 J1.713152
G03 X98.190454 Y42.468302 Z-0.125000 I-0.038402 J-0.057986
G03 X98.373165 Y42.112503 Z-0.125000 I0.670093 J0.119295
G02 X99.165681 Y41.086070 Z-0.125000 I-4.042040 J-3.940058
G02 X99.208054 Y40.727173 Z-0.125000 I-0.375464 J-0.226280
G02 X98.954326 Y40.409765 Z-0.125000 I-0.539649 J0.171267
G02 X98.808504 Y40.493394 Z-0.125000 I-0.048930 J0.083629
G03 X98.530388 Y41.120862 Z-0.125000 I-0.846884 J-0.000000
G03 X97.802785 Y41.405031 Z-0.125000 I-0.736717 J-0.812751
G02 X96.277545 Y41.867692 Z-0.125000 I0.023449 J2.822738
G02 X94.606678 Y43.502337 Z-0.125000 I3.330811 J5.075887
G03 X94.206081 Y43.965848 Z-0.125000 I-2.297293 J-1.580608
G03 X93.610284 Y44.426869 Z-0.125000 I-2.867909 J-3.090822
G03 X92.995670 Y44.692081 Z-0.125000 I-1.120090 J-1.750971
G03 X92.817386 Y44.625658 Z-0.125000 I-0.040834 J-0.162873
G03 X92.670349 Y44.411192 Z-0.125000 I9.789617 J-6.869368
G03 X91.990114 Y43.390439 Z-0.125000 I221.500568 J-148.346176
G02 X90.449775 Y41.157190 Z-0.125000 I-61.843227 J41.007311
G02 X89.977782 Y40.584052 Z-0.125000 I-4.517038 J3.238970
G03 X89.825941 Y40.264464 Z-0.125000 I0.419168 J-0.395017
G03 X89.895252 Y39.959280 Z-0.125000 I0.446712 J-0.059010
G03 X90.121448 Y39.656963 Z-0.125000 I2.457454 J1.602910
G03 X90.723608 Y38.989161 Z-0.125000 I12.658805 J10.809106
G03 X91.433390 Y38.469668 Z-0.125000 I1.797006 J1.710616
G03 X93.128782 Y37.816589 Z-0.125000 I4.638673 J9.514827
G03 X93.642373 Y37.677846 Z-0.125000 I4.127303 J14.258280
G03 X94.719107 Y37.417409 Z-0.125000 I15.673191 J62.441989
G02 X96.547426 Y36.781314 Z-0.125000 I-2.072230 J-8.901790
G02 X96.965985 Y36.357111 Z-0.125000 I-0.369650 J-0.783329
G03 X97.124570 Y36.102225 Z-0.125000 I1.061466 J0.483645
G03 X97.206071 Y36.063597 Z-0.125000 I0.081502 J0.066666
G02 X97.292559 Y36.024921 Z-0.125000 I-0.000000 J-0.116040
G02 X97.739531 Y35.467228 Z-0.125000 I-4.922345 J-4.403050
G03 X98.178738 Y34.880280 Z-0.125000 I14.252687 J10.207347
G03 X98.693764 Y34.246089 Z-0.125000 I17.159654 J13.409103
G02 X99.388138 Y33.104669 Z-0.125000 I-3.321905 J-2.802776
G02 X99.683020 Y31.854608 Z-0.125000 I-3.711781 J-1.535398
G02 X99.648734 Y31.130773 Z-0.125000 I-3.058812 J-0.217840
G02 X99.488236 Y30.690267 Z-0.125000 I-1.266130 J0.211820
G02 X99.130146 Y30.382886 Z-0.125000 I-0.630078 J0.371751
G02 X99.002303 Y30.495652 Z-0.125000 I-0.035490 J0.088616
G01 X99.002272 Y30.495640 Z-0.125000
G00 Z5.000000

(End cutting path id: path4812)


(Start cutting path id: path4812)
(Change tool to Cylindrical cutter)

G00 Z5.000000
G00 X46.307914 Y38.563823

G01 Z-0.125000 F1000.0(Penetrate)
G01 X46.117555 Y39.017041 Z-0.125000 F1100.000000
G01 X44.772690 Y39.017041 Z-0.125000
G01 X43.427828 Y39.017041 Z-0.125000
G01 X42.813814 Y40.351777 Z-0.125000
G03 X42.193361 Y41.683470 Z-0.125000 I-137.556487 J-63.278967
G03 X41.622771 Y42.876111 Z-0.125000 I-111.126171 J-52.432766
G01 X41.045737 Y44.065709 Z-0.125000
G01 X40.988940 Y41.607359 Z-0.125000
G02 X40.902067 Y39.161906 Z-0.125000 I-98.558287 J2.276921
G02 X40.867993 Y39.085144 Z-0.125000 I-0.116039 J0.005565
G02 X40.792028 Y39.057932 Z-0.125000 I-0.066937 J0.067222
G02 X39.732049 Y39.193738 Z-0.125000 I1.584210 J16.569458
G02 X38.484671 Y39.433596 Z-0.125000 I3.317050 J20.613642
G02 X37.169900 Y39.767747 Z-0.125000 I5.206075 J23.237841
G01 X36.588299 Y39.933332 Z-0.125000
G01 X36.625031 Y40.412342 Z-0.125000
G02 X36.672271 Y40.890223 Z-0.125000 I10.838819 J-0.830192
G02 X36.848277 Y42.254483 Z-0.125000 I88.914467 J-10.777526
G03 X36.970961 Y43.622322 Z-0.125000 I-14.628421 J2.001475
G03 X37.080049 Y47.650214 Z-0.125000 I-126.979275 J5.454418
G02 X37.193734 Y51.640666 Z-0.125000 I115.656146 J-1.298114
G02 X37.268012 Y51.756716 Z-0.125000 I0.137639 J-0.006300
G02 X37.418334 Y51.805774 Z-0.125000 I0.224851 J-0.434153
G02 X38.830645 Y51.997737 Z-0.125000 I6.056270 J-39.265858
G02 X40.212843 Y52.071258 Z-0.125000 I1.264586 J-10.744749
G02 X40.401709 Y51.980662 Z-0.125000 I-0.002694 J-0.247779
G02 X40.543529 Y51.789584 Z-0.125000 I-1.894895 J-1.554581
G02 X41.850042 Y49.817229 Z-0.125000 I-201.282198 J-134.750759
G03 X43.037177 Y48.206702 Z-0.125000 I15.211205 J9.969542
G03 X43.147231 Y48.246267 Z-0.125000 I0.047915 J0.039565
G03 X43.130700 Y48.777940 Z-0.125000 I-8.557994 J-0.000000
G03 X42.885552 Y52.450224 Z-0.125000 I-408.932262 J-25.454468
G02 X42.992927 Y52.677947 Z-0.125000 I0.256383 J0.018288
G02 X43.772004 Y53.080928 Z-0.125000 I1.808737 J-2.542220
G03 X44.672298 Y53.419535 Z-0.125000 I-6.777129 J19.385320
G03 X45.513112 Y53.782750 Z-0.125000 I-6.958706 J17.263668
G02 X46.316385 Y54.070257 Z-0.125000 I2.019106 J-4.375329
G02 X46.434395 Y54.022975 Z-0.125000 I0.026996 J-0.103532
G02 X46.757437 Y53.015724 Z-0.125000 I-1.868160 J-1.154578
G02 X47.004154 Y45.548747 Z-0.125000 I-109.301700 J-7.349004
G02 X46.788310 Y38.313906 Z-0.125000 I-125.880316 J0.134867
G02 X46.567897 Y38.109471 Z-0.125000 I-0.216808 J0.012715
G02 X46.517602 Y38.139141 Z-0.125000 I0.000869 J0.058937
G02 X46.307914 Y38.563849 Z-0.125000 I3.372650 J1.929270
G01 X46.307914 Y38.563823 Z-0.125000
G00 Z5.000000

(End cutting path id: path4812)


(Start cutting path id: path4812)
(Change tool to Cylindrical cutter)

G00 Z5.000000
G00 X35.025237 Y40.422155

G01 Z-0.125000 F1000.0(Penetrate)
G02 X33.118334 Y41.296078 Z-0.125000 I5.394800 J14.288864 F1100.000000
G02 X32.996316 Y41.526485 Z-0.125000 I0.112807 J0.207252
G02 X33.025439 Y41.683202 Z-0.125000 I0.927604 J-0.091312
G02 X33.099632 Y41.900853 Z-0.125000 I1.873722 J-0.517247
G03 X33.059502 Y42.015208 Z-0.125000 I-0.084572 J0.034540
G03 X32.813255 Y42.060314 Z-0.125000 I-0.189640 J-0.340578
G02 X31.873419 Y42.130545 Z-0.125000 I-0.313115 J2.133471
G02 X30.630425 Y42.723367 Z-0.125000 I1.338102 J4.405185
G02 X28.985378 Y44.449193 Z-0.125000 I3.143992 J4.643771
G02 X28.305201 Y46.539610 Z-0.125000 I4.071119 J2.480520
G02 X28.437150 Y47.854113 Z-0.125000 I3.637984 J0.298696
G02 X28.952125 Y48.772442 Z-0.125000 I2.226792 J-0.645170
G01 X29.298037 Y49.151164 Z-0.125000
G01 X30.571319 Y49.101194 Z-0.125000
G02 X32.127397 Y48.890645 Z-0.125000 I-0.323686 J-8.247658
G02 X33.426231 Y48.433473 Z-0.125000 I-1.445440 J-6.180117
G03 X33.868016 Y48.242653 Z-0.125000 I2.640194 J5.505734
G01 X33.902021 Y48.249854 Z-0.125000
G03 X33.924637 Y48.499282 Z-0.125000 I-0.138264 J0.138276
G03 X33.050401 Y49.482485 Z-0.125000 I-4.439774 J-3.067445
G03 X31.803154 Y50.100932 Z-0.125000 I-1.779208 J-2.021288
G03 X29.188340 Y50.260769 Z-0.125000 I-1.883667 J-9.347274
G02 X27.362626 Y50.239318 Z-0.125000 I-1.077618 J14.012165
G02 X27.244020 Y50.364415 Z-0.125000 I0.006669 J0.125097
G02 X27.276176 Y50.421323 Z-0.125000 I0.066434 J0.000000
G02 X27.953986 Y50.792044 Z-0.125000 I4.787811 J-7.948819
G03 X28.626247 Y51.197509 Z-0.125000 I-2.075036 J4.200453
G03 X29.467630 Y51.887800 Z-0.125000 I-5.280370 J7.294057
G01 X30.271314 Y52.632830 Z-0.125000
G01 X31.057952 Y52.427180 Z-0.125000
G03 X33.106452 Y52.013908 Z-0.125000 I4.668733 J17.858285
G03 X35.424666 Y51.800969 Z-0.125000 I3.251688 J22.674854
G02 X36.332960 Y51.734456 Z-0.125000 I-0.575720 J-14.097060
G02 X36.412627 Y51.696422 Z-0.125000 I-0.013921 J-0.131615
G02 X36.655135 Y51.098225 Z-0.125000 I-0.585692 J-0.585692
G02 X36.278628 Y42.822455 Z-0.125000 I-136.415054 J2.059759
G03 X36.112575 Y40.550303 Z-0.125000 I395.386895 J-30.037795
G03 X36.105203 Y40.351777 Z-0.125000 I3.006665 J-0.211051
G02 X35.963019 Y40.219280 Z-0.125000 I-0.133500 J0.000722
G02 X35.025237 Y40.422155 Z-0.125000 I0.211674 J3.247315
G01 X35.025237 Y40.422155 Z-0.125000
G00 Z5.000000

(End cutting path id: path4812)


(Start cutting path id: path4812)
(Change tool to Cylindrical cutter)

G00 Z5.000000
G00 X33.300142 Y44.781958

G01 Z-0.125000 F1000.0(Penetrate)
G03 X33.334293 Y44.872262 Z-0.125000 I-0.261899 J0.150653 F1100.000000
G03 X33.421687 Y45.378330 Z-0.125000 I-8.363888 J1.704960
G03 X33.367385 Y45.833273 Z-0.125000 I-0.883174 J0.125296
G03 X33.116743 Y46.145089 Z-0.125000 I-0.631956 J-0.251333
G03 X32.299349 Y46.409094 Z-0.125000 I-0.862949 J-1.274418
G03 X31.905389 Y46.180956 Z-0.125000 I-0.012796 J-0.432128
G03 X31.942925 Y45.195061 Z-0.125000 I0.861149 J-0.460875
G03 X32.851499 Y44.696764 Z-0.125000 I0.908574 J0.579179
G03 X33.230488 Y44.732427 Z-0.125000 I-0.000000 J2.031550
G03 X33.300142 Y44.781958 Z-0.125000 I-0.019104 J0.100608
G01 X33.300142 Y44.781958 Z-0.125000
G00 Z5.000000

(End cutting path id: path4812)


(Start cutting path id: path4812)
(Change tool to Cylindrical cutter)

G00 Z5.000000
G00 X26.597378 Y45.809151

G01 Z-0.125000 F1000.0(Penetrate)
G03 X25.544149 Y46.557880 Z-0.125000 I-30.843127 J-42.271555 F1100.000000
G03 X24.840894 Y47.025444 Z-0.125000 I-12.719969 J-18.369202
G01 X24.128637 Y47.479825 Z-0.125000
G01 X24.112285 Y48.786158 Z-0.125000
G03 X23.833236 Y50.905638 Z-0.125000 I-9.049133 J-0.113293
G03 X23.428281 Y51.472840 Z-0.125000 I-0.932075 J-0.237297
G03 X23.153388 Y51.589926 Z-0.125000 I-0.464020 J-0.708184
G03 X23.057934 Y51.557707 Z-0.125000 I-0.021499 J-0.093814
G03 X22.379243 Y50.105668 Z-0.125000 I2.420165 J-2.015831
G03 X22.519945 Y48.600636 Z-0.125000 I2.756096 J-0.501432
G02 X22.438893 Y48.504545 Z-0.125000 I-0.067004 J-0.025712
G02 X21.393914 Y48.825404 Z-0.125000 I1.062225 J5.321550
G03 X20.704088 Y49.089239 Z-0.125000 I-4.281122 J-10.159721
G03 X19.777813 Y49.382211 Z-0.125000 I-6.214341 J-18.036815
G02 X18.855993 Y49.673362 Z-0.125000 I5.345128 J18.528264
G02 X18.764759 Y49.730330 Z-0.125000 I0.077595 J0.225805
G02 X18.736128 Y49.816930 Z-0.125000 I0.071754 J0.071755
G02 X18.814140 Y50.064266 Z-0.125000 I0.811649 J-0.120028
G03 X19.239422 Y51.035658 Z-0.125000 I-9.194802 J4.604348
G03 X20.390582 Y54.238689 Z-0.125000 I-99.110960 J37.428552
G02 X20.817812 Y55.419587 Z-0.125000 I32.697300 J-11.161615
G02 X20.882490 Y55.524801 Z-0.125000 I0.312091 J-0.119367
G02 X21.348283 Y55.674393 Z-0.125000 I0.362632 J-0.329167
G02 X25.766951 Y54.472318 Z-0.125000 I-9.038455 J-41.946394
G02 X28.721200 Y53.298654 Z-0.125000 I-8.431265 J-25.527414
G02 X29.061656 Y52.932025 Z-0.125000 I-0.282047 J-0.603302
G02 X29.083724 Y52.517174 Z-0.125000 I-0.636117 J-0.241851
G02 X28.824487 Y52.029727 Z-0.125000 I-1.162379 J0.305525
G02 X28.420216 Y51.712202 Z-0.125000 I-1.052985 J0.924537
G02 X27.403200 Y51.287412 Z-0.125000 I-2.981930 J5.709369
G02 X26.328374 Y50.971187 Z-0.125000 I-7.162384 J22.359719
G02 X26.125654 Y50.944450 Z-0.125000 I-0.202720 J0.755125
G03 X25.948345 Y50.797869 Z-0.125000 I0.000000 J-0.180530
G03 X26.029697 Y50.443285 Z-0.125000 I0.443393 J-0.084896
G02 X26.636615 Y49.487209 Z-0.125000 I-6.090150 J-4.536706
G02 X27.169122 Y48.312152 Z-0.125000 I-8.691489 J-4.646959
G02 X27.978367 Y45.323872 Z-0.125000 I-15.187962 J-5.716706
G02 X27.726798 Y45.042390 Z-0.125000 I-0.237867 J-0.040570
G02 X27.649268 Y45.068544 Z-0.125000 I0.008266 J0.152493
G02 X26.597379 Y45.809151 Z-0.125000 I21.388016 J31.494856
G01 X26.597378 Y45.809151 Z-0.125000
G00 Z5.000000

(End cutting path id: path4812)


(Start cutting path id: path4812)
(Change tool to Cylindrical cutter)

G00 Z5.000000
G00 X25.852127 Y52.581742

G01 Z-0.125000 F1000.0(Penetrate)
G03 X25.829984 Y52.726149 Z-0.125000 I-0.064077 J0.064076 F1100.000000
G03 X24.617868 Y53.226041 Z-0.125000 I-3.377620 J-6.470411
G03 X23.487382 Y53.549574 Z-0.125000 I-7.758529 J-24.972973
G03 X23.436097 Y53.535679 Z-0.125000 I-0.013532 J-0.051646
G03 X23.407441 Y53.484031 Z-0.125000 I0.075827 J-0.075844
G03 X23.317007 Y53.021467 Z-0.125000 I6.654905 J-1.541197
G03 X23.385434 Y52.657165 Z-0.125000 I0.542296 J-0.086717
G03 X23.624190 Y52.497073 Z-0.125000 I0.284992 J0.166943
G03 X25.444378 Y52.403656 Z-0.125000 I1.432389 J10.130019
G03 X25.852127 Y52.581742 Z-0.125000 I-0.023090 J0.608704
G01 X25.852127 Y52.581742 Z-0.125000
G00 Z5.000000

(End cutting path id: path4812)


(Start cutting path id: path4812)
(Change tool to Cylindrical cutter)

G00 Z5.000000
G00 X10.801236 Y47.596620

G01 Z-0.125000 F1000.0(Penetrate)
G02 X10.129588 Y48.335790 Z-0.125000 I9.290403 J9.116467 F1100.000000
G02 X10.091271 Y48.440890 Z-0.125000 I0.124983 J0.105101
G02 X10.144154 Y48.499647 Z-0.125000 I0.059084 J0.000000
G02 X10.546205 Y48.488910 Z-0.125000 I0.160545 J-1.521146
G03 X11.881513 Y48.718063 Z-0.125000 I0.331531 J2.073222
G03 X14.271401 Y50.516632 Z-0.125000 I-4.892399 J8.987973
G01 X15.214091 Y51.471505 Z-0.125000
G01 X14.258591 Y52.205407 Z-0.125000
G02 X12.541856 Y53.749332 Z-0.125000 I9.085757 J11.829127
G02 X12.363159 Y54.196166 Z-0.125000 I0.469308 J0.446834
G02 X12.780595 Y54.857068 Z-0.125000 I0.731902 J0.000000
G02 X14.594987 Y55.258106 Z-0.125000 I1.776992 J-3.734650
G02 X14.859390 Y55.162412 Z-0.125000 I-0.004119 J-0.424499
G02 X15.116375 Y54.832126 Z-0.125000 I-0.593867 J-0.727188
G03 X16.049237 Y53.300784 Z-0.125000 I7.356671 J3.431719
G03 X16.452498 Y53.102747 Z-0.125000 I0.403262 J0.311562
G03 X16.533333 Y53.159796 Z-0.125000 I-0.000000 J0.085793
G03 X17.184589 Y55.161530 Z-0.125000 I-36.590445 J13.011363
G01 X17.373452 Y55.800382 Z-0.125000
G01 X18.134144 Y55.809921 Z-0.125000
G02 X20.067817 Y55.700788 Z-0.125000 I0.176284 J-14.061974
G02 X20.201170 Y55.549585 Z-0.125000 I-0.019044 J-0.151203
G02 X20.104719 Y55.100827 Z-0.125000 I-1.092196 J-0.000000
G02 X17.818578 Y50.262891 Z-0.125000 I-135.314750 J60.983153
G02 X17.692806 Y50.143412 Z-0.125000 I-0.225744 J0.111696
G02 X16.951420 Y49.887880 Z-0.125000 I-2.043061 J4.724347
G03 X15.500178 Y49.310888 Z-0.125000 I1.612523 J-6.169362
G03 X11.795187 Y47.063047 Z-0.125000 I23.589600 J-43.058710
G02 X11.529446 Y47.050174 Z-0.125000 I-0.143582 J0.214686
G02 X10.801236 Y47.596625 Z-0.125000 I1.430495 J2.664740
G01 X10.801236 Y47.596620 Z-0.125000
G00 Z5.000000

(End cutting path id: path4812)


(Start cutting path id: path4812)
(Change tool to Cylindrical cutter)

G00 Z5.000000
G00 X1.467649 Y37.017632

G01 Z-0.125000 F1000.0(Penetrate)
G02 X1.334144 Y37.529495 Z-0.125000 I0.480314 J0.398619 F1100.000000
G02 X1.909871 Y39.414622 Z-0.125000 I8.522401 J-1.572307
G02 X4.396126 Y44.628808 Z-0.125000 I76.650162 J-33.348871
G02 X6.288951 Y47.836401 Z-0.125000 I30.829454 J-16.030412
G02 X7.385696 Y49.421276 Z-0.125000 I43.121222 J-28.668276
G02 X8.169791 Y50.449071 Z-0.125000 I18.907555 J-13.611427
G02 X10.542396 Y53.119130 Z-0.125000 I29.551053 J-23.869783
G02 X11.365021 Y53.721189 Z-0.125000 I2.213745 J-2.161729
G02 X11.643892 Y53.707881 Z-0.125000 I0.127650 J-0.253611
G02 X12.497567 Y53.008490 Z-0.125000 I-2.362815 J-3.754742
G01 X13.321916 Y52.140665 Z-0.125000
G01 X12.339272 Y51.960613 Z-0.125000
G03 X11.375179 Y51.737786 Z-0.125000 I1.942999 J-10.603701
G03 X11.149929 Y51.627543 Z-0.125000 I0.186717 J-0.666745
G03 X8.664736 Y49.277979 Z-0.125000 I8.491821 J-11.471120
G03 X8.409417 Y48.329556 Z-0.125000 I0.905321 J-0.752293
G03 X8.487064 Y48.144044 Z-0.125000 I0.436709 J0.073780
G03 X9.182087 Y47.259570 Z-0.125000 I11.235979 J8.113959
G01 X9.920020 Y46.395146 Z-0.125000
G01 X10.403226 Y46.467604 Z-0.125000
G02 X10.856373 Y46.505183 Z-0.125000 I0.510346 J-3.403080
G01 X10.886432 Y46.475619 Z-0.125000
G02 X10.071128 Y44.716871 Z-0.125000 I-2.304608 J0.000000
G02 X7.846720 Y43.901580 Z-0.125000 I-2.224408 J2.626846
G02 X7.745778 Y43.945462 Z-0.125000 I-0.000000 J0.138041
G02 X7.714269 Y44.043572 Z-0.125000 I0.088474 J0.082529
G03 X7.613023 Y44.661112 Z-0.125000 I-1.079183 J0.140137
G03 X7.172375 Y45.153622 Z-0.125000 I-1.090656 J-0.532430
G03 X6.632912 Y45.471069 Z-0.125000 I-5.036708 J-7.942166
G03 X6.551097 Y45.491899 Z-0.125000 I-0.081816 J-0.150262
G03 X6.342086 Y45.374000 Z-0.125000 I0.000000 J-0.244216
G03 X4.957274 Y42.854662 Z-0.125000 I29.996404 J-18.128475
G03 X4.379983 Y41.499427 Z-0.125000 I11.207217 J-5.574527
G03 X4.225195 Y40.809960 Z-0.125000 I2.711723 J-0.970898
G02 X4.045654 Y40.138672 Z-0.125000 I-2.124635 J0.208597
G02 X3.516915 Y39.244210 Z-0.125000 I-4.349102 J1.967362
G03 X2.886368 Y38.386822 Z-0.125000 I48.327262 J-36.201698
G03 X2.573829 Y37.937874 Z-0.125000 I12.930441 J-9.334926
G02 X2.248272 Y37.500880 Z-0.125000 I-4.591726 J3.081025
G02 X1.937892 Y37.166696 Z-0.125000 I-2.988579 J2.464477
G02 X1.614001 Y36.974651 Z-0.125000 I-0.575406 J0.601290
G02 X1.467649 Y37.017613 Z-0.125000 I-0.041269 J0.130173
G01 X1.467649 Y37.017632 Z-0.125000
G00 Z5.000000

(End cutting path id: path4812)


(Footer)
M5
G00 X0.0000 Y0.0000
M2
(Using default footer. To add your own footer create file "footer" in the output dir.)
(end)
%