%
(Header)
(Generated by gcodetools from Inkscape.)
(Using default header. To add your own header create file "header" in the output dir.)
M3
(Header end.)
G21 (All units in mm)

(Start cutting path id: path846)
(Change tool to Cylindrical cutter)

G00 Z5.000000
G00 X18.717467 Y0.205606

G01 Z0.000000 F1000.0(Penetrate)
G03 X18.356018 Y0.337918 Z0.000000 I-0.514116 J-0.844598 F1100.000000
G03 X16.775240 Y0.509085 Z0.000000 I-2.603743 J-16.661276
G02 X15.173602 Y0.627416 Z0.000000 I3.891827 J63.575257
G02 X14.540159 Y0.703284 Z0.000000 I0.837672 J9.676239
G02 X14.157602 Y0.967599 Z0.000000 I0.080573 J0.525622
G02 X14.276327 Y1.170904 Z0.000000 I0.118724 J0.066987
G03 X14.552844 Y1.287343 Z0.000000 I-0.000000 J0.386555
G03 X14.770790 Y1.677194 Z0.000000 I-0.612369 J0.598192
G02 X15.014741 Y2.008699 Z0.000000 I0.526975 J-0.132282
G02 X15.464171 Y2.100345 Z0.000000 I0.351521 J-0.576030
G03 X15.958352 Y2.140992 Z0.000000 I0.160225 J1.076419
G03 X16.146157 Y2.318675 Z0.000000 I-0.091997 J0.285331
G03 X16.162519 Y2.573208 Z0.000000 I-0.399728 J0.153487
G03 X16.056427 Y2.688555 Z0.000000 I-0.157277 J-0.038194
G02 X15.924415 Y2.927839 Z0.000000 I0.063765 J0.191236
G02 X16.160609 Y3.113075 Z0.000000 I0.236194 J-0.057967
G03 X16.397402 Y3.207248 Z0.000000 I-0.000000 J0.344788
G03 X16.571701 Y3.501515 Z0.000000 I-0.426461 J0.451352
G02 X16.829895 Y3.684368 Z0.000000 I0.237904 J-0.062213
G02 X17.167823 Y3.452015 Z0.000000 I-0.034066 J-0.411458
G03 X17.283216 Y3.450355 Z0.000000 I0.058112 J0.028031
G03 X17.394377 Y3.889095 Z0.000000 I-0.881046 J0.456676
G02 X17.446318 Y4.757974 Z0.000000 I10.619783 J-0.198853
G02 X17.527284 Y5.200025 Z0.000000 I2.781618 J-0.281043
G02 X17.761720 Y5.267049 Z0.000000 I0.137319 J-0.036798
G02 X17.942500 Y4.811625 Z0.000000 I-0.392193 J-0.419272
G03 X18.005867 Y4.118666 Z0.000000 I2.261553 J-0.142571
G03 X18.136815 Y4.035985 Z0.000000 I0.108773 J0.027235
G02 X18.329996 Y3.981643 Z0.000000 I0.044139 J-0.213632
G02 X18.604993 Y3.598976 Z0.000000 I-0.828704 J-0.885677
G03 X18.865500 Y3.172381 Z0.000000 I1.888079 J0.860147
G03 X18.989824 Y3.112186 Z0.000000 I0.124324 J0.098289
G02 X19.179182 Y2.888994 Z0.000000 I0.000000 J-0.191923
G02 X18.861538 Y2.335276 Z0.000000 I-0.900726 J0.148739
G03 X18.622919 Y2.068832 Z0.000000 I0.774392 J-0.933593
G03 X18.570204 Y1.892946 Z0.000000 I0.267068 J-0.175886
G03 X18.638145 Y1.841533 Z0.000000 I0.053423 J0.000000
G03 X18.910090 Y1.988046 Z0.000000 I-0.193226 J0.684290
G02 X19.266301 Y2.196659 Z0.000000 I0.729977 J-0.838020
G02 X19.492654 Y2.196136 Z0.000000 I0.112449 J-0.314884
G03 X19.857447 Y2.358152 Z0.000000 I0.098094 J0.270821
G03 X19.802932 Y2.956756 Z0.000000 I-0.604732 J0.246711
G02 X19.705634 Y3.227971 Z0.000000 I0.544078 J0.348248
G02 X19.625720 Y4.431646 Z0.000000 I11.253887 J1.351658
G02 X19.784424 Y5.455812 Z0.000000 I3.119897 J0.040921
G02 X20.012531 Y5.596936 Z0.000000 I0.198482 J-0.065905
G02 X20.265043 Y5.418389 Z0.000000 I-0.049273 J-0.337517
G02 X20.367856 Y4.921596 Z0.000000 I-0.809958 J-0.426658
G03 X20.704860 Y3.122914 Z0.000000 I3.524271 J-0.270597
G03 X21.568437 Y2.417606 Z0.000000 I1.183058 J0.567198
G03 X22.562097 Y2.295603 Z0.000000 I0.987007 J3.931264
G03 X23.330662 Y2.420607 Z0.000000 I-0.004021 J2.449922
G02 X23.638846 Y2.368135 Z0.000000 I0.104789 J-0.315806
G02 X23.993619 Y1.908467 Z0.000000 I-0.701376 J-0.908066
G01 X24.266109 Y1.266757 Z0.000000
G01 X24.343208 Y1.787997 Z0.000000
G03 X24.329450 Y2.294033 Z0.000000 I-1.444429 J0.213933
G03 X24.117255 Y2.895127 Z0.000000 I-2.270865 J-0.463648
G02 X24.107739 Y3.266084 Z0.000000 I0.377634 J0.195288
G02 X24.301869 Y3.301987 Z0.000000 I0.109581 J-0.049722
G03 X24.790178 Y2.821230 Z0.000000 I157.910410 J159.902571
G03 X25.175870 Y2.444038 Z0.000000 I103.622893 J105.572118
G03 X25.319953 Y2.513549 Z0.000000 I0.059398 J0.060964
G03 X25.125260 Y2.945188 Z0.000000 I-0.741823 J-0.074876
G02 X24.388509 Y4.015829 Z0.000000 I3.337307 J3.085347
G02 X24.202702 Y4.810727 Z0.000000 I1.607413 J0.794899
G02 X24.370976 Y4.869762 Z0.000000 I0.094493 J0.000000
G02 X25.359196 Y3.364748 Z0.000000 I-7.505080 J-6.004920
G03 X26.276975 Y2.366156 Z0.000000 I2.367790 J1.255123
G03 X26.659408 Y2.528228 Z0.000000 I0.135986 J0.211360
G02 X26.895962 Y2.618870 Z0.000000 I0.146901 J-0.029380
G02 X27.113062 Y2.189378 Z0.000000 I-0.323567 J-0.433173
G03 X27.187839 Y1.824707 Z0.000000 I0.957694 J0.006375
G03 X27.296751 Y1.752338 Z0.000000 I0.108913 J0.045771
G03 X27.420091 Y1.821808 Z0.000000 I-0.000000 J0.144227
G03 X27.561635 Y2.189378 Z0.000000 I-0.954795 J0.578711
G01 X27.645745 Y2.626308 Z0.000000
G01 X27.672245 Y2.175478 Z0.000000
G03 X27.770950 Y1.756992 Z0.000000 I1.248606 J0.073614
G03 X27.990028 Y1.433268 Z0.000000 I0.948542 J0.405929
G02 X27.878900 Y0.940612 Z0.000000 I-0.211228 J-0.211215
G02 X25.818427 Y0.660858 Z0.000000 I-1.697046 J4.771375
G02 X23.212934 Y1.024119 Z0.000000 I1.417505 J19.692626
G02 X23.023712 Y1.242497 Z0.000000 I0.048542 J0.233230
G01 X22.978507 Y1.259842 Z0.000000
G03 X22.862785 Y1.084877 Z0.000000 I0.346213 J-0.354738
G02 X21.304876 Y-0.236581 Z0.000000 I-2.005411 J0.785179
G02 X18.717437 Y0.204396 Z0.000000 I-0.738664 J3.477288
G01 X18.717467 Y0.205606 Z0.000000
G00 Z5.000000

(End cutting path id: path846)


(Start cutting path id: path846)
(Change tool to Cylindrical cutter)

G00 Z5.000000
G00 X18.625646 Y3.116296

G01 Z0.000000 F1000.0(Penetrate)
G03 X18.310112 Y3.647065 Z0.000000 I-1.078586 J-0.282027 F1100.000000
G03 X18.064460 Y3.643185 Z0.000000 I-0.120824 J-0.128701
G03 X17.933714 Y2.814481 Z0.000000 I0.504122 J-0.504202
G03 X18.580380 Y2.633776 Z0.000000 I0.406667 J0.207861
G03 X18.654975 Y2.755173 Z0.000000 I-0.086021 J0.136474
G03 X18.625550 Y3.116296 Z0.000000 I-1.036527 J0.097301
G01 X18.625646 Y3.116296 Z0.000000
G00 Z5.000000

(End cutting path id: path846)


(Start cutting path id: path846)
(Change tool to Cylindrical cutter)

G00 Z5.000000
G00 X16.919364 Y5.055335

G01 Z0.000000 F1000.0(Penetrate)
G02 X16.910161 Y5.187694 Z0.000000 I0.121110 J0.074921 F1100.000000
G02 X17.004954 Y5.249505 Z0.000000 I0.094793 J-0.041782
G02 X17.151872 Y5.191275 Z0.000000 I0.000000 J-0.214456
G02 X17.210640 Y5.055335 Z0.000000 I-0.127840 J-0.135940
G02 X17.176814 Y4.894786 Z0.000000 I-0.397918 J-0.000000
G02 X17.125061 Y4.861045 Z0.000000 I-0.051754 J0.022821
G02 X17.055156 Y4.888723 Z0.000000 I-0.000000 J0.102117
G02 X16.919376 Y5.055335 Z0.000000 I0.554713 J0.590691
G01 X16.919364 Y5.055335 Z0.000000
G00 Z5.000000

(End cutting path id: path846)


(Start cutting path id: path846)
(Change tool to Cylindrical cutter)

G00 Z5.000000
G00 X17.121882 Y5.818785

G01 Z0.000000 F1000.0(Penetrate)
G02 X17.099519 Y5.978399 Z0.000000 I0.170158 J0.105213 F1100.000000
G02 X17.207472 Y6.121615 Z0.000000 I0.238313 J-0.067339
G02 X17.330478 Y6.109802 Z0.000000 I0.053668 J-0.087483
G02 X17.404861 Y5.940755 Z0.000000 I-0.154900 J-0.169046
G02 X17.289795 Y5.765872 Z0.000000 I-0.190431 J-0.000000
G02 X17.121824 Y5.818785 Z0.000000 I-0.053333 J0.123760
G01 X17.121882 Y5.818785 Z0.000000
G00 Z5.000000

(End cutting path id: path846)


(Start cutting path id: path846)
(Change tool to Cylindrical cutter)

G00 Z5.000000
G00 X15.695763 Y4.511495

G01 Z0.000000 F1000.0(Penetrate)
G02 X15.418787 Y5.190689 Z0.000000 I0.668706 J0.668771 F1100.000000
G02 X15.705762 Y5.395225 Z0.000000 I0.218090 J-0.002404
G02 X16.306163 Y4.723056 Z0.000000 I-0.293687 J-0.866562
G02 X15.947857 Y4.278475 Z0.000000 I-0.358307 J-0.077903
G01 X15.931805 Y4.284758 Z0.000000
G02 X15.696051 Y4.511495 Z0.000000 I5.624561 J6.084177
G01 X15.695763 Y4.511495 Z0.000000
G00 Z5.000000

(End cutting path id: path846)


(Start cutting path id: path846)
(Change tool to Cylindrical cutter)

G00 Z5.000000
G00 X14.426813 Y2.465724

G01 Z0.000000 F1000.0(Penetrate)
G02 X14.382968 Y2.749342 Z0.000000 I0.171729 J0.171746 F1100.000000
G02 X14.661997 Y2.918904 Z0.000000 I0.279029 J-0.144802
G02 X14.991434 Y2.843852 Z0.000000 I0.000000 J-0.760541
G02 X15.268450 Y2.627515 Z0.000000 I-0.356770 J-0.742365
G02 X15.269665 Y2.449164 Z0.000000 I-0.108336 J-0.089917
G02 X15.033268 Y2.336185 Z0.000000 I-0.236397 J0.190827
G02 X14.575882 Y2.385055 Z0.000000 I-0.000001 J2.164804
G02 X14.426813 Y2.465724 Z0.000000 I0.064093 J0.296504
G01 X14.426813 Y2.465724 Z0.000000
G00 Z5.000000

(End cutting path id: path846)


(Start cutting path id: path846)
(Change tool to Cylindrical cutter)

G00 Z5.000000
G00 X19.504950 Y6.352976

G01 Z0.000000 F1000.0(Penetrate)
G02 X19.746929 Y6.395141 Z0.000000 I0.217884 J-0.534979 F1100.000000
G02 X19.877207 Y6.336976 Z0.000000 I-0.008059 J-0.193031
G01 X19.864656 Y6.276363 Z0.000000
G02 X19.622292 Y6.234996 Z0.000000 I-0.218080 J0.547034
G02 X19.492469 Y6.292169 Z0.000000 I0.008645 J0.195614
G01 X19.504950 Y6.352326 Z0.000000
G01 X19.504950 Y6.352976 Z0.000000
G00 Z5.000000

(End cutting path id: path846)


(Start cutting path id: path846)
(Change tool to Cylindrical cutter)

G00 Z5.000000
G00 X21.206430 Y6.904306

G01 Z0.000000 F1000.0(Penetrate)
G02 X20.941808 Y7.195021 Z0.000000 I0.645389 J0.853257 F1100.000000
G02 X20.955273 Y7.310506 Z0.000000 I0.079655 J0.049240
G02 X21.403909 Y7.372852 Z0.000000 I0.265548 J-0.265519
G02 X21.677803 Y6.906197 Z0.000000 I-0.260592 J-0.466655
G02 X21.558875 Y6.786763 Z0.000000 I-0.119434 J-0.000000
G02 X21.206430 Y6.904196 Z0.000000 I-0.002460 J0.580219
G01 X21.206430 Y6.904306 Z0.000000
G00 Z5.000000

(End cutting path id: path846)


(Start cutting path id: path846)
(Change tool to Cylindrical cutter)

G00 Z5.000000
G00 X23.037366 Y6.589637

G01 Z0.000000 F1000.0(Penetrate)
G02 X23.332904 Y7.047474 Z0.000000 I0.502402 J0.000000 F1100.000000
G02 X24.099727 Y7.069687 Z0.000000 I0.410020 J-0.907469
G02 X24.315319 Y6.902826 Z0.000000 I-0.169048 J-0.441126
G02 X24.341618 Y6.730497 Z0.000000 I-0.157326 J-0.112180
G02 X23.573469 Y6.108353 Z0.000000 I-0.866090 J0.284063
G02 X23.037366 Y6.589637 Z0.000000 I-0.052016 J0.481284
G01 X23.037366 Y6.589637 Z0.000000
G00 Z5.000000

(End cutting path id: path846)


(Start cutting path id: path846)
(Change tool to Cylindrical cutter)

G00 Z5.000000
G00 X23.717141 Y7.579977

G01 Z0.000000 F1000.0(Penetrate)
G02 X23.707920 Y7.712329 Z0.000000 I0.121035 J0.074929 F1100.000000
G02 X23.802731 Y7.774147 Z0.000000 I0.094811 J-0.041797
G03 X23.938220 Y7.844345 Z0.000000 I-0.000000 J0.165853
G03 X24.008414 Y8.065477 Z0.000000 I-0.313219 J0.221132
G02 X24.093744 Y8.271479 Z0.000000 I0.291327 J0.000000
G02 X24.299747 Y8.356807 Z0.000000 I0.206004 J-0.206009
G02 X24.520585 Y8.286907 Z0.000000 I0.000000 J-0.383798
G02 X24.591081 Y8.151117 Z0.000000 I-0.095533 J-0.135789
G02 X24.529316 Y8.056552 Z0.000000 I-0.103275 J-0.000000
G02 X24.396860 Y8.066117 Z0.000000 I-0.057169 J0.130235
G03 X24.282756 Y8.042194 Z0.000000 I-0.044401 J-0.072303
G03 X24.202637 Y7.786247 Z0.000000 I0.368760 J-0.255946
G02 X24.005577 Y7.488751 Z0.000000 I-0.323091 J-0.000000
G02 X23.717083 Y7.580627 Z0.000000 I-0.090697 J0.214089
G01 X23.717141 Y7.579977 Z0.000000
G00 Z5.000000

(End cutting path id: path846)


(Start cutting path id: path846)
(Change tool to Cylindrical cutter)

G00 Z5.000000
G00 X23.459683 Y9.583447

G01 Z0.000000 F1000.0(Penetrate)
G02 X23.232034 Y10.222130 Z0.000000 I0.617311 J0.579944 F1100.000000
G02 X23.522953 Y10.493527 Z0.000000 I0.290919 J-0.020224
G02 X23.843353 Y10.328730 Z0.000000 I0.000000 J-0.393862
G02 X24.008512 Y9.813737 Z0.000000 I-0.720339 J-0.514993
G02 X23.978309 Y9.164076 Z0.000000 I-7.002006 J-0.000002
G01 X23.945242 Y9.133947 Z0.000000
G02 X23.891210 Y9.155117 Z0.000000 I-0.000000 J0.079539
G02 X23.459685 Y9.583447 Z0.000000 I5.927824 J6.403575
G01 X23.459683 Y9.583447 Z0.000000
G00 Z5.000000

(End cutting path id: path846)


(Start cutting path id: path846)
(Change tool to Cylindrical cutter)

G00 Z5.000000
G00 X24.582963 Y10.210877

G01 Z0.000000 F1000.0(Penetrate)
G02 X24.467613 Y10.942268 Z0.000000 I0.479438 J0.450405 F1100.000000
G02 X25.158608 Y11.429378 Z0.000000 I0.775422 J-0.366320
G02 X26.396330 Y11.219137 Z0.000000 I0.236190 J-2.357974
G02 X26.727609 Y10.699128 Z0.000000 I-0.242491 J-0.520010
G02 X26.383389 Y10.060867 Z0.000000 I-0.763850 J-0.000000
G02 X25.233317 Y9.716668 Z0.000000 I-1.150073 J1.749270
G02 X25.070975 Y9.771351 Z0.000000 I-0.000000 J0.268321
G02 X24.582963 Y10.210877 Z0.000000 I2.385968 J3.139855
G01 X24.582963 Y10.210877 Z0.000000
G00 Z5.000000

(End cutting path id: path846)


(Start cutting path id: path846)
(Change tool to Cylindrical cutter)

G00 Z5.000000
G00 X23.543717 Y12.937157

G01 Z0.000000 F1000.0(Penetrate)
G02 X23.437097 Y14.737063 Z0.000000 I2.783140 J1.067974 F1100.000000
G02 X24.090518 Y15.096007 Z0.000000 I0.494039 J-0.125133
G02 X24.567424 Y14.600396 Z0.000000 I-0.230099 J-0.698673
G02 X24.540790 Y13.528237 Z0.000000 I-1.718954 J-0.493709
G02 X23.946490 Y12.797115 Z0.000000 I-1.288920 J0.440609
G02 X23.543717 Y12.937157 Z0.000000 I-0.142282 J0.240011
G01 X23.543717 Y12.937157 Z0.000000
G00 Z5.000000

(End cutting path id: path846)


(Start cutting path id: path846)
(Change tool to Cylindrical cutter)

G00 Z5.000000
G00 X21.122507 Y11.273636

G01 Z0.000000 F1000.0(Penetrate)
G03 X20.266380 Y11.615141 Z0.000000 I-4.024756 J-8.845904 F1100.000000
G03 X20.005727 Y11.658826 Z0.000000 I-0.260653 J-0.755761
G02 X19.779969 Y12.017234 Z0.000000 I-0.000000 J0.250305
G02 X20.551656 Y12.798876 Z0.000000 I1.517943 J-0.726860
G02 X21.361131 Y13.006345 Z0.000000 I0.894961 J-1.808955
G02 X21.959766 Y12.858577 Z0.000000 I0.046545 J-1.097904
G02 X22.510296 Y12.111830 Z0.000000 I-0.588052 J-1.009844
G02 X22.318251 Y11.307137 Z0.000000 I-0.905333 J-0.209199
G01 X21.969159 Y10.889017 Z0.000000
G01 X21.122507 Y11.273636 Z0.000000
G00 Z5.000000

(End cutting path id: path846)


(Start cutting path id: path846)
(Change tool to Cylindrical cutter)

G00 Z5.000000
G00 X19.104381 Y8.685186

G01 Z0.000000 F1000.0(Penetrate)
G02 X19.026544 Y9.205832 Z0.000000 I0.072374 J0.276962 F1100.000000
G02 X21.229102 Y9.994916 Z0.000000 I2.967063 J-4.813392
G02 X22.008681 Y9.816912 Z0.000000 I0.153350 J-1.124499
G02 X21.996431 Y9.487187 Z0.000000 I-0.106608 J-0.161129
G03 X21.748958 Y9.267396 Z0.000000 I0.373287 J-0.669520
G03 X21.677824 Y9.047967 Z0.000000 I0.302878 J-0.219429
G02 X21.603449 Y8.838172 Z0.000000 I-0.333078 J-0.000000
G02 X21.370607 Y8.669156 Z0.000000 I-0.432148 J0.350449
G02 X20.467490 Y8.505105 Z0.000000 I-0.885986 J2.309529
G02 X19.104381 Y8.685856 Z0.000000 I0.038218 J5.518438
G01 X19.104381 Y8.685186 Z0.000000
G00 Z5.000000

(End cutting path id: path846)


(Start cutting path id: path846)
(Change tool to Cylindrical cutter)

G00 Z5.000000
G00 X16.773718 Y9.245005

G01 Z0.000000 F1000.0(Penetrate)
G02 X16.429233 Y9.806777 Z0.000000 I0.314253 J0.579210 F1100.000000
G02 X16.741278 Y10.471425 Z0.000000 I0.817756 J0.021648
G02 X17.737539 Y10.966291 Z0.000000 I1.685208 J-2.142382
G02 X18.355355 Y10.893066 Z0.000000 I0.215483 J-0.824855
G02 X18.501560 Y10.619327 Z0.000000 I-0.131829 J-0.246324
G02 X18.248975 Y9.814125 Z0.000000 I-2.055937 J0.202712
G02 X17.536389 Y9.195812 Z0.000000 I-1.212632 J0.677745
G02 X16.773824 Y9.245005 Z0.000000 I-0.328023 J0.850197
G01 X16.773718 Y9.245005 Z0.000000
G00 Z5.000000

(End cutting path id: path846)


(Start cutting path id: path846)
(Change tool to Cylindrical cutter)

G00 Z5.000000
G00 X14.769606 Y9.390034

G01 Z0.000000 F1000.0(Penetrate)
G02 X14.849284 Y10.290571 Z0.000000 I0.960800 J0.368783 F1100.000000
G02 X15.552838 Y10.687725 Z0.000000 I0.703554 J-0.424592
G02 X15.825973 Y10.398801 Z0.000000 I0.000000 J-0.273567
G02 X15.495048 Y9.659185 Z0.000000 I-1.134549 J0.063789
G02 X14.949076 Y9.308951 Z0.000000 I-1.074734 J1.074710
G02 X14.769715 Y9.390034 Z0.000000 I-0.048690 J0.131214
G01 X14.769606 Y9.390034 Z0.000000
G00 Z5.000000

(End cutting path id: path846)


(Start cutting path id: path846)
(Change tool to Cylindrical cutter)

G00 Z5.000000
G00 X16.714700 Y11.675795

G01 Z0.000000 F1000.0(Penetrate)
G02 X16.788768 Y12.124312 Z0.000000 I0.294121 J0.181804 F1100.000000
G02 X17.232636 Y12.103095 Z0.000000 I0.210260 J-0.254843
G02 X17.329324 Y11.688982 Z0.000000 I-0.284926 J-0.284868
G02 X17.016492 Y11.464645 Z0.000000 I-0.312832 J0.105950
G02 X16.870914 Y11.510378 Z0.000000 I-0.000000 J0.254569
G02 X16.714700 Y11.675795 Z0.000000 I0.319207 J0.457917
G01 X16.714700 Y11.675795 Z0.000000
G00 Z5.000000

(End cutting path id: path846)


(Start cutting path id: path846)
(Change tool to Cylindrical cutter)

G00 Z5.000000
G00 X17.849494 Y13.064855

G01 Z0.000000 F1000.0(Penetrate)
G02 X17.625523 Y13.770723 Z0.000000 I0.850045 J0.658185 F1100.000000
G02 X17.920214 Y14.658315 Z0.000000 I1.713115 J-0.076056
G02 X18.799210 Y15.142733 Z0.000000 I0.915974 J-0.622377
G02 X19.432813 Y14.709216 Z0.000000 I0.021654 J-0.648129
G02 X19.381362 Y14.000058 Z0.000000 I-0.843026 J-0.295282
G02 X18.644702 Y13.201716 Z0.000000 I-1.848132 J0.966296
G02 X18.067777 Y12.980889 Z0.000000 I-0.843161 J1.338777
G02 X17.849405 Y13.065935 Z0.000000 I-0.038321 J0.224483
G01 X17.849494 Y13.064855 Z0.000000
G00 Z5.000000

(End cutting path id: path846)


(Start cutting path id: path846)
(Change tool to Cylindrical cutter)

G00 Z5.000000
G00 X15.472925 Y13.164035

G01 Z0.000000 F1000.0(Penetrate)
G02 X15.632590 Y14.171194 Z0.000000 I1.183367 J0.328636 F1100.000000
G02 X16.269393 Y14.365665 Z0.000000 I0.436437 J-0.289276
G02 X16.664292 Y14.018049 Z0.000000 I-0.311532 J-0.752023
G02 X16.742072 Y13.539965 Z0.000000 I-0.598792 J-0.342787
G02 X16.087653 Y12.823427 Z0.000000 I-0.921220 J0.184244
G02 X15.472925 Y13.164035 Z0.000000 I-0.139940 J0.472470
G01 X15.472925 Y13.164035 Z0.000000
G00 Z5.000000

(End cutting path id: path846)


(Start cutting path id: path846)
(Change tool to Cylindrical cutter)

G00 Z5.000000
G00 X15.779350 Y15.981025

G01 Z0.000000 F1000.0(Penetrate)
G02 X15.520539 Y17.905348 Z0.000000 I7.337440 J1.966413 F1100.000000
G02 X15.765219 Y18.500975 Z0.000000 I0.836032 J0.004632
G02 X16.265506 Y18.556327 Z0.000000 I0.284700 J-0.284656
G02 X16.941060 Y17.755505 Z0.000000 I-0.934291 J-1.473496
G02 X17.141627 Y16.476447 Z0.000000 I-2.510418 J-1.048909
G02 X16.778980 Y15.846395 Z0.000000 I-0.854705 J0.072560
G02 X16.115740 Y15.685087 Z0.000000 I-0.538063 J0.768163
G02 X15.779284 Y15.981025 Z0.000000 I0.053946 J0.400562
G01 X15.779350 Y15.981025 Z0.000000
G00 Z5.000000

(End cutting path id: path846)


(Start cutting path id: path846)
(Change tool to Cylindrical cutter)

G00 Z5.000000
G00 X13.642809 Y16.399034

G01 Z0.000000 F1000.0(Penetrate)
G02 X13.618525 Y16.964444 Z0.000000 I0.742814 J0.315130 F1100.000000
G02 X13.838917 Y17.000094 Z0.000000 I0.119380 J-0.038950
G03 X14.111887 Y16.841255 Z0.000000 I0.320432 J0.236698
G03 X14.313726 Y16.943094 Z0.000000 I0.024326 J0.202724
G02 X14.758078 Y17.085634 Z0.000000 I0.299513 J-0.169821
G02 X15.074265 Y16.590495 Z0.000000 I-0.229592 J-0.495139
G02 X14.937460 Y16.262507 Z0.000000 I-0.461573 J-0.000000
G02 X14.604895 Y16.125714 Z0.000000 I-0.332565 J0.335862
G03 X14.196048 Y16.040164 Z0.000000 I0.000000 J-1.019718
G03 X14.049988 Y15.882924 Z0.000000 I0.108009 J-0.246787
G02 X13.957423 Y15.867475 Z0.000000 I-0.050541 J0.017792
G02 X13.642809 Y16.398294 Z0.000000 I1.808496 J1.430534
G01 X13.642809 Y16.399034 Z0.000000
G00 Z5.000000

(End cutting path id: path846)


(Start cutting path id: path846)
(Change tool to Cylindrical cutter)

G00 Z5.000000
G00 X13.277048 Y19.180944

G01 Z0.000000 F1000.0(Penetrate)
G02 X12.596664 Y20.688337 Z0.000000 I1.999941 J1.809951 F1100.000000
G02 X12.880498 Y22.694011 Z0.000000 I4.020964 J0.453891
G02 X13.423689 Y22.952454 Z0.000000 I0.415080 J-0.172351
G02 X14.247862 Y22.287368 Z0.000000 I-0.397087 J-1.335270
G01 X14.757131 Y21.359366 Z0.000000
G01 X14.375064 Y20.164934 Z0.000000
G02 X13.722508 Y19.157634 Z0.000000 I-2.180423 J0.697515
G02 X13.277048 Y19.180944 Z0.000000 I-0.211019 J0.235458
G01 X13.277048 Y19.180944 Z0.000000
G00 Z5.000000

(End cutting path id: path846)


(Start cutting path id: path846)
(Change tool to Cylindrical cutter)

G00 Z5.000000
G00 X16.530934 Y19.188945

G01 Z0.000000 F1000.0(Penetrate)
G02 X15.761668 Y20.125036 Z0.000000 I1.453624 J1.978699 F1100.000000
G02 X15.462709 Y21.466457 Z0.000000 I2.859977 J1.341421
G02 X15.778332 Y21.974297 Z0.000000 I0.566371 J0.000000
G02 X16.565417 Y22.010889 Z0.000000 I0.435388 J-0.881793
G02 X17.681940 Y20.912068 Z0.000000 I-0.699859 J-1.827799
G02 X17.600612 Y19.431475 Z0.000000 I-1.627412 J-0.653138
G02 X17.121075 Y19.066033 Z0.000000 I-0.640065 J0.342551
G02 X16.530934 Y19.188945 Z0.000000 I-0.160468 J0.707727
G01 X16.530934 Y19.188945 Z0.000000
G00 Z5.000000

(End cutting path id: path846)


(Start cutting path id: path846)
(Change tool to Cylindrical cutter)

G00 Z5.000000
G00 X18.655859 Y20.224096

G01 Z0.000000 F1000.0(Penetrate)
G02 X18.629794 Y20.424545 Z0.000000 I0.208859 J0.129078 F1100.000000
G02 X18.806748 Y20.719366 Z0.000000 I0.676499 J-0.205525
G02 X19.081152 Y20.829843 Z0.000000 I0.266891 J-0.266882
G02 X19.332005 Y20.708866 Z0.000000 I-0.006657 J-0.334371
G02 X19.481253 Y20.409805 Z0.000000 I-0.564084 J-0.468281
G02 X19.449523 Y20.213516 Z0.000000 I-0.252485 J-0.059896
G02 X19.055997 Y19.997438 Z0.000000 I-0.387657 J0.239623
G02 X18.655859 Y20.224116 Z0.000000 I0.006148 J0.477359
G01 X18.655859 Y20.224096 Z0.000000
G00 Z5.000000

(End cutting path id: path846)


(Start cutting path id: path846)
(Change tool to Cylindrical cutter)

G00 Z5.000000
G00 X17.710681 Y17.032395

G01 Z0.000000 F1000.0(Penetrate)
G02 X17.789451 Y17.529313 Z0.000000 I0.469663 J0.180252 F1100.000000
G02 X18.164901 Y17.593075 Z0.000000 I0.223950 J-0.181424
G02 X18.452830 Y17.033272 Z0.000000 I-0.320749 J-0.518923
G02 X18.105541 Y16.708525 Z0.000000 I-0.347289 J0.023325
G02 X17.888366 Y16.786215 Z0.000000 I-0.000000 J0.342393
G02 X17.710730 Y17.032395 Z0.000000 I0.376407 J0.458782
G01 X17.710681 Y17.032395 Z0.000000
G00 Z5.000000

(End cutting path id: path846)


(Start cutting path id: path846)
(Change tool to Cylindrical cutter)

G00 Z5.000000
G00 X19.930357 Y15.600826

G01 Z0.000000 F1000.0(Penetrate)
G02 X19.587729 Y15.952195 Z0.000000 I0.342320 J0.676540 F1100.000000
G02 X19.222449 Y17.091986 Z0.000000 I4.073898 J1.934033
G02 X19.060028 Y18.332050 Z0.000000 I13.153170 J2.353437
G02 X19.097030 Y18.591746 Z0.000000 I0.585964 J0.048995
G02 X19.777787 Y18.824764 Z0.000000 I0.437760 J-0.167989
G02 X21.170231 Y17.334586 Z0.000000 I-1.949655 J-3.217434
G02 X21.320148 Y16.734765 Z0.000000 I-1.192644 J-0.616731
G02 X21.186471 Y16.045436 Z0.000000 I-1.731693 J-0.021811
G02 X20.666512 Y15.553593 Z0.000000 I-0.814527 J0.340326
G02 X19.930422 Y15.600826 Z0.000000 I-0.312848 J0.883812
G01 X19.930357 Y15.600826 Z0.000000
G00 Z5.000000

(End cutting path id: path846)


(Start cutting path id: path846)
(Change tool to Cylindrical cutter)

G00 Z5.000000
G00 X21.920605 Y18.233847

G01 Z0.000000 F1000.0(Penetrate)
G02 X21.060520 Y19.243376 Z0.000000 I3.734615 J4.052911 F1100.000000
G02 X20.900935 Y19.773296 Z0.000000 I0.800040 J0.529921
G02 X21.241682 Y20.405046 Z0.000000 I0.756009 J0.000000
G02 X22.017714 Y20.507317 Z0.000000 I0.493747 J-0.751150
G02 X23.281124 Y19.528349 Z0.000000 I-0.752249 J-2.275551
G02 X23.814272 Y17.714027 Z0.000000 I-2.820533 J-1.814323
G02 X23.657216 Y17.444712 Z0.000000 I-0.309435 J-0.000000
G02 X23.070052 Y17.292987 Z0.000000 I-0.576450 J1.018814
G02 X22.956220 Y17.334174 Z0.000000 I0.001532 J0.182129
G02 X21.920605 Y18.233847 Z0.000000 I14.812258 J18.096325
G01 X21.920605 Y18.233847 Z0.000000
G00 Z5.000000

(End cutting path id: path846)


(Start cutting path id: path846)
(Change tool to Cylindrical cutter)

G00 Z5.000000
G00 X22.568032 Y21.107200

G01 Z0.000000 F1000.0(Penetrate)
G02 X22.497749 Y21.415275 Z0.000000 I1.037911 J0.398840 F1100.000000
G02 X22.534402 Y21.515150 Z0.000000 I0.126228 J0.010338
G02 X22.832707 Y21.523901 Z0.000000 I0.153793 J-0.153813
G02 X23.037452 Y21.067943 Z0.000000 I-0.405327 J-0.455958
G02 X22.850161 Y20.895794 Z0.000000 I-0.172761 J-0.000000
G02 X22.568105 Y21.107783 Z0.000000 I0.027917 J0.330781
G01 X22.568032 Y21.107200 Z0.000000
G00 Z5.000000

(End cutting path id: path846)


(Start cutting path id: path846)
(Change tool to Cylindrical cutter)

G00 Z5.000000
G00 X23.236541 Y22.142661

G01 Z0.000000 F1000.0(Penetrate)
G02 X22.919976 Y22.562351 Z0.000000 I1.340128 J1.340071 F1100.000000
G02 X22.750987 Y23.016630 Z0.000000 I1.408649 J0.782580
G02 X22.648964 Y23.507188 Z0.000000 I1170.769025 J243.748139
G02 X22.548125 Y23.992745 Z0.000000 I3310.445400 J687.728268
G02 X22.727424 Y24.177481 Z0.000000 I0.152247 J0.031614
G02 X23.216363 Y23.874663 Z0.000000 I-0.134995 J-0.764102
G02 X24.036144 Y22.134493 Z0.000000 I-3.963120 J-2.930179
G02 X23.742731 Y21.759132 Z0.000000 I-0.293413 J-0.073003
G02 X23.634915 Y21.795378 Z0.000000 I-0.000000 J0.178475
G02 X23.236541 Y22.142661 Z0.000000 I2.337077 J3.083034
G01 X23.236541 Y22.142661 Z0.000000
G00 Z5.000000

(End cutting path id: path846)


(Start cutting path id: path846)
(Change tool to Cylindrical cutter)

G00 Z5.000000
G00 X20.124049 Y23.289095

G01 Z0.000000 F1000.0(Penetrate)
G02 X19.787840 Y23.554071 Z0.000000 I0.153674 J0.540769 F1100.000000
G02 X19.532652 Y24.339592 Z0.000000 I1.823546 J1.026618
G03 X19.291606 Y25.188083 Z0.000000 I-2.729049 J-0.316803
G03 X18.804319 Y25.894406 Z0.000000 I-2.352969 J-1.102048
G02 X18.217207 Y26.550983 Z0.000000 I7.872346 J7.630255
G02 X18.181826 Y26.649523 Z0.000000 I0.119536 J0.098541
G02 X18.228703 Y26.732490 Z0.000000 I0.096859 J0.000000
G02 X18.773238 Y27.007364 Z0.000000 I2.107739 J-3.498705
G02 X19.752859 Y26.924617 Z0.000000 I0.409749 J-0.989209
G02 X20.823296 Y25.717887 Z0.000000 I-1.532340 J-2.437405
G02 X21.371286 Y23.618797 Z0.000000 I-5.287801 J-2.501511
G02 X20.998046 Y23.183713 Z0.000000 I-0.407454 J-0.028097
G02 X20.613332 Y23.190570 Z0.000000 I-0.159837 J1.828043
G02 X20.124049 Y23.289095 Z0.000000 I0.403564 J3.268300
G01 X20.124049 Y23.289095 Z0.000000
G00 Z5.000000

(End cutting path id: path846)


(Start cutting path id: path846)
(Change tool to Cylindrical cutter)

G00 Z5.000000
G00 X16.710186 Y23.358194

G01 Z0.000000 F1000.0(Penetrate)
G01 X15.754047 Y24.001799 Z0.000000 F1100.000000
G01 X15.817286 Y25.065396 Z0.000000
G02 X16.261680 Y26.272531 Z0.000000 I2.220392 J-0.132046
G02 X16.856953 Y26.444150 Z0.000000 I0.411926 J-0.310610
G02 X18.869582 Y24.290063 Z0.000000 I-1.189406 J-3.128572
G02 X17.972644 Y22.778138 Z0.000000 I-1.138638 J-0.346525
G02 X17.685185 Y22.810526 Z0.000000 I-0.094695 J0.451406
G02 X16.710199 Y23.358194 Z0.000000 I2.901488 J6.307065
G01 X16.710186 Y23.358194 Z0.000000
G00 Z5.000000

(End cutting path id: path846)


(Start cutting path id: path846)
(Change tool to Cylindrical cutter)

G00 Z5.000000
G00 X13.652567 Y24.746522

G01 Z0.000000 F1000.0(Penetrate)
G02 X12.937875 Y25.817127 Z0.000000 I1.395205 J1.705234 F1100.000000
G02 X12.974643 Y27.000294 Z0.000000 I1.784336 J0.536704
G03 X13.071448 Y27.470741 Z0.000000 I-1.494250 J0.552660
G03 X13.026933 Y28.011433 Z0.000000 I-2.031143 J0.104953
G02 X13.200010 Y28.342700 Z0.000000 I0.284116 J0.062405
G02 X13.802764 Y28.331863 Z0.000000 I0.288897 J-0.699521
G02 X14.198820 Y28.043062 Z0.000000 I-0.505122 J-1.108688
G02 X14.297455 Y27.788079 Z0.000000 I-0.280264 J-0.254983
G03 X14.353751 Y27.492898 Z0.000000 I0.802010 J0.000000
G03 X14.505872 Y27.261208 Z0.000000 I0.635842 J0.251690
G02 X15.300644 Y25.159857 Z0.000000 I-1.930896 J-1.931278
G02 X14.320920 Y24.291417 Z0.000000 I-0.925975 J0.057778
G02 X14.211944 Y24.328608 Z0.000000 I0.013040 J0.216462
G02 X13.652647 Y24.746522 Z0.000000 I4.453747 J6.543700
G01 X13.652567 Y24.746522 Z0.000000
G00 Z5.000000

(End cutting path id: path846)


(Start cutting path id: path846)
(Change tool to Cylindrical cutter)

G00 Z5.000000
G00 X11.489403 Y25.241923

G01 Z0.000000 F1000.0(Penetrate)
G02 X10.662476 Y27.545720 Z0.000000 I5.019129 J3.101879 F1100.000000
G02 X10.949400 Y29.197564 Z0.000000 I2.742741 J0.374429
G02 X11.049134 Y29.226615 Z0.000000 I0.063829 J-0.033407
G02 X11.502840 Y28.879700 Z0.000000 I-1.089072 J-1.894466
G02 X11.810420 Y28.335717 Z0.000000 I-0.825968 J-0.825967
G02 X12.019754 Y26.801770 Z0.000000 I-6.957247 J-1.730697
G02 X11.958664 Y25.269377 Z0.000000 I-11.386276 J-0.313489
G02 X11.838840 Y25.118650 Z0.000000 I-0.178938 J0.019259
G02 X11.641504 Y25.119106 Z0.000000 I-0.098026 J0.278008
G02 X11.489403 Y25.241923 Z0.000000 I0.099972 J0.279399
G01 X11.489403 Y25.241923 Z0.000000
G00 Z5.000000

(End cutting path id: path846)


(Start cutting path id: path846)
(Change tool to Cylindrical cutter)

G00 Z5.000000
G00 X15.307647 Y28.191641

G01 Z0.000000 F1000.0(Penetrate)
G02 X14.270962 Y29.137451 Z0.000000 I0.647704 J1.750987 F1100.000000
G02 X14.297506 Y30.304795 Z0.000000 I1.166171 J0.557456
G02 X14.809678 Y30.694752 Z0.000000 I0.682713 J-0.365358
G02 X16.100005 Y30.711838 Z0.000000 I0.685477 J-3.035923
G02 X16.622074 Y30.454009 Z0.000000 I-0.215786 J-1.094414
G02 X17.094639 Y29.835124 Z0.000000 I-1.323119 J-1.500161
G02 X17.341766 Y29.088812 Z0.000000 I-2.593223 J-1.272768
G02 X17.286405 Y28.800521 Z0.000000 I-0.396048 J-0.073407
G02 X16.449256 Y28.159784 Z0.000000 I-1.283320 J0.809457
G02 X15.307647 Y28.191641 Z0.000000 I-0.523745 J1.702336
G01 X15.307647 Y28.191641 Z0.000000
G00 Z5.000000

(End cutting path id: path846)


(Start cutting path id: path846)
(Change tool to Cylindrical cutter)

G00 Z5.000000
G00 X19.221549 Y28.900773

G01 Z0.000000 F1000.0(Penetrate)
G02 X18.235756 Y30.152551 Z0.000000 I2.229002 J2.769424 F1100.000000
G02 X18.024681 Y31.436085 Z0.000000 I2.142559 J1.011463
G02 X18.475373 Y31.947878 Z0.000000 I0.593832 J-0.068597
G02 X19.180897 Y31.721212 Z0.000000 I0.169009 J-0.685285
G02 X19.418174 Y31.339688 Z0.000000 I-1.135055 J-0.970456
G02 X19.830533 Y30.207462 Z0.000000 I-9.872993 J-4.236969
G03 X20.188110 Y29.044047 Z0.000000 I116.252893 J35.093803
G03 X20.271069 Y28.799344 Z0.000000 I5.211262 J1.630315
G02 X20.079177 Y28.551232 Z0.000000 I-0.174066 J-0.063637
G02 X19.221549 Y28.900773 Z0.000000 I0.155412 J1.608217
G01 X19.221549 Y28.900773 Z0.000000
G00 Z5.000000

(End cutting path id: path846)


(Start cutting path id: path846)
(Change tool to Cylindrical cutter)

G00 Z5.000000
G00 X22.309048 Y29.944621

G01 Z0.000000 F1000.0(Penetrate)
G02 X22.038492 Y31.362273 Z0.000000 I4.404956 J1.575319 F1100.000000
G02 X22.248087 Y31.753551 Z0.000000 I0.442184 J0.014911
G02 X22.585039 Y31.603591 Z0.000000 I0.117345 J-0.189869
G02 X22.617939 Y29.718471 Z0.000000 I-5.739372 J-1.043013
G02 X22.511250 Y29.673732 Z0.000000 I-0.066806 J0.009732
G02 X22.309112 Y29.944621 Z0.000000 I0.340328 J0.464816
G01 X22.309048 Y29.944621 Z0.000000
G00 Z5.000000

(End cutting path id: path846)


(Start cutting path id: path846)
(Change tool to Cylindrical cutter)

G00 Z5.000000
G00 X22.260494 Y27.346798

G01 Z0.000000 F1000.0(Penetrate)
G03 X22.201040 Y27.538217 Z0.000000 I-0.337878 J-0.000000 F1100.000000
G03 X21.670685 Y28.204582 Z0.000000 I-5.021351 J-3.452228
G02 X20.979376 Y29.331306 Z0.000000 I2.556175 J2.343797
G02 X20.982166 Y30.041765 Z0.000000 I0.938036 J0.351551
G02 X21.156280 Y30.139991 Z0.000000 I0.146468 J-0.056199
G02 X21.556241 Y29.938989 Z0.000000 I-0.138603 J-0.774228
G02 X22.620044 Y28.226603 Z0.000000 I-2.677516 J-2.850012
G02 X22.374905 Y27.246608 Z0.000000 I-0.939452 J-0.285660
G01 X22.307144 Y27.244265 Z0.000000
G02 X22.260494 Y27.346798 Z0.000000 I0.089355 J0.102533
G01 X22.260494 Y27.346798 Z0.000000
G00 Z5.000000

(End cutting path id: path846)


(Start cutting path id: path846)
(Change tool to Cylindrical cutter)

G00 Z5.000000
G00 X23.667599 Y27.245510

G01 Z0.000000 F1000.0(Penetrate)
G02 X23.372502 Y28.056751 Z0.000000 I1.052757 J0.842244 F1100.000000
G02 X23.634948 Y28.667016 Z0.000000 I0.798060 J0.018357
G02 X24.020823 Y28.814076 Z0.000000 I0.381704 J-0.421781
G02 X24.317474 Y28.662016 Z0.000000 I-0.002718 J-0.370700
G02 X24.598824 Y27.840508 Z0.000000 I-1.180599 J-0.863262
G02 X24.358255 Y27.235328 Z0.000000 I-0.822398 J-0.023488
G02 X23.991802 Y27.086646 Z0.000000 I-0.359061 J0.359032
G02 X23.667762 Y27.245408 Z0.000000 I0.006153 J0.422631
G01 X23.667599 Y27.245510 Z0.000000
G00 Z5.000000

(End cutting path id: path846)


(Start cutting path id: path846)
(Change tool to Cylindrical cutter)

G00 Z5.000000
G00 X24.011469 Y32.976450

G01 Z0.000000 F1000.0(Penetrate)
G02 X24.085534 Y33.336841 Z0.000000 I0.883431 J0.006249 F1100.000000
G02 X24.202713 Y33.413474 Z0.000000 I0.117179 J-0.051272
G02 X24.335456 Y33.280731 Z0.000000 I0.000000 J-0.132743
G02 X24.202713 Y32.830781 Z0.000000 I-0.828951 J-0.000000
G02 X24.093755 Y32.811735 Z0.000000 I-0.063293 J0.040898
G02 X24.011469 Y32.976450 Z0.000000 I0.126560 J0.166136
G01 X24.011469 Y32.976450 Z0.000000
G00 Z5.000000

(End cutting path id: path846)


(Start cutting path id: path846)
(Change tool to Cylindrical cutter)

G00 Z5.000000
G00 X21.236777 Y33.724998

G01 Z0.000000 F1000.0(Penetrate)
G02 X21.139045 Y33.884004 Z0.000000 I0.275160 J0.278663 F1100.000000
G02 X21.095155 Y34.164428 Z0.000000 I0.873898 J0.280424
G02 X21.172216 Y34.275661 Z0.000000 I0.118809 J0.000000
G02 X21.311229 Y34.245408 Z0.000000 I0.046080 J-0.122775
G02 X21.453866 Y34.012014 Z0.000000 I-0.412311 J-0.412263
G02 X21.452848 Y33.805966 Z0.000000 I-0.314820 J-0.101471
G02 X21.350869 Y33.700062 Z0.000000 I-0.162205 J0.054141
G02 X21.236777 Y33.725006 Z0.000000 I-0.037807 J0.100469
G01 X21.236777 Y33.724998 Z0.000000
G00 Z5.000000

(End cutting path id: path846)


(Start cutting path id: path846)
(Change tool to Cylindrical cutter)

G00 Z5.000000
G00 X19.722698 Y33.850438

G01 Z0.000000 F1000.0(Penetrate)
G03 X19.409861 Y34.443837 Z0.000000 I-3.048033 J-1.227747 F1100.000000
G03 X18.922245 Y35.052624 Z0.000000 I-3.697376 J-2.461783
G02 X18.523199 Y35.746838 Z0.000000 I1.209580 J1.157084
G02 X18.667377 Y35.938353 Z0.000000 I0.144178 J0.041486
G03 X18.861595 Y36.035455 Z0.000000 I-0.000000 J0.242783
G03 X18.958711 Y36.326775 Z0.000000 I-0.388380 J0.291320
G02 X19.185141 Y36.453580 Z0.000000 I0.148722 J0.000000
G02 X19.882420 Y35.760747 Z0.000000 I-1.114948 J-1.819396
G02 X20.603859 Y34.232064 Z0.000000 I-6.242744 J-3.880746
G02 X20.609602 Y33.607645 Z0.000000 I-0.950373 J-0.320976
G02 X20.228256 Y33.400243 Z0.000000 I-0.298625 J0.094788
G02 X19.722698 Y33.850438 Z0.000000 I0.201158 J0.734858
G01 X19.722698 Y33.850438 Z0.000000
G00 Z5.000000

(End cutting path id: path846)


(Start cutting path id: path846)
(Change tool to Cylindrical cutter)

G00 Z5.000000
G00 X17.860398 Y36.624990

G01 Z0.000000 F1000.0(Penetrate)
G02 X17.951244 Y36.818172 Z0.000000 I0.138124 J0.052997 F1100.000000
G02 X18.172917 Y36.730402 Z0.000000 I0.058975 J-0.174868
G02 X18.259165 Y36.403421 Z0.000000 I-0.644432 J-0.344847
G02 X18.182917 Y36.325286 Z0.000000 I-0.076248 J-0.001864
G02 X18.019837 Y36.389417 Z0.000000 I-0.000000 J0.239415
G02 X17.860759 Y36.624990 Z0.000000 I0.429224 J0.461345
G01 X17.860398 Y36.624990 Z0.000000
G00 Z5.000000

(End cutting path id: path846)


(Start cutting path id: path846)
(Change tool to Cylindrical cutter)

G00 Z5.000000
G00 X20.277073 Y37.162775

G01 Z0.000000 F1000.0(Penetrate)
G02 X19.876916 Y37.678637 Z0.000000 I2.942052 J2.695296 F1100.000000
G02 X19.347156 Y38.588854 Z0.000000 I8.694088 J5.669363
G03 X18.832430 Y39.511976 Z0.000000 I-14.524366 J-7.493624
G03 X18.406323 Y40.154879 Z0.000000 I-7.461854 J-4.482951
G02 X18.107626 Y40.804277 Z0.000000 I1.465277 J1.067362
G02 X18.130203 Y41.320264 Z0.000000 I0.920870 J0.218195
G02 X18.402877 Y41.749030 Z0.000000 I0.989188 J-0.327989
G02 X18.772086 Y41.928026 Z0.000000 I0.467234 J-0.493475
G03 X19.190919 Y42.069366 Z0.000000 I-0.181127 J1.227967
G03 X19.474243 Y42.316478 Z0.000000 I-0.430285 J0.779317
G02 X19.752562 Y42.462471 Z0.000000 I0.291495 J-0.217413
G02 X20.258745 Y42.344938 Z0.000000 I0.036026 J-0.993606
G02 X20.720571 Y41.970665 Z0.000000 I-0.754755 J-1.403380
G02 X21.244469 Y41.179605 Z0.000000 I-3.098723 J-2.621212
G03 X21.739734 Y40.396196 Z0.000000 I4.317780 J2.181412
G03 X21.920953 Y40.307414 Z0.000000 I0.181218 J0.140557
G03 X22.077988 Y40.403856 Z0.000000 I-0.000000 J0.176070
G03 X22.314866 Y41.084268 Z0.000000 I-2.399989 J1.216967
G02 X22.473274 Y41.861109 Z0.000000 I736.951422 J-149.870157
G02 X22.583334 Y42.397685 Z0.000000 I428.650937 J-87.643216
G02 X22.848010 Y42.514687 Z0.000000 I0.174028 J-0.035807
G02 X23.141498 Y42.066573 Z0.000000 I-0.310601 J-0.523591
G02 X23.023305 Y39.980385 Z0.000000 I-5.762485 J-0.719969
G02 X22.480474 Y39.336261 Z0.000000 I-0.916939 J0.221948
G03 X22.221861 Y39.031166 Z0.000000 I0.178593 J-0.413538
G03 X22.155314 Y38.025337 Z0.000000 I2.777251 J-0.688864
G02 X22.064172 Y37.101437 Z0.000000 I-2.220196 J-0.247425
G02 X21.800462 Y36.908526 Z0.000000 I-0.263710 J0.083790
G03 X21.327395 Y36.873281 Z0.000000 I0.000001 J-3.192460
G03 X21.021295 Y36.793469 Z0.000000 I0.220846 J-1.473906
G02 X20.751765 Y36.806212 Z0.000000 I-0.120199 J0.314462
G02 X20.277073 Y37.163369 Z0.000000 I0.714553 J1.443735
G01 X20.277073 Y37.162775 Z0.000000
G00 Z5.000000

(End cutting path id: path846)


(Start cutting path id: path846)
(Change tool to Cylindrical cutter)

G00 Z5.000000
G00 X16.027426 Y34.724316

G01 Z0.000000 F1000.0(Penetrate)
G02 X15.304630 Y36.029776 Z0.000000 I2.108321 J2.020141 F1100.000000
G02 X15.472452 Y36.922836 Z0.000000 I1.049830 J0.265017
G03 X15.803784 Y37.469828 Z0.000000 I-3.516335 J2.503810
G03 X15.851152 Y37.667459 Z0.000000 I-0.388598 J0.197630
G02 X15.963179 Y37.766468 Z0.000000 I0.099766 J0.000000
G02 X16.599265 Y37.574799 Z0.000000 I-0.242051 J-1.954596
G02 X17.296345 Y36.888676 Z0.000000 I-0.705017 J-1.413444
G02 X17.599154 Y35.647327 Z0.000000 I-2.393018 J-1.241349
G02 X17.339594 Y34.255884 Z0.000000 I-3.859376 J-0.000001
G02 X16.961100 Y33.996606 Z0.000000 I-0.378192 J0.146183
G02 X16.755344 Y34.067456 Z0.000000 I0.000258 J0.334945
G02 X16.027426 Y34.724926 Z0.000000 I4.186431 J5.366701
G01 X16.027426 Y34.724316 Z0.000000
G00 Z5.000000

(End cutting path id: path846)


(Start cutting path id: path846)
(Change tool to Cylindrical cutter)

G00 Z5.000000
G00 X13.240875 Y32.932907

G01 Z0.000000 F1000.0(Penetrate)
G02 X12.978578 Y33.634566 Z0.000000 I0.723206 J0.670209 F1100.000000
G02 X13.288715 Y34.432460 Z0.000000 I1.287122 J-0.041076
G02 X13.888030 Y34.641748 Z0.000000 I0.480229 J-0.412437
G02 X15.154601 Y34.075109 Z0.000000 I-0.569029 J-2.970771
G02 X15.914757 Y33.315222 Z0.000000 I-2.457682 J-3.218710
G02 X16.007979 Y32.958308 Z0.000000 I-0.379040 J-0.289633
G02 X15.803632 Y32.696857 Z0.000000 I-0.329611 J0.047037
G02 X14.831143 Y32.480487 Z0.000000 I-1.128835 J2.779985
G02 X13.785777 Y32.598301 Z0.000000 I-0.169451 J3.193153
G02 X13.240812 Y32.932907 Z0.000000 I0.324646 J1.139832
G01 X13.240875 Y32.932907 Z0.000000
G00 Z5.000000

(End cutting path id: path846)


(Start cutting path id: path846)
(Change tool to Cylindrical cutter)

G00 Z5.000000
G00 X11.749466 Y30.597192

G01 Z0.000000 F1000.0(Penetrate)
G02 X10.970907 Y31.433759 Z0.000000 I0.858329 J1.579381 F1100.000000
G02 X10.500622 Y33.349200 Z0.000000 I4.875582 J2.212521
G02 X10.589732 Y34.304091 Z0.000000 I3.236026 J0.179619
G02 X10.803363 Y34.579211 Z0.000000 I0.415932 J-0.102469
G02 X11.092584 Y34.597012 Z0.000000 I0.164023 J-0.306493
G02 X11.283823 Y34.393717 Z0.000000 I-0.116151 J-0.300859
G03 X11.472341 Y34.083693 Z0.000000 I0.731145 J0.232264
G03 X11.781968 Y33.895320 Z0.000000 I0.541125 J0.540788
G02 X12.078735 Y33.700810 Z0.000000 I-0.197443 J-0.624891
G02 X12.256113 Y33.351327 Z0.000000 I-0.604878 J-0.526756
G02 X12.673764 Y31.087107 Z0.000000 I-27.794254 J-6.297477
G02 X12.639294 Y30.670995 Z0.000000 I-0.927730 J-0.132631
G02 X12.380220 Y30.464639 Z0.000000 I-0.283361 J0.089943
G02 X11.749466 Y30.598115 Z0.000000 I-0.091995 J1.122356
G01 X11.749466 Y30.597192 Z0.000000
G00 Z5.000000

(End cutting path id: path846)


(Start cutting path id: path846)
(Change tool to Cylindrical cutter)

G00 Z5.000000
G00 X9.473475 Y30.839519

G01 Z0.000000 F1000.0(Penetrate)
G02 X9.341065 Y31.193592 Z0.000000 I1.397411 J0.724371 F1100.000000
G02 X9.156138 Y32.150512 Z0.000000 I10.170549 J2.461812
G03 X8.725199 Y33.605808 Z0.000000 I-5.247810 J-0.762519
G03 X8.479145 Y33.620842 Z0.000000 I-0.127061 J-0.058502
G02 X8.373485 Y33.629239 Z0.000000 I-0.050675 J0.031316
G02 X7.997802 Y34.775642 Z0.000000 I7.123084 J2.969034
G02 X7.936815 Y35.537682 Z0.000000 I2.352203 J0.571710
G02 X8.058929 Y35.550698 Z0.000000 I0.062274 J-0.004912
G03 X8.347250 Y34.846676 Z0.000000 I3.739059 J1.120223
G03 X8.470306 Y34.772537 Z0.000000 I0.123056 J0.065054
G02 X8.609719 Y34.704784 Z0.000000 I0.000000 J-0.177309
G02 X9.171385 Y33.880387 Z0.000000 I-5.773377 J-4.536963
G02 X9.559427 Y32.949049 Z0.000000 I-3.226080 J-1.890656
G02 X9.738492 Y31.743929 Z0.000000 I-5.270572 J-1.399000
G02 X9.749246 Y30.532018 Z0.000000 I-22.738533 J-0.807773
G01 X9.716288 Y30.499641 Z0.000000
G02 X9.665652 Y30.525699 Z0.000000 I-0.000000 J0.062228
G02 X9.473529 Y30.839519 Z0.000000 I2.112705 J1.509136
G01 X9.473475 Y30.839519 Z0.000000
G00 Z5.000000

(End cutting path id: path846)


(Start cutting path id: path846)
(Change tool to Cylindrical cutter)

G00 Z5.000000
G00 X11.918153 Y35.370856

G01 Z0.000000 F1000.0(Penetrate)
G02 X11.546487 Y35.932894 Z0.000000 I0.382679 J0.656967 F1100.000000
G02 X11.784720 Y36.431097 Z0.000000 I0.506700 J0.063764
G02 X12.378855 Y36.369517 Z0.000000 I0.257142 J-0.416000
G02 X12.743597 Y35.519410 Z0.000000 I-0.808305 J-0.850108
G02 X12.529250 Y35.263031 Z0.000000 I-0.260500 J-0.000000
G02 X11.918153 Y35.370856 Z0.000000 I-0.159109 J0.883859
G01 X11.918153 Y35.370856 Z0.000000
G00 Z5.000000

(End cutting path id: path846)


(Start cutting path id: path846)
(Change tool to Cylindrical cutter)

G00 Z5.000000
G00 X12.413279 Y37.539173

G01 Z0.000000 F1000.0(Penetrate)
G02 X11.767676 Y38.529289 Z0.000000 I2.726377 J2.483266 F1100.000000
G02 X11.578257 Y39.424879 Z0.000000 I2.022512 J0.895591
G02 X11.722935 Y39.925368 Z0.000000 I0.938016 J0.000000
G02 X12.076460 Y40.214583 Z0.000000 I0.609765 J-0.384679
G02 X12.737066 Y40.248315 Z0.000000 I0.382542 J-1.006175
G02 X13.509036 Y39.831533 Z0.000000 I-0.489152 J-1.829336
G02 X13.964899 Y39.195966 Z0.000000 I-1.194733 J-1.338196
G02 X14.028622 Y38.610956 Z0.000000 I-0.934398 J-0.397757
G02 X13.531201 Y37.360527 Z0.000000 I-3.445139 J0.646325
G02 X13.057771 Y37.102189 Z0.000000 I-0.473431 J0.304636
G02 X12.840743 Y37.168832 Z0.000000 I-0.000000 J0.386703
G02 X12.413279 Y37.539173 Z0.000000 I1.347504 J1.987221
G01 X12.413279 Y37.539173 Z0.000000
G00 Z5.000000

(End cutting path id: path846)


(Start cutting path id: path846)
(Change tool to Cylindrical cutter)

G00 Z5.000000
G00 X9.929128 Y37.876325

G01 Z0.000000 F1000.0(Penetrate)
G02 X8.995148 Y39.887686 Z0.000000 I7.323996 J4.623442 F1100.000000
G02 X9.062680 Y40.615604 Z0.000000 I0.897347 J0.283840
G02 X9.542038 Y40.901198 Z0.000000 I0.476787 J-0.255178
G02 X9.830259 Y40.611604 Z0.000000 I-0.001377 J-0.289594
G03 X9.921941 Y40.280978 Z0.000000 I0.641999 J0.000000
G03 X10.267825 Y39.883264 Z0.000000 I1.298908 J0.780373
G02 X10.612749 Y39.469269 Z0.000000 I-0.870336 J-1.075814
G02 X10.936594 Y38.655279 Z0.000000 I-3.212568 J-1.749535
G02 X11.001287 Y37.825468 Z0.000000 I-2.237540 J-0.591867
G02 X10.808553 Y37.416422 Z0.000000 I-0.679478 J0.070226
G02 X10.483095 Y37.365252 Z0.000000 I-0.197295 J0.194262
G02 X9.929128 Y37.875629 Z0.000000 I0.670000 J1.283051
G01 X9.929128 Y37.876325 Z0.000000
G00 Z5.000000

(End cutting path id: path846)


(Start cutting path id: path846)
(Change tool to Cylindrical cutter)

G00 Z5.000000
G00 X8.624687 Y36.367188

G01 Z0.000000 F1000.0(Penetrate)
G02 X6.739059 Y39.036716 Z0.000000 I3.309468 J4.338373 F1100.000000
G02 X7.452690 Y40.015507 Z0.000000 I0.713631 J0.229243
G02 X8.042465 Y39.749850 Z0.000000 I0.000000 J-0.787496
G02 X8.999331 Y38.267512 Z0.000000 I-4.387834 J-3.882399
G02 X9.341572 Y37.000972 Z0.000000 I-3.799467 J-1.706189
G02 X9.192570 Y36.447110 Z0.000000 I-0.791559 J-0.084025
G02 X8.927110 Y36.288322 Z0.000000 I-0.320316 J0.234209
G02 X8.624687 Y36.367930 Z0.000000 I-0.056029 J0.401396
G01 X8.624687 Y36.367188 Z0.000000
G00 Z5.000000

(End cutting path id: path846)


(Start cutting path id: path846)
(Change tool to Cylindrical cutter)

G00 Z5.000000
G00 X7.443856 Y42.601590

G01 Z0.000000 F1000.0(Penetrate)
G02 X6.874277 Y43.924418 Z0.000000 I3.490150 J2.286815 F1100.000000
G02 X6.853480 Y45.087941 Z0.000000 I2.650306 J0.629318
G03 X6.705050 Y45.414638 Z0.000000 I-0.301173 J0.060234
G03 X6.445008 Y45.322079 Z0.000000 I-0.090376 J-0.157662
G02 X6.276201 Y45.201711 Z0.000000 I-0.175280 J0.067263
G02 X6.008668 Y45.307003 Z0.000000 I-0.012451 J0.360892
G02 X5.510570 Y46.396985 Z0.000000 I1.213203 J1.213208
G02 X5.802307 Y48.172839 Z0.000000 I3.859247 J0.277893
G01 X6.087464 Y48.851978 Z0.000000
G01 X6.294528 Y48.366421 Z0.000000
G02 X6.476809 Y47.872978 Z0.000000 I-4.918019 J-2.097143
G02 X6.618634 Y47.335633 Z0.000000 I-5.691283 J-1.789524
G03 X6.844669 Y46.946361 Z0.000000 I0.711144 J0.152672
G03 X7.161058 Y46.850096 Z0.000000 I0.261841 J0.292518
G02 X7.749420 Y46.575881 Z0.000000 I0.082451 J-0.591399
G02 X8.143685 Y45.282272 Z0.000000 I-2.194089 J-1.375599
G02 X8.080176 Y42.308919 Z0.000000 I-28.044649 J-0.888336
G02 X7.910372 Y42.151297 Z0.000000 I-0.169804 J0.012653
G02 X7.769245 Y42.208245 Z0.000000 I-0.000000 J0.203343
G02 X7.443856 Y42.600991 Z0.000000 I1.585809 J1.645004
G01 X7.443856 Y42.601590 Z0.000000
G00 Z5.000000

(End cutting path id: path846)


(Start cutting path id: path846)
(Change tool to Cylindrical cutter)

G00 Z5.000000
G00 X9.774567 Y43.243449

G01 Z0.000000 F1000.0(Penetrate)
G02 X9.674898 Y43.378177 Z0.000000 I0.391752 J0.394041 F1100.000000
G02 X9.054079 Y44.608056 Z0.000000 I33.697541 J17.781493
G02 X8.707915 Y45.956578 Z0.000000 I3.185923 J1.536514
G02 X8.967724 Y46.230583 Z0.000000 I0.259809 J0.013828
G02 X9.728119 Y45.934267 Z0.000000 I0.000000 J-1.123807
G02 X10.024480 Y45.259450 Z0.000000 I-0.620101 J-0.674817
G03 X10.083214 Y45.123943 Z0.000000 I0.185685 J0.000000
G03 X10.231790 Y45.065218 Z0.000000 I0.148576 J0.158590
G02 X10.332444 Y44.987162 Z0.000000 I0.000000 J-0.103924
G02 X10.324611 Y44.704223 Z0.000000 I-0.497307 J-0.127810
G03 X10.320275 Y44.375367 Z0.000000 I0.540082 J-0.171577
G03 X10.497051 Y44.104987 Z0.000000 I0.528839 J0.152779
G02 X10.634881 Y43.842720 Z0.000000 I-0.246318 J-0.296800
G02 X10.551911 Y43.494889 Z0.000000 I-0.559663 J-0.050311
G02 X10.122487 Y43.159734 Z0.000000 I-0.674031 J0.420934
G02 X9.774750 Y43.243449 Z0.000000 I-0.105465 J0.325994
G01 X9.774567 Y43.243449 Z0.000000
G00 Z5.000000

(End cutting path id: path846)


(Start cutting path id: path846)
(Change tool to Cylindrical cutter)

G00 Z5.000000
G00 X12.031004 Y42.589721

G01 Z0.000000 F1000.0(Penetrate)
G02 X10.710645 Y44.425699 Z0.000000 I6.251022 J5.888239 F1100.000000
G02 X10.412925 Y45.612897 Z0.000000 I2.218203 J1.187199
G02 X10.462301 Y45.772210 Z0.000000 I0.281704 J0.000000
G02 X10.703289 Y46.036372 Z0.000000 I1.068203 J-0.732490
G02 X11.002224 Y46.126803 Z0.000000 I0.256733 J-0.309368
G02 X11.488843 Y45.953602 Z0.000000 I-0.115577 J-1.094917
G02 X11.921074 Y45.578291 Z0.000000 I-1.165274 J-1.778545
G02 X12.148757 Y45.202320 Z0.000000 I-0.941802 J-0.827270
G03 X12.354787 Y44.799133 Z0.000000 I2.036373 J0.786357
G03 X12.916982 Y44.020442 Z0.000000 I8.217971 J5.340875
G02 X13.361091 Y43.048297 Z0.000000 I-1.715672 J-1.371293
G02 X13.218132 Y42.390897 Z0.000000 I-0.855752 J-0.158151
G02 X12.761819 Y42.199787 Z0.000000 I-0.379501 J0.265809
G02 X12.031004 Y42.590459 Z0.000000 I0.215527 J1.282068
G01 X12.031004 Y42.589721 Z0.000000
G00 Z5.000000

(End cutting path id: path846)


(Start cutting path id: path846)
(Change tool to Cylindrical cutter)

G00 Z5.000000
G00 X15.344138 Y40.162118

G01 Z0.000000 F1000.0(Penetrate)
G02 X15.164524 Y40.338600 Z0.000000 I0.374001 J0.560280 F1100.000000
G02 X14.805908 Y40.937073 Z0.000000 I4.324697 J2.998118
G02 X14.627427 Y41.992923 Z0.000000 I1.581635 J0.810370
G02 X15.069665 Y42.828263 Z0.000000 I1.371309 J-0.191253
G02 X15.398630 Y42.908209 Z0.000000 I0.238155 J-0.263176
G02 X15.823981 Y42.628620 Z0.000000 I-0.205282 J-0.775653
G02 X16.449861 Y41.293506 Z0.000000 I-2.561943 J-2.015255
G02 X16.294896 Y40.421484 Z0.000000 I-1.150145 J-0.245391
G02 X15.835405 Y40.081068 Z0.000000 I-0.666928 J0.419899
G02 X15.344138 Y40.162118 Z0.000000 I-0.157238 J0.576320
G01 X15.344138 Y40.162118 Z0.000000
G00 Z5.000000

(End cutting path id: path846)


(Start cutting path id: path846)
(Change tool to Cylindrical cutter)

G00 Z5.000000
G00 X16.426832 Y42.579785

G01 Z0.000000 F1000.0(Penetrate)
G02 X15.731343 Y44.188195 Z0.000000 I18.650326 J9.019122 F1100.000000
G02 X15.664223 Y44.570575 Z0.000000 I0.949637 J0.363773
G02 X16.075709 Y44.711601 Z0.000000 I0.231352 J-0.004208
G02 X17.278060 Y42.568792 Z0.000000 I-5.746528 J-4.633164
G02 X17.629294 Y41.099007 Z0.000000 I-6.505179 J-2.331401
G02 X17.523467 Y40.980644 Z0.000000 I-0.104429 J-0.013123
G02 X17.314095 Y41.089722 Z0.000000 I0.003484 J0.262167
G02 X16.426832 Y42.580272 Z0.000000 I8.143138 J5.856625
G01 X16.426832 Y42.579785 Z0.000000
G00 Z5.000000

(End cutting path id: path846)


(Start cutting path id: path846)
(Change tool to Cylindrical cutter)

G00 Z5.000000
G00 X16.548134 Y45.274887

G01 Z0.000000 F1000.0(Penetrate)
G02 X15.816783 Y46.510464 Z0.000000 I3.343748 J2.813435 F1100.000000
G02 X15.906019 Y46.933326 Z0.000000 I0.369171 J0.142941
G02 X16.878478 Y46.886583 Z0.000000 I0.465001 J-0.465031
G02 X17.599152 Y44.879236 Z0.000000 I-2.435275 J-2.007348
G02 X17.350604 Y44.707227 Z0.000000 I-0.183794 J-0.000000
G02 X16.548134 Y45.274887 Z0.000000 I0.684831 J1.819141
G01 X16.548134 Y45.274887 Z0.000000
G00 Z5.000000

(End cutting path id: path846)


(Start cutting path id: path846)
(Change tool to Cylindrical cutter)

G00 Z5.000000
G00 X13.064655 Y46.956938

G01 Z0.000000 F1000.0(Penetrate)
G03 X12.187468 Y47.683206 Z0.000000 I-71.574324 J-85.554627 F1100.000000
G03 X11.496259 Y48.242040 Z0.000000 I-42.979015 J-52.452871
G02 X10.942632 Y48.864410 Z0.000000 I1.531588 J1.919841
G02 X10.801368 Y49.358832 Z0.000000 I0.794605 J0.494422
G02 X11.047415 Y49.752073 Z0.000000 I0.437268 J0.000000
G02 X11.966700 Y49.925490 Z0.000000 I0.777700 J-1.599318
G02 X13.018718 Y49.532701 Z0.000000 I-0.165799 J-2.049286
G02 X13.326255 Y48.924904 Z0.000000 I-0.446838 J-0.607797
G03 X13.362602 Y48.785414 Z0.000000 I0.285838 J0.000000
G03 X13.811816 Y48.057664 Z0.000000 I8.638964 J4.830001
G02 X14.323889 Y46.798001 Z0.000000 I-2.697260 J-1.830394
G02 X14.117763 Y46.337194 Z0.000000 I-0.442302 J-0.078657
G02 X13.945826 Y46.335032 Z0.000000 I-0.087751 J0.140687
G02 X13.064655 Y46.956938 Z0.000000 I3.340525 J5.668363
G01 X13.064655 Y46.956938 Z0.000000
G00 Z5.000000

(End cutting path id: path846)


(Start cutting path id: path846)
(Change tool to Cylindrical cutter)

G00 Z5.000000
G00 X11.081570 Y51.749510

G01 Z0.000000 F1000.0(Penetrate)
G02 X10.808799 Y52.032982 Z0.000000 I0.673588 J0.921135 F1100.000000
G02 X10.819047 Y52.139139 Z0.000000 I0.069545 J0.046860
G02 X10.930827 Y52.153289 Z0.000000 I0.065001 J-0.064897
G02 X11.285845 Y51.863667 Z0.000000 I-0.781036 J-1.319796
G02 X11.265257 Y51.738313 Z0.000000 I-0.060197 J-0.054481
G02 X11.081570 Y51.749510 Z0.000000 I-0.083118 J0.148727
G01 X11.081570 Y51.749510 Z0.000000
G00 Z5.000000

(End cutting path id: path846)


(Start cutting path id: path846)
(Change tool to Cylindrical cutter)

G00 Z5.000000
G00 X8.907699 Y51.029093

G01 Z0.000000 F1000.0(Penetrate)
G02 X8.720245 Y51.564072 Z0.000000 I2.633789 J1.223197 F1100.000000
G02 X8.664921 Y52.024307 Z0.000000 I1.886663 J0.460235
G03 X8.589248 Y52.475416 Z0.000000 I-1.382443 J-0.000000
G03 X8.292783 Y53.102360 Z0.000000 I-3.004522 J-1.037190
G02 X7.650535 Y54.746384 Z0.000000 I4.232815 J2.601038
G02 X7.870953 Y55.251199 Z0.000000 I0.474815 J0.093210
G02 X8.259736 Y55.137788 Z0.000000 I0.143290 J-0.231885
G02 X8.507768 Y53.931620 Z0.000000 I-2.269618 J-1.095303
G03 X8.583078 Y53.609586 Z0.000000 I0.611719 J-0.026768
G03 X8.935529 Y53.154738 Z0.000000 I1.621792 J0.892712
G02 X9.235219 Y52.679388 Z0.000000 I-0.770613 J-0.817989
G02 X9.333560 Y51.911397 Z0.000000 I-2.031887 J-0.650475
G03 X9.368095 Y51.161750 Z0.000000 I3.710762 J-0.204674
G03 X9.455935 Y51.085972 Z0.000000 I0.087840 J0.013022
G02 X9.532214 Y51.022974 Z0.000000 I0.000000 J-0.077679
G02 X9.512025 Y50.794636 Z0.000000 I-0.409643 J-0.078843
G02 X9.271532 Y50.688055 Z0.000000 I-0.173343 J0.066520
G02 X8.907679 Y51.029093 Z0.000000 I0.241318 J0.622079
G01 X8.907699 Y51.029093 Z0.000000
G00 Z5.000000

(End cutting path id: path846)


(Start cutting path id: path846)
(Change tool to Cylindrical cutter)

G00 Z5.000000
G00 X8.128499 Y49.070326

G01 Z0.000000 F1000.0(Penetrate)
G02 X7.560039 Y50.767861 Z0.000000 I4.333479 J2.395120 F1100.000000
G02 X7.869369 Y50.891219 Z0.000000 I0.169636 J0.024141
G02 X8.021211 Y50.582124 Z0.000000 I-0.875046 J-0.621707
G02 X8.079281 Y50.201736 Z0.000000 I-1.282409 J-0.390399
G03 X8.144412 Y49.829627 Z0.000000 I1.143605 J0.008410
G03 X8.294692 Y49.591149 Z0.000000 I0.600681 J0.211939
G02 X8.426949 Y49.354827 Z0.000000 I-0.352266 J-0.352316
G02 X8.431861 Y49.018182 Z0.000000 I-0.748906 J-0.179286
G02 X8.314397 Y48.938480 Z0.000000 I-0.099927 J0.020862
G02 X8.128499 Y49.071101 Z0.000000 I0.045378 J0.260204
G01 X8.128499 Y49.070326 Z0.000000
G00 Z5.000000

(End cutting path id: path846)


(Start cutting path id: path846)
(Change tool to Cylindrical cutter)

G00 Z5.000000
G00 X6.146316 Y51.599304

G01 Z0.000000 F1000.0(Penetrate)
G02 X5.864349 Y52.716009 Z0.000000 I4.882875 J1.826869 F1100.000000
G02 X5.792471 Y54.172745 Z0.000000 I8.282236 J1.138806
G01 X5.848687 Y55.650174 Z0.000000
G01 X6.385680 Y53.999252 Z0.000000
G02 X6.880534 Y52.069325 Z0.000000 I-14.932193 J-4.857177
G02 X6.947684 Y51.037418 Z0.000000 I-4.155963 J-0.788585
G02 X6.681082 Y50.908346 Z0.000000 I-0.169266 J0.009751
G02 X6.146308 Y51.599304 Z0.000000 I0.846948 J1.207931
G01 X6.146316 Y51.599304 Z0.000000
G00 Z5.000000

(End cutting path id: path846)


(Start cutting path id: path846)
(Change tool to Cylindrical cutter)

G00 Z5.000000
G00 X4.712025 Y48.985265

G01 Z0.000000 F1000.0(Penetrate)
G02 X4.366438 Y51.767247 Z0.000000 I9.837019 J2.634441 F1100.000000
G02 X4.780482 Y53.707965 Z0.000000 I5.101809 J-0.073922
G02 X4.874860 Y53.703007 Z0.000000 I0.046274 J-0.019884
G02 X4.991396 Y53.028197 Z0.000000 I-2.525569 J-0.783619
G03 X5.046151 Y51.960758 Z0.000000 I52.956296 J2.181291
G03 X5.086793 Y51.474413 Z0.000000 I11.051800 J0.678701
G02 X5.126164 Y50.988026 Z0.000000 I-9.815143 J-1.039275
G02 X5.172365 Y49.949140 Z0.000000 I-44.738327 J-2.510051
G02 X4.965692 Y48.961876 Z0.000000 I-2.127415 J-0.069912
G02 X4.712025 Y48.985265 Z0.000000 I-0.122516 J0.058514
G01 X4.712025 Y48.985265 Z0.000000
G00 Z5.000000

(End cutting path id: path846)


(Start cutting path id: path846)
(Change tool to Cylindrical cutter)

G00 Z5.000000
G00 X9.487937 Y53.447981

G01 Z0.000000 F1000.0(Penetrate)
G02 X9.130409 Y54.260217 Z0.000000 I0.866030 J0.866014 F1100.000000
G02 X9.438116 Y54.581746 Z0.000000 I0.307707 J0.013524
G02 X9.807933 Y54.309033 Z0.000000 I0.000000 J-0.387104
G02 X9.798239 Y53.417480 Z0.000000 I-1.392386 J-0.430690
G02 X9.694758 Y53.350465 Z0.000000 I-0.093633 J0.031182
G02 X9.487945 Y53.448830 Z0.000000 I0.033879 J0.337828
G01 X9.487937 Y53.447981 Z0.000000
G00 Z5.000000

(End cutting path id: path846)


(Start cutting path id: path846)
(Change tool to Cylindrical cutter)

G00 Z5.000000
G00 X9.247587 Y54.969638

G01 Z0.000000 F1000.0(Penetrate)
G02 X9.306088 Y55.105332 Z0.000000 I0.186624 J0.000000 F1100.000000
G02 X9.453273 Y55.163839 Z0.000000 I0.147185 J-0.155882
G02 X9.547887 Y55.102216 Z0.000000 I0.000000 J-0.103446
G02 X9.538907 Y54.969638 Z0.000000 I-0.130632 J-0.057745
G02 X9.403326 Y54.803270 Z0.000000 I-0.703346 J0.434760
G02 X9.333221 Y54.775397 Z0.000000 I-0.070105 J0.074224
G02 X9.281525 Y54.809046 Z0.000000 I-0.000000 J0.056535
G02 X9.247567 Y54.969638 Z0.000000 I0.362750 J0.160592
G01 X9.247587 Y54.969638 Z0.000000
G00 Z5.000000

(End cutting path id: path846)


(Start cutting path id: path846)
(Change tool to Cylindrical cutter)

G00 Z5.000000
G00 X8.257008 Y58.224325

G01 Z0.000000 F1000.0(Penetrate)
G02 X8.085127 Y58.767424 Z0.000000 I4.547208 J1.737861 F1100.000000
G02 X7.863281 Y59.779319 Z0.000000 I15.624186 J3.955677
G02 X7.810294 Y60.770696 Z0.000000 I3.757432 J0.697932
G02 X7.975052 Y61.230699 Z0.000000 I0.923000 J-0.071081
G03 X8.205959 Y61.683271 Z0.000000 I-1.499783 J1.050396
G03 X8.276473 Y62.103381 Z0.000000 I-1.216211 J0.420110
G02 X8.446293 Y62.439567 Z0.000000 I0.417675 J0.000000
G02 X8.810585 Y62.497148 Z0.000000 I0.237646 J-0.322337
G02 X8.897391 Y62.419112 Z0.000000 I-0.046624 J-0.139164
G02 X8.904230 Y62.292526 Z0.000000 I-0.157084 J-0.071964
G03 X8.916269 Y62.151901 Z0.000000 I0.168635 J-0.056391
G03 X9.147007 Y61.841643 Z0.000000 I1.170750 J0.629757
G02 X9.371473 Y61.370602 Z0.000000 I-0.551964 J-0.552032
G02 X9.226853 Y61.076239 Z0.000000 I-0.306756 J-0.031998
G03 X9.158875 Y60.943487 Z0.000000 I0.075449 J-0.122416
G03 X9.246911 Y60.798097 Z0.000000 I0.186237 J0.013421
G02 X9.350572 Y60.617545 Z0.000000 I-0.114889 J-0.185995
G02 X9.260819 Y60.239747 Z0.000000 I-0.760301 J-0.018937
G03 X9.173700 Y59.906900 Z0.000000 I0.650294 J-0.348031
G03 X9.252339 Y59.826625 Z0.000000 I0.078639 J-0.001619
G02 X9.340822 Y59.757727 Z0.000000 I0.000000 J-0.091267
G02 X9.313721 Y59.583842 Z0.000000 I-0.217915 J-0.055091
G03 X9.220580 Y59.328422 Z0.000000 I0.561258 J-0.349359
G03 X9.217653 Y58.914656 Z0.000000 I1.515961 J-0.217617
G02 X9.071390 Y57.957802 Z0.000000 I-1.736041 J-0.224237
G02 X8.653400 Y57.690187 Z0.000000 I-0.417990 J0.192622
G02 X8.510660 Y57.762014 Z0.000000 I-0.000000 J0.177746
G02 X8.257129 Y58.224265 Z0.000000 I1.553244 J1.152562
G01 X8.257008 Y58.224325 Z0.000000
G00 Z5.000000

(End cutting path id: path846)


(Start cutting path id: path846)
(Change tool to Cylindrical cutter)

G00 Z5.000000
G00 X6.645440 Y57.726478

G01 Z0.000000 F1000.0(Penetrate)
G02 X5.895129 Y60.635807 Z0.000000 I45.344608 J13.245702 F1100.000000
G02 X5.902251 Y61.040674 Z0.000000 I0.837348 J0.187768
G02 X6.027022 Y61.094659 Z0.000000 I0.083514 J-0.021839
G02 X6.170118 Y60.894923 Z0.000000 I-0.134767 J-0.247677
G03 X6.271893 Y60.526950 Z0.000000 I1.904300 J0.328638
G03 X6.357765 Y60.409348 Z0.000000 I0.262281 J0.101362
G02 X7.386746 Y58.694983 Z0.000000 I-1.816349 J-2.256178
G02 X6.896406 Y57.580430 Z0.000000 I-1.055162 J-0.200926
G02 X6.760961 Y57.578575 Z0.000000 I-0.069259 J0.111288
G02 X6.645440 Y57.726478 Z0.000000 I0.128246 J0.219235
G01 X6.645440 Y57.726478 Z0.000000
G00 Z5.000000

(End cutting path id: path846)


(Start cutting path id: path846)
(Change tool to Cylindrical cutter)

G00 Z5.000000
G00 X5.751583 Y58.564013

G01 Z0.000000 F1000.0(Penetrate)
G03 X5.660290 Y59.011762 Z0.000000 I-1.143640 J-0.000000 F1100.000000
G03 X5.391987 Y59.409149 Z0.000000 I-1.158505 J-0.492918
G02 X5.134884 Y59.818921 Z0.000000 I0.766834 J0.766676
G02 X4.901202 Y60.817253 Z0.000000 I4.598883 J1.602987
G01 X4.770012 Y61.865787 Z0.000000
G01 X5.260304 Y60.827923 Z0.000000
G02 X5.708572 Y59.776485 Z0.000000 I-13.506926 J-6.379787
G02 X5.835641 Y59.321019 Z0.000000 I-2.387017 J-0.911407
G03 X5.934306 Y58.855403 Z0.000000 I7.958894 J1.443240
G03 X6.043445 Y58.465251 Z0.000000 I5.702627 J1.384883
G02 X6.057615 Y58.157938 Z0.000000 I-0.567644 J-0.180157
G02 X5.958887 Y58.078457 Z0.000000 I-0.098728 J0.021577
G02 X5.834033 Y58.160907 Z0.000000 I-0.000000 J0.135758
G02 X5.751579 Y58.564023 Z0.000000 I0.944120 J0.403101
G01 X5.751583 Y58.564013 Z0.000000
G00 Z5.000000

(End cutting path id: path846)


(Start cutting path id: path846)
(Change tool to Cylindrical cutter)

G00 Z5.000000
G00 X6.697119 Y62.383304

G01 Z0.000000 F1000.0(Penetrate)
G02 X6.603128 Y65.621984 Z0.000000 I23.237518 J2.295089 F1100.000000
G02 X6.837183 Y65.846813 Z0.000000 I0.234105 J-0.009468
G02 X7.334103 Y65.484784 Z0.000000 I0.000115 J-0.521892
G02 X7.305654 Y64.390967 Z0.000000 I-1.573580 J-0.506351
G03 X7.254961 Y63.995964 Z0.000000 I0.797082 J-0.303047
G03 X7.358728 Y63.901660 Z0.000000 I0.105095 J0.011399
G02 X7.427060 Y63.846445 Z0.000000 I-0.001039 J-0.071175
G02 X7.392208 Y63.755992 Z0.000000 I-0.084405 J-0.019419
G03 X7.267023 Y63.572642 Z0.000000 I0.179501 J-0.256968
G03 X7.197986 Y62.952012 Z0.000000 I2.409516 J-0.582181
G02 X6.957324 Y62.299372 Z0.000000 I-0.965023 J-0.014839
G02 X6.697114 Y62.383226 Z0.000000 I-0.111873 J0.098504
G01 X6.697119 Y62.383304 Z0.000000
G00 Z5.000000

(End cutting path id: path846)


(Start cutting path id: path846)
(Change tool to Cylindrical cutter)

G00 Z5.000000
G00 X5.712871 Y65.205511

G01 Z0.000000 F1000.0(Penetrate)
G02 X5.429766 Y66.495483 Z0.000000 I2.419662 J1.207086 F1100.000000
G02 X5.762324 Y66.817999 Z0.000000 I0.332558 J-0.010199
G02 X6.219559 Y66.432031 Z0.000000 I0.000000 J-0.463815
G02 X6.097954 Y64.846663 Z0.000000 I-3.228640 J-0.549695
G02 X5.999689 Y64.821636 Z0.000000 I-0.057172 J0.019055
G02 X5.712871 Y65.205511 Z0.000000 I0.918604 J0.985436
G01 X5.712871 Y65.205511 Z0.000000
G00 Z5.000000

(End cutting path id: path846)


(Start cutting path id: path846)
(Change tool to Cylindrical cutter)

G00 Z5.000000
G00 X4.480665 Y65.312763

G01 Z0.000000 F1000.0(Penetrate)
G03 X4.453688 Y65.748290 Z0.000000 I-5.157293 J-0.100849 F1100.000000
G03 X4.328308 Y66.769433 Z0.000000 I-28.423415 J-2.971676
G02 X4.289137 Y67.698124 Z0.000000 I4.702187 J0.663504
G02 X4.385345 Y67.789102 Z0.000000 I0.096209 J-0.005381
G02 X4.508378 Y67.707525 Z0.000000 I0.000000 J-0.133566
G02 X4.611043 Y67.254987 Z0.000000 I-1.215715 J-0.513719
G03 X4.690174 Y66.461017 Z0.000000 I7.529200 J0.349469
G03 X4.894243 Y65.409878 Z0.000000 I13.413135 J2.058652
G02 X4.888956 Y64.979529 Z0.000000 I-0.868841 J-0.204535
G02 X4.754567 Y64.875762 Z0.000000 I-0.134390 J0.035142
G02 X4.582527 Y64.970974 Z0.000000 I-0.000000 J0.203037
G02 X4.480674 Y65.312763 Z0.000000 I0.565993 J0.354736
G01 X4.480665 Y65.312763 Z0.000000
G00 Z5.000000

(End cutting path id: path846)


(Start cutting path id: path846)
(Change tool to Cylindrical cutter)

G00 Z5.000000
G00 X5.471528 Y67.576619

G01 Z0.000000 F1000.0(Penetrate)
G02 X5.094712 Y69.071645 Z0.000000 I2.172200 J1.342497 F1100.000000
G02 X5.588848 Y69.537097 Z0.000000 I0.494136 J-0.029568
G02 X5.698023 Y69.481007 Z0.000000 I0.000000 J-0.134297
G02 X5.762771 Y69.294313 Z0.000000 I-0.282996 J-0.202722
G03 X5.779355 Y69.051938 Z0.000000 I5.574843 J0.259691
G03 X5.850105 Y68.328631 Z0.000000 I48.773719 J4.405624
G02 X5.714645 Y67.587223 Z0.000000 I-1.329893 J-0.140099
G02 X5.471528 Y67.576619 Z0.000000 I-0.124524 J0.062689
G01 X5.471528 Y67.576619 Z0.000000
G00 Z5.000000

(End cutting path id: path846)


(Start cutting path id: path846)
(Change tool to Cylindrical cutter)

G00 Z5.000000
G00 X6.528469 Y69.667435

G01 Z0.000000 F1000.0(Penetrate)
G03 X6.445184 Y70.154166 Z0.000000 I-1.463913 J-0.000000 F1100.000000
G03 X6.228835 Y70.517341 Z0.000000 I-1.011743 J-0.356683
G02 X5.425462 Y72.574367 Z0.000000 I2.304280 J2.085330
G02 X6.205181 Y73.115559 Z0.000000 I0.574047 J0.005228
G02 X6.362812 Y72.940397 Z0.000000 I-0.092773 J-0.241996
G02 X6.688757 Y71.303849 Z0.000000 I-12.558932 J-3.352043
G02 X6.839828 Y69.267606 Z0.000000 I-17.365810 J-2.312118
G02 X6.722701 Y69.148620 Z0.000000 I-0.117127 J-0.001845
G02 X6.608009 Y69.228149 Z0.000000 I-0.000000 J0.122466
G02 X6.528478 Y69.667435 Z0.000000 I1.173425 J0.439286
G01 X6.528469 Y69.667435 Z0.000000
G00 Z5.000000

(End cutting path id: path846)


(Start cutting path id: path846)
(Change tool to Cylindrical cutter)

G00 Z5.000000
G00 X4.509915 Y70.426888

G01 Z0.000000 F1000.0(Penetrate)
G02 X4.251666 Y72.012009 Z0.000000 I3.684545 J1.413885 F1100.000000
G02 X4.584386 Y72.141440 Z0.000000 I0.194827 J-0.008461
G02 X5.305480 Y70.658436 Z0.000000 I-1.784435 J-1.784475
G02 X4.827652 Y70.119667 Z0.000000 I-0.477828 J-0.057493
G02 X4.671279 Y70.182904 Z0.000000 I-0.000000 J0.224961
G02 X4.509915 Y70.426888 Z0.000000 I0.470294 J0.486390
G01 X4.509915 Y70.426888 Z0.000000
G00 Z5.000000

(End cutting path id: path846)


(Start cutting path id: path846)
(Change tool to Cylindrical cutter)

G00 Z5.000000
G00 X3.333204 Y68.724728

G01 Z0.000000 F1000.0(Penetrate)
G02 X3.244638 Y69.545337 Z0.000000 I6.376784 J1.103312 F1100.000000
G02 X3.291994 Y69.667125 Z0.000000 I0.162060 J0.007086
G02 X3.677107 Y69.546371 Z0.000000 I0.161005 J-0.161003
G02 X3.566370 Y68.139391 Z0.000000 I-2.740380 J-0.492165
G01 X3.498904 Y68.137897 Z0.000000
G02 X3.333205 Y68.724727 Z0.000000 I2.731564 J1.088097
G01 X3.333204 Y68.724728 Z0.000000
G00 Z5.000000

(End cutting path id: path846)


(Start cutting path id: path846)
(Change tool to Cylindrical cutter)

G00 Z5.000000
G00 X3.355608 Y72.293237

G01 Z0.000000 F1000.0(Penetrate)
G02 X3.374065 Y73.334003 Z0.000000 I3.822799 J0.452751 F1100.000000
G02 X3.524053 Y73.383046 Z0.000000 I0.087430 J-0.013514
G02 X4.213654 Y71.868394 Z0.000000 I-1.678547 J-1.678529
G02 X3.669240 Y71.285004 Z0.000000 I-0.544414 J-0.037674
G02 X3.551825 Y71.371445 Z0.000000 I-0.000000 J0.122965
G02 X3.355608 Y72.293237 Z0.000000 I4.905837 J1.526059
G01 X3.355608 Y72.293237 Z0.000000
G00 Z5.000000

(End cutting path id: path846)


(Start cutting path id: path846)
(Change tool to Cylindrical cutter)

G00 Z5.000000
G00 X4.619820 Y73.522503

G01 Z0.000000 F1000.0(Penetrate)
G02 X4.301095 Y75.652032 Z0.000000 I3.558068 J1.621149 F1100.000000
G02 X4.926957 Y75.864662 Z0.000000 I0.365326 J-0.047907
G02 X4.999626 Y75.722001 Z0.000000 I-0.183512 J-0.183316
G02 X5.132649 Y74.568317 Z0.000000 I-13.470581 J-2.137704
G02 X4.928658 Y73.518121 Z0.000000 I-2.044157 J-0.147851
G02 X4.619820 Y73.522503 Z0.000000 I-0.153383 J0.075213
G01 X4.619820 Y73.522503 Z0.000000
G00 Z5.000000

(End cutting path id: path846)


(Start cutting path id: path846)
(Change tool to Cylindrical cutter)

G00 Z5.000000
G00 X7.543325 Y73.033086

G01 Z0.000000 F1000.0(Penetrate)
G02 X7.146627 Y74.820556 Z0.000000 I6.166369 J2.306276 F1100.000000
G02 X7.361758 Y75.329967 Z0.000000 I0.598632 J0.047321
G02 X8.215267 Y75.071207 Z0.000000 I0.341300 J-0.411245
G02 X8.022324 Y73.111075 Z0.000000 I-2.498043 J-0.743670
G01 X7.724928 Y72.547525 Z0.000000
G01 X7.543325 Y73.033086 Z0.000000
G00 Z5.000000

(End cutting path id: path846)


(Start cutting path id: path846)
(Change tool to Cylindrical cutter)

G00 Z5.000000
G00 X9.153052 Y72.629281

G01 Z0.000000 F1000.0(Penetrate)
G02 X9.215537 Y73.493454 Z0.000000 I1.800359 J0.304171 F1100.000000
G02 X9.782028 Y74.581159 Z0.000000 I3.481588 J-1.121888
G01 X9.847890 Y74.589831 Z0.000000
G02 X10.032058 Y74.386935 Z0.000000 I-0.487680 J-0.627695
G02 X10.302943 Y73.436237 Z0.000000 I-1.479068 J-0.935377
G02 X10.019308 Y72.932714 Z0.000000 I-0.598052 J0.005236
G03 X9.881251 Y72.780022 Z0.000000 I0.194951 J-0.315024
G03 X9.848095 Y72.581363 Z0.000000 I0.318480 J-0.155250
G02 X9.772067 Y72.012711 Z0.000000 I-1.126055 J-0.138856
G02 X9.555976 Y71.867669 Z0.000000 I-0.216091 J0.088450
G02 X9.374232 Y71.977128 Z0.000000 I-0.000000 J0.205612
G02 X9.153042 Y72.629281 Z0.000000 I1.914759 J1.013016
G01 X9.153052 Y72.629281 Z0.000000
G00 Z5.000000

(End cutting path id: path846)


(Start cutting path id: path846)
(Change tool to Cylindrical cutter)

G00 Z5.000000
G00 X10.700030 Y71.304203

G01 Z0.000000 F1000.0(Penetrate)
G02 X10.858029 Y71.868392 Z0.000000 I0.608826 J0.133718 F1100.000000
G02 X11.177138 Y71.803873 Z0.000000 I0.139203 J-0.132918
G02 X11.262494 Y70.932296 Z0.000000 I-1.558698 J-0.592615
G02 X10.990233 Y70.702340 Z0.000000 I-0.272261 J0.046197
G02 X10.885286 Y70.768240 Z0.000000 I-0.000000 J0.116515
G02 X10.700030 Y71.304203 Z0.000000 I2.195541 J1.058891
G01 X10.700030 Y71.304203 Z0.000000
G00 Z5.000000

(End cutting path id: path846)


(Start cutting path id: path846)
(Change tool to Cylindrical cutter)

G00 Z5.000000
G00 X12.546692 Y72.502287

G01 Z0.000000 F1000.0(Penetrate)
G02 X11.516784 Y73.933303 Z0.000000 I2.136656 J2.623884 F1100.000000
G02 X11.834599 Y74.392644 Z0.000000 I0.317815 J0.119723
G02 X12.824467 Y73.978249 Z0.000000 I0.000000 J-1.389452
G02 X13.370954 Y72.832939 Z0.000000 I-1.384237 J-1.363524
G02 X13.121275 Y72.414964 Z0.000000 I-0.399242 J-0.045072
G02 X12.546692 Y72.502366 Z0.000000 I-0.213113 J0.531351
G01 X12.546692 Y72.502287 Z0.000000
G00 Z5.000000

(End cutting path id: path846)


(Start cutting path id: path846)
(Change tool to Cylindrical cutter)

G00 Z5.000000
G00 X14.948255 Y75.036738

G01 Z0.000000 F1000.0(Penetrate)
G02 X14.175982 Y75.719970 Z0.000000 I0.887827 J1.781609 F1100.000000
G02 X13.908919 Y76.607604 Z0.000000 I1.341581 J0.887635
G03 X13.839732 Y76.848324 Z0.000000 I-0.453361 J-0.000000
G03 X13.714694 Y76.917533 Z0.000000 I-0.125038 J-0.078348
G02 X13.590404 Y77.122692 Z0.000000 I-0.000000 J0.140228
G02 X14.022323 Y77.506396 Z0.000000 I0.721022 J-0.376675
G02 X14.457253 Y77.414625 Z0.000000 I0.146077 J-0.384214
G02 X14.447202 Y77.086747 Z0.000000 I-0.157315 J-0.159270
G03 X14.374650 Y76.945147 Z0.000000 I0.141339 J-0.161805
G01 X14.430182 Y76.906565 Z0.000000
G02 X15.261118 Y77.102082 Z0.000000 I0.853859 J-1.765383
G02 X15.365504 Y76.917436 Z0.000000 I0.001415 J-0.121029
G03 X15.342511 Y76.777238 Z0.000000 I0.158250 J-0.097938
G03 X15.410584 Y76.723212 Z0.000000 I0.068073 J0.015872
G02 X15.533900 Y76.658141 Z0.000000 I0.000000 J-0.149384
G02 X15.900684 Y76.006446 Z0.000000 I-3.548729 J-2.426344
G02 X15.752662 Y75.171454 Z0.000000 I-0.682943 J-0.309548
G02 X14.948077 Y75.036640 Z0.000000 I-0.495069 J0.486298
G01 X14.948255 Y75.036738 Z0.000000
G00 Z5.000000

(End cutting path id: path846)


(Start cutting path id: path846)
(Change tool to Cylindrical cutter)

G00 Z5.000000
G00 X18.121691 Y74.286282

G01 Z0.000000 F1000.0(Penetrate)
G03 X17.839603 Y74.472691 Z0.000000 I-0.597428 J-0.597432 F1100.000000
G03 X17.719374 Y74.448136 Z0.000000 I-0.041536 J-0.103246
G01 X17.652418 Y74.456615 Z0.000000
G02 X17.599143 Y74.651609 Z0.000000 I0.330216 J0.194995
G02 X17.787658 Y74.803062 Z0.000000 I0.155096 J0.000000
G02 X18.347861 Y74.486395 Z0.000000 I-0.236668 J-1.072528
G02 X18.338814 Y74.279653 Z0.000000 I-0.104373 J-0.099002
G02 X18.121691 Y74.286282 Z0.000000 I-0.105038 J0.118716
G01 X18.121691 Y74.286282 Z0.000000
G00 Z5.000000

(End cutting path id: path846)


(Start cutting path id: path846)
(Change tool to Cylindrical cutter)

G00 Z5.000000
G00 X16.439682 Y72.116124

G01 Z0.000000 F1000.0(Penetrate)
G02 X15.583833 Y72.920549 Z0.000000 I0.939859 J1.857434 F1100.000000
G02 X15.521240 Y73.682325 Z0.000000 I0.760476 J0.445946
G02 X16.074730 Y74.122342 Z0.000000 I0.649857 J-0.249323
G02 X16.433807 Y73.809971 Z0.000000 I0.043668 J-0.312371
G03 X16.499407 Y73.681352 Z0.000000 I0.158889 J0.000000
G03 X16.701578 Y73.615753 Z0.000000 I0.202170 J0.278738
G02 X17.312190 Y73.216070 Z0.000000 I0.000000 J-0.666270
G02 X17.336022 Y72.162576 Z0.000000 I-1.273090 J-0.555816
G02 X17.084415 Y71.979886 Z0.000000 I-0.266335 J0.102199
G02 X16.439682 Y72.116246 Z0.000000 I-0.066150 J1.279614
G01 X16.439682 Y72.116124 Z0.000000
G00 Z5.000000

(End cutting path id: path846)


(Start cutting path id: path846)
(Change tool to Cylindrical cutter)

G00 Z5.000000
G00 X15.603591 Y70.268198

G01 Z0.000000 F1000.0(Penetrate)
G02 X15.159770 Y71.155938 Z0.000000 I1.211089 J1.160289 F1100.000000
G02 X15.390978 Y71.559216 Z0.000000 I0.363025 J0.059787
G02 X16.653600 Y71.308506 Z0.000000 I0.432429 J-1.126968
G02 X16.967148 Y70.065879 Z0.000000 I-0.822840 J-0.868496
G02 X16.523947 Y69.792490 Z0.000000 I-0.383884 J0.126390
G02 X15.603591 Y70.268198 Z0.000000 I0.234788 J1.582412
G01 X15.603591 Y70.268198 Z0.000000
G00 Z5.000000

(End cutting path id: path846)


(Start cutting path id: path846)
(Change tool to Cylindrical cutter)

G00 Z5.000000
G00 X17.884452 Y68.769953

G01 Z0.000000 F1000.0(Penetrate)
G02 X17.932597 Y69.030072 Z0.000000 I0.167486 J0.103515 F1100.000000
G02 X18.201974 Y69.011950 Z0.000000 I0.124324 J-0.163141
G02 X18.285584 Y68.818534 Z0.000000 I-0.202185 J-0.202180
G02 X18.212074 Y68.681839 Z0.000000 I-0.155011 J-0.004753
G02 X18.037157 Y68.656194 Z0.000000 I-0.117103 J0.189367
G02 X17.884374 Y68.769959 Z0.000000 I0.067117 J0.249608
G01 X17.884452 Y68.769953 Z0.000000
G00 Z5.000000

(End cutting path id: path846)


(Start cutting path id: path846)
(Change tool to Cylindrical cutter)

G00 Z5.000000
G00 X16.191028 Y66.953075

G01 Z0.000000 F1000.0(Penetrate)
G02 X15.602270 Y67.647573 Z0.000000 I0.980837 J1.428307 F1100.000000
G02 X15.580590 Y68.258791 Z0.000000 I0.708246 J0.331115
G02 X16.128058 Y68.600090 Z0.000000 I0.499649 J-0.191735
G02 X17.027440 Y68.129004 Z0.000000 I-0.118436 J-1.320193
G02 X17.551991 Y66.843602 Z0.000000 I-1.759329 J-1.467685
G02 X17.162144 Y66.441235 Z0.000000 I-0.371930 J-0.029685
G02 X16.936202 Y66.503282 Z0.000000 I0.028160 J0.544951
G02 X16.191028 Y66.953075 Z0.000000 I3.455262 J6.566509
G01 X16.191028 Y66.953075 Z0.000000
G00 Z5.000000

(End cutting path id: path846)


(Start cutting path id: path846)
(Change tool to Cylindrical cutter)

G00 Z5.000000
G00 X15.339302 Y64.089672

G01 Z0.000000 F1000.0(Penetrate)
G02 X13.487276 Y65.273234 Z0.000000 I0.776713 J3.256188 F1100.000000
G02 X13.557725 Y66.349271 Z0.000000 I0.632758 J0.498897
G02 X13.843232 Y66.454427 Z0.000000 I0.260647 J-0.267512
G02 X14.740561 Y66.270361 Z0.000000 I-0.225315 J-3.377713
G02 X15.555640 Y65.808002 Z0.000000 I-0.877356 J-2.496281
G02 X16.148672 Y65.098667 Z0.000000 I-1.647560 J-1.979993
G02 X16.591251 Y64.243696 Z0.000000 I-10.960547 J-6.215799
G02 X16.628033 Y64.079002 Z0.000000 I-0.350325 J-0.164695
G02 X16.496618 Y63.948661 Z0.000000 I-0.130345 J-0.000000
G02 X15.339302 Y64.089562 Z0.000000 I0.042454 J5.172086
G01 X15.339302 Y64.089672 Z0.000000
G00 Z5.000000

(End cutting path id: path846)


(Start cutting path id: path846)
(Change tool to Cylindrical cutter)

G00 Z5.000000
G00 X13.591302 Y60.022254

G01 Z0.000000 F1000.0(Penetrate)
G02 X12.309733 Y60.576915 Z0.000000 I0.788434 J3.579601 F1100.000000
G02 X11.561343 Y61.411483 Z0.000000 I1.333447 J1.948596
G02 X11.467142 Y62.316915 Z0.000000 I1.061377 J0.568041
G02 X11.978444 Y62.840268 Z0.000000 I0.746621 J-0.217988
G02 X12.383254 Y62.902025 Z0.000000 I0.399288 J-1.259665
G02 X13.342325 Y62.834168 Z0.000000 I-0.030248 J-7.239078
G02 X14.200221 Y62.550484 Z0.000000 I-0.338896 J-2.463903
G02 X14.593476 Y62.147363 Z0.000000 I-0.464876 J-0.846875
G02 X14.804088 Y61.574800 Z0.000000 I-2.177260 J-1.125900
G02 X14.880035 Y60.910634 Z0.000000 I-2.866146 J-0.664167
G02 X14.507649 Y60.201568 Z0.000000 I-0.861266 J-0.000000
G02 X13.591302 Y60.022094 Z0.000000 I-0.664519 J0.963810
G01 X13.591302 Y60.022254 Z0.000000
G00 Z5.000000

(End cutting path id: path846)


(Start cutting path id: path846)
(Change tool to Cylindrical cutter)

G00 Z5.000000
G00 X15.113096 Y56.756934

G01 Z0.000000 F1000.0(Penetrate)
G02 X14.913794 Y57.246771 Z0.000000 I0.481327 J0.481303 F1100.000000
G02 X15.123096 Y57.542683 Z0.000000 I0.319495 J-0.004006
G02 X15.613602 Y57.470249 Z0.000000 I0.178812 J-0.486151
G02 X15.851431 Y56.993298 Z0.000000 I-0.359336 J-0.476952
G02 X15.593957 Y56.640490 Z0.000000 I-0.370457 J-0.000000
G02 X15.113384 Y56.756934 Z0.000000 I-0.144820 J0.452223
G01 X15.113096 Y56.756934 Z0.000000
G00 Z5.000000

(End cutting path id: path846)


(Start cutting path id: path846)
(Change tool to Cylindrical cutter)

G00 Z5.000000
G00 X15.197562 Y54.790066

G01 Z0.000000 F1000.0(Penetrate)
G02 X14.792883 Y55.392338 Z0.000000 I0.729217 J0.927066 F1100.000000
G02 X14.870373 Y55.932316 Z0.000000 I0.640893 J0.183578
G02 X15.090996 Y56.055475 Z0.000000 I0.223663 J-0.141476
G02 X15.562220 Y55.940317 Z0.000000 I0.011210 J-0.975826
G02 X16.286571 Y55.209484 Z0.000000 I-0.825475 J-1.542534
G02 X16.229291 Y54.666715 Z0.000000 I-0.436072 J-0.228387
G02 X15.855498 Y54.517684 Z0.000000 I-0.323729 J0.268683
G02 X15.197562 Y54.790369 Z0.000000 I0.156824 J1.308468
G01 X15.197562 Y54.790066 Z0.000000
G00 Z5.000000

(End cutting path id: path846)


(Start cutting path id: path846)
(Change tool to Cylindrical cutter)

G00 Z5.000000
G00 X12.743592 Y53.999024

G01 Z0.000000 F1000.0(Penetrate)
G03 X12.437832 Y54.139216 Z0.000000 I-0.636083 J-0.983770 F1100.000000
G03 X12.093163 Y54.190319 Z0.000000 I-0.355436 J-1.209411
G02 X10.937765 Y54.510666 Z0.000000 I0.018318 J2.309831
G02 X10.245610 Y55.279994 Z0.000000 I0.875125 J1.483363
G02 X9.964147 Y57.393799 Z0.000000 I3.335584 J1.519791
G02 X10.751476 Y58.360279 Z0.000000 I1.236042 J-0.202991
G02 X11.008177 Y58.336125 Z0.000000 I0.104101 J-0.269789
G02 X11.751099 Y57.739768 Z0.000000 I-2.090997 J-3.365821
G02 X12.900592 Y56.232419 Z0.000000 I-5.552080 J-5.425949
G02 X13.132036 Y55.378089 Z0.000000 I-1.461073 J-0.854331
G03 X13.181638 Y54.810323 Z0.000000 I3.274271 J0.000001
G03 X13.321452 Y54.303030 Z0.000000 I2.741822 J0.482752
G02 X13.198767 Y53.978661 Z0.000000 I-0.244433 J-0.092935
G02 X12.743592 Y53.999024 Z0.000000 I-0.210170 J0.399517
G01 X12.743592 Y53.999024 Z0.000000
G00 Z5.000000

(End cutting path id: path846)


(Start cutting path id: path846)
(Change tool to Cylindrical cutter)

G00 Z5.000000
G00 X18.764480 Y53.417283

G01 Z0.000000 F1000.0(Penetrate)
G03 X18.667368 Y53.708631 Z0.000000 I-0.485599 J-0.000000 F1100.000000
G03 X18.473148 Y53.805745 Z0.000000 I-0.194220 J-0.145657
G02 X18.249795 Y53.873161 Z0.000000 I-0.000000 J0.403698
G02 X18.181818 Y53.999914 Z0.000000 I0.084188 J0.126754
G02 X18.467733 Y54.195508 Z0.000000 I0.209860 J0.000000
G02 X18.963513 Y53.695970 Z0.000000 I-0.313939 J-0.807372
G02 X19.064552 Y53.134109 Z0.000000 I-1.447315 J-0.550284
G02 X18.958513 Y53.028861 Z0.000000 I-0.106038 J0.000793
G02 X18.838476 Y53.103043 Z0.000000 I-0.000000 J0.134210
G02 X18.764285 Y53.417283 Z0.000000 I0.628381 J0.314237
G01 X18.764480 Y53.417283 Z0.000000
G00 Z5.000000

(End cutting path id: path846)


(Start cutting path id: path846)
(Change tool to Cylindrical cutter)

G00 Z5.000000
G00 X18.376035 Y56.484698

G01 Z0.000000 F1000.0(Penetrate)
G02 X16.422735 Y57.781165 Z0.000000 I1.602767 J4.534468 F1100.000000
G02 X15.851145 Y59.257882 Z0.000000 I1.621775 J1.476718
G02 X16.788136 Y59.890091 Z0.000000 I0.681778 J0.000000
G02 X18.761409 Y58.083603 Z0.000000 I-1.430448 J-3.543486
G02 X19.105032 Y57.304683 Z0.000000 I-6.739749 J-3.438525
G02 X19.152925 Y57.040883 Z0.000000 I-0.702584 J-0.263800
G02 X18.905665 Y56.559785 Z0.000000 I-0.591669 J-0.000000
G02 X18.376035 Y56.484698 Z0.000000 I-0.336847 J0.470533
G01 X18.376035 Y56.484698 Z0.000000
G00 Z5.000000

(End cutting path id: path846)


(Start cutting path id: path846)
(Change tool to Cylindrical cutter)

G00 Z5.000000
G00 X21.182036 Y56.178865

G01 Z0.000000 F1000.0(Penetrate)
G02 X20.335953 Y57.280999 Z0.000000 I0.773039 J1.469272 F1100.000000
G02 X20.755259 Y58.061049 Z0.000000 I0.657764 J0.149149
G02 X21.186784 Y58.166898 Z0.000000 I0.659544 J-1.756296
G02 X21.349650 Y58.132129 Z0.000000 I0.031036 J-0.253460
G03 X21.511921 Y58.103337 Z0.000000 I0.118526 J0.196333
G03 X22.058041 Y58.267385 Z0.000000 I-0.545345 J2.806519
G02 X22.603122 Y58.354519 Z0.000000 I0.455236 J-1.099304
G02 X23.221644 Y58.179325 Z0.000000 I-0.121908 J-1.609836
G02 X23.779435 Y57.813425 Z0.000000 I-1.487122 J-2.875133
G02 X23.936126 Y57.597043 Z0.000000 I-0.327932 J-0.402393
G02 X23.806725 Y56.752453 Z0.000000 I-0.804938 J-0.308883
G02 X22.930568 Y56.329041 Z0.000000 I-0.876157 J0.694801
G03 X22.487869 Y56.287297 Z0.000000 I0.000001 J-2.368349
G03 X22.020127 Y56.154209 Z0.000000 I0.510335 J-2.682060
G02 X21.566310 Y56.077655 Z0.000000 I-0.419471 J1.103244
G02 X21.182036 Y56.178868 Z0.000000 I0.025532 J0.877020
G01 X21.182036 Y56.178865 Z0.000000
G00 Z5.000000

(End cutting path id: path846)


(Start cutting path id: path846)
(Change tool to Cylindrical cutter)

G00 Z5.000000
G00 X22.843150 Y52.648029

G01 Z0.000000 F1000.0(Penetrate)
G03 X22.714178 Y52.995941 Z0.000000 I-0.533747 J-0.000000 F1100.000000
G03 X22.530799 Y53.011390 Z0.000000 I-0.099548 J-0.085564
G02 X22.241325 Y52.936649 Z0.000000 I-0.224111 J0.270049
G02 X21.948134 Y53.121854 Z0.000000 I0.087941 J0.463889
G02 X21.833315 Y53.620314 Z0.000000 I0.523992 J0.383154
G02 X22.154097 Y54.262937 Z0.000000 I1.259510 J-0.227342
G02 X22.961624 Y54.713127 Z0.000000 I1.095101 J-1.014989
G02 X23.350873 Y54.497803 Z0.000000 I0.066567 J-0.339156
G03 X23.507959 Y54.331037 Z0.000000 I0.281706 J0.107988
G03 X23.733226 Y54.324339 Z0.000000 I0.120642 J0.265984
G02 X23.972345 Y54.137481 Z0.000000 I0.063424 J-0.165265
G02 X23.621987 Y53.419231 Z0.000000 I-1.218369 J0.149737
G03 X23.337596 Y52.996949 Z0.000000 I0.939536 J-0.939646
G03 X23.282095 Y52.615201 Z0.000000 I0.702824 J-0.297089
G02 X23.235142 Y52.256283 Z0.000000 I-0.752618 J-0.084074
G02 X23.085930 Y52.111543 Z0.000000 I-0.232738 J0.090647
G02 X22.945963 Y52.170788 Z0.000000 I-0.037930 J0.105350
G02 X22.843150 Y52.648029 Z0.000000 I1.056227 J0.477241
G01 X22.843150 Y52.648029 Z0.000000
G00 Z5.000000

(End cutting path id: path846)


(Start cutting path id: path846)
(Change tool to Cylindrical cutter)

G00 Z5.000000
G00 X24.790441 Y49.979138

G01 Z0.000000 F1000.0(Penetrate)
G02 X24.195012 Y50.301904 Z0.000000 I0.667431 J1.941853 F1100.000000
G02 X23.870746 Y50.696536 Z0.000000 I0.717962 J0.920485
G02 X23.571989 Y51.883026 Z0.000000 I2.496009 J1.259350
G02 X23.827435 Y52.355604 Z0.000000 I0.538871 J0.014048
G03 X23.952381 Y52.511153 Z0.000000 I-0.153361 J0.251143
G03 X23.948881 Y52.707993 Z0.000000 I-0.272518 J0.093606
G02 X23.945585 Y52.913019 Z0.000000 I0.279190 J0.107029
G02 X24.105456 Y53.158736 Z0.000000 I0.575747 J-0.199733
G02 X24.528958 Y53.171424 Z0.000000 I0.218963 J-0.234387
G02 X26.193420 Y51.430239 Z0.000000 I-6.611127 J-7.985967
G02 X26.555436 Y50.543331 Z0.000000 I-1.493333 J-1.126885
G02 X26.372353 Y50.046841 Z0.000000 I-0.566156 J-0.073228
G02 X25.836997 Y49.827398 Z0.000000 I-0.571540 J0.631582
G02 X24.790375 Y49.979640 Z0.000000 I-0.120870 J2.842782
G01 X24.790441 Y49.979138 Z0.000000
G00 Z5.000000

(End cutting path id: path846)


(Start cutting path id: path846)
(Change tool to Cylindrical cutter)

G00 Z5.000000
G00 X22.851678 Y46.959177

G01 Z0.000000 F1000.0(Penetrate)
G02 X22.910964 Y47.484143 Z0.000000 I2.761781 J-0.046065 F1100.000000
G02 X23.116743 Y48.211782 Z0.000000 I5.494889 J-1.161057
G03 X23.124363 Y48.811202 Z0.000000 I-0.870551 J0.310826
G03 X22.816879 Y49.124250 Z0.000000 I-0.470526 J-0.154630
G02 X22.340615 Y49.625233 Z0.000000 I0.248667 J0.713271
G02 X22.547704 Y50.043475 Z0.000000 I0.330452 J0.096769
G02 X22.821398 Y50.049749 Z0.000000 I0.145470 J-0.373034
G02 X23.359454 Y49.771599 Z0.000000 I-0.644176 J-1.905588
G02 X23.693057 Y49.297230 Z0.000000 I-0.529389 J-0.726784
G02 X23.833451 Y48.151059 Z0.000000 I-3.421680 J-1.000803
G02 X23.508734 Y46.689939 Z0.000000 I-4.226608 J0.172670
G02 X23.110704 Y46.425087 Z0.000000 I-0.398030 J0.166662
G02 X22.947215 Y46.527499 Z0.000000 I-0.000000 J0.181702
G02 X22.851678 Y46.959177 Z0.000000 I0.858685 J0.416451
G01 X22.851678 Y46.959177 Z0.000000
G00 Z5.000000

(End cutting path id: path846)


(Start cutting path id: path846)
(Change tool to Cylindrical cutter)

G00 Z5.000000
G00 X20.191417 Y46.799940

G01 Z0.000000 F1000.0(Penetrate)
G03 X19.589316 Y47.700491 Z0.000000 I-6.091907 J-3.421442 F1100.000000
G03 X19.416249 Y47.784601 Z0.000000 I-0.173266 J-0.136408
G03 X19.218293 Y47.723150 Z0.000000 I-0.000342 J-0.348467
G03 X18.570262 Y47.202139 Z0.000000 I3.180556 J-4.619474
G02 X17.938387 Y46.640088 Z0.000000 I-11.844994 J12.680302
G02 X17.882174 Y46.619485 Z0.000000 I-0.056213 J0.066386
G02 X16.897052 Y47.071827 Z0.000000 I-0.000000 J1.298883
G02 X16.435502 Y48.303095 Z0.000000 I1.449304 J1.245425
G03 X16.083005 Y48.991315 Z0.000000 I-0.861527 J-0.006879
G03 X15.020966 Y49.338606 Z0.000000 I-1.062039 J-1.450251
G01 X14.975244 Y49.293236 Z0.000000
G03 X15.017866 Y48.950145 Z0.000000 I1.319868 J-0.010224
G02 X14.862935 Y48.749288 Z0.000000 I-0.155085 J-0.040556
G02 X14.588734 Y48.949744 Z0.000000 I-0.000275 J0.287389
G03 X14.382787 Y49.248826 Z0.000000 I-0.594608 J-0.188998
G03 X13.944417 Y49.462728 Z0.000000 I-0.700794 J-0.880058
G02 X11.854647 Y50.580330 Z0.000000 I1.092207 J4.554887
G02 X11.838668 Y51.411914 Z0.000000 I0.392024 J0.423478
G02 X12.169845 Y51.447813 Z0.000000 I0.187901 J-0.187883
G02 X13.449446 Y50.380626 Z0.000000 I-3.584838 J-5.599106
G03 X14.128342 Y49.888078 Z0.000000 I1.598929 J1.489712
G03 X14.857562 Y49.727097 Z0.000000 I0.729220 J1.571143
G03 X15.228914 Y50.090196 Z0.000000 I-0.000000 J0.371446
G03 X14.882792 Y50.849509 Z0.000000 I-0.958669 J0.021548
G03 X14.102209 Y51.285429 Z0.000000 I-1.564044 J-1.883828
G03 X13.723145 Y51.241186 Z0.000000 I-0.142774 J-0.422739
G02 X13.351156 Y51.169891 Z0.000000 I-0.278178 J0.445327
G02 X12.952141 Y51.381193 Z0.000000 I0.133306 J0.734123
G02 X12.397471 Y52.439160 Z0.000000 I1.472507 J1.446389
G02 X12.659237 Y52.909839 Z0.000000 I0.412074 J0.078956
G02 X12.956249 Y52.888553 Z0.000000 I0.125664 J-0.329361
G02 X13.547686 Y52.415606 Z0.000000 I-1.107543 J-1.991305
G01 X14.103038 Y51.793607 Z0.000000
G01 X14.103038 Y52.309245 Z0.000000
G02 X14.301403 Y52.612511 Z0.000000 I0.331003 J0.000000
G02 X15.122707 Y52.755236 Z0.000000 I0.701964 J-1.604983
G02 X16.911902 Y52.333691 Z0.000000 I-0.385095 J-5.642275
G02 X17.210596 Y51.885730 Z0.000000 I-0.186563 J-0.447961
G02 X17.132750 Y51.391836 Z0.000000 I-1.605680 J-0.000000
G02 X16.899409 Y50.923033 Z0.000000 I-1.676296 J0.541886
G03 X16.784187 Y50.509516 Z0.000000 I0.528194 J-0.369987
G03 X16.947899 Y50.206214 Z0.000000 I0.414805 J0.028064
G03 X17.318930 Y49.965049 Z0.000000 I1.858202 J2.452839
G03 X17.452745 Y49.927498 Z0.000000 I0.146802 J0.265931
G02 X17.581879 Y49.880990 Z0.000000 I-0.011778 J-0.235235
G02 X18.326749 Y49.273949 Z0.000000 I-6.773983 J-9.072536
G03 X19.454142 Y48.648809 Z0.000000 I1.961715 J2.208647
G03 X19.735420 Y48.859211 Z0.000000 I0.061947 J0.210402
G02 X19.955404 Y49.195405 Z0.000000 I0.366889 J0.000000
G02 X20.236100 Y49.077982 Z0.000000 I0.084251 J-0.192810
G03 X20.408565 Y48.920943 Z0.000000 I0.242355 J0.092938
G03 X21.216165 Y48.803939 Z0.000000 I0.855685 J3.060564
G02 X22.076940 Y48.744202 Z0.000000 I-0.135195 J-8.179585
G02 X22.204556 Y48.682243 Z0.000000 I-0.026654 J-0.217301
G02 X22.217176 Y48.099805 Z0.000000 I-0.297774 J-0.297807
G02 X21.086163 Y47.462654 Z0.000000 I-1.541073 J1.413162
G03 X20.665389 Y47.093816 Z0.000000 I0.109981 J-0.549896
G03 X20.722269 Y46.395942 Z0.000000 I0.831101 J-0.283517
G02 X20.867501 Y46.013229 Z0.000000 I-1.406473 J-0.752640
G02 X20.838199 Y45.909586 Z0.000000 I-0.107391 J-0.025602
G02 X20.757641 Y45.915629 Z0.000000 I-0.037722 J0.037112
G02 X20.191238 Y46.800009 Z0.000000 I7.349672 J5.330686
G01 X20.191417 Y46.799940 Z0.000000
G00 Z5.000000

(End cutting path id: path846)


(Start cutting path id: path846)
(Change tool to Cylindrical cutter)

G00 Z5.000000
G00 X20.433170 Y44.059732

G01 Z0.000000 F1000.0(Penetrate)
G03 X20.111929 Y44.577610 Z0.000000 I-3.475482 J-1.797273 F1100.000000
G03 X19.845516 Y44.860417 Z0.000000 I-1.282779 J-0.941535
G02 X19.505268 Y45.538025 Z0.000000 I0.603509 J0.727268
G02 X19.793805 Y45.842144 Z0.000000 I0.288537 J0.015183
G02 X20.291848 Y45.621552 Z0.000000 I0.000000 J-0.672526
G02 X20.512430 Y45.050215 Z0.000000 I-0.629628 J-0.571337
G03 X20.583152 Y44.757564 Z0.000000 I0.640870 J0.000000
G03 X20.803761 Y44.482569 Z0.000000 I0.782125 J0.401457
G02 X21.167802 Y43.802389 Z0.000000 I-0.653250 J-0.787138
G02 X20.905863 Y43.511466 Z0.000000 I-0.261939 J-0.027540
G02 X20.757886 Y43.579265 Z0.000000 I-0.000000 J0.195386
G02 X20.433112 Y44.059732 Z0.000000 I1.879089 J1.620180
G01 X20.433170 Y44.059732 Z0.000000
G00 Z5.000000

(End cutting path id: path846)


(Start cutting path id: path846)
(Change tool to Cylindrical cutter)

G00 Z5.000000
G00 X21.633696 Y43.979952

G01 Z0.000000 F1000.0(Penetrate)
G02 X21.613969 Y44.419996 Z0.000000 I1.504256 J0.287899 F1100.000000
G02 X21.683976 Y44.483362 Z0.000000 I0.070007 J-0.006989
G02 X21.963426 Y44.266610 Z0.000000 I0.000000 J-0.288518
G02 X21.880131 Y43.719558 Z0.000000 I-0.684148 J-0.175699
G02 X21.772570 Y43.708598 Z0.000000 I-0.057990 J0.035837
G02 X21.633702 Y43.979952 Z0.000000 I0.396076 J0.373906
G01 X21.633696 Y43.979952 Z0.000000
G00 Z5.000000

(End cutting path id: path846)


(Start cutting path id: path846)
(Change tool to Cylindrical cutter)

G00 Z5.000000
G00 X28.107410 Y51.651975

G01 Z0.000000 F1000.0(Penetrate)
G02 X27.999832 Y52.114232 Z0.000000 I0.180924 J0.285751 F1100.000000
G02 X28.565993 Y52.401512 Z0.000000 I0.516219 J-0.315822
G02 X28.842710 Y52.192589 Z0.000000 I-0.027323 J-0.323905
G02 X28.787897 Y51.814267 Z0.000000 I-0.369229 J-0.139637
G02 X28.451125 Y51.594683 Z0.000000 I-0.475157 J0.360697
G02 X28.107410 Y51.651975 Z0.000000 I-0.103965 J0.435954
G01 X28.107410 Y51.651975 Z0.000000
G00 Z5.000000

(End cutting path id: path846)


(Start cutting path id: path846)
(Change tool to Cylindrical cutter)

G00 Z5.000000
G00 X29.786596 Y53.527511

G01 Z0.000000 F1000.0(Penetrate)
G02 X29.343284 Y53.871287 Z0.000000 I0.826388 J1.523382 F1100.000000
G02 X29.252485 Y54.102424 Z0.000000 I0.248791 J0.231137
G02 X29.454030 Y54.267395 Z0.000000 I0.168290 J0.000000
G02 X30.116483 Y53.928242 Z0.000000 I-0.271513 J-1.346880
G02 X30.138877 Y53.596172 Z0.000000 I-0.164875 J-0.177909
G02 X29.786596 Y53.527511 Z0.000000 I-0.217773 J0.179270
G01 X29.786596 Y53.527511 Z0.000000
G00 Z5.000000

(End cutting path id: path846)


(Start cutting path id: path846)
(Change tool to Cylindrical cutter)

G00 Z5.000000
G00 X30.903379 Y54.326408

G01 Z0.000000 F1000.0(Penetrate)
G02 X29.913896 Y54.862571 Z0.000000 I0.577811 J2.247467 F1100.000000
G02 X29.640931 Y55.482708 Z0.000000 I0.567951 J0.620138
G02 X30.162788 Y56.076432 Z0.000000 I0.598673 J0.000000
G02 X32.649836 Y55.871988 Z0.000000 I0.765533 J-5.916938
G02 X33.287710 Y55.280744 Z0.000000 I-0.285555 J-0.947789
G02 X33.100259 Y54.705475 Z0.000000 I-0.446900 J-0.172553
G02 X32.012762 Y54.281663 Z0.000000 I-1.585073 J2.460121
G02 X30.903379 Y54.326408 Z0.000000 I-0.450322 J2.610050
G01 X30.903379 Y54.326408 Z0.000000
G00 Z5.000000

(End cutting path id: path846)


(Start cutting path id: path846)
(Change tool to Cylindrical cutter)

G00 Z5.000000
G00 X33.441868 Y53.201091

G01 Z0.000000 F1000.0(Penetrate)
G02 X33.528269 Y53.682813 Z0.000000 I0.311773 J0.192690 F1100.000000
G02 X34.099542 Y53.713895 Z0.000000 I0.307971 J-0.394963
G02 X34.268524 Y53.295719 Z0.000000 I-0.200404 J-0.324212
G02 X33.925289 Y53.028865 Z0.000000 I-0.343235 J0.087312
G02 X33.581901 Y53.087727 Z0.000000 I-0.000000 J1.031061
G02 X33.441868 Y53.201091 Z0.000000 I0.089708 J0.253982
G01 X33.441868 Y53.201091 Z0.000000
G00 Z5.000000

(End cutting path id: path846)


(Start cutting path id: path846)
(Change tool to Cylindrical cutter)

G00 Z5.000000
G00 X32.853894 Y51.850381

G01 Z0.000000 F1000.0(Penetrate)
G02 X32.831542 Y52.010060 Z0.000000 I0.170267 J0.105238 F1100.000000
G02 X32.939484 Y52.153209 Z0.000000 I0.238156 J-0.067311
G02 X33.062527 Y52.141451 Z0.000000 I0.053737 J-0.087336
G02 X33.136875 Y51.972397 Z0.000000 I-0.155023 J-0.169054
G02 X33.021807 Y51.797489 Z0.000000 I-0.190467 J-0.000000
G02 X32.853837 Y51.850381 Z0.000000 I-0.053345 J0.123749
G01 X32.853894 Y51.850381 Z0.000000
G00 Z5.000000

(End cutting path id: path846)


(Start cutting path id: path846)
(Change tool to Cylindrical cutter)

G00 Z5.000000
G00 X33.719601 Y51.097090

G01 Z0.000000 F1000.0(Penetrate)
G02 X33.781367 Y51.191681 Z0.000000 I0.103314 J0.000000 F1100.000000
G02 X33.913826 Y51.182150 Z0.000000 I0.057201 J-0.130231
G02 X34.080152 Y51.046695 Z0.000000 I-0.429424 J-0.697136
G02 X34.108046 Y50.976447 Z0.000000 I-0.074509 J-0.070248
G02 X34.073647 Y50.924245 Z0.000000 I-0.056810 J-0.000000
G02 X33.913826 Y50.891387 Z0.000000 I-0.159822 J0.372265
G02 X33.778285 Y50.949718 Z0.000000 I-0.000000 J0.186642
G02 X33.719601 Y51.097069 Z0.000000 I0.155654 J0.147352
G01 X33.719601 Y51.097090 Z0.000000
G00 Z5.000000

(End cutting path id: path846)


(Start cutting path id: path846)
(Change tool to Cylindrical cutter)

G00 Z5.000000
G00 X36.161608 Y50.337991

G01 Z0.000000 F1000.0(Penetrate)
G02 X36.028920 Y51.326493 Z0.000000 I1.379858 J0.688376 F1100.000000
G02 X36.535824 Y52.223888 Z0.000000 I1.615182 J-0.320492
G03 X37.156103 Y52.868790 Z0.000000 I-4.526820 J4.974725
G03 X37.215603 Y53.031951 Z0.000000 I-0.193959 J0.163161
G02 X37.448103 Y53.262624 Z0.000000 I0.230680 J0.000000
G02 X38.389251 Y53.021952 Z0.000000 I-0.015955 J-2.022905
G02 X38.877930 Y52.092260 Z0.000000 I-0.441836 J-0.825524
G02 X38.101658 Y50.452942 Z0.000000 I-2.775141 J0.310668
G02 X36.906260 Y49.906591 Z0.000000 I-1.303984 J1.272153
G02 X36.161608 Y50.337116 Z0.000000 I-0.046504 J0.778815
G01 X36.161608 Y50.337991 Z0.000000
G00 Z5.000000

(End cutting path id: path846)


(Start cutting path id: path846)
(Change tool to Cylindrical cutter)

G00 Z5.000000
G00 X38.886238 Y53.504900

G01 Z0.000000 F1000.0(Penetrate)
G02 X39.218029 Y55.050013 Z0.000000 I1.735331 J0.435543 F1100.000000
G02 X40.659469 Y55.747948 Z0.000000 I1.441441 J-1.139533
G02 X41.210614 Y55.609842 Z0.000000 I0.000000 J-1.168785
G02 X41.466430 Y55.316415 Z0.000000 I-0.258681 J-0.483751
G02 X41.258778 Y54.007761 Z0.000000 I-1.269027 J-0.469437
G02 X39.713748 Y53.099764 Z0.000000 I-1.941501 J1.535124
G02 X39.146192 Y53.183907 Z0.000000 I-0.151555 J0.933929
G02 X38.886238 Y53.504900 Z0.000000 I0.215554 J0.440323
G01 X38.886238 Y53.504900 Z0.000000
G00 Z5.000000

(End cutting path id: path846)


(Start cutting path id: path846)
(Change tool to Cylindrical cutter)

G00 Z5.000000
G00 X40.869407 Y51.996250

G01 Z0.000000 F1000.0(Penetrate)
G02 X41.111410 Y52.038330 Z0.000000 I0.218085 J-0.537299 F1100.000000
G02 X41.241670 Y51.980270 Z0.000000 I-0.007969 J-0.193032
G01 X41.229377 Y51.919930 Z0.000000
G02 X40.986758 Y51.878263 Z0.000000 I-0.218517 J0.545198
G02 X40.856909 Y51.935463 Z0.000000 I0.008646 J0.195614
G01 X40.869407 Y51.995606 Z0.000000
G01 X40.869407 Y51.996250 Z0.000000
G00 Z5.000000

(End cutting path id: path846)


(Start cutting path id: path846)
(Change tool to Cylindrical cutter)

G00 Z5.000000
G00 X41.682722 Y52.028201

G01 Z0.000000 F1000.0(Penetrate)
G02 X42.444755 Y53.930969 Z0.000000 I2.756585 J0.000001 F1100.000000
G02 X43.644902 Y54.085036 Z0.000000 I0.695087 J-0.663101
G02 X43.859469 Y53.527025 Z0.000000 I-0.259619 J-0.420088
G02 X43.099596 Y52.210721 Z0.000000 I-3.063678 J0.891112
G02 X42.067541 Y51.689778 Z0.000000 I-1.253951 J1.201450
G02 X41.682722 Y52.028201 Z0.000000 I-0.043599 J0.338423
G01 X41.682722 Y52.028201 Z0.000000
G00 Z5.000000

(End cutting path id: path846)


(Start cutting path id: path846)
(Change tool to Cylindrical cutter)

G00 Z5.000000
G00 X44.314250 Y51.708890

G01 Z0.000000 F1000.0(Penetrate)
G02 X44.338888 Y52.222583 Z0.000000 I0.542341 J0.231425 F1100.000000
G02 X44.716088 Y52.446545 Z0.000000 I0.377200 J-0.205661
G03 X44.876248 Y52.519346 Z0.000000 I-0.000000 J0.212574
G03 X44.886465 Y52.642224 Z0.000000 I-0.078352 J0.068379
G02 X44.867776 Y52.826107 Z0.000000 I0.179866 J0.111172
G02 X45.069226 Y53.141680 Z0.000000 I0.816001 J-0.298820
G03 X45.281994 Y53.483035 Z0.000000 I-0.628929 J0.629000
G03 X45.372940 Y54.030394 Z0.000000 I-1.601663 J0.547358
G02 X45.627140 Y54.172819 Z0.000000 I0.167000 J0.000000
G02 X45.922429 Y53.693951 Z0.000000 I-0.325058 J-0.530920
G02 X45.770004 Y51.786771 Z0.000000 I-5.860539 J-0.491298
G02 X45.371979 Y51.475413 Z0.000000 I-0.398026 J0.098729
G02 X45.228807 Y51.536659 Z0.000000 I-0.000000 J0.197964
G02 X44.954675 Y51.912415 Z0.000000 I1.277303 J1.219726
G01 X44.716968 Y52.349410 Z0.000000
G01 X44.586131 Y51.863873 Z0.000000
G02 X44.434958 Y51.668256 Z0.000000 I-0.310347 J0.083615
G02 X44.314250 Y51.708890 Z0.000000 I-0.042245 J0.074109
G01 X44.314250 Y51.708890 Z0.000000
G00 Z5.000000

(End cutting path id: path846)


(Start cutting path id: path846)
(Change tool to Cylindrical cutter)

G00 Z5.000000
G00 X46.360677 Y50.793788

G01 Z0.000000 F1000.0(Penetrate)
G02 X46.451048 Y51.562704 Z0.000000 I3.613044 J-0.034874 F1100.000000
G01 X46.538277 Y51.570651 Z0.000000
G02 X46.738384 Y50.598090 Z0.000000 I-2.263368 J-0.972562
G02 X46.538277 Y49.919769 Z0.000000 I-1.249734 J-0.000000
G02 X46.442771 Y49.937806 Z0.000000 I-0.044077 J0.028483
G02 X46.360677 Y50.793788 Z0.000000 I4.028982 J0.818332
G01 X46.360677 Y50.793788 Z0.000000
G00 Z5.000000

(End cutting path id: path846)


(Start cutting path id: path846)
(Change tool to Cylindrical cutter)

G00 Z5.000000
G00 X43.945535 Y49.039387

G01 Z0.000000 F1000.0(Penetrate)
G02 X43.927341 Y49.293641 Z0.000000 I0.409709 J0.157096 F1100.000000
G02 X44.038915 Y49.449764 Z0.000000 I0.241859 J-0.054915
G03 X44.151125 Y49.610890 Z0.000000 I-0.128507 J0.209129
G03 X44.140826 Y49.960220 Z0.000000 I-0.763725 J0.152300
G02 X44.217549 Y50.617606 Z0.000000 I0.880914 J0.230360
G02 X44.521746 Y50.677658 Z0.000000 I0.176531 J-0.093738
G02 X44.809720 Y50.097702 Z0.000000 I-0.510252 J-0.614837
G02 X44.589456 Y49.129932 Z0.000000 I-1.875985 J-0.081977
G02 X44.224726 Y48.875384 Z0.000000 I-0.432894 J0.231697
G02 X43.945772 Y49.039872 Z0.000000 I-0.036105 J0.257552
G01 X43.945535 Y49.039387 Z0.000000
G00 Z5.000000

(End cutting path id: path846)


(Start cutting path id: path846)
(Change tool to Cylindrical cutter)

G00 Z5.000000
G00 X45.543409 Y46.576872

G01 Z0.000000 F1000.0(Penetrate)
G02 X45.526977 Y46.715728 Z0.000000 I1.294233 J0.223562 F1100.000000
G02 X45.486809 Y47.451201 Z0.000000 I36.835303 J2.380590
G02 X45.584069 Y48.035837 Z0.000000 I1.422904 J0.063693
G02 X45.753343 Y48.129350 Z0.000000 I0.141098 J-0.055448
G02 X46.405961 Y47.399121 Z0.000000 I-0.147748 J-0.788788
G02 X45.868784 Y46.553000 Z0.000000 I-0.838347 J-0.061338
G02 X45.612479 Y46.514736 Z0.000000 I-0.214112 J0.556660
G02 X45.543442 Y46.577560 Z0.000000 I0.005334 J0.075205
G01 X45.543409 Y46.576872 Z0.000000
G00 Z5.000000

(End cutting path id: path846)


(Start cutting path id: path846)
(Change tool to Cylindrical cutter)

G00 Z5.000000
G00 X45.353384 Y43.560819

G01 Z0.000000 F1000.0(Penetrate)
G02 X45.340933 Y43.611993 Z0.000000 I0.179858 J0.070861 F1100.000000
G02 X45.253494 Y44.539510 Z0.000000 I57.774353 J5.914430
G02 X45.421370 Y46.000110 Z0.000000 I3.677854 J0.317228
G02 X45.771136 Y46.128259 Z0.000000 I0.225241 J-0.073372
G02 X46.599103 Y44.479424 Z0.000000 I-0.925305 J-1.496945
G02 X45.544523 Y43.512255 Z0.000000 I-1.054580 J0.091361
G02 X45.386457 Y43.532497 Z0.000000 I-0.000000 J0.627277
G01 X45.353386 Y43.561675 Z0.000000
G01 X45.353384 Y43.560819 Z0.000000
G00 Z5.000000

(End cutting path id: path846)


(Start cutting path id: path846)
(Change tool to Cylindrical cutter)

G00 Z5.000000
G00 X46.617878 Y43.345588

G01 Z0.000000 F1000.0(Penetrate)
G02 X46.083384 Y45.256645 Z0.000000 I3.045223 J1.881977 F1100.000000
G02 X46.644817 Y46.595992 Z0.000000 I1.915400 J-0.015560
G02 X46.903747 Y46.520160 Z0.000000 I0.108724 J-0.108737
G02 X47.075629 Y44.629363 Z0.000000 I-7.437506 J-1.629312
G02 X46.835262 Y43.368610 Z0.000000 I-4.179843 J0.143612
G02 X46.617985 Y43.345588 Z0.000000 I-0.114171 J0.040700
G01 X46.617878 Y43.345588 Z0.000000
G00 Z5.000000

(End cutting path id: path846)


(Start cutting path id: path846)
(Change tool to Cylindrical cutter)

G00 Z5.000000
G00 X43.890972 Y42.007434

G01 Z0.000000 F1000.0(Penetrate)
G03 X43.994793 Y42.446318 Z0.000000 I-7.343581 J1.968894 F1100.000000
G03 X44.010736 Y42.590086 Z0.000000 I-0.769639 J0.158116
G02 X44.403476 Y42.946157 Z0.000000 I0.364379 J-0.007276
G02 X44.790278 Y42.527986 Z0.000000 I-0.032640 J-0.418170
G02 X44.552596 Y41.807303 Z0.000000 I-1.211440 J-0.000000
G02 X44.081009 Y41.569631 Z0.000000 I-0.471587 J0.349024
G02 X43.915379 Y41.678221 Z0.000000 I-0.000000 J0.180610
G02 X43.890972 Y42.006656 Z0.000000 I0.458021 J0.199161
G01 X43.890972 Y42.007434 Z0.000000
G00 Z5.000000

(End cutting path id: path846)


(Start cutting path id: path846)
(Change tool to Cylindrical cutter)

G00 Z5.000000
