%
(Header)
(Generated by gcodetools from Inkscape.)
(Using default header. To add your own header create file "header" in the output dir.)
M3
(Header end.)
G21 (All units in mm)

(Start cutting path id: path18911)
(Change tool to Cylindrical cutter)

G00 Z5.000000
G00 X124.719820 Y51.381591

G01 Z-0.125000 F1000.0(Penetrate)
G03 X123.051809 Y53.263639 Z-0.125000 I-2.404823 J-0.451150 F1100.000000
G03 X117.783125 Y53.572163 Z-0.125000 I-3.245119 J-10.276041
G02 X113.651738 Y53.611872 Z-0.125000 I-1.966994 J10.288606
G02 X111.764305 Y54.843235 Z-0.125000 I0.643952 J3.049261
G01 X111.186271 Y55.648130 Z-0.125000
G01 X110.154049 Y54.566759 Z-0.125000
G02 X108.512337 Y53.494384 Z-0.125000 I-3.110637 J2.969267
G02 X105.936201 Y53.033796 Z-0.125000 I-2.616254 J7.198437
G02 X103.511734 Y53.562250 Z-0.125000 I-0.029807 J5.689019
G02 X102.553006 Y54.603699 Z-0.125000 I0.779300 J1.679414
G02 X102.111665 Y56.248298 Z-0.125000 I8.930995 J3.278218
G02 X101.429764 Y61.047922 Z-0.125000 I75.965575 J13.240975
G03 X100.496715 Y65.880110 Z-0.125000 I-30.210044 J-3.327097
G03 X99.972019 Y66.278572 Z-0.125000 I-0.524696 J-0.146229
G03 X99.053767 Y65.908578 Z-0.125000 I0.000000 J-1.324456
G03 X97.729221 Y64.120870 Z-0.125000 I4.638090 J-4.820992
G03 X96.734403 Y61.419399 Z-0.125000 I10.920696 J-5.555459
G03 X95.675036 Y55.544543 Z-0.125000 I51.235280 J-12.271804
G02 X95.251421 Y53.468703 Z-0.125000 I-13.225953 J1.617861
G02 X94.932997 Y52.972641 Z-0.125000 I-0.991069 J0.285941
G02 X94.426428 Y52.639587 Z-0.125000 I-1.539421 J1.789663
G02 X94.088535 Y52.561745 Z-0.125000 I-0.337893 J0.694438
G02 X93.885486 Y52.701454 Z-0.125000 I0.000000 J0.217408
G02 X93.829548 Y53.238559 Z-0.125000 I0.974695 J0.372977
G03 X94.151141 Y56.201330 Z-0.125000 I-29.559331 J4.707351
G03 X94.280025 Y60.954278 Z-0.125000 I-76.059905 J4.440713
G03 X94.004711 Y65.202785 Z-0.125000 I-35.141489 J-0.144081
G03 X93.704413 Y65.523142 Z-0.125000 I-0.370872 J-0.046724
G03 X93.283926 Y65.288123 Z-0.125000 I-0.070619 J-0.367322
G03 X91.931513 Y60.834785 Z-0.125000 I32.659983 J-12.350374
G02 X90.234805 Y55.278195 Z-0.125000 I-41.511077 J9.638095
G02 X89.110510 Y53.442964 Z-0.125000 I-5.463677 J2.085148
G02 X87.705289 Y52.290239 Z-0.125000 I-4.540078 J4.101673
G02 X86.725947 Y52.020290 Z-0.125000 I-0.979342 J1.641496
G02 X86.414307 Y52.117198 Z-0.125000 I0.000000 J0.549547
G02 X86.062781 Y52.476875 Z-0.125000 I0.740079 J1.074926
G02 X85.869395 Y53.182318 Z-0.125000 I0.995119 J0.652025
G02 X86.257226 Y56.803133 Z-0.125000 I29.456063 J-1.323912
G03 X86.462643 Y58.434751 Z-0.125000 I-18.744040 J3.188568
G03 X86.642784 Y61.495732 Z-0.125000 I-65.878568 J5.412799
G03 X86.627718 Y64.524424 Z-0.125000 I-37.321111 J1.328728
G03 X86.487147 Y64.911236 Z-0.125000 I-0.688865 J-0.031390
G03 X86.173220 Y65.053552 Z-0.125000 I-0.289230 J-0.220602
G03 X85.340408 Y64.833202 Z-0.125000 I0.154278 J-2.267070
G02 X83.150760 Y64.244111 Z-0.125000 I-2.655304 J5.505754
G02 X81.473252 Y64.537744 Z-0.125000 I-0.262667 J3.437976
G02 X80.872091 Y64.857870 Z-0.125000 I2.103067 J4.673844
G02 X80.066126 Y65.411752 Z-0.125000 I5.575351 J8.976134
G03 X79.316079 Y65.781849 Z-0.125000 I-1.337134 J-1.764786
G03 X79.053400 Y65.690249 Z-0.125000 I-0.064950 J-0.236184
G03 X78.613268 Y64.769740 Z-0.125000 I2.234379 J-1.633821
G03 X77.339727 Y59.264963 Z-0.125000 I82.015377 J-21.874135
G02 X76.530573 Y55.623183 Z-0.125000 I-74.495401 J14.641074
G02 X76.287986 Y55.026078 Z-0.125000 I-2.199307 J0.545687
G02 X75.129831 Y53.892888 Z-0.125000 I-2.644817 J1.544652
G02 X73.239365 Y53.333572 Z-0.125000 I-2.200842 J3.964256
G02 X72.038866 Y53.408979 Z-0.125000 I-0.314603 J4.585282
G02 X71.012437 Y53.771019 Z-0.125000 I0.725317 J3.692405
G02 X70.089791 Y54.369946 Z-0.125000 I2.800538 J5.324360
G02 X69.673202 Y54.826203 Z-0.125000 I1.174589 J1.490778
G01 X69.326631 Y55.359253 Z-0.125000
G01 X68.214562 Y54.262498 Z-0.125000
G02 X64.289786 Y52.228721 Z-0.125000 I-5.245378 J5.318613
G02 X62.183953 Y53.179309 Z-0.125000 I-0.360774 J2.008593
G02 X61.711342 Y54.590563 Z-0.125000 I2.891545 J1.753105
G02 X61.338875 Y61.495732 Z-0.125000 I72.629453 J7.380282
G03 X61.255179 Y67.268889 Z-0.125000 I-361.175543 J-2.348919
G03 X61.180577 Y68.534628 Z-0.125000 I-17.424464 J-0.391930
G03 X60.320356 Y73.213712 Z-0.125000 I-27.390425 J-2.616950
G03 X58.273767 Y78.266689 Z-0.125000 I-22.619609 J-6.220586
G03 X55.622244 Y80.157303 Z-0.125000 I-4.813859 J-3.946636
G03 X46.466715 Y82.967109 Z-0.125000 I-29.201844 J-78.830691
G03 X43.848962 Y83.443948 Z-0.125000 I-5.238433 J-21.334052
G03 X41.151731 Y83.605730 Z-0.125000 I-2.702579 J-22.492505
G02 X35.263929 Y83.785777 Z-0.125000 I0.024107 J97.148262
G02 X30.583906 Y84.250094 Z-0.125000 I3.766992 J61.786888
G02 X28.541762 Y84.680100 Z-0.125000 I2.017209 J14.644110
G02 X21.649918 Y86.801515 Z-0.125000 I48.465838 J169.706489
G02 X8.646360 Y91.161322 Z-0.125000 I482.490228 J1460.647343
G02 X2.946120 Y93.165378 Z-0.125000 I96.173430 J282.659786
G01 X1.388354 Y93.730824 Z-0.125000
G01 X1.597365 Y94.669072 Z-0.125000
G01 X1.806379 Y95.607317 Z-0.125000
G01 X14.886630 Y95.566638 Z-0.125000
G02 X27.964700 Y95.455852 Z-0.125000 I-3.795317 J-1220.006921
G02 X31.071177 Y95.342762 Z-0.125000 I-0.953036 J-68.901714
G02 X34.140893 Y95.003833 Z-0.125000 I-1.783764 J-30.226539
G02 X35.541958 Y94.616745 Z-0.125000 I-1.075108 J-6.620486
G02 X38.706198 Y93.116528 Z-0.125000 I-10.013363 J-25.207166
G02 X41.052011 Y91.553960 Z-0.125000 I-8.536911 J-15.358189
G03 X44.750621 Y89.187011 Z-0.125000 I13.810088 J17.506522
G03 X52.718341 Y85.618220 Z-0.125000 I39.969546 J78.557622
G02 X58.382117 Y83.327291 Z-0.125000 I-86.629794 J-222.318211
G02 X59.614554 Y82.289567 Z-0.125000 I-1.045425 J-2.492287
G03 X60.265299 Y81.467236 Z-0.125000 I4.376575 J2.794727
G02 X60.703782 Y80.903249 Z-0.125000 I-2.340193 J-2.271874
G00 Z5.000000

(End cutting path id: path18911)


(Start cutting path id: path18911)
(Change tool to Cylindrical cutter)

G00 Z5.000000
G00 X60.703782 Y80.903249

G01 Z-0.125000 F1000.0(Penetrate)
G02 X61.920462 Y78.193076 Z-0.125000 I-9.825712 J-6.039251 F1100.000000
G02 X63.115015 Y72.905299 Z-0.125000 I-36.769914 J-11.085456
G02 X63.368076 Y70.328756 Z-0.125000 I-23.867133 J-3.644858
G02 X63.524435 Y63.661545 Z-0.125000 I-160.055330 J-7.089055
G03 X63.611122 Y56.993170 Z-0.125000 I321.761073 J0.848036
G03 X63.693148 Y56.442162 Z-0.125000 I2.243926 J0.052433
G03 X65.239022 Y54.765375 Z-0.125000 I2.412822 J0.673460
G03 X67.657949 Y54.979647 Z-0.125000 I0.982917 J2.664634
G03 X68.436181 Y55.957231 Z-0.125000 I-0.877251 J1.496917
G03 X68.922748 Y59.011460 Z-0.125000 I-10.141944 J3.181578
G02 X69.093019 Y62.014767 Z-0.125000 I33.692873 J-0.403718
G02 X69.350552 Y63.220731 Z-0.125000 I5.633523 J-0.572555
G02 X70.359351 Y64.991103 Z-0.125000 I4.906332 J-1.623137
G02 X70.975426 Y65.086945 Z-0.125000 I0.364922 J-0.317730
G02 X71.636159 Y64.240925 Z-0.125000 I-0.786670 J-1.295403
G02 X71.978337 Y61.856700 Z-0.125000 I-7.287266 J-2.262518
G02 X71.583648 Y59.312042 Z-0.125000 I-9.363125 J0.149328
G02 X70.556033 Y57.121756 Z-0.125000 I-7.916653 J2.378046
G03 X69.977124 Y56.162643 Z-0.125000 I10.988367 J-7.286706
G03 X69.929531 Y55.976467 Z-0.125000 I0.340341 J-0.186175
G03 X70.638848 Y54.534451 Z-0.125000 I1.820442 J-0.000000
G03 X72.721524 Y53.825135 Z-0.125000 I2.082676 J2.702894
G03 X73.942697 Y54.333051 Z-0.125000 I-0.000000 J1.721981
G03 X74.965038 Y56.081787 Z-0.125000 I-2.864538 J2.847866
G03 X75.141209 Y56.809674 Z-0.125000 I-9.453176 J2.673212
G03 X75.985845 Y61.134759 Z-0.125000 I-333.447264 J67.363178
G02 X77.698686 Y66.711744 Z-0.125000 I25.739165 J-4.853663
G02 X78.689079 Y67.361478 Z-0.125000 I0.990393 J-0.429964
G02 X79.531243 Y67.143217 Z-0.125000 I0.000000 J-1.733881
G02 X80.483860 Y66.364187 Z-0.125000 I-1.684940 J-3.032341
G03 X81.384215 Y65.427851 Z-0.125000 I8.402072 J7.178160
G03 X81.850456 Y65.100797 Z-0.125000 I1.441908 J1.559690
G03 X83.432939 Y64.964786 Z-0.125000 I0.955973 J1.848644
G03 X85.532954 Y66.263278 Z-0.125000 I-1.513940 J4.795846
G02 X86.323375 Y66.818903 Z-0.125000 I1.846861 J-1.787279
G02 X87.167941 Y67.000511 Z-0.125000 I0.844566 J-1.873022
G02 X88.145525 Y66.395164 Z-0.125000 I0.000000 J-1.092032
G02 X88.634204 Y64.055293 Z-0.125000 I-4.224847 J-2.103319
G02 X88.430507 Y61.607932 Z-0.125000 I-37.287659 J1.871330
G02 X88.068865 Y59.200837 Z-0.125000 I-36.429711 J4.242499
G03 X87.323259 Y54.431185 Z-0.125000 I87.132283 J-16.063861
G03 X87.365033 Y53.724481 Z-0.125000 I1.889794 J-0.242879
G03 X87.659936 Y53.511202 Z-0.125000 I0.274379 J0.068864
G03 X88.304348 Y53.792807 Z-0.125000 I-0.076631 J1.053482
G03 X88.719996 Y54.383127 Z-0.125000 I-1.204948 J1.289903
G03 X89.687288 Y56.996410 Z-0.125000 I-24.141971 J10.421667
G02 X92.872739 Y66.307664 Z-0.125000 I167.046592 J-51.947415
G02 X93.417427 Y66.974176 Z-0.125000 I1.253613 J-0.468657
G02 X94.222798 Y66.725185 Z-0.125000 I0.295090 J-0.472515
G02 X95.207704 Y62.887156 Z-0.125000 I-11.274166 J-4.938537
G03 X95.432474 Y60.601766 Z-0.125000 I134.497845 J12.074208
G03 X95.458075 Y60.546015 Z-0.125000 I0.095821 J0.010247
G01 X95.488636 Y60.553241 Z-0.125000
G03 X95.916265 Y62.080135 Z-0.125000 I-44.230246 J13.210663
G02 X97.432731 Y65.549959 Z-0.125000 I11.779756 J-3.081982
G02 X99.048142 Y66.986157 Z-0.125000 I3.344079 J-2.134769
G02 X100.384008 Y67.174841 Z-0.125000 I0.961921 J-1.987067
G02 X101.593083 Y66.548755 Z-0.125000 I-0.380867 J-2.216023
G02 X102.722380 Y64.636898 Z-0.125000 I-3.150223 J-3.150230
G02 X103.679482 Y59.338674 Z-0.125000 I-25.160053 J-7.280618
G03 X104.947369 Y54.546177 Z-0.125000 I13.590900 J1.031602
G03 X106.370589 Y53.644651 Z-0.125000 I1.423220 J0.672642
G03 X107.868096 Y54.035808 Z-0.125000 I0.000000 J3.062113
G03 X109.804226 Y55.569765 Z-0.125000 I-3.814272 J6.803148
G03 X110.661878 Y56.782351 Z-0.125000 I-4.351546 J3.987413
G03 X110.685521 Y57.224223 Z-0.125000 I-0.462399 J0.246310
G02 X110.563631 Y57.720866 Z-0.125000 I1.677736 J0.675043
G02 X110.401775 Y60.086543 Z-0.125000 I38.692587 J3.835660
G02 X110.621257 Y64.439313 Z-0.125000 I24.722467 J0.935326
G02 X111.321055 Y66.677742 Z-0.125000 I7.095246 J-0.989578
G02 X111.844645 Y67.234005 Z-0.125000 I1.201643 J-0.606511
G02 X112.637159 Y67.445208 Z-0.125000 I0.781595 J-1.340336
G02 X114.926228 Y66.378437 Z-0.125000 I-0.021356 J-3.035146
G02 X115.719175 Y63.827633 Z-0.125000 I-2.584865 J-2.202185
G02 X115.253956 Y62.124612 Z-0.125000 I-5.383761 J0.555642
G02 X113.424276 Y58.830180 Z-0.125000 I-22.411040 J10.291464
G01 X112.498700 Y57.428021 Z-0.125000
G01 X113.084314 Y56.157513 Z-0.125000
G03 X114.373352 Y54.346142 Z-0.125000 I5.442046 J2.508410
G03 X115.199852 Y54.123645 Z-0.125000 I0.615566 J0.640286
G03 X115.662228 Y54.291746 Z-0.125000 I-0.537421 J2.198165
G03 X117.078464 Y55.048854 Z-0.125000 I-10.652168 J21.628971
G01 X118.474558 Y55.856091 Z-0.125000
G01 X120.507670 Y55.760280 Z-0.125000
G02 X124.083010 Y54.943993 Z-0.125000 I-0.489197 J-10.380835
G02 X125.489542 Y53.643195 Z-0.125000 I-1.109241 J-2.610233
G02 X125.730975 Y52.791223 Z-0.125000 I-1.940886 J-1.010207
G02 X125.803511 Y49.313020 Z-0.125000 I-33.683422 J-2.442305
G02 X125.664152 Y45.795902 Z-0.125000 I-197.150875 J6.050398
G02 X125.588768 Y44.891148 Z-0.125000 I-13.105919 J0.636466
G01 X125.267690 Y42.694280 Z-0.125000
G00 Z5.000000

(End cutting path id: path18911)


(Start cutting path id: path18911)
(Change tool to Cylindrical cutter)

G00 Z5.000000
G00 X125.267681 Y42.694280

G01 Z-0.125000 F1000.0(Penetrate)
G02 X125.112974 Y41.703426 Z-0.125000 I-13.147292 J1.545248 F1100.000000
G02 X124.592084 Y39.233168 Z-0.125000 I-82.332092 J16.070905
G03 X123.974297 Y34.496885 Z-0.125000 I25.036546 J-5.674126
G03 X124.357283 Y32.810330 Z-0.125000 I3.363549 J-0.122961
G03 X125.358862 Y31.834746 Z-0.125000 I1.995699 J1.046951
G03 X127.443936 Y31.293173 Z-0.125000 I2.359958 J4.801330
G03 X129.998895 Y31.804573 Z-0.125000 I0.271676 J5.280705
G03 X131.313003 Y33.145466 Z-0.125000 I-1.185437 J2.476132
G03 X131.468727 Y34.575125 Z-0.125000 I-2.095006 J0.951507
G03 X130.677492 Y36.136903 Z-0.125000 I-3.335764 J-0.708661
G02 X129.795431 Y37.288590 Z-0.125000 I7.227902 J6.449368
G02 X129.414099 Y38.070963 Z-0.125000 I2.919428 J1.907061
G02 X128.934935 Y41.633873 Z-0.125000 I8.793644 J2.996303
G02 X129.711081 Y42.931250 Z-0.125000 I1.639896 J-0.100204
G02 X129.879522 Y42.950071 Z-0.125000 I0.104091 J-0.168425
G02 X129.994757 Y42.833765 Z-0.125000 I-0.060052 J-0.174739
G03 X130.125271 Y42.650588 Z-0.125000 I0.364166 J0.121386
G03 X131.359042 Y41.787133 Z-0.125000 I10.473353 J13.651934
G02 X133.735026 Y39.964449 Z-0.125000 I-9.198767 J-14.451147
G02 X135.090279 Y38.367229 Z-0.125000 I-5.663591 J-6.179178
G02 X136.136369 Y36.206277 Z-0.125000 I-7.904707 J-5.160246
G02 X136.805030 Y33.249894 Z-0.125000 I-14.266731 J-4.780593
G02 X136.831938 Y28.151521 Z-0.125000 I-21.814194 J-2.664386
G02 X135.944552 Y25.528477 Z-0.125000 I-6.442755 J0.717985
G02 X134.148858 Y23.481826 Z-0.125000 I-6.562475 J3.946714
G02 X130.616687 Y21.290995 Z-0.125000 I-11.108549 J13.966988
G02 X129.021747 Y21.280052 Z-0.125000 I-0.809350 J1.726076
G02 X125.395009 Y23.652568 Z-0.125000 I5.800037 J12.824466
G02 X123.233916 Y26.788693 Z-0.125000 I5.510850 J6.110172
G02 X122.374232 Y31.445049 Z-0.125000 I11.858247 J4.596878
G02 X122.525614 Y34.411378 Z-0.125000 I32.081905 J-0.150223
G02 X123.058956 Y38.460221 Z-0.125000 I60.356606 J-5.891056
G02 X124.139997 Y44.126659 Z-0.125000 I119.256130 J-19.815290
G03 X124.339695 Y45.221187 Z-0.125000 I-17.045117 J3.675386
G02 X124.772678 Y48.065681 Z-0.125000 I569.174831 J-85.183510
G03 X124.719812 Y51.381591 Z-0.125000 I-9.714009 J1.503503
G00 Z5.000000

(End cutting path id: path18911)


(Start cutting path id: path18911)
(Change tool to Cylindrical cutter)

G00 Z5.000000
G00 X123.240256 Y43.728102

G01 Z-0.125000 F1000.0(Penetrate)
G01 X129.967401 Y43.988726 Z-0.125000 F1100.000000
G02 X134.444122 Y43.935926 Z-0.125000 I1.716209 J-44.297931
G02 X134.942632 Y43.851546 Z-0.125000 I-0.149681 J-2.399064
G02 X135.318535 Y43.492300 Z-0.125000 I-0.149044 J-0.532245
G02 X136.449896 Y39.277889 Z-0.125000 I-36.971678 J-12.184130
G02 X137.514308 Y28.063045 Z-0.125000 I-49.521984 J-10.358114
G02 X136.198128 Y24.412175 Z-0.125000 I-6.003588 J0.101677
G02 X135.637869 Y23.825376 Z-0.125000 I-3.636875 J2.911525
G02 X134.077516 Y22.547191 Z-0.125000 I-19.016952 J21.623585
G03 X131.137567 Y19.888879 Z-0.125000 I14.345159 J-18.819833
G03 X130.646351 Y18.877481 Z-0.125000 I1.390970 J-1.300552
G03 X130.583581 Y17.994568 Z-0.125000 I5.375356 J-0.825848
G03 X130.728427 Y11.055452 Z-0.125000 I334.391164 J3.508977
G03 X131.112496 Y4.181143 Z-0.125000 I140.094653 J4.379221
G03 X131.319815 Y3.713489 Z-0.125000 I0.771237 J0.062122
G03 X131.948864 Y3.299389 Z-0.125000 I1.181530 J1.109994
G03 X136.188880 Y1.948463 Z-0.125000 I19.289517 J53.212760
G02 X136.501511 Y1.255665 Z-0.125000 I-0.131347 J-0.476209
G02 X135.466504 Y0.467691 Z-0.125000 I-1.300440 J0.634402
G02 X130.368986 Y-0.100016 Z-0.125000 I-6.399681 J34.294064
G02 X126.782173 Y0.143324 Z-0.125000 I-0.639724 J17.126805
G01 X126.782187 Y0.143324 Z-0.125000
G03 X126.330498 Y0.219223 Z-0.125000 I-6.228801 J-35.686954
G03 X125.030485 Y0.426292 Z-0.125000 I-47.692804 J-295.239361
G02 X123.759981 Y0.712368 Z-0.125000 I1.537998 J9.794747
G02 X123.154819 Y0.980288 Z-0.125000 I0.725339 J2.455762
G02 X122.814509 Y1.358279 Z-0.125000 I0.459899 J0.756240
G02 X122.857932 Y1.608368 Z-0.125000 I0.199305 J0.094209
G02 X123.178997 Y1.812892 Z-0.125000 I0.621742 J-0.621754
G02 X125.058656 Y2.409196 Z-0.125000 I8.068283 J-22.172011
G03 X128.281085 Y3.690684 Z-0.125000 I-4.029779 J14.825588
G03 X128.959687 Y4.498013 Z-0.125000 I-0.670734 J1.252651
G03 X129.880106 Y11.079815 Z-0.125000 I-17.641973 J5.822365
G03 X128.345275 Y19.515309 Z-0.125000 I-30.895385 J-1.264012
G03 X128.009700 Y20.062360 Z-0.125000 I-1.329880 J-0.439331
G03 X125.970005 Y21.909668 Z-0.125000 I-18.282617 J-18.136935
G02 X122.612233 Y25.126626 Z-0.125000 I18.013857 J22.163226
G02 X121.733680 Y26.688297 Z-0.125000 I3.173277 J2.813157
G02 X121.342466 Y29.261051 Z-0.125000 I8.393324 J2.592416
G02 X121.716352 Y34.423043 Z-0.125000 I34.747188 J0.077776
G03 X122.851815 Y43.115473 Z-0.125000 I-255.615054 J37.810524
G02 X123.240248 Y43.728102 Z-0.125000 I0.824875 J-0.093549
G00 Z5.000000

(End cutting path id: path18911)


(Start cutting path id: path18911)
(Change tool to Cylindrical cutter)

G00 Z5.000000
G00 X113.931424 Y63.405465

G01 Z-0.125000 F1000.0(Penetrate)
G03 X113.175831 Y66.161779 Z-0.125000 I-4.462744 J0.258344 F1100.000000
G03 X112.167846 Y66.022729 Z-0.125000 I-0.469905 J-0.316633
G03 X111.569793 Y62.437841 Z-0.125000 I11.288553 J-3.725555
G03 X112.085050 Y59.026539 Z-0.125000 I10.710844 J-0.126753
G03 X112.247123 Y58.999372 Z-0.125000 I0.088069 J0.028371
G03 X113.034242 Y60.291318 Z-0.125000 I-6.271744 J4.706818
G03 X113.693912 Y62.014848 Z-0.125000 I-9.779421 J4.731016
G03 X113.931424 Y63.405465 Z-0.125000 I-6.100402 J1.757516
G01 X113.931424 Y63.405465 Z-0.125000
G00 Z5.000000

(End cutting path id: path18911)


(Start cutting path id: path18911)
(Change tool to Cylindrical cutter)

G00 Z5.000000
G00 X87.025870 Y69.843471

G01 Z-0.125000 F1000.0(Penetrate)
G02 X86.514409 Y70.648225 Z-0.125000 I2.096721 J1.897476 F1100.000000
G02 X86.353639 Y71.448014 Z-0.125000 I1.908991 J0.799789
G02 X86.742435 Y72.387222 Z-0.125000 I1.328811 J0.000000
G02 X87.680499 Y72.776016 Z-0.125000 I0.938063 J-0.937257
G02 X88.483162 Y72.141951 Z-0.125000 I0.000000 J-0.825079
G02 X88.343436 Y69.990254 Z-0.125000 I-3.566662 J-0.848774
G02 X87.783543 Y69.556426 Z-0.125000 I-0.635126 J0.241475
G02 X87.025870 Y69.843471 Z-0.125000 I-0.098442 J0.883640
G01 X87.025870 Y69.843471 Z-0.125000
G00 Z5.000000

(End cutting path id: path18911)


(Start cutting path id: path18911)
(Change tool to Cylindrical cutter)

G00 Z5.000000
G00 X70.523910 Y59.871368

G01 Z-0.125000 F1000.0(Penetrate)
G03 X71.200344 Y63.447452 Z-0.125000 I-25.925200 J6.755894 F1100.000000
G03 X71.044537 Y64.226800 Z-0.125000 I-1.268566 J0.151637
G03 X70.869053 Y64.256779 Z-0.125000 I-0.099933 J-0.056373
G03 X70.488698 Y63.740491 Z-0.125000 I0.980272 J-1.120430
G03 X70.158829 Y62.904296 Z-0.125000 I9.755393 J-4.331543
G03 X69.831899 Y61.845403 Z-0.125000 I15.328502 J-5.312548
G03 X69.272779 Y58.641171 Z-0.125000 I16.982680 J-4.614278
G03 X69.467527 Y57.312451 Z-0.125000 I2.990219 J-0.240360
G03 X69.599645 Y57.267019 Z-0.125000 I0.085289 J0.033206
G03 X69.824569 Y57.525069 Z-0.125000 I-0.281129 J0.472091
G03 X70.022851 Y58.076968 Z-0.125000 I-4.891842 J2.069066
G03 X70.523910 Y59.871368 Z-0.125000 I-51.374160 J15.312626
G01 X70.523910 Y59.871368 Z-0.125000
G00 Z5.000000

(End cutting path id: path18911)


(Start cutting path id: path18911)
(Change tool to Cylindrical cutter)

G00 Z5.000000
G00 X58.273767 Y78.266689

G01 Z-0.125000 F1000.0(Penetrate)
G02 X56.222216 Y78.368015 Z-0.125000 I-0.165534 J17.468003 F1100.000000
G02 X55.908189 Y79.020220 Z-0.125000 I0.046032 J0.423865
G03 X55.410800 Y79.391995 Z-0.125000 I-0.756130 J-0.492997
G03 X47.507429 Y81.718998 Z-0.125000 I-269.333007 J-900.170748
G01 X44.126449 Y82.698380 Z-0.125000
G01 X37.713522 Y82.878124 Z-0.125000
G02 X29.424902 Y83.901395 Z-0.125000 I1.235810 J44.091256
G02 X13.979311 Y88.126916 Z-0.125000 I35.015397 J158.334148
G02 X0.905831 Y92.694502 Z-0.125000 I109.461940 J334.298604
G02 X0.220124 Y93.240139 Z-0.125000 I0.490648 J1.320287
G02 X0.051483 Y93.853951 Z-0.125000 I0.860075 J0.566374
G02 X0.365006 Y96.381983 Z-0.125000 I16.474693 J-0.759711
G02 X3.155390 Y104.746578 Z-0.125000 I35.707489 J-7.264103
G02 X5.476598 Y107.148019 Z-0.125000 I4.722544 J-2.242215
G02 X6.018934 Y107.214808 Z-0.125000 I0.361330 J-0.698734
G02 X9.946169 Y106.091204 Z-0.125000 I-10.114872 J-42.778686
G02 X28.814284 Y99.445882 Z-0.125000 I-236.824263 J-702.525880
G02 X33.200919 Y97.546540 Z-0.125000 I-14.600149 J-39.735089
G02 X34.965743 Y96.541970 Z-0.125000 I-8.699172 J-17.335184
G02 X40.607119 Y92.800945 Z-0.125000 I-116.266979 J-181.451810
G03 X46.093459 Y89.318564 Z-0.125000 I51.505401 J75.081602
G03 X49.083561 Y87.835849 Z-0.125000 I12.139378 J20.724411
G03 X56.745139 Y84.795250 Z-0.125000 I120.708864 J292.984396
G03 X57.431839 Y84.868482 Z-0.125000 I0.271451 J0.710819
G02 X59.390403 Y84.848700 Z-0.125000 I0.964425 J-1.480806
G02 X59.658905 Y84.114788 Z-0.125000 I-0.376949 J-0.553979
G03 X59.794985 Y83.895021 Z-0.125000 I0.386939 J0.087579
G03 X60.124721 Y83.785576 Z-0.125000 I0.308476 J0.377937
G02 X60.374683 Y83.443137 Z-0.125000 I-0.016069 J-0.274178
G02 X59.668381 Y81.259128 Z-0.125000 I-18.054655 J4.632608
G02 X58.642775 Y78.910992 Z-0.125000 I-31.883454 J12.527835
G02 X58.273767 Y78.266689 Z-0.125000 I-4.719793 J2.275321
G00 Z5.000000

(End cutting path id: path18911)


(Footer)
M5
G00 X0.0000 Y0.0000
M2
(Using default footer. To add your own footer create file "footer" in the output dir.)
(end)
%