%
(Header)
(Generated by gcodetools from Inkscape.)
(Using default header. To add your own header create file "header" in the output dir.)
M3
(Header end.)
G21 (All units in mm)

(Start cutting path id: path7768)
(Change tool to Default tool)

G00 Z5.000000
G00 X81.103508 Y22.636158

G01 Z-0.125000 F100.0(Penetrate)
G03 X80.929659 Y22.849889 Z-0.125000 I-0.413542 J-0.158806 F400.000000
G03 X80.638021 Y22.935605 Z-0.125000 I-0.291637 J-0.453272
G02 X79.873283 Y23.578900 Z-0.125000 I0.000000 J0.776201
G02 X78.914288 Y32.853926 Z-0.125000 I66.580596 J11.571221
G02 X78.933360 Y36.800090 Z-0.125000 I50.812771 J1.727546
G02 X79.196056 Y39.305620 Z-0.125000 I20.705966 J-0.904416
G03 X79.549693 Y41.808066 Z-0.125000 I-50.066794 J8.351477
G03 X79.740266 Y43.997018 Z-0.125000 I-38.100071 J4.419805
G02 X80.196535 Y48.415318 Z-0.125000 I49.605703 J-2.889973
G02 X80.749537 Y50.784580 Z-0.125000 I14.746101 J-2.192671
G02 X81.800137 Y53.397039 Z-0.125000 I18.797352 J-6.041878
G02 X82.628595 Y54.637786 Z-0.125000 I4.981663 J-2.429346
G03 X83.757803 Y56.369039 Z-0.125000 I-5.332069 J4.711723
G03 X83.930235 Y57.459563 Z-0.125000 I-1.843542 J0.850392
G03 X83.759673 Y58.563407 Z-0.125000 I-15.937741 J-1.897543
G03 X83.433862 Y60.067578 Z-0.125000 I-29.997120 J-5.710151
G02 X81.854891 Y69.615154 Z-0.125000 I63.061466 J15.333413
G02 X82.023439 Y75.824907 Z-0.125000 I26.636512 J2.384181
G03 X82.061690 Y77.095373 Z-0.125000 I-5.555998 J0.803085
G03 X81.819603 Y78.264700 Z-0.125000 I-4.937684 J-0.412527
G03 X81.388097 Y79.402021 Z-0.125000 I-15.294212 J-5.152200
G03 X81.011206 Y80.174991 Z-0.125000 I-7.426478 J-3.142697
G03 X78.886212 Y83.269194 Z-0.125000 I-17.337660 J-9.630126
G03 X78.126007 Y83.624410 Z-0.125000 I-0.760205 J-0.635858
G02 X78.032392 Y83.655392 Z-0.125000 I0.000000 J0.156924
G02 X77.601835 Y84.014101 Z-0.125000 I3.018570 J4.060921
G03 X76.181533 Y84.943704 Z-0.125000 I-3.409986 J-3.660167
G03 X72.953802 Y86.029051 Z-0.125000 I-8.007667 J-18.471964
G03 X71.148854 Y86.314271 Z-0.125000 I-2.617178 J-10.708479
G03 X68.262403 Y86.375660 Z-0.125000 I-2.027539 J-27.443129
G03 X65.390901 Y86.114939 Z-0.125000 I0.758698 J-24.299356
G03 X63.520357 Y85.659565 Z-0.125000 I1.618650 J-10.718454
G03 X61.708034 Y84.969240 Z-0.125000 I8.619889 J-25.354080
G03 X59.903284 Y84.129626 Z-0.125000 I10.989913 J-25.982268
G02 X58.104846 Y83.312057 Z-0.125000 I-10.172028 J19.988960
G02 X57.650471 Y83.222983 Z-0.125000 I-0.459976 J1.142938
G03 X56.451994 Y83.002110 Z-0.125000 I0.014034 J-3.438112
G03 X52.626013 Y81.329936 Z-0.125000 I14.269005 J-37.860950
G02 X49.986228 Y80.208895 Z-0.125000 I-10.338589 J20.676358
G02 X48.948358 Y80.030993 Z-0.125000 I-1.037870 J2.938492
G02 X48.037226 Y80.125056 Z-0.125000 I0.000000 J4.459793
G02 X47.991869 Y80.230633 Z-0.125000 I0.014336 J0.068690
G02 X48.150644 Y80.366772 Z-0.125000 I0.293040 J-0.181108
G02 X48.463574 Y80.430264 Z-0.125000 I0.312930 J-0.739406
G03 X49.810319 Y81.019116 Z-0.125000 I0.000000 J1.834475
G03 X50.020884 Y82.113994 Z-0.125000 I-0.774898 J0.716714
G03 X49.804684 Y82.286887 Z-0.125000 I-0.255695 J-0.098118
G03 X47.848407 Y82.430596 Z-0.125000 I-1.982983 J-13.606944
G02 X43.429091 Y82.890483 Z-0.125000 I0.041835 J21.865806
G02 X39.952925 Y84.075935 Z-0.125000 I3.049080 J14.630387
G03 X38.821363 Y84.279988 Z-0.125000 I-0.929563 J-1.915301
G03 X37.659249 Y83.857322 Z-0.125000 I0.233639 J-2.451323
G02 X36.724435 Y83.276566 Z-0.125000 I-6.674787 J9.701336
G02 X36.526840 Y83.225147 Z-0.125000 I-0.197595 J0.353954
G03 X36.368904 Y83.169491 Z-0.125000 I0.000000 J-0.251918
G03 X36.313268 Y83.053306 Z-0.125000 I0.093497 J-0.116185
G02 X35.958626 Y82.573844 Z-0.125000 I-0.501427 J0.000000
G02 X32.827503 Y81.986131 Z-0.125000 I-4.189066 J13.683214
G03 X32.213559 Y81.725364 Z-0.125000 I0.076600 J-1.033457
G03 X31.868390 Y81.128983 Z-0.125000 I0.736926 J-0.824591
G03 X31.434768 Y76.923043 Z-0.125000 I19.715808 J-4.157971
G03 X31.901662 Y67.153274 Z-0.125000 I107.820975 J0.256681
G02 X32.013939 Y64.190028 Z-0.125000 I-26.731050 J-2.496593
G02 X31.838036 Y63.493340 Z-0.125000 I-1.576135 J0.027400
G03 X31.619831 Y62.796068 Z-0.125000 I1.874717 J-0.969453
G03 X31.378279 Y59.958050 Z-0.125000 I31.807951 J-4.136560
G02 X31.188023 Y57.225999 Z-0.125000 I-47.132691 J1.909611
G02 X31.104033 Y57.184455 Z-0.125000 I-0.054957 J0.005434
G02 X30.434694 Y57.874706 Z-0.125000 I1.032980 J1.671341
G02 X28.030264 Y62.517865 Z-0.125000 I50.342946 J29.013917
G02 X27.070325 Y66.271501 Z-0.125000 I9.692781 J4.478354
G02 X27.551022 Y69.562270 Z-0.125000 I7.848900 J0.533971
G03 X27.827630 Y70.701338 Z-0.125000 I-4.593049 J1.718484
G03 X27.866248 Y72.211541 Z-0.125000 I-8.088685 J0.962433
G03 X27.714737 Y73.735127 Z-0.125000 I-24.006772 J-1.617985
G03 X27.546322 Y74.640868 Z-0.125000 I-8.636645 J-1.137386
G02 X27.361481 Y75.545089 Z-0.125000 I12.786137 J3.084750
G02 X27.126823 Y77.136294 Z-0.125000 I39.391487 J6.622034
G03 X26.898013 Y78.728934 Z-0.125000 I-48.638329 J-6.174977
G03 X26.710398 Y79.731546 Z-0.125000 I-19.454665 J-3.121625
G02 X26.551922 Y80.737205 Z-0.125000 I9.124494 J1.953189
G02 X26.343610 Y83.324963 Z-0.125000 I60.365521 J6.161622
G03 X26.119922 Y85.908428 Z-0.125000 I-47.175978 J-2.783301
G03 X25.947137 Y86.793683 Z-0.125000 I-5.681214 J-0.649377
G03 X25.015260 Y89.392272 Z-0.125000 I-18.328812 J-5.106484
G03 X24.521437 Y90.012709 Z-0.125000 I-1.435407 J-0.635739
G02 X24.403291 Y90.127602 Z-0.125000 I0.386728 J0.515867
G02 X23.363569 Y91.470631 Z-0.125000 I53.584833 J42.557321
G01 X22.338869 Y92.828729 Z-0.125000
G01 X22.338869 Y94.581593 Z-0.125000
G02 X22.403766 Y96.307573 Z-0.125000 I22.984361 J-0.000000
G02 X22.481633 Y96.477221 Z-0.125000 I0.267653 J-0.020156
G03 X22.882711 Y97.182307 Z-0.125000 I-1.082238 J1.082234
G03 X23.128597 Y99.021708 Z-0.125000 I-7.763482 J1.973936
G03 X23.045144 Y99.503875 Z-0.125000 I-1.306936 J0.022100
G03 X22.837956 Y99.794785 Z-0.125000 I-0.652148 J-0.245228
G02 X22.778864 Y100.312415 Z-0.125000 I0.240371 J0.289628
G02 X23.486766 Y100.646957 Z-0.125000 I0.676360 J-0.514958
G03 X23.669254 Y100.793062 Z-0.125000 I0.006620 J0.178748
G03 X23.746496 Y102.046301 Z-0.125000 I-5.073459 J0.941700
G02 X23.918885 Y102.718246 Z-0.125000 I1.129503 J0.068311
G02 X25.126969 Y104.235149 Z-0.125000 I7.479004 J-4.716872
G03 X26.573636 Y106.072746 Z-0.125000 I-7.196068 J7.153427
G03 X27.442468 Y107.999803 Z-0.125000 I-7.060670 J4.342760
G02 X27.914360 Y109.041419 Z-0.125000 I4.230018 J-1.288660
G02 X28.804109 Y110.195779 Z-0.125000 I6.104975 J-3.785470
G02 X29.856616 Y111.233890 Z-0.125000 I15.788114 J-14.954446
G02 X30.224421 Y111.504457 Z-0.125000 I1.405690 J-1.525596
G01 X30.623689 Y111.735173 Z-0.125000
G01 X30.224421 Y112.067453 Z-0.125000
G02 X30.246226 Y112.219481 Z-0.125000 I0.057677 J0.069305
G02 X30.745764 Y112.293523 Z-0.125000 I0.387817 J-0.894347
G03 X31.605743 Y112.352968 Z-0.125000 I0.270167 J2.341849
G03 X32.093295 Y112.641752 Z-0.125000 I-0.254861 J0.986238
G03 X32.397252 Y113.320265 Z-0.125000 I-0.828807 J0.778624
G03 X32.200982 Y113.860251 Z-0.125000 I-0.676470 J0.059784
G02 X32.229307 Y114.002070 Z-0.125000 I0.061462 J0.061462
G02 X32.669607 Y114.053501 Z-0.125000 I0.311345 J-0.755002
G03 X33.402906 Y114.116556 Z-0.125000 I0.240197 J1.502120
G03 X34.197069 Y114.576898 Z-0.125000 I-0.766992 J2.238384
G03 X34.766191 Y115.293680 Z-0.125000 I-1.693996 J1.929357
G03 X34.876339 Y115.844670 Z-0.125000 I-0.852974 J0.457022
G03 X34.668306 Y116.358900 Z-0.125000 I-0.974619 J-0.095088
G03 X34.127392 Y116.786921 Z-0.125000 I-1.185309 J-0.942140
G02 X33.789363 Y117.087560 Z-0.125000 I0.339709 J0.722312
G02 X33.845565 Y117.239892 Z-0.125000 I0.087309 J0.054321
G02 X34.249461 Y117.259333 Z-0.125000 I0.238604 J-0.751811
G02 X35.586818 Y116.866709 Z-0.125000 I-1.963810 J-9.163103
G03 X38.115227 Y116.552691 Z-0.125000 I1.915858 J5.089962
G03 X38.702566 Y117.219886 Z-0.125000 I-0.074557 J0.657752
G03 X38.303715 Y118.377737 Z-0.125000 I-1.961302 J-0.027998
G03 X37.533642 Y118.760027 Z-0.125000 I-0.770073 J-0.584460
G02 X37.342272 Y118.786397 Z-0.125000 I-0.000000 J0.707582
G02 X36.782201 Y118.971125 Z-0.125000 I1.783664 J6.349233
G02 X36.485618 Y119.208254 Z-0.125000 I0.220396 J0.579690
G02 X36.519663 Y119.367335 Z-0.125000 I0.094890 J0.062877
G02 X37.515582 Y119.630531 Z-0.125000 I0.915114 J-1.446895
G02 X38.918423 Y119.253987 Z-0.125000 I-0.160657 J-3.399998
G03 X39.433485 Y119.070862 Z-0.125000 I0.928392 J1.795325
G03 X39.507411 Y119.130940 Z-0.125000 I0.012551 J0.060078
G03 X39.243488 Y119.729497 Z-0.125000 I-0.810701 J0.000000
G03 X37.507298 Y120.958022 Z-0.125000 I-5.779887 J-6.327231
G02 X37.530486 Y121.291107 Z-0.125000 I0.086346 J0.161338
G02 X39.040261 Y121.521753 Z-0.125000 I1.321485 J-3.593535
G02 X42.176463 Y120.850996 Z-0.125000 I-0.490409 J-9.960168
G02 X42.994621 Y119.977962 Z-0.125000 I-0.504757 J-1.292913
G03 X43.257115 Y119.954120 Z-0.125000 I0.136257 J0.043246
G03 X43.500096 Y120.929082 Z-0.125000 I-1.834526 J0.974962
G03 X43.361085 Y122.251477 Z-0.125000 I-6.359398 J0.000000
G03 X43.100827 Y122.807187 Z-0.125000 I-1.324761 J-0.281632
G02 X42.933642 Y123.565095 Z-0.125000 I0.702093 J0.552266
G02 X43.300461 Y123.651066 Z-0.125000 I0.204841 J-0.048459
G03 X43.660732 Y123.564120 Z-0.125000 I0.238371 J0.197830
G03 X43.812481 Y123.870238 Z-0.125000 I-0.103602 J0.242030
G02 X44.027235 Y124.035597 Z-0.125000 I0.143338 J0.035976
G02 X44.813799 Y123.317546 Z-0.125000 I-1.102665 J-1.997710
G02 X45.300777 Y122.367581 Z-0.125000 I-3.641469 J-2.466518
G02 X45.462392 Y121.551900 Z-0.125000 I-2.504928 J-0.920166
G03 X45.857594 Y119.865188 Z-0.125000 I4.559603 J0.178673
G03 X46.390876 Y119.479101 Z-0.125000 I0.601450 J0.269411
G03 X46.491947 Y119.556430 Z-0.125000 I0.009587 J0.092184
G03 X46.525336 Y120.307193 Z-0.125000 I-3.190200 J0.518005
G02 X46.512996 Y121.110121 Z-0.125000 I7.066570 J0.510161
G01 X46.560435 Y121.155638 Z-0.125000
G02 X46.637896 Y121.118787 Z-0.125000 I-0.000000 J-0.099835
G02 X47.387955 Y120.137911 Z-0.125000 I-16.053403 J-13.052988
G03 X48.128672 Y119.237587 Z-0.125000 I7.237829 J5.199864
G03 X48.234848 Y119.235914 Z-0.125000 I0.053898 J0.050606
G03 X48.295494 Y119.373613 Z-0.125000 I-0.146907 J0.146907
G03 X48.309286 Y120.913702 Z-0.125000 I-21.749377 J0.964871
G02 X48.703023 Y123.945583 Z-0.125000 I9.862414 J0.260717
G02 X49.507015 Y125.006192 Z-0.125000 I1.794307 J-0.525133
G03 X49.776457 Y125.306432 Z-0.125000 I-0.385060 J0.616583
G03 X49.888393 Y125.795247 Z-0.125000 I-1.011343 J0.488815
G02 X50.030621 Y126.203901 Z-0.125000 I0.658190 J-0.000000
G02 X50.324703 Y126.346129 Z-0.125000 I0.294082 J-0.232920
G02 X50.724416 Y126.253724 Z-0.125000 I0.000000 J-0.910717
G02 X51.233572 Y125.902183 Z-0.125000 I-0.909153 J-1.861263
G03 X51.686516 Y125.620378 Z-0.125000 I0.930118 J0.990067
G03 X51.845341 Y125.672663 Z-0.125000 I0.046882 J0.124960
G02 X52.545809 Y126.269298 Z-0.125000 I1.351949 J-0.877726
G02 X53.107979 Y126.230588 Z-0.125000 I0.244342 J-0.552967
G02 X53.169161 Y126.096585 Z-0.125000 I-0.069712 J-0.112796
G02 X53.059726 Y125.932760 Z-0.125000 I-0.234127 J0.037932
G03 X52.911887 Y125.755285 Z-0.125000 I0.191475 J-0.309814
G03 X52.939383 Y125.624203 Z-0.125000 I0.114083 J-0.044494
G03 X53.085977 Y125.598969 Z-0.125000 I0.091161 J0.091161
G03 X53.545370 Y125.912800 Z-0.125000 I-0.775437 J1.628252
G02 X54.524098 Y126.353926 Z-0.125000 I1.131743 J-1.204687
G02 X54.985330 Y126.046677 Z-0.125000 I0.040778 J-0.438603
G03 X55.329671 Y125.423153 Z-0.125000 I1.696309 J0.529945
G03 X55.496299 Y125.447775 Z-0.125000 I0.075602 J0.064502
G01 X55.671227 Y125.847043 Z-0.125000
G01 X55.636252 Y125.447775 Z-0.125000
G03 X55.800294 Y124.404607 Z-0.125000 I2.182807 J-0.191229
G03 X56.183862 Y124.150152 Z-0.125000 I0.383568 J0.161870
G03 X56.415859 Y124.245600 Z-0.125000 I-0.000000 J0.329670
G03 X57.292382 Y125.248140 Z-0.125000 I-6.537398 J6.600103
G02 X58.336948 Y126.075099 Z-0.125000 I2.112038 J-1.594605
G02 X58.672304 Y125.856436 Z-0.125000 I0.096391 J-0.218663
G03 X58.924388 Y124.601871 Z-0.125000 I3.247886 J0.000000
G03 X59.303251 Y124.349786 Z-0.125000 I0.378863 J0.158658
G03 X59.399337 Y124.421289 Z-0.125000 I0.000000 J0.100311
G03 X59.470841 Y124.908762 Z-0.125000 I-1.625889 J0.487473
G02 X59.693144 Y125.724555 Z-0.125000 I1.608022 J0.000000
G02 X60.081986 Y125.946860 Z-0.125000 I0.388842 J-0.228917
G02 X60.144556 Y125.889428 Z-0.125000 I0.000000 J-0.062800
G02 X60.122878 Y125.470145 Z-0.125000 I-1.528835 J-0.131155
G03 X60.219532 Y124.438745 Z-0.125000 I1.826171 J-0.349096
G03 X60.643623 Y124.150152 Z-0.125000 I0.424091 J0.167306
G03 X60.765752 Y124.209903 Z-0.125000 I-0.000000 J0.154688
G03 X61.031589 Y124.649238 Z-0.125000 I-1.742113 J1.354229
G02 X61.465374 Y124.897183 Z-0.125000 I0.389084 J-0.177278
G02 X61.713528 Y124.577549 Z-0.125000 I-0.029320 J-0.278910
G03 X62.003099 Y124.128296 Z-0.125000 I0.401791 J-0.058971
G03 X65.260232 Y123.557756 Z-0.125000 I4.295184 J14.938072
G02 X68.280154 Y123.141362 Z-0.125000 I-1.451619 J-21.687239
G02 X70.398992 Y122.477489 Z-0.125000 I-2.372190 J-11.284362
G02 X72.605216 Y121.302564 Z-0.125000 I-5.458861 J-12.909259
G02 X74.898071 Y119.538612 Z-0.125000 I-10.267186 J-15.717842
G03 X76.253808 Y118.765618 Z-0.125000 I2.450452 J2.722399
G03 X77.047629 Y118.865393 Z-0.125000 I0.287715 J0.918665
G02 X78.513204 Y118.803436 Z-0.125000 I0.687098 J-1.111739
G02 X78.648911 Y117.677937 Z-0.125000 I-0.464953 J-0.626992
G03 X78.647440 Y117.362980 Z-0.125000 I0.190830 J-0.158373
G03 X79.068264 Y117.162954 Z-0.125000 I0.420825 J0.342662
G02 X79.340700 Y117.069402 Z-0.125000 I0.000000 J-0.443461
G02 X79.434255 Y116.877993 Z-0.125000 I-0.149029 J-0.191409
G03 X79.515594 Y116.632536 Z-0.125000 I0.411028 J0.000000
G03 X79.946257 Y116.190288 Z-0.125000 I1.878864 J1.398833
G02 X80.260977 Y115.746228 Z-0.125000 I-0.592924 J-0.753781
G02 X80.229534 Y115.360163 Z-0.125000 I-0.459715 J-0.156871
G03 X80.278476 Y114.998502 Z-0.125000 I0.274630 J-0.146978
G03 X81.074308 Y114.472089 Z-0.125000 I1.542697 J1.467475
G02 X82.019017 Y113.794627 Z-0.125000 I-0.782188 J-2.088170
G02 X83.034386 Y112.072676 Z-0.125000 I-5.106191 J-4.171267
G03 X84.558080 Y109.717231 Z-0.125000 I6.769816 J2.708720
G03 X85.829065 Y109.177585 Z-0.125000 I1.270985 J1.226902
G02 X86.348853 Y108.890956 Z-0.125000 I-0.000000 J-0.614619
G02 X86.389649 Y108.289195 Z-0.125000 I-0.536677 J-0.338647
G03 X86.365214 Y107.806801 Z-0.125000 I0.597093 J-0.272061
G03 X86.786384 Y107.116835 Z-0.125000 I1.740857 J0.589127
G02 X87.374379 Y106.445194 Z-0.125000 I-6.326440 J-6.131757
G02 X87.419605 Y106.314946 Z-0.125000 I-0.164940 J-0.130248
G03 X87.460356 Y106.182420 Z-0.125000 I0.235870 J-0.000000
G03 X87.792026 Y105.766624 Z-0.125000 I2.871474 J1.950330
G02 X88.124648 Y105.338920 Z-0.125000 I-2.229121 J-2.076755
G02 X88.621952 Y104.477357 Z-0.125000 I-8.634809 J-5.558419
G03 X89.163008 Y103.724771 Z-0.125000 I2.789504 J1.434670
G03 X89.487261 Y103.587833 Z-0.125000 I0.324253 J0.315428
G02 X89.668136 Y103.493840 Z-0.125000 I0.000000 J-0.221031
G02 X89.655509 Y103.348268 Z-0.125000 I-0.092934 J-0.065272
G03 X89.425855 Y102.782821 Z-0.125000 I0.554588 J-0.554605
G03 X89.686643 Y101.094402 Z-0.125000 I6.146223 J0.084980
G03 X90.093923 Y100.507236 Z-0.125000 I1.108437 J0.334017
G03 X90.814792 Y100.235711 Z-0.125000 I0.814769 J1.070446
G02 X92.095816 Y99.830699 Z-0.125000 I-0.200157 J-2.861485
G02 X92.410432 Y99.273611 Z-0.125000 I-0.335908 J-0.557087
G02 X92.301678 Y99.167650 Z-0.125000 I-0.105997 J0.000000
G02 X91.615889 Y99.294279 Z-0.125000 I0.058150 J2.235268
G03 X90.857351 Y99.415954 Z-0.125000 I-0.713342 J-2.021820
G03 X90.517900 Y99.271128 Z-0.125000 I0.010430 J-0.494673
G03 X90.191497 Y98.522943 Z-0.125000 I0.789885 J-0.789885
G03 X90.463969 Y97.827974 Z-0.125000 I0.933578 J-0.034875
G02 X90.599437 Y97.531312 Z-0.125000 I-0.330817 J-0.330326
G02 X90.693848 Y94.643808 Z-0.125000 I-36.591664 J-2.641705
G02 X90.509855 Y91.734651 Z-0.125000 I-25.822201 J0.172753
G02 X90.125236 Y89.912840 Z-0.125000 I-10.466307 J1.258131
G03 X89.596632 Y88.110730 Z-0.125000 I80.113569 J-24.477908
G03 X89.395472 Y87.317598 Z-0.125000 I15.312885 J-4.305835
G03 X88.818350 Y83.895446 Z-0.125000 I30.447861 J-6.894563
G03 X88.619344 Y80.383173 Z-0.125000 I31.879827 J-3.568088
G03 X88.868835 Y77.831078 Z-0.125000 I12.969290 J-0.020376
G03 X89.246507 Y77.234380 Z-0.125000 I0.963056 J0.191684
G02 X89.554242 Y76.680918 Z-0.125000 I-0.458158 J-0.617028
G02 X89.815154 Y70.382687 Z-0.125000 I-75.886922 J-6.298231
G02 X89.658739 Y67.532160 Z-0.125000 I-26.052407 J0.000000
G02 X89.347325 Y66.132588 Z-0.125000 I-6.532324 J0.719052
G03 X87.552425 Y60.605051 Z-0.125000 I192.815089 J-65.666039
G03 X87.318876 Y59.568438 Z-0.125000 I6.505214 J-2.010245
G02 X87.169281 Y58.571110 Z-0.125000 I-91.860211 J13.268763
G02 X87.008376 Y57.572089 Z-0.125000 I-93.068024 J14.477243
G03 X86.472607 Y53.068803 Z-0.125000 I47.966105 J-7.990186
G03 X86.255710 Y47.102577 Z-0.125000 I84.052648 J-6.042719
G03 X86.404396 Y43.436278 Z-0.125000 I44.359313 J-0.037180
G03 X86.755773 Y41.013743 Z-0.125000 I19.644061 J1.612523
G02 X87.204145 Y38.598488 Z-0.125000 I-53.140445 J-11.114337
G02 X87.421929 Y36.909947 Z-0.125000 I-25.734529 J-4.177491
G02 X87.515564 Y33.264485 Z-0.125000 I-25.973499 J-2.491073
G02 X87.222989 Y32.418180 Z-0.125000 I-1.571627 J0.069600
G03 X86.494523 Y30.358118 Z-0.125000 I3.197231 J-2.289414
G03 X86.916801 Y27.177783 Z-0.125000 I8.463357 J-0.494455
G02 X86.684274 Y26.935155 Z-0.125000 I-0.180082 J-0.060153
G02 X86.048557 Y27.427327 Z-0.125000 I0.300159 J1.044352
G03 X85.598035 Y28.059053 Z-0.125000 I-3.869968 J-2.283393
G03 X85.452891 Y28.126045 Z-0.125000 I-0.145144 J-0.123737
G03 X84.924978 Y27.825737 Z-0.125000 I0.000000 J-0.614166
G03 X84.624660 Y26.732928 Z-0.125000 I1.838123 J-1.092809
G02 X84.578818 Y26.334899 Z-0.125000 I-1.750899 J0.000000
G02 X84.448322 Y25.977263 Z-0.125000 I-1.541508 J0.359850
G03 X84.275856 Y25.628753 Z-0.125000 I15.654610 J-7.963872
G03 X84.035559 Y25.119432 Z-0.125000 I33.257837 J-16.002353
G02 X83.758107 Y24.633516 Z-0.125000 I-2.970188 J1.373768
G02 X82.898115 Y23.472452 Z-0.125000 I-17.957696 J12.402121
G02 X81.589455 Y22.439650 Z-0.125000 I-2.839844 J2.252858
G02 X81.103455 Y22.636104 Z-0.125000 I-0.151390 J0.324857
G01 X81.103508 Y22.636158 Z-0.125000
G00 Z5.000000

(End cutting path id: path7768)


(Start cutting path id: path7768)
(Change tool to Default tool)

G00 Z5.000000
G00 X32.898441 Y24.194827

G01 Z-0.125000 F100.0(Penetrate)
G02 X31.564759 Y25.085683 Z-0.125000 I2.391908 J5.024616 F400.000000
G02 X31.455220 Y25.495544 Z-0.125000 I0.260678 J0.289237
G02 X32.636499 Y28.260850 Z-0.125000 I16.131050 J-5.255875
G02 X35.115978 Y32.318418 Z-0.125000 I37.384197 J-20.058195
G03 X36.140150 Y34.547134 Z-0.125000 I-5.833432 J4.030344
G03 X36.763985 Y38.591290 Z-0.125000 I-19.086490 J5.014398
G02 X36.905251 Y39.503061 Z-0.125000 I4.416091 J-0.217383
G02 X37.043609 Y39.649906 Z-0.125000 I0.204411 J-0.053993
G02 X37.490322 Y39.433329 Z-0.125000 I0.111498 J-0.339007
G02 X38.292749 Y36.229758 Z-0.125000 I-14.834733 J-5.418070
G03 X39.023103 Y32.753794 Z-0.125000 I26.492922 J3.751860
G03 X39.334089 Y32.518049 Z-0.125000 I0.310986 J0.087249
G02 X39.442294 Y32.451890 Z-0.125000 I0.000000 J-0.121565
G02 X39.512968 Y32.168690 Z-0.125000 I-0.573062 J-0.293431
G03 X39.595692 Y31.845931 Z-0.125000 I0.714782 J0.011219
G03 X40.111871 Y31.035140 Z-0.125000 I5.263383 J2.781155
G02 X40.659630 Y30.235646 Z-0.125000 I-8.215508 J-6.216094
G02 X40.705220 Y30.075178 Z-0.125000 I-0.259614 J-0.160468
G03 X40.752802 Y29.916138 Z-0.125000 I0.289576 J0.000000
G03 X41.339290 Y29.110382 Z-0.125000 I8.721640 J5.731914
G02 X41.706354 Y28.354394 Z-0.125000 I-1.468552 J-1.180150
G02 X41.588832 Y28.030452 Z-0.125000 I-0.308641 J-0.071319
G02 X41.189003 Y27.782962 Z-0.125000 I-1.520101 J2.009070
G02 X40.990078 Y27.733178 Z-0.125000 I-0.213136 J0.429319
G03 X40.801318 Y27.664901 Z-0.125000 I0.009692 J-0.321860
G03 X39.709195 Y26.730666 Z-0.125000 I10.160639 J-12.983278
G02 X36.402273 Y23.983608 Z-0.125000 I-25.284194 J27.073255
G02 X35.643309 Y23.734148 Z-0.125000 I-0.758964 J1.029816
G02 X35.582882 Y23.783285 Z-0.125000 I0.000000 J0.061724
G02 X35.466581 Y24.582594 Z-0.125000 I6.498632 J1.353674
G01 X35.395469 Y25.431031 Z-0.125000
G01 X35.145711 Y24.809740 Z-0.125000
G02 X34.460410 Y23.872087 Z-0.125000 I-2.187068 J0.879199
G02 X33.858354 Y23.745652 Z-0.125000 I-0.421356 J0.509761
G02 X33.819047 Y23.760213 Z-0.125000 I0.067754 J0.243238
G02 X32.898439 Y24.194827 Z-0.125000 I67.318176 J143.787106
G01 X32.898441 Y24.194827 Z-0.125000
G00 Z5.000000

(End cutting path id: path7768)


(Start cutting path id: path7768)
(Change tool to Default tool)

G00 Z5.000000
G00 X53.824357 Y27.332062

G01 Z-0.125000 F100.0(Penetrate)
G02 X51.783078 Y27.902714 Z-0.125000 I1.430979 J9.055016 F400.000000
G02 X50.162248 Y28.830813 Z-0.125000 I2.696062 J6.587749
G03 X49.498176 Y29.271839 Z-0.125000 I-3.701663 J-4.853278
G03 X49.302810 Y29.323904 Z-0.125000 I-0.195365 J-0.340508
G02 X49.148198 Y29.382220 Z-0.125000 I-0.000000 J0.234118
G02 X49.089857 Y29.511224 Z-0.125000 I0.113455 J0.129004
G03 X49.036679 Y29.677898 Z-0.125000 I-0.287790 J0.000000
G03 X48.490953 Y30.354241 Z-0.125000 I-5.789007 J-4.112675
G02 X47.878342 Y31.886200 Z-0.125000 I1.730338 J1.580408
G02 X48.441041 Y32.767806 Z-0.125000 I0.941472 J0.019469
G03 X48.971709 Y33.032945 Z-0.125000 I-2.418058 J5.503301
G03 X49.089853 Y33.133051 Z-0.125000 I-0.200873 J0.356833
G02 X49.211102 Y33.223110 Z-0.125000 I0.233876 J-0.188226
G02 X49.688755 Y33.375428 Z-0.125000 I1.240672 J-3.065524
G03 X50.187105 Y33.496784 Z-0.125000 I-9.888557 J41.691178
G03 X51.485463 Y33.824408 Z-0.125000 I-69.851056 J279.553503
G02 X54.033230 Y34.075624 Z-0.125000 I2.098225 J-8.234638
G02 X55.952138 Y33.587797 Z-0.125000 I-0.268887 J-5.075696
G03 X56.681038 Y33.443830 Z-0.125000 I0.646400 J1.355523
G03 X57.582561 Y33.677492 Z-0.125000 I-0.129631 J2.356125
G02 X59.155077 Y34.069375 Z-0.125000 I1.714558 J-3.529058
G02 X61.167721 Y33.807368 Z-0.125000 I0.222786 J-6.149845
G03 X62.178431 Y33.571435 Z-0.125000 I2.296215 J7.553858
G03 X63.663149 Y33.395581 Z-0.125000 I2.666832 J16.160227
G02 X65.140661 Y33.204754 Z-0.125000 I-0.957636 J-13.230013
G02 X65.893889 Y32.978959 Z-0.125000 I-0.678292 J-3.631965
G01 X66.627374 Y32.670704 Z-0.125000
G01 X66.028042 Y31.546299 Z-0.125000
G02 X64.886068 Y30.003218 Z-0.125000 I-5.767517 J3.074208
G02 X63.233682 Y28.746937 Z-0.125000 I-5.408122 J5.398471
G02 X60.651347 Y27.705109 Z-0.125000 I-5.265312 J9.329626
G02 X57.374672 Y27.231279 Z-0.125000 I-3.792737 J14.661403
G02 X54.983659 Y27.224424 Z-0.125000 I-1.305153 J38.238599
G02 X53.824354 Y27.332062 Z-0.125000 I0.257532 J9.070644
G01 X53.824357 Y27.332062 Z-0.125000
G00 Z5.000000

(End cutting path id: path7768)


(Start cutting path id: path7768)
(Change tool to Default tool)

G00 Z5.000000
G00 X57.966793 Y31.728758

G01 Z-0.125000 F100.0(Penetrate)
G03 X59.328797 Y32.005437 Z-0.125000 I-1.748288 J12.096952 F400.000000
G03 X59.778140 Y32.205386 Z-0.125000 I-0.389469 J1.480129
G02 X60.216560 Y32.438749 Z-0.125000 I1.499217 J-2.288078
G02 X60.683282 Y32.586181 Z-0.125000 I1.030078 J-2.448423
G03 X60.654688 Y32.780794 Z-0.125000 I-0.020908 J0.096335
G03 X56.978189 Y32.296429 Z-0.125000 I2.731394 J-34.927378
G02 X55.984484 Y32.213657 Z-0.125000 I-0.905894 J4.869316
G02 X54.981846 Y32.331821 Z-0.125000 I0.090020 J5.076698
G03 X52.537834 Y32.573599 Z-0.125000 I-2.239146 J-10.160862
G03 X52.483638 Y32.282592 Z-0.125000 I0.002976 J-0.151104
G03 X54.038745 Y31.818187 Z-0.125000 I3.146442 J7.700262
G03 X56.276688 Y31.543328 Z-0.125000 I3.071037 J15.756581
G03 X56.575045 Y31.551651 Z-0.125000 I0.098352 J1.826162
G03 X57.966793 Y31.728731 Z-0.125000 I-4.520219 J41.083932
G01 X57.966793 Y31.728758 Z-0.125000
G00 Z5.000000

(End cutting path id: path7768)


(Start cutting path id: path7768)
(Change tool to Default tool)

G00 Z5.000000
G00 X53.595886 Y41.815301

G01 Z-0.125000 F100.0(Penetrate)
G02 X53.136591 Y42.874271 Z-0.125000 I1.110914 J1.110911 F400.000000
G02 X53.546825 Y43.298300 Z-0.125000 I0.410234 J0.013570
G02 X53.780649 Y43.227045 Z-0.125000 I-0.000000 J-0.419280
G02 X54.264388 Y42.816199 Z-0.125000 I-1.576276 J-2.346142
G02 X54.341226 Y41.888781 Z-0.125000 I-0.545055 J-0.512051
G02 X53.595883 Y41.815301 Z-0.125000 I-0.402817 J0.269045
G01 X53.595886 Y41.815301 Z-0.125000
G00 Z5.000000

(End cutting path id: path7768)


(Start cutting path id: path7768)
(Change tool to Default tool)

G00 Z5.000000
G00 X59.271201 Y42.592556

G01 Z-0.125000 F100.0(Penetrate)
G02 X59.684193 Y43.379272 Z-0.125000 I0.955809 J0.000000 F400.000000
G02 X60.326698 Y43.320830 Z-0.125000 I0.286183 J-0.414771
G02 X60.429914 Y42.563217 Z-0.125000 I-0.446700 J-0.446696
G02 X59.636735 Y42.100494 Z-0.125000 I-0.793179 J0.448456
G02 X59.393510 Y42.222804 Z-0.125000 I0.000000 J0.302992
G02 X59.271201 Y42.592556 Z-0.125000 I0.497742 J0.369752
G01 X59.271201 Y42.592556 Z-0.125000
G00 Z5.000000

(End cutting path id: path7768)


(Start cutting path id: path7768)
(Change tool to Default tool)

G00 Z5.000000
G00 X41.903025 Y55.416184

G01 Z-0.125000 F100.0(Penetrate)
G02 X40.513284 Y56.129051 Z-0.125000 I2.099190 J5.803486 F400.000000
G02 X39.683847 Y56.937138 Z-0.125000 I1.917729 J2.798114
G02 X39.802789 Y57.788604 Z-0.125000 I0.502311 J0.363872
G02 X40.965696 Y57.944990 Z-0.125000 I0.714109 J-0.908248
G03 X42.228874 Y57.585182 Z-0.125000 I2.105666 J4.995138
G03 X43.608147 Y57.529255 Z-0.125000 I0.930614 J5.915081
G03 X44.988232 Y57.742738 Z-0.125000 I-0.666499 J8.876251
G03 X46.303208 Y58.165909 Z-0.125000 I-2.003531 J8.480531
G02 X48.955233 Y58.883985 Z-0.125000 I4.154629 J-10.087710
G02 X50.055280 Y58.687660 Z-0.125000 I0.248546 J-1.787390
G02 X50.226251 Y58.317189 Z-0.125000 I-0.159690 J-0.298383
G02 X49.920892 Y58.071229 Z-0.125000 I-0.305359 J0.066572
G03 X49.392166 Y57.953575 Z-0.125000 I0.000000 J-1.246841
G03 X48.273910 Y57.300051 Z-0.125000 I3.023140 J-6.456446
G02 X47.172140 Y56.563967 Z-0.125000 I-12.473842 J17.478221
G02 X46.394794 Y56.126833 Z-0.125000 I-5.151081 J8.250331
G02 X43.666771 Y55.247987 Z-0.125000 I-4.180977 J8.304709
G02 X41.903025 Y55.416184 Z-0.125000 I-0.555226 J3.509368
G01 X41.903025 Y55.416184 Z-0.125000
G00 Z5.000000

(End cutting path id: path7768)


(Start cutting path id: path7768)
(Change tool to Default tool)

G00 Z5.000000
G00 X68.470543 Y56.008213

G01 Z-0.125000 F100.0(Penetrate)
G02 X68.011791 Y56.171481 Z-0.125000 I0.390066 J1.822148 F400.000000
G02 X66.673834 Y56.927647 Z-0.125000 I8.444335 J16.503132
G03 X63.833651 Y58.546749 Z-0.125000 I-22.856281 J-36.793225
G03 X63.329868 Y58.670132 Z-0.125000 I-0.503783 J-0.966795
G02 X63.212987 Y58.868192 Z-0.125000 I0.000000 J0.133517
G02 X63.659826 Y59.267660 Z-0.125000 I0.793901 J-0.438397
G02 X64.618604 Y59.382780 Z-0.125000 I0.684806 J-1.653258
G02 X66.785994 Y58.783324 Z-0.125000 I-1.485714 J-9.589669
G03 X69.870225 Y58.301505 Z-0.125000 I2.566457 J6.316128
G03 X72.230275 Y59.197994 Z-0.125000 I-0.338653 J4.446238
G02 X73.158839 Y59.727413 Z-0.125000 I2.460209 J-3.236005
G02 X73.877263 Y59.867938 Z-0.125000 I0.718424 J-1.766187
G02 X74.413232 Y59.638336 Z-0.125000 I0.000000 J-0.740368
G02 X74.643038 Y59.064082 Z-0.125000 I-0.602590 J-0.574254
G02 X73.652079 Y57.150270 Z-0.125000 I-2.343526 J0.000000
G02 X70.273564 Y55.975997 Z-0.125000 I-3.725520 J5.271418
G02 X68.957181 Y55.952358 Z-0.125000 I-0.987560 J18.330100
G02 X68.470543 Y56.008195 Z-0.125000 I0.045615 J2.546078
G01 X68.470543 Y56.008213 Z-0.125000
G00 Z5.000000

(End cutting path id: path7768)


(Start cutting path id: path7772)
(Change tool to Default tool)

G00 Z5.000000
G00 X1.177651 Y70.748004

G01 Z-0.125000 F100.0(Penetrate)
G01 X1.177651 Y141.119060 Z-0.125000 F400.000000
G01 X57.474493 Y141.119060 Z-0.125000
G01 X113.771310 Y141.119060 Z-0.125000
G01 X113.771310 Y70.748004 Z-0.125000
G01 X113.771310 Y0.376938 Z-0.125000
G01 X57.474493 Y0.376938 Z-0.125000
G01 X1.177651 Y0.376938 Z-0.125000
G01 X1.177651 Y70.748004 Z-0.125000
G00 Z5.000000

(End cutting path id: path7772)


(Start cutting path id: path7772)
(Change tool to Default tool)

G00 Z5.000000
G00 X41.580428 Y31.685250

G01 Z-0.125000 F100.0(Penetrate)
G02 X41.768664 Y33.340328 Z-0.125000 I25.719782 J-2.086932 F400.000000
G02 X42.107089 Y35.278667 Z-0.125000 I35.628807 J-5.221906
G02 X43.687827 Y39.464860 Z-0.125000 I13.688441 J-2.777313
G02 X47.121275 Y43.997018 Z-0.125000 I19.549108 J-11.243284
G03 X49.625324 Y46.623789 Z-0.125000 I-97.907473 J95.840185
G03 X50.271765 Y47.390804 Z-0.125000 I-7.670330 J7.120474
G02 X50.884557 Y48.187156 Z-0.125000 I114.018509 J-87.103242
G02 X51.047254 Y48.391320 Z-0.125000 I7.654911 J-5.933242
G03 X51.956943 Y49.713724 Z-0.125000 I-7.420260 J6.078530
G03 X54.112504 Y53.759837 Z-0.125000 I-67.957498 J38.801493
G02 X55.509767 Y56.572828 Z-0.125000 I1732.627217 J-858.873391
G02 X55.941993 Y57.435489 Z-0.125000 I163.154718 J-81.207121
G02 X57.451616 Y59.737448 Z-0.125000 I10.868959 J-5.481874
G02 X60.289385 Y62.662821 Z-0.125000 I20.515260 J-17.061826
G03 X61.752841 Y63.964512 Z-0.125000 I-230.613327 J260.745827
G03 X62.074799 Y64.259898 Z-0.125000 I-11.553604 J12.916048
G02 X62.401718 Y64.549435 Z-0.125000 I4.965647 J-5.277434
G02 X64.325719 Y66.135488 Z-0.125000 I151.151239 J-181.397720
G03 X66.236755 Y67.721913 Z-0.125000 I-90.068509 J110.442443
G03 X66.258398 Y67.768534 Z-0.125000 I-0.039393 J0.046621
G03 X65.954828 Y67.961387 Z-0.125000 I-0.213043 J0.000000
G03 X60.568823 Y65.097797 Z-0.125000 I26.042155 J-55.478544
G03 X59.406765 Y64.331291 Z-0.125000 I7.994858 J-13.384679
G03 X57.641641 Y62.973577 Z-0.125000 I23.436746 J-32.295685
G02 X53.702291 Y60.224557 Z-0.125000 I-20.433711 J25.084481
G02 X52.401001 Y59.867938 Z-0.125000 I-1.301290 J2.195869
G02 X52.290520 Y60.078836 Z-0.125000 I0.000000 J0.134387
G02 X59.380794 Y69.946693 Z-0.125000 I287.777495 J-199.293302
G02 X62.989602 Y74.324294 Z-0.125000 I46.416827 J-34.588802
G02 X71.060515 Y82.777888 Z-0.125000 I181.676921 J-165.373129
G01 X74.073155 Y85.786701 Z-0.125000
G01 X72.541174 Y86.127527 Z-0.125000
G03 X70.997385 Y86.341826 Z-0.125000 I-2.092134 J-9.403725
G03 X68.184618 Y86.375899 Z-0.125000 I-1.786100 J-31.328339
G03 X65.390461 Y86.116302 Z-0.125000 I0.767115 J-23.423906
G03 X63.520357 Y85.658776 Z-0.125000 I1.675874 J-10.900730
G03 X61.708094 Y84.969065 Z-0.125000 I8.585197 J-25.283985
G03 X59.903284 Y84.129626 Z-0.125000 I10.956293 J-25.916144
G02 X58.104846 Y83.312057 Z-0.125000 I-10.172028 J19.988960
G02 X57.650471 Y83.222983 Z-0.125000 I-0.459976 J1.142938
G03 X56.433214 Y83.002666 Z-0.125000 I0.014833 J-3.554799
G03 X52.922124 Y81.476320 Z-0.125000 I11.825170 J-32.003208
G03 X50.736804 Y79.906269 Z-0.125000 I3.872936 J-7.696534
G03 X47.352480 Y75.968701 Z-0.125000 I22.555733 J-22.809752
G03 X43.434387 Y69.821629 Z-0.125000 I47.950087 J-34.885214
G03 X38.683368 Y60.322213 Z-0.125000 I110.115622 J-61.010786
G02 X37.060367 Y56.789977 Z-0.125000 I-193.784001 J86.901425
G02 X36.702640 Y56.113386 Z-0.125000 I-7.449667 J3.505918
G03 X36.364876 Y55.439074 Z-0.125000 I4.746798 J-2.799426
G03 X36.313268 Y55.181764 Z-0.125000 I0.615640 J-0.257309
G02 X36.256590 Y54.949469 Z-0.125000 I-0.504371 J-0.000000
G02 X36.137912 Y54.843812 Z-0.125000 I-0.197696 J0.102579
G03 X36.004479 Y54.730917 Z-0.125000 I0.092853 J-0.245046
G03 X35.139742 Y53.134714 Z-0.125000 I24.431420 J-14.267977
G03 X34.360315 Y50.568221 Z-0.125000 I7.105887 J-3.559609
G03 X34.627362 Y49.066452 Z-0.125000 I2.550073 J-0.321169
G01 X34.937802 Y48.466130 Z-0.125000
G01 X36.112608 Y49.553787 Z-0.125000
G02 X37.390923 Y50.464546 Z-0.125000 I4.181258 J-4.516205
G02 X39.448020 Y51.337944 Z-0.125000 I5.885457 J-11.002686
G03 X41.573731 Y52.120155 Z-0.125000 I-8.527025 J26.452239
G03 X44.051618 Y53.248394 Z-0.125000 I-15.389374 J37.083958
G02 X46.405490 Y54.318540 Z-0.125000 I16.691687 J-33.590868
G02 X46.494612 Y54.258960 Z-0.125000 I0.024646 J-0.059580
G02 X46.453989 Y54.065967 Z-0.125000 I-0.478756 J0.000000
G02 X46.036341 Y53.218608 Z-0.125000 I-10.051282 J4.427491
G03 X43.904735 Y48.754651 Z-0.125000 I39.138620 J-21.430198
G03 X42.013332 Y43.432682 Z-0.125000 I53.801733 J-22.117960
G03 X40.986818 Y38.793187 Z-0.125000 I30.293014 J-9.135807
G03 X40.615776 Y33.697857 Z-0.125000 I36.204196 J-5.197568
G03 X40.736034 Y30.033452 Z-0.125000 I51.506598 J-0.143832
G03 X40.893957 Y29.637721 Z-0.125000 I0.693917 J0.047542
G03 X41.140601 Y29.528024 Z-0.125000 I0.233656 J0.193229
G03 X41.314011 Y29.655727 Z-0.125000 I-0.008267 J0.192815
G03 X41.404885 Y30.031399 Z-0.125000 I-1.706369 J0.611593
G03 X41.580428 Y31.685259 Z-0.125000 I-33.281469 J4.368794
G01 X41.580428 Y31.685250 Z-0.125000
G00 Z5.000000

(End cutting path id: path7772)


(Start cutting path id: path7772)
(Change tool to Default tool)

G00 Z5.000000
G00 X41.903025 Y55.416184

G01 Z-0.125000 F100.0(Penetrate)
G02 X40.513284 Y56.129051 Z-0.125000 I2.099190 J5.803486 F400.000000
G02 X39.683847 Y56.937138 Z-0.125000 I1.917729 J2.798114
G02 X39.802789 Y57.788604 Z-0.125000 I0.502311 J0.363872
G02 X40.965696 Y57.944990 Z-0.125000 I0.714109 J-0.908248
G03 X42.228874 Y57.585182 Z-0.125000 I2.105666 J4.995138
G03 X43.608147 Y57.529255 Z-0.125000 I0.930614 J5.915081
G03 X44.988232 Y57.742738 Z-0.125000 I-0.666499 J8.876251
G03 X46.303208 Y58.165909 Z-0.125000 I-2.003531 J8.480531
G02 X48.955233 Y58.883985 Z-0.125000 I4.154629 J-10.087710
G02 X50.055280 Y58.687660 Z-0.125000 I0.248546 J-1.787390
G02 X50.226251 Y58.317189 Z-0.125000 I-0.159690 J-0.298383
G02 X49.920892 Y58.071229 Z-0.125000 I-0.305359 J0.066572
G03 X49.392166 Y57.953575 Z-0.125000 I0.000000 J-1.246841
G03 X48.273910 Y57.300051 Z-0.125000 I3.023140 J-6.456446
G02 X47.172140 Y56.563967 Z-0.125000 I-12.473842 J17.478221
G02 X46.394794 Y56.126833 Z-0.125000 I-5.151081 J8.250331
G02 X43.666771 Y55.247987 Z-0.125000 I-4.180977 J8.304709
G02 X41.903025 Y55.416184 Z-0.125000 I-0.555226 J3.509368
G01 X41.903025 Y55.416184 Z-0.125000
G00 Z5.000000

(End cutting path id: path7772)


(Footer)
M5
G00 X0.0000 Y0.0000
M2
(Using default footer. To add your own footer create file "footer" in the output dir.)
(end)
%