%
(Header)
(Generated by gcodetools from Inkscape.)
(Using default header. To add your own header create file "header" in the output dir.)
M3
(Header end.)
G21 (All units in mm)

(Start cutting path id: path4758)
(Change tool to Default tool)

G00 Z5.000000
G00 X11.012692 Y67.283025

G01 Z-0.125000 F100.0(Penetrate)
G01 X48.727391 Y67.584743 Z-0.125000 F400.000000
G01 X48.425673 Y45.106782 Z-0.125000
G01 X11.012692 Y44.955923 Z-0.125000
G01 X11.012692 Y67.283025 Z-0.125000
G00 Z5.000000

(End cutting path id: path4758)


(Start cutting path id: path5203)
(Change tool to Default tool)

G00 Z5.000000
G00 X38.287365 Y53.441229

G01 Z-0.125000 F100.0(Penetrate)
G02 X37.989083 Y52.362638 Z-0.125000 I-1.873429 J-0.062448 F400.000000
G02 X36.767655 Y51.763813 Z-0.125000 I-1.107912 J0.714725
G02 X36.794002 Y51.823487 Z-0.125000 I0.080752 J0.000000
G01 X36.825002 Y51.835497 Z-0.125000
G02 X35.613030 Y52.538869 Z-0.125000 I0.000000 J1.395854
G02 X35.204934 Y53.885672 Z-0.125000 I2.739746 J1.565404
G02 X35.337723 Y54.352660 Z-0.125000 I7.346637 J-1.836659
G02 X35.462998 Y54.688538 Z-0.125000 I3.566332 J-1.138861
G01 X39.721054 Y54.688538 Z-0.125000
G03 X39.646963 Y55.862367 Z-0.125000 I-23.214225 J-0.876008
G03 X39.419979 Y56.953766 Z-0.125000 I-4.768384 J-0.422401
G03 X38.615380 Y58.273328 Z-0.125000 I-2.887476 J-0.855548
G03 X36.724644 Y59.032615 Z-0.125000 I-1.890736 J-1.974461
G03 X35.095559 Y58.380726 Z-0.125000 I-0.000000 J-2.361502
G03 X34.144004 Y57.011114 Z-0.125000 I2.862838 J-3.004352
G03 X33.793281 Y55.849049 Z-0.125000 I4.587589 J-2.018539
G03 X33.699561 Y54.760222 Z-0.125000 I6.278022 J-1.088827
G03 X33.928176 Y52.970902 Z-0.125000 I7.116618 J-0.000000
G03 X34.330384 Y52.093561 Z-0.125000 I2.672142 J0.694151
G03 X35.473215 Y51.034338 Z-0.125000 I2.393093 J1.435856
G03 X36.753318 Y50.731557 Z-0.125000 I1.280103 J2.554632
G03 X38.423334 Y51.265226 Z-0.125000 I0.000000 J2.879834
G03 X39.376968 Y52.466320 Z-0.125000 I-1.602749 J2.251663
G03 X39.543562 Y52.913148 Z-0.125000 I-2.001124 J1.000562
G03 X39.620696 Y53.441229 Z-0.125000 I-2.465428 J0.629783
G01 X38.287365 Y53.441229 Z-0.125000
G00 Z5.000000

(End cutting path id: path5203)


(Start cutting path id: path5203)
(Change tool to Default tool)

G00 Z5.000000
G00 X35.305292 Y55.720794

G01 Z-0.125000 F100.0(Penetrate)
G02 X35.259440 Y55.974089 Z-0.125000 I163.883651 J29.797028 F400.000000
G02 X35.219271 Y56.294269 Z-0.125000 I2.969377 J0.535148
G02 X35.296050 Y56.702245 Z-0.125000 I2.546833 J-0.268088
G02 X35.419987 Y57.039788 Z-0.125000 I2.048996 J-0.560818
G02 X35.859991 Y57.610939 Z-0.125000 I1.382309 J-0.609842
G02 X36.767655 Y57.928675 Z-0.125000 I0.907664 J-1.137578
G02 X37.612189 Y57.611893 Z-0.125000 I0.000000 J-1.284148
G02 X38.043638 Y57.025451 Z-0.125000 I-1.102972 J-1.263393
G02 X38.204423 Y56.335444 Z-0.125000 I-1.860053 J-0.797165
G03 X38.244354 Y55.720794 Z-0.125000 I25.850353 J1.370767
G01 X35.305292 Y55.720794 Z-0.125000
G00 Z5.000000

(End cutting path id: path5203)


(Start cutting path id: path5201)
(Change tool to Default tool)

G00 Z5.000000
G00 X31.952476 Y50.960947

G01 Z-0.125000 F100.0(Penetrate)
G01 X31.952476 Y58.803225 Z-0.125000 F400.000000
G01 X30.518787 Y58.803225 Z-0.125000
G01 X30.518787 Y50.960947 Z-0.125000
G01 X31.952476 Y50.960947 Z-0.125000
G00 Z5.000000

(End cutting path id: path5201)


(Start cutting path id: path5201)
(Change tool to Default tool)

G00 Z5.000000
G00 X31.952476 Y60.222577

G01 Z-0.125000 F100.0(Penetrate)
G01 X31.952476 Y61.770961 Z-0.125000 F400.000000
G01 X30.518787 Y61.770961 Z-0.125000
G01 X30.518787 Y60.222577 Z-0.125000
G01 X31.952476 Y60.222577 Z-0.125000
G00 Z5.000000

(End cutting path id: path5201)


(Start cutting path id: path5199)
(Change tool to Default tool)

G00 Z5.000000
G00 X25.001101 Y50.960947

G01 Z-0.125000 F100.0(Penetrate)
G01 X26.535148 Y50.960947 Z-0.125000 F400.000000
G01 X29.187473 Y58.803225 Z-0.125000
G01 X27.739447 Y58.803225 Z-0.125000
G02 X27.151635 Y56.760218 Z-0.125000 I-52.538126 J14.010167
G03 X26.563822 Y54.717212 Z-0.125000 I51.950314 J-16.053174
G02 X26.189729 Y53.421176 Z-0.125000 I-132.192765 J37.454617
G02 X25.803967 Y52.122235 Z-0.125000 I-234.580906 J68.959602
G01 X25.789630 Y52.122235 Z-0.125000
G03 X25.159949 Y54.192827 Z-0.125000 I-559.008115 J-168.867034
G02 X24.556658 Y56.236922 Z-0.125000 I101.066900 J30.939834
G02 X24.192484 Y57.509698 Z-0.125000 I342.593154 J98.713276
G02 X23.825476 Y58.803225 Z-0.125000 I1779.997185 J505.730200
G01 X22.348777 Y58.803225 Z-0.125000
G02 X23.680879 Y54.880453 Z-0.125000 I-2029.974130 J-691.529653
G02 X25.001101 Y50.960947 Z-0.125000 I-1306.007600 J-442.089818
G01 X25.001101 Y50.960947 Z-0.125000
G00 Z5.000000

(End cutting path id: path5199)


(Start cutting path id: path5197)
(Change tool to Default tool)

G00 Z5.000000
G00 X21.359083 Y50.960947

G01 Z-0.125000 F100.0(Penetrate)
G01 X21.359083 Y52.222593 Z-0.125000 F400.000000
G01 X16.527552 Y52.222593 Z-0.125000
G01 X16.527552 Y55.835489 Z-0.125000
G01 X20.900303 Y55.835489 Z-0.125000
G01 X20.900303 Y57.111472 Z-0.125000
G01 X16.527552 Y57.111472 Z-0.125000
G01 X16.527552 Y60.451967 Z-0.125000
G01 X21.301736 Y60.451967 Z-0.125000
G01 X21.301736 Y61.713613 Z-0.125000
G01 X14.993505 Y61.713613 Z-0.125000
G01 X14.993505 Y50.960947 Z-0.125000
G01 X21.359083 Y50.960947 Z-0.125000
G00 Z5.000000

(End cutting path id: path5197)


(Footer)
M5
G00 X0.0000 Y0.0000
M2
(Using default footer. To add your own footer create file "footer" in the output dir.)
(end)
%