%
(Header)
(Generated by gcodetools from Inkscape.)
(Using default header. To add your own header create file "header" in the output dir.)
M3
(Header end.)
G21 (All units in mm)

(Start cutting path id: path4764)
(Change tool to Default tool)

G00 Z5.000000
G00 X27.908878 Y59.740085

G01 Z-0.125000 F100.0(Penetrate)
G01 X27.456302 Y47.973099 Z-0.125000 F400.000000
G00 Z5.000000

(End cutting path id: path4764)


(Start cutting path id: path4762)
(Change tool to Default tool)

G00 Z5.000000
G00 X20.215079 Y54.610886

G01 Z-0.125000 F100.0(Penetrate)
G01 X27.908878 Y55.063464 Z-0.125000 F400.000000
G00 Z5.000000

(End cutting path id: path4762)


(Start cutting path id: path4760)
(Change tool to Default tool)

G00 Z5.000000
G00 X20.365938 Y60.192662

G01 Z-0.125000 F100.0(Penetrate)
G01 X20.215079 Y48.123958 Z-0.125000 F400.000000
G00 Z5.000000

(End cutting path id: path4760)


(Start cutting path id: path4758)
(Change tool to Default tool)

G00 Z5.000000
G00 X11.012692 Y67.283025

G01 Z-0.125000 F100.0(Penetrate)
G01 X48.727391 Y67.584743 Z-0.125000 F400.000000
G01 X48.425673 Y45.106782 Z-0.125000
G01 X11.012692 Y44.955923 Z-0.125000
G01 X11.012692 Y67.283025 Z-0.125000
G00 Z5.000000

(End cutting path id: path4758)


(Footer)
M5
G00 X0.0000 Y0.0000
M2
(Using default footer. To add your own footer create file "footer" in the output dir.)
(end)
%