%
(Header)
(Generated by gcodetools from Inkscape.)
(Using default header. To add your own header create file "header" in the output dir.)
M3
(Header end.)
G21 (All units in mm)

(Start cutting path id: path4758)
(Change tool to Default tool)

G00 Z5.000000
G00 X71.502180 Y4.196317

G01 Z0.000 F1000.0(Penetrate)
G02 X69.915406 Y5.428717 Z-0.125000 I13.765824 J19.361882
G02 X67.943818 Y7.209646 Z-0.125000 I26.847045 J31.702975
G03 X66.002828 Y8.997207 Z-0.125000 I-40.961595 J-42.529809
G03 X65.846630 Y9.056172 Z-0.125000 I-0.156198 J-0.177400
G03 X65.727667 Y8.977996 Z-0.125000 I0.000000 J-0.129603
G03 X65.418349 Y8.065434 Z-0.125000 I5.450404 J-2.356147
G02 X63.926093 Y4.145101 Z-0.125000 I-17.261065 J4.326169
G02 X63.112385 Y3.655991 Z-0.125000 I-0.807775 J0.422436
G02 X49.680222 Y4.986922 Z-0.125000 I0.475120 J73.241268
G02 X45.929957 Y6.978683 Z-0.125000 I1.376768 J7.118847
G02 X45.800535 Y7.190359 Z-0.125000 I0.374324 J0.374271
G02 X44.809599 Y10.449768 Z-0.125000 I94.950616 J30.647510
G03 X43.786462 Y13.628319 Z-0.125000 I-48.162257 J-13.748915
G03 X43.628220 Y13.739630 Z-0.125000 I-0.158242 J-0.056824
G03 X43.444037 Y13.640390 Z-0.125000 I0.000000 J-0.220537
G03 X41.968014 Y11.218711 Z-0.125000 I33.847501 J-22.290843
G02 X40.474186 Y8.893581 Z-0.125000 I-20.533191 J11.549533
G02 X40.212287 Y8.809431 Z-0.125000 I-0.188638 J0.137467
G02 X39.962880 Y9.007332 Z-0.125000 I0.145134 J0.439016
G02 X39.607414 Y9.799218 Z-0.125000 I2.932161 J1.791927
G03 X33.384021 Y29.405194 Z-0.125000 I-815.458190 J-248.054692
G03 X32.776423 Y30.451746 Z-0.125000 I-2.800702 J-0.926354
G03 X32.477234 Y30.510888 Z-0.125000 I-0.189060 J-0.170078
G03 X30.524479 Y29.459938 Z-0.125000 I10.478182 J-21.809015
G03 X28.658967 Y28.228223 Z-0.125000 I13.061765 J-21.811465
G03 X28.481113 Y27.879505 Z-0.125000 I0.252938 J-0.348718
G03 X28.557475 Y27.588488 Z-0.125000 I0.592722 J0.000000
G03 X35.110623 Y16.116599 Z-0.125000 I995.616845 J561.123898
G02 X38.091456 Y10.764520 Z-0.125000 I-159.520763 J-92.350989
G02 X38.066447 Y10.595559 Z-0.125000 I-0.126328 J-0.067632
G02 X37.900489 Y10.566685 Z-0.125000 I-0.103504 J0.103536
G02 X36.530097 Y11.320249 Z-0.125000 I5.381169 J11.408753
G03 X35.134359 Y12.177936 Z-0.125000 I-31.834069 J-50.239939
G03 X32.263910 Y13.861567 Z-0.125000 I-125.573622 J-210.803735
G02 X24.769110 Y19.418148 Z-0.125000 I20.456948 J35.425480
G02 X22.237665 Y23.244262 Z-0.125000 I6.758535 J7.222089
G03 X22.002599 Y23.401536 Z-0.125000 I-0.225230 J-0.082331
G03 X21.345384 Y23.207635 Z-0.125000 I0.057736 J-1.406444
G02 X20.675181 Y23.236722 Z-0.125000 I-0.312715 J0.530358
G02 X18.314383 Y25.369232 Z-0.125000 I8.039876 J11.273572
G02 X14.726798 Y29.695577 Z-0.125000 I73.527842 J64.623015
G02 X11.351090 Y34.274813 Z-0.125000 I79.013726 J61.780953
G02 X9.580732 Y37.466852 Z-0.125000 I14.942163 J10.374129
G02 X9.001077 Y39.743227 Z-0.125000 I6.921554 J2.974490
G03 X8.350900 Y41.965937 Z-0.125000 I-6.048903 J-0.562951
G03 X6.305643 Y44.967090 Z-0.125000 I-13.277447 J-6.850963
G02 X3.835346 Y47.785851 Z-0.125000 I3323.484104 J2915.116761
G02 X3.174830 Y48.542611 Z-0.125000 I237.535308 J207.992475
G02 X2.894579 Y49.369812 Z-0.125000 I0.867956 J0.755133
G02 X3.367034 Y51.604878 Z-0.125000 I7.855505 J-0.493053
G02 X4.279439 Y53.884030 Z-0.125000 I42.905815 J-15.854134
G02 X6.348695 Y58.509888 Z-0.125000 I178.951931 J-77.273712
G02 X8.411797 Y62.335034 Z-0.125000 I32.344045 J-14.975891
G02 X8.697381 Y62.292676 Z-0.125000 I0.133627 J-0.082968
G02 X8.834515 Y61.462594 Z-0.125000 I-4.177654 J-1.116540
G02 X9.158291 Y55.350384 Z-0.125000 I-228.400549 J-15.163504
G03 X9.430294 Y49.227456 Z-0.125000 I632.507361 J25.030833
G03 X9.626278 Y45.853107 Z-0.125000 I192.260660 J9.473755
G01 X9.851897 Y42.480360 Z-0.125000
G01 X12.729474 Y40.346771 Z-0.125000
G03 X15.595464 Y38.370160 Z-0.125000 I30.278162 J40.835804
G03 X15.784519 Y38.390643 Z-0.125000 I0.081796 J0.127749
G03 X15.840663 Y38.593032 Z-0.125000 I-0.150879 J0.150837
G03 X15.375058 Y40.034997 Z-0.125000 I-10.775942 J-2.683356
G02 X11.454213 Y50.751209 Z-0.125000 I177.430587 J70.993645
G02 X11.603466 Y51.382292 Z-0.125000 I0.585695 J0.194673
G02 X11.744549 Y51.388263 Z-0.125000 I0.073793 J-0.073833
G02 X16.598434 Y47.170478 Z-0.125000 I-139.459421 J-165.393691
G03 X24.593095 Y40.417717 Z-0.125000 I120.907774 J135.035051
G03 X29.856729 Y36.612183 Z-0.125000 I43.498889 J54.622641
G02 X32.990681 Y34.365643 Z-0.125000 I-24.858289 J-37.986846
G02 X33.158924 Y34.025876 Z-0.125000 I-0.270639 J-0.345551
G03 X33.643425 Y33.617049 Z-0.125000 I0.419407 J0.005535
G03 X35.826649 Y34.444948 Z-0.125000 I-0.883060 J5.621292
G01 X37.809117 Y35.713122 Z-0.125000
G01 X38.368978 Y34.913801 Z-0.125000
G02 X38.839747 Y34.086402 Z-0.125000 I-4.165883 J-2.917910
G02 X38.928839 Y33.672043 Z-0.125000 I-0.919028 J-0.414359
G03 X38.990999 Y33.239197 Z-0.125000 I1.538115 J0.000000
G03 X40.675024 Y27.717741 Z-0.125000 I257.215149 J75.432183
G02 X42.382491 Y22.194604 Z-0.125000 I-395.186471 J-125.196587
G02 X43.070227 Y19.774092 Z-0.125000 I-75.185033 J-22.670168
G03 X43.799115 Y17.446276 Z-0.125000 I27.641231 J7.377026
G03 X43.947154 Y17.342290 Z-0.125000 I0.148039 J0.053384
G03 X44.476540 Y17.640124 Z-0.125000 I0.000000 J0.619396
G03 X48.280063 Y24.475550 Z-0.125000 I-87.794108 J53.328339
G03 X48.218396 Y25.272808 Z-0.125000 I-0.685573 J0.347985
G03 X43.161966 Y31.583034 Z-0.125000 I-63.798761 J-45.941411
G02 X40.444995 Y34.750499 Z-0.125000 I86.631290 J77.059139
G02 X40.369902 Y34.959129 Z-0.125000 I0.252271 J0.208630
G02 X40.482511 Y35.097993 Z-0.125000 I0.141924 J0.000000
G02 X43.536215 Y35.627544 Z-0.125000 I8.808160 J-41.723522
G03 X50.064061 Y36.999988 Z-0.125000 I-6.268106 J46.024046
G03 X56.376562 Y39.307245 Z-0.125000 I-12.989936 J45.328514
G02 X58.828355 Y40.313277 Z-0.125000 I16.763045 J-37.362436
G02 X58.983358 Y40.279562 Z-0.125000 I0.051270 J-0.137456
G02 X59.028842 Y39.944470 Z-0.125000 I-0.197432 J-0.197432
G02 X52.492137 Y28.825190 Z-0.125000 I-353.405057 J200.275666
G03 X50.899026 Y26.054712 Z-0.125000 I53.569455 J-32.647394
G03 X50.817628 Y25.733510 Z-0.125000 I0.593044 J-0.321202
G03 X51.036750 Y25.200195 Z-0.125000 I0.758570 J0.000000
G03 X57.813707 Y18.506852 Z-0.125000 I284.043513 J280.814281
G03 X64.730995 Y11.997333 Z-0.125000 I269.587768 J279.545215
G03 X65.054023 Y12.004212 Z-0.125000 I0.157925 J0.171984
G03 X65.178766 Y12.213346 Z-0.125000 I-0.351326 J0.351326
G03 X67.034546 Y18.635122 Z-0.125000 I-358.755647 J107.153086
G02 X68.844517 Y25.085913 Z-0.125000 I2792.695089 J-780.098473
G02 X69.868489 Y28.690685 Z-0.125000 I872.582767 J-245.918146
G03 X70.777454 Y32.284888 Z-0.125000 I-57.256762 J16.392138
G03 X70.740428 Y32.653608 Z-0.125000 I-0.581132 J0.127864
G03 X70.446692 Y33.046428 Z-0.125000 I-1.003731 J-0.444320
G03 X63.620924 Y38.691811 Z-0.125000 I-231.566072 J-273.034709
G02 X60.942857 Y41.158304 Z-0.125000 I17.423046 J21.604725
G02 X61.025829 Y41.417468 Z-0.125000 I0.112292 J0.106913
G02 X61.644893 Y41.379271 Z-0.125000 I0.235342 J-1.221485
G02 X66.851590 Y39.528332 Z-0.125000 I-30.471008 J-93.963739
G03 X72.049740 Y37.548478 Z-0.125000 I178.733670 J461.455368
G03 X72.222420 Y37.517208 Z-0.125000 I0.172680 J0.461150
G03 X72.333911 Y37.597960 Z-0.125000 I0.000000 J0.117342
G03 X72.639231 Y38.787304 Z-0.125000 I-8.868136 J2.910426
G03 X72.595959 Y40.000461 Z-0.125000 I-2.720348 J0.510320
G03 X71.929913 Y41.489294 Z-0.125000 I-4.833826 J-1.269069
G01 X70.982315 Y42.921205 Z-0.125000
G01 X67.925166 Y42.921205 Z-0.125000
G02 X65.029901 Y43.083095 Z-0.125000 I-0.000000 J25.970632
G02 X64.868013 Y43.264158 Z-0.125000 I0.020312 J0.181064
G02 X64.991104 Y43.542396 Z-0.125000 I0.376013 J-0.000000
G02 X66.419869 Y44.674829 Z-0.125000 I9.082151 J-9.991202
G03 X67.922246 Y45.796670 Z-0.125000 I-13.714576 J19.933572
G03 X68.445445 Y46.313327 Z-0.125000 I-2.340380 J2.893259
G02 X69.503415 Y46.614272 Z-0.125000 I0.748487 J-0.621187
G02 X71.079185 Y45.429393 Z-0.125000 I-0.994273 J-2.962532
G03 X73.012220 Y44.212923 Z-0.125000 I2.389309 J1.652655
G03 X74.243850 Y44.926117 Z-0.125000 I0.177174 J1.114097
G03 X74.150845 Y46.324369 Z-0.125000 I-1.571937 J0.597661
G03 X72.793872 Y47.604663 Z-0.125000 I-2.621234 J-1.418955
G02 X71.042871 Y48.480371 Z-0.125000 I16.147247 J34.475287
G02 X70.992540 Y48.564207 Z-0.125000 I0.044659 J0.083836
G02 X71.028928 Y48.666825 Z-0.125000 I0.162890 J-0.000000
G02 X73.791990 Y52.015220 Z-0.125000 I201.096160 J-163.128262
G03 X76.567685 Y55.369346 Z-0.125000 I-239.052517 J200.652672
G03 X77.650462 Y56.744551 Z-0.125000 I-39.074957 J31.879789
G02 X78.654286 Y57.804968 Z-0.125000 I5.375660 J-4.083435
G02 X78.837822 Y57.753716 Z-0.125000 I0.074459 J-0.087608
G02 X78.858245 Y57.365274 Z-0.125000 I-0.694219 J-0.231258
G02 X77.666187 Y52.427265 Z-0.125000 I-121.772769 J26.783609
G03 X76.648471 Y47.597114 Z-0.125000 I48.159710 J-12.669579
G03 X76.831710 Y47.192480 Z-0.125000 I0.398207 J-0.063479
G03 X77.312997 Y46.928516 Z-0.125000 I2.415868 J3.834120
G03 X81.440263 Y45.016914 Z-0.125000 I132.862162 J281.446180
G03 X85.669309 Y43.492723 Z-0.125000 I11.559101 J25.443003
G03 X88.915796 Y42.984956 Z-0.125000 I3.916634 J14.409254
G03 X92.119138 Y42.970282 Z-0.125000 I1.783473 J39.680905
G03 X92.248254 Y43.104099 Z-0.125000 I-0.004786 J0.133817
G03 X92.189257 Y43.357952 Z-0.125000 I-0.575641 J-0.000000
G03 X90.855259 Y45.939148 Z-0.125000 I-64.217875 J-31.553386
G02 X89.483161 Y48.516401 Z-0.125000 I158.599577 J86.090335
G02 X85.942106 Y55.350413 Z-0.125000 I1112.128761 J580.585913
G03 X82.354786 Y62.150178 Z-0.125000 I-326.675924 J-167.996715
G03 X81.931104 Y62.764252 Z-0.125000 I-3.042928 J-1.646276
G02 X81.989880 Y63.563342 Z-0.125000 I0.428922 J0.370158
G02 X83.872065 Y64.439202 Z-0.125000 I2.484800 J-2.879434
G03 X100.926967 Y67.374909 Z-0.125000 I-120.754080 J752.524929
G03 X104.623487 Y68.254248 Z-0.125000 I-6.644051 J36.139221
G03 X104.849750 Y68.975068 Z-0.125000 I-0.127841 J0.436051
G03 X100.796728 Y73.012608 Z-0.125000 I-20.302294 J-16.327092
G03 X92.687233 Y78.249702 Z-0.125000 I-30.139139 J-37.772411
G03 X91.144974 Y77.956235 Z-0.125000 I-0.582610 J-1.137458
G03 X90.922721 Y77.675604 Z-0.125000 I2.600665 J-2.287988
G03 X90.047059 Y76.412369 Z-0.125000 I52.233083 J-37.142587
G02 X85.200019 Y69.975410 Z-0.125000 I-65.143429 J44.009698
G02 X84.753493 Y70.085226 Z-0.125000 I-0.196363 J0.164286
G02 X84.746003 Y70.586077 Z-0.125000 I1.233681 J0.268929
G02 X85.544138 Y74.317205 Z-0.125000 I72.107342 J-13.473733
G03 X86.387336 Y78.058012 Z-0.125000 I-123.815668 J29.874141
G03 X86.685750 Y79.762895 Z-0.125000 I-25.388915 J5.322502
G02 X87.038486 Y81.406038 Z-0.125000 I11.639607 J-1.639263
G02 X87.241053 Y81.672441 Z-0.125000 I0.447686 J-0.130194
G02 X87.556649 Y81.700298 Z-0.125000 I0.185524 J-0.300181
G02 X89.233615 Y80.882377 Z-0.125000 I-4.511577 J-11.378076
G01 X90.912527 Y79.898460 Z-0.125000
G01 X91.761412 Y80.885346 Z-0.125000
G03 X92.201835 Y81.888919 Z-0.125000 I-1.420411 J1.221782
G03 X91.978949 Y82.740455 Z-0.125000 I-1.200331 J0.140756
G03 X91.199222 Y83.319495 Z-0.125000 I-1.315002 J-0.956257
G03 X89.456190 Y83.620003 Z-0.125000 I-1.775312 J-5.092022
G01 X87.564796 Y83.630897 Z-0.125000
G01 X87.578963 Y86.783220 Z-0.125000
G01 X87.593131 Y89.935544 Z-0.125000
G01 X89.830600 Y87.512610 Z-0.125000
G03 X92.241597 Y85.577554 Z-0.125000 I7.657375 J7.071237
G03 X93.611701 Y85.310037 Z-0.125000 I1.069723 J1.836360
G03 X95.025286 Y85.755931 Z-0.125000 I-0.642734 J4.501253
G03 X95.891094 Y86.465850 Z-0.125000 I-1.173231 J2.313782
G01 X96.626895 Y87.401253 Z-0.125000
G01 X95.661698 Y88.170865 Z-0.125000
G03 X94.659828 Y88.884385 Z-0.125000 I-7.066099 J-8.861538
G03 X93.202162 Y89.728576 Z-0.125000 I-11.373699 J-17.958399
G02 X91.723990 Y90.545260 Z-0.125000 I20.261885 J38.419414
G02 X88.915757 Y92.206770 Z-0.125000 I81.150501 J140.362119
G02 X86.370747 Y93.913410 Z-0.125000 I17.109670 J28.265559
G02 X86.132891 Y94.270279 Z-0.125000 I0.376333 J0.508530
G02 X86.286668 Y94.446885 Z-0.125000 I0.138908 J0.034300
G02 X88.465423 Y94.030504 Z-0.125000 I-1.361965 J-13.035081
G03 X89.915638 Y93.663595 Z-0.125000 I7.849780 J27.976964
G03 X94.770084 Y92.607034 Z-0.125000 I70.558002 J312.503587
G01 X99.633674 Y91.587918 Z-0.125000
G01 X100.439681 Y92.563067 Z-0.125000
G03 X111.821760 Y107.175556 Z-0.125000 I-246.525977 J203.765176
G03 X112.415696 Y108.892168 Z-0.125000 I-2.480666 J1.819348
G03 X112.319399 Y109.029041 Z-0.125000 I-0.138832 J0.004636
G03 X111.072129 Y109.324377 Z-0.125000 I-2.496146 J-7.760359
G03 X92.897212 Y112.046360 Z-0.125000 I-273.836461 J-1766.391389
G03 X92.766056 Y111.969821 Z-0.125000 I-0.017449 J-0.120743
G01 X89.547582 Y103.805801 Z-0.125000
G01 X86.351658 Y95.699814 Z-0.125000
G01 X85.573035 Y98.762081 Z-0.125000
G03 X83.933157 Y103.868358 Z-0.125000 I-42.107576 J-10.706362
G03 X81.037586 Y110.369229 Z-0.125000 I-71.256729 J-27.843366
G02 X79.330003 Y113.882587 Z-0.125000 I132.681040 J66.658069
G02 X79.278624 Y114.112749 Z-0.125000 I0.489845 J0.230162
G02 X79.396692 Y114.229388 Z-0.125000 I0.116648 J0.000000
G02 X84.052154 Y114.054608 Z-0.125000 I-1.118353 J-91.877812
G03 X88.826783 Y113.783231 Z-0.125000 I24.600813 J390.690831
G03 X90.381777 Y113.733617 Z-0.125000 I2.098826 J41.387775
G01 X91.937855 Y113.713184 Z-0.125000
G01 X93.694121 Y117.946320 Z-0.125000
G03 X95.198540 Y122.011274 Z-0.125000 I-51.600112 J21.407803
G03 X95.076550 Y122.179444 Z-0.125000 I-0.121990 J0.039839
G03 X94.714661 Y122.116081 Z-0.125000 I0.000000 J-1.065120
G03 X90.143014 Y120.397186 Z-0.125000 I63.957853 J-177.043876
G02 X78.083771 Y115.844840 Z-0.125000 I-201.374235 J515.195111
G02 X77.232601 Y115.694649 Z-0.125000 I-0.851170 J2.336812
G02 X76.946504 Y115.890902 Z-0.125000 I-0.000000 J0.306661
G02 X76.711232 Y117.045653 Z-0.125000 I3.301008 J1.273900
G03 X76.627189 Y118.522601 Z-0.125000 I-31.990719 J-1.079508
G03 X76.450859 Y120.294911 Z-0.125000 I-46.205358 J-3.702108
G03 X76.247105 Y120.535300 Z-0.125000 I-0.283460 J-0.033716
G03 X75.581795 Y120.547633 Z-0.125000 I-0.355426 J-1.222292
G02 X74.773848 Y120.534332 Z-0.125000 I-0.432445 J1.722809
G02 X71.348663 Y121.463181 Z-0.125000 I7.244298 J33.493469
G03 X64.093383 Y123.519295 Z-0.125000 I-29.018802 J-88.568126
G03 X55.681169 Y125.225751 Z-0.125000 I-28.197323 J-117.414862
G02 X49.920025 Y126.199753 Z-0.125000 I165.904327 J998.835879
G02 X49.016599 Y126.372290 Z-0.125000 I4.250991 J24.710281
G01 X48.116290 Y126.561407 Z-0.125000
G01 X49.016599 Y127.058350 Z-0.125000
G02 X49.949327 Y127.481161 Z-0.125000 I3.144335 J-5.696236
G02 X55.597104 Y129.436763 Z-0.125000 I75.349612 J-208.476406
G03 X60.964424 Y131.387610 Z-0.125000 I-31.212633 J94.233537
G03 X61.001100 Y131.578836 Z-0.125000 I-0.042527 J0.107286
G03 X58.897354 Y132.771069 Z-0.125000 I-3.479606 J-3.687722
G03 X54.727123 Y133.347709 Z-0.125000 I-4.170232 J-14.791140
G03 X53.725172 Y133.051666 Z-0.125000 I0.000000 J-1.843562
G03 X43.320222 Y125.962247 Z-0.125000 I145.511657 J-224.743777
G01 X39.296860 Y123.080111 Z-0.125000
G01 X39.279221 Y111.551585 Z-0.125000
G01 X39.261582 Y100.023072 Z-0.125000
G01 X40.626324 Y95.610553 Z-0.125000
G01 X41.991069 Y91.198031 Z-0.125000
G01 X43.792397 Y91.183045 Z-0.125000
G02 X51.587893 Y90.912944 Z-0.125000 I-1.231265 J-148.165500
G02 X52.171931 Y90.671752 Z-0.125000 I-0.059280 J-0.971253
G02 X52.170216 Y90.593107 Z-0.125000 I-0.033965 J-0.038601
G02 X49.109667 Y88.205584 Z-0.125000 I-78.417189 J97.367040
G03 X45.966092 Y85.806357 Z-0.125000 I240.993336 J-319.019318
G03 X44.947871 Y84.996545 Z-0.125000 I26.429382 J-34.276150
G01 X43.941743 Y84.171367 Z-0.125000
G01 X45.218071 Y79.967531 Z-0.125000
G02 X46.465428 Y75.759387 Z-0.125000 I-318.188358 J-96.604740
G02 X46.494395 Y75.554987 Z-0.125000 I-0.706658 J-0.204401
G02 X46.411294 Y75.510811 Z-0.125000 I-0.053292 J0.000000
G02 X43.161932 Y77.803632 Z-0.125000 I53.237025 J78.895853
G03 X39.816340 Y80.241092 Z-0.125000 I-213.752297 J-289.875859
G03 X39.382161 Y80.524291 Z-0.125000 I-3.298088 J-4.581960
G03 X38.756192 Y80.517285 Z-0.125000 I-0.307184 J-0.521786
G03 X33.233075 Y76.716379 Z-0.125000 I36.567391 J-59.049565
G02 X30.932461 Y75.065811 Z-0.125000 I-29.905609 J39.254762
G02 X30.666885 Y74.984582 Z-0.125000 I-0.265576 J0.393532
G02 X30.558546 Y75.121735 Z-0.125000 I0.000000 J0.111365
G02 X31.760245 Y79.577969 Z-0.125000 I75.548807 J-17.982861
G03 X33.074495 Y84.181749 Z-0.125000 I-152.335796 J45.977068
G03 X33.142620 Y84.711774 Z-0.125000 I-1.914136 J0.515419
G03 X32.940184 Y85.150431 Z-0.125000 I-0.586128 J-0.004452
G03 X29.189974 Y88.134300 Z-0.125000 I-37.742198 J-43.586841
G02 X25.356360 Y91.075215 Z-0.125000 I59.683735 J81.769523
G02 X25.239993 Y91.317058 Z-0.125000 I0.195971 J0.243212
G02 X25.385261 Y91.468764 Z-0.125000 I0.151148 J0.000671
G02 X30.330098 Y91.515232 Z-0.125000 I3.259392 J-83.721289
G01 X35.421517 Y91.412836 Z-0.125000
G01 X36.995027 Y95.852669 Z-0.125000
G01 X38.568537 Y100.292504 Z-0.125000
G01 X38.568537 Y111.205992 Z-0.125000
G03 X38.349832 Y121.964634 Z-0.125000 I-264.730897 J-0.000000
G03 X38.118204 Y122.278044 Z-0.125000 I-0.346942 J-0.014111
G02 X37.724621 Y123.214981 Z-0.125000 I0.227717 J0.646793
G02 X43.350832 Y133.482952 Z-0.125000 I82.468672 J-38.512324
G01 X44.465782 Y135.239314 Z-0.125000
G01 X49.247115 Y134.985927 Z-0.125000
G01 X54.028448 Y134.732539 Z-0.125000
G01 X55.666968 Y135.859879 Z-0.125000
G02 X58.892152 Y137.075656 Z-0.125000 I4.073740 J-5.920984
G02 X70.046653 Y137.569604 Z-0.125000 I8.904563 J-74.891631
G02 X76.016110 Y136.850961 Z-0.125000 I-0.998213 J-33.443917
G02 X76.847040 Y136.121696 Z-0.125000 I-0.235575 J-1.106432
G03 X77.040741 Y135.987126 Z-0.125000 I0.190377 J0.067338
G03 X79.015692 Y136.157369 Z-0.125000 I-0.234832 J14.264840
G02 X81.068570 Y136.203800 Z-0.125000 I1.200053 J-7.652963
G02 X84.773903 Y135.519553 Z-0.125000 I-2.871561 J-25.924750
G02 X88.426958 Y134.441028 Z-0.125000 I-14.929478 J-57.293296
G02 X92.068095 Y133.108339 Z-0.125000 I-19.252773 J-58.242343
G03 X95.674849 Y131.669805 Z-0.125000 I244.328453 J607.350103
G03 X96.352784 Y131.414108 Z-0.125000 I8.393272 J21.226706
G02 X96.855556 Y131.129047 Z-0.125000 I-0.573391 J-1.597217
G02 X96.862091 Y130.996453 Z-0.125000 I-0.056801 J-0.069258
G02 X96.656286 Y130.890674 Z-0.125000 I-0.267655 J0.267655
G02 X92.577387 Y130.286743 Z-0.125000 I-19.654714 J118.670047
G03 X81.399812 Y128.722405 Z-0.125000 I79.471318 J-608.557294
G03 X77.918539 Y128.097557 Z-0.125000 I8.900309 J-59.597249
G03 X77.468970 Y127.653971 Z-0.125000 I0.119919 J-0.571146
G03 X77.337339 Y125.502794 Z-0.125000 I6.631500 J-1.485398
G03 X77.625901 Y123.101695 Z-0.125000 I55.943647 J5.505377
G03 X77.702080 Y122.934654 Z-0.125000 I0.321323 J0.045648
G03 X78.019229 Y122.850881 Z-0.125000 I0.220058 J0.190880
G03 X94.574705 Y128.899274 Z-0.125000 I-280.256414 J792.791067
G02 X99.578171 Y130.680399 Z-0.125000 I49.950285 J-132.400066
G02 X99.762486 Y130.637023 Z-0.125000 I0.057127 J-0.170542
G02 X99.806789 Y130.453988 Z-0.125000 I-0.127557 J-0.127754
G02 X98.811247 Y127.679589 Z-0.125000 I-42.125704 J13.550210
G03 X97.897621 Y124.970259 Z-0.125000 I25.280055 J-10.033516
G03 X97.998811 Y124.774035 Z-0.125000 I0.156172 J-0.043668
G03 X98.295010 Y124.770849 Z-0.125000 I0.152673 J0.423656
G03 X101.397865 Y125.916964 Z-0.125000 I-17.896940 J53.225219
G01 X104.498790 Y127.167355 Z-0.125000
G01 X107.654122 Y124.728760 Z-0.125000
G02 X110.730608 Y122.198755 Z-0.125000 I-40.247703 J-52.076718
G02 X114.523349 Y118.722228 Z-0.125000 I-72.281750 J-82.663363
G01 X118.237238 Y115.154290 Z-0.125000
G01 X116.741248 Y112.692451 Z-0.125000
G03 X115.348862 Y110.243083 Z-0.125000 I41.314507 J-25.106398
G03 X115.369332 Y110.106539 Z-0.125000 I0.102590 J-0.054427
G03 X115.516682 Y110.027437 Z-0.125000 I0.204911 J0.204911
G03 X118.887023 Y109.393654 Z-0.125000 I24.184134 J119.328588
G02 X123.495283 Y107.421553 Z-0.125000 I-1.858903 J-10.713915
G02 X126.753268 Y103.574238 Z-0.125000 I-6.542095 J-8.843102
G02 X132.639109 Y90.532054 Z-0.125000 I-134.223885 J-68.423460
G02 X133.318589 Y86.964588 Z-0.125000 I-9.025373 J-3.567466
G02 X132.996520 Y86.472531 Z-0.125000 I-0.536916 J0.000000
G02 X131.427193 Y86.138755 Z-0.125000 I-1.599100 J3.662374
G03 X124.292938 Y85.879847 Z-0.125000 I0.924753 J-123.904063
G03 X123.686018 Y85.634158 Z-0.125000 I0.067780 J-1.039913
G01 X123.697413 Y85.584879 Z-0.125000
G03 X128.818460 Y84.326050 Z-0.125000 I76.183266 J298.875640
G02 X132.826581 Y83.279229 Z-0.125000 I-20.771482 J-87.727594
G02 X134.023521 Y82.527296 Z-0.125000 I-0.696980 J-2.438085
G02 X134.621371 Y81.253036 Z-0.125000 I-1.845964 J-1.643457
G02 X135.129539 Y77.237313 Z-0.125000 I-83.165301 J-12.564130
G02 X134.445357 Y73.211939 Z-0.125000 I-7.609795 J-0.777415
G02 X132.524741 Y71.683104 Z-0.125000 I-2.503311 J1.173998
G01 X130.280696 Y71.199327 Z-0.125000
G01 X132.790368 Y69.745454 Z-0.125000
G01 X135.300055 Y68.291580 Z-0.125000
G01 X135.213455 Y65.219075 Z-0.125000
G02 X134.480810 Y57.267068 Z-0.125000 I-62.717835 J1.768646
G02 X133.736978 Y55.804460 Z-0.125000 I-2.616814 J0.410375
G02 X133.215175 Y55.721919 Z-0.125000 I-0.317682 J0.317682
G02 X119.837841 Y62.893290 Z-0.125000 I168.494593 J330.369092
G03 X111.126627 Y67.304998 Z-0.125000 I-54.712498 J-97.227209
G03 X109.631111 Y67.512819 Z-0.125000 I-1.099907 J-2.430223
G03 X108.604958 Y67.212589 Z-0.125000 I0.585288 J-3.904202
G03 X108.460239 Y66.989353 Z-0.125000 I0.099815 J-0.223236
G03 X108.699882 Y66.353811 Z-0.125000 I0.962559 J0.000000
G03 X119.642925 Y54.269270 Z-0.125000 I416.492700 J366.154081
G02 X125.980008 Y47.382755 Z-0.125000 I-510.904451 J-476.501630
G02 X127.909665 Y45.164169 Z-0.125000 I-51.069037 J-46.366717
G01 X129.792316 Y42.904139 Z-0.125000
G01 X128.802706 Y40.881455 Z-0.125000
G01 X127.813111 Y38.858771 Z-0.125000
G01 X124.351272 Y39.081780 Z-0.125000
G02 X120.890665 Y39.322030 Z-0.125000 I22.453767 J348.473204
G02 X114.044364 Y39.848846 Z-0.125000 I101.191190 J1359.790030
G03 X95.962803 Y41.125938 Z-0.125000 I-81.603628 J-1026.734252
G03 X95.599826 Y40.988547 Z-0.125000 I-0.029119 J-0.471244
G03 X95.556723 Y40.807630 Z-0.125000 I0.125491 J-0.125491
G03 X96.028920 Y39.682603 Z-0.125000 I7.273119 J2.391069
G03 X97.096751 Y38.605358 Z-0.125000 I2.252251 J1.164696
G03 X106.298639 Y34.257107 Z-0.125000 I53.323713 J100.934333
G02 X119.472623 Y28.591225 Z-0.125000 I-297.381116 J-709.602169
G02 X120.106833 Y28.165348 Z-0.125000 I-0.881226 J-1.997477
G02 X120.129260 Y27.892129 Z-0.125000 I-0.144012 J-0.149351
G02 X117.853550 Y24.997774 Z-0.125000 I-55.716793 J41.465947
G02 X115.415608 Y22.207393 Z-0.125000 I-56.405176 J46.820733
G02 X115.002234 Y22.015805 Z-0.125000 I-0.437478 J0.402166
G03 X114.793109 Y21.937458 Z-0.125000 I0.014940 J-0.358153
G03 X113.202913 Y20.574745 Z-0.125000 I19.662816 J-24.554377
G02 X111.574357 Y19.314433 Z-0.125000 I-8.370994 J9.134515
G02 X110.996082 Y19.143311 Z-0.125000 I-0.578276 J0.891528
G02 X110.372820 Y19.245576 Z-0.125000 I-0.000000 J1.950378
G02 X108.280150 Y20.059240 Z-0.125000 I7.876350 J23.355170
G03 X106.230043 Y20.862808 Z-0.125000 I-10.401747 J-23.520553
G03 X106.056597 Y20.822685 Z-0.125000 I-0.054586 J-0.158982
G03 X106.020198 Y20.650881 Z-0.125000 I0.113886 J-0.113886
G03 X106.890203 Y18.659588 Z-0.125000 I23.016301 J8.870217
G02 X107.462205 Y16.707254 Z-0.125000 I-5.367941 J-2.632683
G02 X107.205394 Y15.907639 Z-0.125000 I-1.012258 J-0.115942
G02 X103.697615 Y12.951204 Z-0.125000 I-12.643435 J11.442117
G02 X99.565935 Y11.060540 Z-0.125000 I-8.961952 J14.124780
G02 X98.841340 Y11.153952 Z-0.125000 I-0.258030 J0.855498
G02 X94.882477 Y13.927847 Z-0.125000 I20.425137 J33.362432
G03 X90.659311 Y16.959643 Z-0.125000 I-32.180992 J-40.369538
G03 X90.488666 Y16.758200 Z-0.125000 I-0.072098 J-0.111924
G02 X94.989524 Y11.058248 Z-0.125000 I-38.956413 J-35.388171
G02 X95.490651 Y9.436325 Z-0.125000 I-2.374152 J-1.621923
G02 X94.550107 Y8.146721 Z-0.125000 I-1.354377 J-0.000000
G02 X78.738273 Y4.060531 Z-0.125000 I-43.322047 J135.002409
G02 X73.357944 Y3.584348 Z-0.125000 I-4.906891 J24.808436
G02 X71.502180 Y4.196012 Z-0.125000 I0.061958 J3.308971
G01 X71.502180 Y4.196317 Z-0.125000
G00 Z5.000000

(End cutting path id: path4758)


(Start cutting path id: path4758)
(Change tool to Default tool)

G00 Z5.000000
G00 X77.657472 Y5.149040

G01 Z0.000 F1000.0(Penetrate)
G03 X84.716928 Y6.610987 Z-0.125000 I-14.089750 J85.811965
G03 X91.527729 Y8.626726 Z-0.125000 I-20.531064 J81.884665
G03 X93.316753 Y9.442585 Z-0.125000 I-3.253802 J9.504394
G03 X93.509183 Y9.776764 Z-0.125000 I-0.193958 J0.334180
G03 X93.383257 Y10.208844 Z-0.125000 I-0.804240 J-0.000000
G03 X90.088780 Y15.146378 Z-0.125000 I-117.982694 J-75.153882
G03 X86.336617 Y19.732769 Z-0.125000 I-31.961814 J-22.320182
G03 X81.465440 Y24.187358 Z-0.125000 I-35.005451 J-33.388457
G02 X76.264556 Y28.332962 Z-0.125000 I4235.475769 J5318.968764
G02 X74.310638 Y29.896184 Z-0.125000 I595.103045 J745.840197
G03 X72.381023 Y31.205895 Z-0.125000 I-9.158906 J-11.417612
G03 X72.090763 Y31.157113 Z-0.125000 I-0.115157 J-0.202736
G03 X71.836619 Y30.694068 Z-0.125000 I0.911961 J-0.801800
G03 X69.176443 Y21.125092 Z-0.125000 I412.296165 J-119.772604
G02 X67.026798 Y13.171506 Z-0.125000 I-908.764444 J241.347894
G02 X66.497466 Y11.382637 Z-0.125000 I-46.492998 J12.784672
G03 X66.610327 Y10.732662 Z-0.125000 I0.682243 J-0.216321
G03 X69.438955 Y7.520494 Z-0.125000 I23.967492 J18.254190
G03 X73.024215 Y5.423125 Z-0.125000 I5.927265 J6.019097
G03 X77.657472 Y5.149040 Z-0.125000 I2.924239 J10.134257
G01 X77.657472 Y5.149040 Z-0.125000
G00 Z5.000000

(End cutting path id: path4758)


(Start cutting path id: path4758)
(Change tool to Default tool)

G00 Z5.000000
G00 X63.504050 Y6.444242

G01 Z0.000 F1000.0(Penetrate)
G03 X63.339884 Y9.445074 Z-0.125000 I-3.027143 J1.339301
G03 X57.183266 Y17.335550 Z-0.125000 I-31.750142 J-18.426229
G03 X50.053820 Y23.815742 Z-0.125000 I-99.562464 J-102.375706
G03 X49.587766 Y23.785133 Z-0.125000 I-0.217230 J-0.255826
G03 X49.187136 Y23.249925 Z-0.125000 I2.667263 J-2.414131
G03 X46.879491 Y19.363069 Z-0.125000 I140.237526 J-85.888145
G01 X44.622373 Y15.439443 Z-0.125000
G01 X45.618829 Y11.977607 Z-0.125000
G03 X46.716283 Y8.573221 Z-0.125000 I54.428899 J15.666863
G03 X47.005189 Y8.100740 Z-0.125000 I1.278488 J0.457186
G03 X49.772200 Y6.528456 Z-0.125000 I3.926126 J3.688534
G03 X62.096207 Y4.775772 Z-0.125000 I17.732470 J80.481469
G03 X62.593111 Y4.987136 Z-0.125000 I0.039222 J0.597569
G03 X63.504050 Y6.444242 Z-0.125000 I-4.634123 J3.910413
G01 X63.504050 Y6.444242 Z-0.125000
G00 Z5.000000

(End cutting path id: path4758)


(Start cutting path id: path4758)
(Change tool to Default tool)

G00 Z5.000000
G00 X42.103757 Y13.676178

G01 Z0.000 F1000.0(Penetrate)
G01 X43.152060 Y15.593158 Z-0.125000
G01 X41.586342 Y20.520716 Z-0.125000
G02 X40.050883 Y25.457451 Z-0.125000 I402.819191 J127.994917
G02 X38.880669 Y29.411210 Z-0.125000 I257.265084 J78.294076
G03 X37.666253 Y33.333194 Z-0.125000 I-97.727518 J-28.111669
G03 X37.460482 Y33.690029 Z-0.125000 I-0.971403 J-0.322418
G03 X36.566954 Y33.849323 Z-0.125000 I-0.547563 J-0.485766
G03 X34.294126 Y31.991825 Z-0.125000 I3.618627 J-6.746998
G03 X34.171985 Y31.466822 Z-0.125000 I0.463305 J-0.384497
G03 X35.871040 Y25.421316 Z-0.125000 I79.461203 J19.070611
G03 X40.561916 Y11.548454 Z-0.125000 I510.313342 J164.824414
G03 X40.792457 Y11.496212 Z-0.125000 I0.131740 J0.046560
G03 X41.019236 Y11.786334 Z-0.125000 I-1.070470 J1.070449
G03 X42.103757 Y13.676178 Z-0.125000 I-45.417756 J27.319892
G01 X42.103757 Y13.676178 Z-0.125000
G00 Z5.000000

(End cutting path id: path4758)


(Start cutting path id: path4758)
(Change tool to Default tool)

G00 Z5.000000
G00 X33.864759 Y15.811158

G01 Z0.000 F1000.0(Penetrate)
G02 X32.705785 Y17.888779 Z-0.125000 I196.534272 J110.996156
G02 X30.540082 Y21.845617 Z-0.125000 I711.140604 J391.800903
G03 X28.366995 Y25.797914 Z-0.125000 I-421.525668 J-229.193502
G03 X27.895328 Y26.602659 Z-0.125000 I-17.935346 J-9.971444
G01 X27.405312 Y27.396778 Z-0.125000
G01 X25.278941 Y25.929465 Z-0.125000
G01 X23.152569 Y24.462150 Z-0.125000
G01 X23.871361 Y22.732545 Z-0.125000
G03 X24.712716 Y21.087748 Z-0.125000 I10.814264 J4.494178
G03 X25.410340 Y20.232418 Z-0.125000 I3.559844 J2.191316
G03 X32.451087 Y14.529443 Z-0.125000 I42.308549 J45.035406
G03 X34.730100 Y13.754337 Z-0.125000 I2.489345 J3.581321
G03 X34.814693 Y13.875212 Z-0.125000 I0.004239 J0.087071
G03 X33.864759 Y15.811158 Z-0.125000 I-17.161176 J-7.219646
G01 X33.864759 Y15.811158 Z-0.125000
G00 Z5.000000

(End cutting path id: path4758)


(Start cutting path id: path4758)
(Change tool to Default tool)

G00 Z5.000000
G00 X24.703858 Y26.940357

G01 Z0.000 F1000.0(Penetrate)
G03 X26.308779 Y28.572878 Z-0.125000 I-3.069022 J4.622293
G03 X26.345130 Y29.506169 Z-0.125000 I-0.777991 J0.497656
G03 X23.258284 Y33.931359 Z-0.125000 I-20.227175 J-10.820491
G03 X21.345538 Y35.127074 Z-0.125000 I-2.995946 J-2.664782
G03 X18.991279 Y35.381192 Z-0.125000 I-1.935377 J-6.897662
G03 X18.764334 Y34.975893 Z-0.125000 I0.016119 J-0.275214
G02 X19.111016 Y34.215390 Z-0.125000 I-5.790183 J-3.098784
G02 X19.622269 Y32.724222 Z-0.125000 I-21.830454 J-8.317887
G03 X22.050010 Y25.979135 Z-0.125000 I70.067233 J21.409655
G03 X22.575880 Y25.628419 Z-0.125000 I0.525870 J0.218892
G03 X22.715955 Y25.668129 Z-0.125000 I-0.000000 J0.266912
G03 X24.703858 Y26.940357 Z-0.125000 I-36.818281 J59.719072
G01 X24.703858 Y26.940357 Z-0.125000
G00 Z5.000000

(End cutting path id: path4758)


(Start cutting path id: path4758)
(Change tool to Default tool)

G00 Z5.000000
G00 X21.275786 Y24.841708

G01 Z0.000 F1000.0(Penetrate)
G03 X21.025650 Y26.188963 Z-0.125000 I-3.753286 J-0.000000
G03 X17.148204 Y35.574263 Z-0.125000 I-192.378720 J-73.985787
G03 X16.459099 Y36.517261 Z-0.125000 I-2.507304 J-1.108954
G03 X14.551207 Y37.875416 Z-0.125000 I-7.310327 J-8.250163
G02 X12.496398 Y39.125376 Z-0.125000 I17.183393 J30.561708
G02 X11.368463 Y39.964343 Z-0.125000 I6.572352 J10.013781
G01 X10.287665 Y40.871425 Z-0.125000
G01 X10.174444 Y39.530892 Z-0.125000
G03 X10.374300 Y38.272290 Z-0.125000 I2.652168 J-0.224027
G03 X11.855866 Y35.545313 Z-0.125000 I14.543893 J6.135736
G03 X15.952360 Y29.936493 Z-0.125000 I82.898962 J56.246245
G03 X19.427923 Y25.898624 Z-0.125000 I46.365928 J36.394387
G03 X20.984279 Y24.672614 Z-0.125000 I4.899072 J4.618258
G03 X21.275793 Y24.841708 Z-0.125000 I0.096715 J0.169093
G01 X21.275786 Y24.841708 Z-0.125000
G00 Z5.000000

(End cutting path id: path4758)


(Start cutting path id: path4758)
(Change tool to Default tool)

G00 Z5.000000
G00 X30.054042 Y30.554549

G01 Z0.000 F1000.0(Penetrate)
G03 X31.894725 Y31.889442 Z-0.125000 I-103.965694 J145.294721
G03 X32.207220 Y32.137070 Z-0.125000 I-3.253920 J4.427274
G03 X32.243555 Y32.865017 Z-0.125000 I-0.325214 J0.381113
G03 X28.024404 Y36.497356 Z-0.125000 I-21.095003 J-20.236394
G02 X20.999075 Y41.807701 Z-0.125000 I79.879993 J112.979618
G02 X16.331975 Y45.934901 Z-0.125000 I43.496077 J53.888426
G03 X14.091784 Y47.905921 Z-0.125000 I-21.845444 J-22.570188
G03 X13.879531 Y47.894090 Z-0.125000 I-0.099513 J-0.124568
G03 X13.743444 Y47.291880 Z-0.125000 I0.408874 J-0.408878
G03 X16.969612 Y39.183837 Z-0.125000 I108.866229 J38.621712
G03 X18.447138 Y37.481135 Z-0.125000 I3.508205 J1.551841
G03 X22.008356 Y36.039902 Z-0.125000 I5.897295 J9.451517
G02 X23.753602 Y35.109509 Z-0.125000 I-0.754205 J-3.516826
G02 X26.164911 Y32.023143 Z-0.125000 I-9.802402 J-10.143533
G03 X27.828881 Y29.318925 Z-0.125000 I49.688252 J28.710316
G03 X27.991316 Y29.231079 Z-0.125000 I0.162436 J0.106255
G03 X28.186118 Y29.288200 Z-0.125000 I-0.000000 J0.360733
G03 X30.054042 Y30.554549 Z-0.125000 I-24.075718 J37.523614
G01 X30.054042 Y30.554549 Z-0.125000
G00 Z5.000000

(End cutting path id: path4758)


(Start cutting path id: path4758)
(Change tool to Default tool)

G00 Z5.000000
G00 X52.957860 Y32.175808

G01 Z0.000 F1000.0(Penetrate)
G03 X56.110123 Y37.629140 Z-0.125000 I-201.420684 J120.067669
G03 X56.090936 Y37.767982 Z-0.125000 I-0.101291 J0.056749
G03 X55.945882 Y37.802324 Z-0.125000 I-0.100369 J-0.100430
G03 X52.622944 Y36.618065 Z-0.125000 I25.003455 J-75.411844
G02 X46.404691 Y34.697354 Z-0.125000 I-17.869431 J46.825756
G02 X42.819224 Y34.274813 Z-0.125000 I-3.585467 J15.000959
G03 X42.757720 Y34.148732 Z-0.125000 I0.000000 J-0.078042
G03 X45.773899 Y30.492008 Z-0.125000 I70.220250 J54.847544
G03 X49.118555 Y26.822457 Z-0.125000 I82.109517 J71.480636
G03 X49.383104 Y26.709220 Z-0.125000 I0.264549 J0.252408
G03 X49.624903 Y26.840010 Z-0.125000 I-0.000000 J0.288909
G03 X52.957860 Y32.175808 Z-0.125000 I-126.629764 J82.806971
G01 X52.957860 Y32.175808 Z-0.125000
G00 Z5.000000

(End cutting path id: path4758)


(Start cutting path id: path4758)
(Change tool to Default tool)

G00 Z5.000000
G00 X71.494396 Y34.844671

G01 Z0.000 F1000.0(Penetrate)
G03 X71.674120 Y35.421761 Z-0.125000 I-4.378081 J1.679999
G03 X71.713073 Y35.748360 Z-0.125000 I-1.349682 J0.326599
G03 X71.570216 Y35.988564 Z-0.125000 I-0.273371 J0.000000
G03 X68.616937 Y37.507010 Z-0.125000 I-34.749854 J-63.955036
G03 X65.600472 Y38.887193 Z-0.125000 I-31.533474 J-64.931721
G03 X65.349134 Y38.838951 Z-0.125000 I-0.090089 J-0.209489
G03 X65.354560 Y38.702740 Z-0.125000 I0.065600 J-0.065600
G03 X68.013735 Y36.505923 Z-0.125000 I73.095445 J85.771786
G03 X70.748778 Y34.380859 Z-0.125000 I74.025326 J92.451013
G03 X71.044063 Y34.279033 Z-0.125000 I0.304503 J0.403964
G03 X71.217772 Y34.360486 Z-0.125000 I0.004779 J0.215762
G03 X71.494396 Y34.844671 Z-0.125000 I-1.435228 J1.141087
G01 X71.494396 Y34.844671 Z-0.125000
G00 Z5.000000

(End cutting path id: path4758)


(Start cutting path id: path4758)
(Change tool to Default tool)

G00 Z5.000000
G00 X74.123426 Y37.422861

G01 Z0.000 F1000.0(Penetrate)
G03 X73.688284 Y37.612108 Z-0.125000 I-0.457849 J-0.457859
G03 X73.514408 Y37.444225 Z-0.125000 I-0.005891 J-0.167882
G03 X73.650855 Y36.952815 Z-0.125000 I0.953121 J0.000000
G03 X73.964741 Y36.695814 Z-0.125000 I0.516737 J0.310932
G03 X74.284591 Y36.873229 Z-0.125000 I0.081912 J0.229352
G03 X74.123426 Y37.422793 Z-0.125000 I-0.583364 J0.127337
G01 X74.123426 Y37.422861 Z-0.125000
G00 Z5.000000

(End cutting path id: path4758)


(Start cutting path id: path4758)
(Change tool to Default tool)

G00 Z5.000000
G00 X69.911742 Y44.701271

G01 Z0.000 F1000.0(Penetrate)
G03 X69.463605 Y45.236098 Z-0.125000 I-0.543212 J0.000000
G03 X68.539039 Y44.945291 Z-0.125000 I-0.183443 J-1.031926
G03 X68.505132 Y44.589722 Z-0.125000 I0.198305 J-0.198312
G03 X68.933876 Y44.362265 Z-0.125000 I0.428744 J0.290352
G03 X69.770791 Y44.503224 Z-0.125000 I-0.000000 J2.554999
G03 X69.911742 Y44.701271 Z-0.125000 I-0.068660 J0.198047
G01 X69.911742 Y44.701271 Z-0.125000
G00 Z5.000000

(End cutting path id: path4758)


(Start cutting path id: path4758)
(Change tool to Default tool)

G00 Z5.000000
G00 X75.833628 Y50.509359

G01 Z0.000 F1000.0(Penetrate)
G03 X76.370460 Y52.691731 Z-0.125000 I-33.442343 J9.383551
G03 X76.327113 Y52.837907 Z-0.125000 I-0.156381 J0.033142
G03 X76.206241 Y52.838236 Z-0.125000 I-0.060602 J-0.060602
G03 X74.489598 Y51.020190 Z-0.125000 I25.764598 J-26.047010
G01 X72.776919 Y49.077626 Z-0.125000
G01 X73.774738 Y48.554812 Z-0.125000
G03 X74.768684 Y48.140877 Z-0.125000 I2.842669 J5.425548
G03 X74.993921 Y48.168828 Z-0.125000 I0.082151 J0.259487
G03 X75.146612 Y48.357392 Z-0.125000 I-0.193470 J0.312767
G03 X75.833628 Y50.509359 Z-0.125000 I-29.978695 J10.756354
G01 X75.833628 Y50.509359 Z-0.125000
G00 Z5.000000

(End cutting path id: path4758)


(Start cutting path id: path4758)
(Change tool to Default tool)

G00 Z5.000000
G00 X80.881855 Y43.927440

G01 Z0.000 F1000.0(Penetrate)
G03 X76.986089 Y46.350500 Z-0.125000 I-10.596794 J-12.694081
G03 X75.895556 Y46.137771 Z-0.125000 I-0.393048 J-0.886694
G03 X75.795582 Y45.959617 Z-0.125000 I0.289114 J-0.279370
G03 X75.621160 Y45.082801 Z-0.125000 I7.445560 J-1.936875
G03 X75.840976 Y44.433163 Z-0.125000 I0.758117 J-0.105487
G03 X76.756805 Y43.959356 Z-0.125000 I1.216871 J1.230097
G03 X80.759083 Y43.592924 Z-0.125000 I4.188515 J23.707885
G03 X80.881855 Y43.927494 Z-0.125000 I0.001464 J0.189274
G01 X80.881855 Y43.927440 Z-0.125000
G00 Z5.000000

(End cutting path id: path4758)


(Start cutting path id: path4758)
(Change tool to Default tool)

G00 Z5.000000
G00 X94.044073 Y39.949010

G01 Z0.000 F1000.0(Penetrate)
G03 X93.642581 Y40.723687 Z-0.125000 I-0.987173 J-0.020244
G03 X92.129040 Y41.359912 Z-0.125000 I-2.073474 J-2.814245
G03 X91.718375 Y40.999605 Z-0.125000 I-0.056722 J-0.349535
G03 X92.159949 Y40.343872 Z-0.125000 I0.741159 J0.022555
G03 X93.860466 Y39.796824 Z-0.125000 I3.454455 J7.821698
G03 X94.043992 Y39.949010 Z-0.125000 I0.031244 J0.149075
G01 X94.044073 Y39.949010 Z-0.125000
G00 Z5.000000

(End cutting path id: path4758)


(Start cutting path id: path4758)
(Change tool to Default tool)

G00 Z5.000000
G00 X98.689093 Y31.002091

G01 Z0.000 F1000.0(Penetrate)
G01 X95.324979 Y37.498895 Z-0.125000
G01 X90.549598 Y39.674763 Z-0.125000
G01 X85.774214 Y41.850646 Z-0.125000
G01 X80.454915 Y42.163591 Z-0.125000
G03 X75.155938 Y42.392290 Z-0.125000 I-9.963377 J-169.348980
G03 X74.865411 Y42.317345 Z-0.125000 I-0.014928 J-0.542724
G03 X74.461311 Y41.402945 Z-0.125000 I0.435322 J-0.738873
G03 X75.736177 Y38.153080 Z-0.125000 I10.235833 J2.140354
G03 X78.223520 Y35.622225 Z-0.125000 I6.524530 J3.924640
G03 X88.285332 Y30.304988 Z-0.125000 I41.523727 J66.396773
G02 X93.865529 Y27.846315 Z-0.125000 I-772.294480 J-1760.359333
G02 X97.832379 Y26.080401 Z-0.125000 I-394.461531 J-891.434321
G03 X101.785647 Y24.386610 Z-0.125000 I54.026752 J120.636832
G03 X101.924260 Y24.405465 Z-0.125000 I0.052982 J0.129435
G03 X101.952596 Y24.527463 Z-0.125000 I-0.060621 J0.078370
G03 X98.689093 Y31.002091 Z-0.125000 I-298.085347 J-146.188620
G01 X98.689093 Y31.002091 Z-0.125000
G00 Z5.000000

(End cutting path id: path4758)


(Start cutting path id: path4758)
(Change tool to Default tool)

G00 Z5.000000
G00 X81.416517 Y27.679331

G01 Z0.000 F1000.0(Penetrate)
G03 X76.436258 Y33.840757 Z-0.125000 I-53.786174 J-38.381696
G03 X74.788613 Y34.941538 Z-0.125000 I-3.053190 J-2.786519
G03 X73.414115 Y34.863014 Z-0.125000 I-0.595413 J-1.646770
G03 X72.608742 Y33.858600 Z-0.125000 I0.681276 J-1.371365
G03 X72.822144 Y33.060686 Z-0.125000 I0.831245 J-0.205179
G03 X76.636245 Y29.660497 Z-0.125000 I23.645294 J22.684394
G02 X80.876566 Y26.390131 Z-0.125000 I-234.124904 J-307.947898
G02 X82.160799 Y25.338323 Z-0.125000 I-22.892915 J-29.261638
G03 X83.418519 Y24.371190 Z-0.125000 I9.734823 J11.358395
G03 X83.551221 Y24.382018 Z-0.125000 I0.059709 J0.086815
G03 X83.566895 Y24.516922 Z-0.125000 I-0.073855 J0.076944
G03 X81.416517 Y27.679331 Z-0.125000 I-70.934439 J-45.921771
G01 X81.416517 Y27.679331 Z-0.125000
G00 Z5.000000

(End cutting path id: path4758)


(Start cutting path id: path4758)
(Change tool to Default tool)

G00 Z5.000000
G00 X101.594853 Y13.397602

G01 Z0.000 F1000.0(Penetrate)
G03 X103.602329 Y14.578167 Z-0.125000 I-13.069538 J24.520997
G03 X104.963133 Y15.573375 Z-0.125000 I-7.901328 J12.231892
G01 X106.269418 Y16.650129 Z-0.125000
G01 X104.969138 Y19.067743 Z-0.125000
G03 X103.594809 Y21.430149 Z-0.125000 I-35.994231 J-19.358690
G03 X103.092352 Y22.059039 Z-0.125000 I-3.003172 J-1.884239
G03 X102.002599 Y22.810279 Z-0.125000 I-2.616099 J-2.628907
G03 X87.204534 Y29.233379 Z-0.125000 I-226.737020 J-502.117316
G02 X82.719823 Y31.150470 Z-0.125000 I103.156939 J247.522390
G02 X81.350203 Y31.799152 Z-0.125000 I10.394607 J23.717312
G03 X80.072935 Y32.367751 Z-0.125000 I-6.022453 J-11.809600
G03 X79.999203 Y32.317052 Z-0.125000 I-0.019435 J-0.050699
G03 X80.046343 Y32.160534 Z-0.125000 I0.283408 J-0.000000
G03 X83.835150 Y26.526622 Z-0.125000 I407.406787 J269.890216
G03 X88.025465 Y21.247556 Z-0.125000 I38.717138 J26.429553
G03 X91.851077 Y17.798248 Z-0.125000 I20.166510 J18.520447
G02 X96.004882 Y14.656218 Z-0.125000 I-192.205246 J-258.414527
G02 X97.446900 Y13.493896 Z-0.125000 I-24.846058 J-32.300600
G03 X98.896735 Y12.391539 Z-0.125000 I11.510487 J13.634145
G03 X99.197801 Y12.298570 Z-0.125000 I0.301066 J0.440991
G03 X99.515529 Y12.367935 Z-0.125000 I0.000000 J0.762354
G03 X101.594853 Y13.397602 Z-0.125000 I-16.171781 J35.271866
G01 X101.594853 Y13.397602 Z-0.125000
G00 Z5.000000

(End cutting path id: path4758)


(Start cutting path id: path4758)
(Change tool to Default tool)

G00 Z5.000000
G00 X118.187428 Y27.400385

G01 Z0.000 F1000.0(Penetrate)
G03 X118.068263 Y27.597844 Z-0.125000 I-0.223179 J-0.000000
G03 X115.215236 Y28.966010 Z-0.125000 I-19.575164 J-37.161177
G03 X106.652510 Y32.674444 Z-0.125000 I-2397.341824 J-5523.692263
G03 X99.487979 Y35.762864 Z-0.125000 I-1669.619566 J-3863.336180
G03 X97.915000 Y36.375593 Z-0.125000 I-9.628793 J-22.393345
G03 X97.809231 Y36.350707 Z-0.125000 I-0.033382 J-0.095333
G03 X97.793042 Y36.245403 Z-0.125000 I0.065724 J-0.064001
G03 X101.153833 Y29.718042 Z-0.125000 I388.129713 J195.710330
G03 X104.792936 Y23.390387 Z-0.125000 I85.047668 J44.701572
G03 X105.534571 Y22.729319 Z-0.125000 I1.508032 J0.945278
G03 X106.487879 Y22.299481 Z-0.125000 I10.442511 J21.887641
G03 X109.000643 Y21.255606 Z-0.125000 I64.163129 J150.904078
G01 X111.522505 Y20.232364 Z-0.125000
G01 X114.854974 Y23.678557 Z-0.125000
G03 X118.096167 Y27.161649 Z-0.125000 I-89.161555 J86.218923
G03 X118.187428 Y27.400385 Z-0.125000 I-0.266630 J0.238736
G01 X118.187428 Y27.400385 Z-0.125000
G00 Z5.000000

(End cutting path id: path4758)


(Start cutting path id: path4758)
(Change tool to Default tool)

G00 Z5.000000
G00 X127.728524 Y41.468610

G01 Z0.000 F1000.0(Penetrate)
G03 X127.757582 Y42.472776 Z-0.125000 I-1.029335 J0.532290
G03 X126.206651 Y44.882082 Z-0.125000 I-8.610361 J-3.838864
G03 X124.110434 Y47.206815 Z-0.125000 I-126.903653 J-112.321877
G03 X119.808634 Y51.847126 Z-0.125000 I-509.828866 J-468.322666
G02 X115.513783 Y56.493842 Z-0.125000 I380.798292 J356.271146
G02 X111.342374 Y61.119204 Z-0.125000 I373.315844 J340.870705
G03 X107.185994 Y65.758029 Z-0.125000 I-794.971085 J-708.111332
G03 X106.576346 Y66.407256 Z-0.125000 I-16.180789 J-14.583518
G03 X105.771868 Y66.705974 Z-0.125000 I-0.718821 J-0.703225
G03 X99.453585 Y65.798319 Z-0.125000 I4.739255 J-55.435370
G02 X95.301995 Y65.004665 Z-0.125000 I-37.540411 J185.117907
G02 X89.278590 Y63.970922 Z-0.125000 I-69.828317 J388.809515
G03 X83.686375 Y62.819233 Z-0.125000 I11.282828 J-68.938436
G03 X83.600471 Y62.557406 Z-0.125000 I0.039309 J-0.157903
G02 X84.558314 Y61.133650 Z-0.125000 I-6.580362 J-5.461067
G02 X91.161055 Y48.440746 Z-0.125000 I-524.015464 J-280.652184
G03 X93.619552 Y43.732546 Z-0.125000 I174.427377 J88.085350
G03 X94.028430 Y43.126823 Z-0.125000 I3.255272 J1.756528
G03 X94.598509 Y42.774793 Z-0.125000 I0.807659 J0.670317
G03 X96.463497 Y42.560942 Z-0.125000 I1.864988 J8.025338
G02 X98.426692 Y42.506027 Z-0.125000 I-0.000000 J-35.118910
G02 X102.814115 Y42.205390 Z-0.125000 I-9.845715 J-175.851082
G02 X113.455596 Y41.322391 Z-0.125000 I-228.542689 J-2818.850764
G02 X119.448358 Y40.793498 Z-0.125000 I-75.894966 J-894.162658
G03 X122.693377 Y40.542635 Z-0.125000 I10.440609 J113.940597
G03 X124.933180 Y40.447874 Z-0.125000 I3.414279 J54.183406
G03 X126.948363 Y40.781807 Z-0.125000 I0.119755 J5.524795
G03 X127.728524 Y41.468610 Z-0.125000 I-0.490740 J1.343951
G01 X127.728524 Y41.468610 Z-0.125000
G00 Z5.000000

(End cutting path id: path4758)


(Start cutting path id: path4758)
(Change tool to Default tool)

G00 Z5.000000
G00 X133.093495 Y57.962317

G01 Z0.000 F1000.0(Penetrate)
G03 X133.241563 Y58.600733 Z-0.125000 I-5.660757 J1.649286
G03 X133.903983 Y62.619797 Z-0.125000 I-224.271870 J39.028491
G03 X134.276010 Y66.576516 Z-0.125000 I-32.386628 J5.040973
G03 X134.056200 Y67.218628 Z-0.125000 I-0.955401 J0.031622
G03 X133.509057 Y67.702444 Z-0.125000 I-1.831589 J-1.520038
G03 X130.720912 Y69.356534 Z-0.125000 I-25.311051 J-39.487567
G01 X127.860208 Y70.922591 Z-0.125000
G01 X125.559846 Y70.440395 Z-0.125000
G02 X123.253477 Y69.990084 Z-0.125000 I-17.453376 J83.260081
G02 X118.651924 Y69.190413 Z-0.125000 I-59.880730 J330.932652
G03 X114.086256 Y68.336955 Z-0.125000 I19.400905 J-116.426308
G03 X113.781431 Y68.180418 Z-0.125000 I0.130459 J-0.629104
G03 X113.796268 Y67.971646 Z-0.125000 I0.090680 J-0.098469
G03 X116.663567 Y66.198747 Z-0.125000 I19.669596 J28.606430
G02 X119.805543 Y64.453752 Z-0.125000 I-492.957564 J-891.303217
G02 X126.113298 Y60.928724 Z-0.125000 I-2010.077591 J-3604.278439
G03 X132.432195 Y57.440789 Z-0.125000 I288.163888 J514.582649
G03 X132.663871 Y57.365008 Z-0.125000 I0.321588 J0.591124
G03 X132.839109 Y57.440442 Z-0.125000 I0.024801 J0.183649
G03 X133.093495 Y57.962317 Z-0.125000 I-1.392596 J1.001751
G01 X133.093495 Y57.962317 Z-0.125000
G00 Z5.000000

(End cutting path id: path4758)


(Start cutting path id: path4758)
(Change tool to Default tool)

G00 Z5.000000
G00 X131.787480 Y73.216840

G01 Z0.000 F1000.0(Penetrate)
G01 X134.039151 Y73.637586 Z-0.125000
G01 X134.010150 Y76.202650 Z-0.125000
G03 X133.858404 Y78.751124 Z-0.125000 I-26.507693 J-0.299608
G03 X133.559816 Y80.370048 Z-0.125000 I-10.959171 J-1.184272
G01 X133.138484 Y81.972396 Z-0.125000
G01 X129.355693 Y82.920829 Z-0.125000
G02 X125.577118 Y83.885437 Z-0.125000 I110.539786 J440.890654
G02 X122.510624 Y84.699577 Z-0.125000 I75.662040 J291.166721
G03 X118.791069 Y85.212807 Z-0.125000 I-3.858946 J-14.232028
G03 X108.323733 Y84.833697 Z-0.125000 I-1.084700 J-114.743643
G03 X106.533582 Y84.396004 Z-0.125000 I0.479051 J-5.838982
G03 X106.522411 Y84.076927 Z-0.125000 I0.068110 J-0.162119
G02 X107.550246 Y83.535438 Z-0.125000 I-15.269474 J-30.230253
G02 X114.224509 Y79.848950 Z-0.125000 I-702.076718 J-1278.971292
G03 X127.605472 Y72.786433 Z-0.125000 I170.070824 J306.016490
G03 X128.635157 Y72.636702 Z-0.125000 I0.741037 J1.480651
G03 X129.535262 Y72.799203 Z-0.125000 I-23.399029 J132.182557
G03 X131.787480 Y73.216894 Z-0.125000 I-153.016962 J831.359216
G01 X131.787480 Y73.216840 Z-0.125000
G00 Z5.000000

(End cutting path id: path4758)


(Start cutting path id: path4758)
(Change tool to Default tool)

G00 Z5.000000
G00 X118.148118 Y70.668811

G01 Z0.000 F1000.0(Penetrate)
G03 X123.644111 Y71.713361 Z-0.125000 I-62.771040 J345.256641
G03 X124.663008 Y72.043098 Z-0.125000 I-0.890871 J4.491898
G03 X124.737064 Y72.480645 Z-0.125000 I-0.111952 J0.243989
G03 X123.711533 Y73.221525 Z-0.125000 I-3.143701 J-3.271318
G03 X121.969508 Y74.139464 Z-0.125000 I-588.387820 J-1114.507002
G03 X118.007297 Y76.221604 Z-0.125000 I-3023.312285 J-5748.396553
G02 X114.055478 Y78.322357 Z-0.125000 I203.588940 J387.747407
G02 X112.963566 Y78.935947 Z-0.125000 I16.259081 J30.212188
G03 X111.870431 Y79.547200 Z-0.125000 I-15.566720 J-26.555637
G03 X106.885233 Y82.174258 Z-0.125000 I-292.837521 J-549.655448
G01 X101.887687 Y84.778985 Z-0.125000
G01 X98.806901 Y84.419897 Z-0.125000
G03 X95.882627 Y83.787626 Z-0.125000 I1.790042 J-15.357573
G03 X95.102379 Y83.233898 Z-0.125000 I0.482127 J-1.505938
G03 X95.007771 Y82.419247 Z-0.125000 I0.646874 J-0.487942
G03 X96.585978 Y79.866815 Z-0.125000 I9.927670 J4.374296
G03 X101.661190 Y74.777972 Z-0.125000 I30.259034 J25.102751
G03 X106.478771 Y71.614888 Z-0.125000 I16.193802 J19.413918
G03 X110.480463 Y69.773625 Z-0.125000 I27.916150 J55.402171
G03 X111.303049 Y69.599477 Z-0.125000 I0.871234 J2.085452
G03 X112.158381 Y69.657154 Z-0.125000 I0.098786 J4.906032
G03 X118.148118 Y70.668811 Z-0.125000 I-37.384992 J239.583509
G01 X118.148118 Y70.668811 Z-0.125000
G00 Z5.000000

(End cutting path id: path4758)


(Start cutting path id: path4758)
(Change tool to Default tool)

G00 Z5.000000
G00 X108.460239 Y69.075207

G01 Z0.000 F1000.0(Penetrate)
G03 X107.303814 Y70.871979 Z-0.125000 I-1.974061 J0.000000
G03 X105.306592 Y70.510290 Z-0.125000 I-0.737761 J-1.621243
G03 X105.410545 Y69.188764 Z-0.125000 I0.616367 J-0.616367
G03 X107.725798 Y68.752361 Z-0.125000 I1.618609 J2.227453
G03 X108.403473 Y68.988251 Z-0.125000 I-1.148726 J4.391484
G03 X108.460239 Y69.075207 Z-0.125000 I-0.038217 J0.086955
G01 X108.460239 Y69.075207 Z-0.125000
G00 Z5.000000

(End cutting path id: path4758)


(Start cutting path id: path4758)
(Change tool to Default tool)

G00 Z5.000000
G00 X95.637828 Y78.725900

G01 Z0.000 F1000.0(Penetrate)
G03 X93.817087 Y80.568286 Z-0.125000 I-22.955164 J-20.864605
G03 X93.505780 Y80.710309 Z-0.125000 I-0.368842 J-0.396286
G03 X92.121377 Y80.036123 Z-0.125000 I-0.154120 J-1.442012
G03 X92.469369 Y79.049711 Z-0.125000 I0.567709 J-0.354310
G02 X92.777890 Y78.914848 Z-0.125000 I-0.711114 J-2.047115
G02 X94.950258 Y77.726935 Z-0.125000 I-55.252756 J-103.622501
G03 X97.099699 Y76.623983 Z-0.125000 I16.035624 J28.604447
G03 X97.259019 Y76.647757 Z-0.125000 I0.061729 J0.132059
G03 X97.271190 Y76.787127 Z-0.125000 I-0.068778 J0.076223
G03 X95.637828 Y78.725900 Z-0.125000 I-26.568650 J-20.725928
G01 X95.637828 Y78.725900 Z-0.125000
G00 Z5.000000

(End cutting path id: path4758)


(Start cutting path id: path4758)
(Change tool to Default tool)

G00 Z5.000000
G00 X93.689326 Y83.631303

G01 Z0.000 F1000.0(Penetrate)
G03 X93.580801 Y83.883040 Z-0.125000 I-0.346229 J-0.000000
G03 X93.307795 Y83.991566 Z-0.125000 I-0.273006 J-0.289122
G03 X93.131918 Y83.876908 Z-0.125000 I-0.000000 J-0.192221
G03 X93.148921 Y83.631303 Z-0.125000 I0.241830 J-0.106649
G03 X93.400387 Y83.322727 Z-0.125000 I1.302402 J0.804603
G03 X93.530452 Y83.271030 Z-0.125000 I0.130065 J0.137768
G03 X93.626650 Y83.333753 Z-0.125000 I-0.000000 J0.105131
G03 X93.689326 Y83.631303 Z-0.125000 I-0.674962 J0.297551
G01 X93.689326 Y83.631303 Z-0.125000
G00 Z5.000000

(End cutting path id: path4758)


(Start cutting path id: path4758)
(Change tool to Default tool)

G00 Z5.000000
G00 X89.366130 Y85.792903

G01 Z0.000 F1000.0(Penetrate)
G03 X88.917071 Y86.407516 Z-0.125000 I-2.411568 J-1.290625
G03 X88.666645 Y86.513424 Z-0.125000 I-0.250426 J-0.243118
G03 X88.516413 Y86.387083 Z-0.125000 I0.000000 J-0.152491
G03 X88.541237 Y85.792903 Z-0.125000 I1.378836 J-0.240003
G03 X88.855458 Y85.235295 Z-0.125000 I1.216152 J0.317984
G03 X89.240710 Y85.072364 Z-0.125000 I0.385252 J0.374002
G03 X89.453299 Y85.251147 Z-0.125000 I0.000000 J0.215784
G03 X89.366119 Y85.792903 Z-0.125000 I-0.829602 J0.144392
G01 X89.366130 Y85.792903 Z-0.125000
G00 Z5.000000

(End cutting path id: path4758)


(Start cutting path id: path4758)
(Change tool to Default tool)

G00 Z5.000000
G00 X88.941750 Y77.018216

G01 Z0.000 F1000.0(Penetrate)
G03 X90.028854 Y78.530737 Z-0.125000 I-23.810227 J18.260217
G03 X90.086655 Y78.720222 Z-0.125000 I-0.281690 J0.189485
G03 X90.004835 Y78.879604 Z-0.125000 I-0.196146 J0.000000
G03 X89.042483 Y79.469299 Z-0.125000 I-4.541149 J-6.330824
G03 X88.282428 Y79.248902 Z-0.125000 I-0.263964 J-0.510453
G03 X87.368420 Y76.606104 Z-0.125000 I6.194469 J-3.621801
G03 X87.248800 Y75.298973 Z-0.125000 I14.260669 J-1.964084
G03 X87.376429 Y75.195737 Z-0.125000 I0.101806 J-0.004651
G03 X87.615583 Y75.348789 Z-0.125000 I-0.116788 J0.445862
G03 X88.941750 Y77.018216 Z-0.125000 I-48.196221 J39.647771
G01 X88.941750 Y77.018216 Z-0.125000
G00 Z5.000000

(End cutting path id: path4758)


(Start cutting path id: path4758)
(Change tool to Default tool)

G00 Z5.000000
G00 X98.444844 Y86.585484

G01 Z0.000 F1000.0(Penetrate)
G03 X98.012517 Y86.764555 Z-0.125000 I-0.432327 J-0.432345
G03 X97.580202 Y86.585484 Z-0.125000 I-0.000000 J-0.611385
G03 X97.580200 Y86.332239 Z-0.125000 I0.126619 J-0.126624
G03 X98.012524 Y86.153165 Z-0.125000 I0.432324 J0.432326
G03 X98.444859 Y86.332254 Z-0.125000 I-0.000000 J0.611389
G03 X98.444844 Y86.585484 Z-0.125000 I-0.126618 J0.126608
G01 X98.444844 Y86.585484 Z-0.125000
G00 Z5.000000

(End cutting path id: path4758)


(Start cutting path id: path4758)
(Change tool to Default tool)

G00 Z5.000000
G00 X98.294287 Y89.764035

G01 Z0.000 F1000.0(Penetrate)
G03 X98.472233 Y90.388880 Z-0.125000 I-0.994217 J0.620899
G03 X98.291464 Y90.631927 Z-0.125000 I-0.254930 J-0.000858
G03 X92.618308 Y92.148879 Z-0.125000 I-25.503258 J-84.011253
G03 X91.271153 Y92.259627 Z-0.125000 I-1.050662 J-4.531559
G03 X91.249547 Y92.164101 Z-0.125000 I0.003263 J-0.050944
G03 X94.057079 Y90.656212 Z-0.125000 I48.677249 J87.264364
G03 X97.047129 Y89.162775 Z-0.125000 I55.974922 J108.328986
G03 X97.476116 Y89.053410 Z-0.125000 I0.484395 J1.004011
G03 X97.776175 Y89.157312 Z-0.125000 I0.020339 J0.426485
G03 X98.294882 Y89.764035 Z-0.125000 I-1.760257 J2.029994
G01 X98.294287 Y89.764035 Z-0.125000
G00 Z5.000000

(End cutting path id: path4758)


(Start cutting path id: path4758)
(Change tool to Default tool)

G00 Z5.000000
G00 X111.882764 Y86.483633

G01 Z0.000 F1000.0(Penetrate)
G03 X113.261158 Y86.685422 Z-0.125000 I-2.765568 J23.699909
G03 X113.282485 Y86.887950 Z-0.125000 I-0.018398 J0.104324
G03 X112.401967 Y87.177069 Z-0.125000 I-2.590517 J-6.404099
G03 X106.367360 Y88.714634 Z-0.125000 I-1187.690332 J-4648.815484
G03 X100.847368 Y90.079412 Z-0.125000 I-108.430566 J-426.713655
G03 X100.537569 Y90.116127 Z-0.125000 I-0.309799 J-1.288675
G03 X100.278151 Y90.009500 Z-0.125000 I-0.000000 J-0.368890
G03 X99.474294 Y89.064411 Z-0.125000 I5.077204 J-5.132889
G01 X98.725420 Y88.012710 Z-0.125000
G01 X100.260368 Y87.118986 Z-0.125000
G03 X101.879844 Y86.538936 Z-0.125000 I2.373966 J4.077237
G03 X105.758246 Y86.228326 Z-0.125000 I3.859719 J23.825103
G03 X109.716440 Y86.312223 Z-0.125000 I-0.062383 J96.357840
G03 X111.882764 Y86.483633 Z-0.125000 I-1.218266 J29.171738
G01 X111.882764 Y86.483633 Z-0.125000
G00 Z5.000000

(End cutting path id: path4758)


(Start cutting path id: path4758)
(Change tool to Default tool)

G00 Z5.000000
G00 X129.085490 Y87.461505

G01 Z0.000 F1000.0(Penetrate)
G03 X131.663107 Y87.868329 Z-0.125000 I-1.178145 J15.833894
G03 X131.877554 Y88.141248 Z-0.125000 I-0.066443 J0.272919
G03 X131.317646 Y90.879478 Z-0.125000 I-6.975606 J-0.000000
G03 X124.937783 Y104.401163 Z-0.125000 I-183.593266 J-78.357878
G03 X122.766036 Y106.682573 Z-0.125000 I-5.016292 J-2.600786
G03 X118.315885 Y108.259319 Z-0.125000 I-6.390746 J-10.968669
G03 X114.526101 Y108.615173 Z-0.125000 I-4.864272 J-31.445439
G03 X114.029180 Y108.404144 Z-0.125000 I-0.021613 J-0.639682
G03 X102.512552 Y94.294128 Z-0.125000 I137.255898 J-123.783547
G03 X101.615181 Y91.564539 Z-0.125000 I3.702696 J-2.729589
G03 X101.753161 Y91.317427 Z-0.125000 I0.290270 J0.000000
G03 X102.605908 Y90.953954 Z-0.125000 I1.633855 J2.651145
G03 X103.597635 Y90.701108 Z-0.125000 I33.217706 J128.217079
G03 X111.162243 Y88.807660 Z-0.125000 I1863.788712 J7430.053394
G03 X119.490418 Y87.464855 Z-0.125000 I12.053710 J48.260620
G03 X129.085490 Y87.461505 Z-0.125000 I4.819942 J64.174849
G01 X129.085490 Y87.461505 Z-0.125000
G00 Z5.000000

(End cutting path id: path4758)


(Start cutting path id: path4758)
(Change tool to Default tool)

G00 Z5.000000
G00 X114.814368 Y112.011596

G01 Z0.000 F1000.0(Penetrate)
G03 X115.425037 Y114.940669 Z-0.125000 I-3.354205 J2.227497
G03 X113.766753 Y117.932073 Z-0.125000 I-5.181049 J-0.916776
G03 X105.315089 Y125.058254 Z-0.125000 I-111.951432 J-124.199680
G03 X104.266193 Y125.419604 Z-0.125000 I-1.042312 J-1.322540
G03 X103.614761 Y125.318694 Z-0.125000 I0.008460 J-2.207767
G03 X100.359970 Y124.196185 Z-0.125000 I18.010385 J-57.502296
G01 X97.123293 Y122.975398 Z-0.125000
G01 X95.223223 Y118.197320 Z-0.125000
G03 X93.414912 Y113.438151 Z-0.125000 I153.880385 J-61.192093
G03 X93.446561 Y113.295837 Z-0.125000 I0.127682 J-0.046281
G03 X93.593672 Y113.220657 Z-0.125000 I0.190118 J0.190498
G03 X96.601839 Y112.785209 Z-0.125000 I14.518977 J89.692016
G02 X107.866649 Y111.217840 Z-0.125000 I-64.211832 J-502.760086
G02 X110.621835 Y110.673868 Z-0.125000 I-4.601533 J-30.555874
G03 X113.157689 Y110.760730 Z-0.125000 I1.113774 J4.543749
G03 X114.814368 Y112.011596 Z-0.125000 I-0.951853 J2.983166
G01 X114.814368 Y112.011596 Z-0.125000
G00 Z5.000000

(End cutting path id: path4758)


(Start cutting path id: path4758)
(Change tool to Default tool)

G00 Z5.000000
G00 X89.922700 Y108.309563

G01 Z0.000 F1000.0(Penetrate)
G03 X91.097832 Y111.564090 Z-0.125000 I-86.621947 J33.116528
G03 X91.164879 Y111.961676 Z-0.125000 I-1.192172 J0.405488
G03 X90.970854 Y112.188908 Z-0.125000 I-0.228672 J0.001197
G03 X86.393924 Y112.692903 Z-0.125000 I-8.225070 J-53.660158
G03 X81.537381 Y112.680784 Z-0.125000 I-2.341543 J-34.762372
G03 X81.386370 Y112.330490 Z-0.125000 I0.015516 J-0.214386
G02 X83.170082 Y109.441912 Z-0.125000 I-10.043543 J-8.196954
G02 X85.373950 Y103.445976 Z-0.125000 I-41.875065 J-18.794608
G03 X86.173694 Y100.748942 Z-0.125000 I237.756310 J69.034138
G03 X86.355485 Y100.203579 Z-0.125000 I9.894762 J2.995329
G03 X86.588845 Y100.195993 Z-0.125000 I0.118204 J0.043091
G03 X89.922700 Y108.309563 Z-0.125000 I-162.547021 J71.532100
G01 X89.922700 Y108.309563 Z-0.125000
G00 Z5.000000

(End cutting path id: path4758)


(Start cutting path id: path4758)
(Change tool to Default tool)

G00 Z5.000000
G00 X86.545339 Y120.336082

G01 Z0.000 F1000.0(Penetrate)
G02 X94.009001 Y123.179622 Z-0.125000 I208.802915 J-536.844362
G02 X94.960754 Y123.475595 Z-0.125000 I3.135853 J-8.405624
G03 X95.737790 Y123.950621 Z-0.125000 I-0.371699 J1.481059
G03 X96.787296 Y125.561200 Z-0.125000 I-5.118331 J4.482506
G03 X97.659794 Y127.735865 Z-0.125000 I-19.596570 J9.124702
G03 X97.528593 Y128.159852 Z-0.125000 I-0.357934 J0.121532
G03 X97.030552 Y128.255252 Z-0.125000 I-0.346762 J-0.462571
G03 X94.319793 Y127.410941 Z-0.125000 I9.992381 J-36.855487
G03 X78.967919 Y121.839239 Z-0.125000 I300.994122 J-853.273495
G03 X78.047365 Y121.338397 Z-0.125000 I1.302691 J-3.490779
G03 X76.775625 Y118.394920 Z-0.125000 I1.913349 J-2.573138
G03 X78.521566 Y117.259873 Z-0.125000 I1.343473 J0.156209
G03 X79.092138 Y117.457895 Z-0.125000 I-2.801764 J8.993928
G03 X86.545339 Y120.336082 Z-0.125000 I-592.818862 J1546.221771
G01 X86.545339 Y120.336082 Z-0.125000
G00 Z5.000000

(End cutting path id: path4758)


(Start cutting path id: path4758)
(Change tool to Default tool)

G00 Z5.000000
G00 X84.142267 Y130.092930

G01 Z0.000 F1000.0(Penetrate)
G03 X92.662481 Y131.385670 Z-0.125000 I-28.206906 J214.630485
G03 X92.718888 Y131.569449 Z-0.125000 I-0.018275 J0.106155
G03 X92.383941 Y131.773524 Z-0.125000 I-0.626151 J-0.650786
G03 X86.877142 Y133.559437 Z-0.125000 I-63.457239 J-186.285164
G03 X81.306440 Y134.863548 Z-0.125000 I-12.229302 J-39.689190
G03 X79.131403 Y134.817590 Z-0.125000 I-0.962764 J-5.927201
G03 X76.959434 Y134.323157 Z-0.125000 I10.942742 J-53.087666
G03 X76.808167 Y134.238255 Z-0.125000 I0.079514 J-0.318873
G03 X76.748786 Y134.086243 Z-0.125000 I0.140612 J-0.142532
G03 X76.934526 Y131.570318 Z-0.125000 I47.866452 J2.268968
G03 X77.489134 Y129.445997 Z-0.125000 I7.062333 J0.709244
G03 X77.963963 Y129.206055 Z-0.125000 I0.382113 J0.166378
G02 X78.743979 Y129.350821 Z-0.125000 I2.156958 J-9.448149
G02 X84.142225 Y130.092930 Z-0.125000 I65.084369 J-453.431506
G01 X84.142267 Y130.092930 Z-0.125000
G00 Z5.000000

(End cutting path id: path4758)


(Start cutting path id: path4758)
(Change tool to Default tool)

G00 Z5.000000
G00 X73.310448 Y128.420814

G01 Z0.000 F1000.0(Penetrate)
G01 X75.808479 Y128.853297 Z-0.125000
G01 X75.713438 Y131.181653 Z-0.125000
G03 X75.555500 Y133.490762 Z-0.125000 I-42.076611 J-1.717994
G03 X75.466042 Y133.756575 Z-0.125000 I-0.615281 J-0.059110
G03 X75.044726 Y133.931304 Z-0.125000 I-0.331984 J-0.205184
G03 X70.206466 Y132.649719 Z-0.125000 I20.464029 J-87.029639
G03 X65.485939 Y131.108226 Z-0.125000 I24.487884 J-82.988081
G03 X65.322340 Y130.763400 Z-0.125000 I0.091279 J-0.254528
G03 X65.460704 Y130.558147 Z-0.125000 I0.466743 J0.165377
G03 X67.029599 Y129.250813 Z-0.125000 I22.337054 J25.210985
G03 X69.200131 Y128.338513 Z-0.125000 I2.756139 J3.519170
G03 X73.310434 Y128.420814 Z-0.125000 I1.785442 J13.511027
G01 X73.310448 Y128.420814 Z-0.125000
G00 Z5.000000

(End cutting path id: path4758)


(Start cutting path id: path4758)
(Change tool to Default tool)

G00 Z5.000000
G00 X76.112574 Y122.134492

G01 Z0.000 F1000.0(Penetrate)
G03 X76.240357 Y122.418906 Z-0.125000 I-0.264242 J0.289633
G03 X76.150428 Y124.976145 Z-0.125000 I-26.407243 J0.351554
G03 X74.999632 Y126.618334 Z-0.125000 I-1.984518 J-0.166374
G03 X71.582755 Y127.081766 Z-0.125000 I-2.465159 J-5.347578
G01 X68.750392 Y126.617871 Z-0.125000
G01 X67.079425 Y127.932815 Z-0.125000
G03 X63.379231 Y129.610288 Z-0.125000 I-5.261341 J-6.685838
G03 X59.147236 Y129.413486 Z-0.125000 I-1.697646 J-9.094556
G03 X55.148501 Y128.196402 Z-0.125000 I31.846773 J-111.810251
G03 X53.600963 Y127.615826 Z-0.125000 I5.605192 J-17.293547
G01 X52.078600 Y126.964285 Z-0.125000
G01 X54.060065 Y126.703421 Z-0.125000
G02 X64.809835 Y124.667023 Z-0.125000 I-12.686486 J-96.360830
G02 X73.514450 Y121.869680 Z-0.125000 I-16.366140 J-65.869173
G03 X75.044208 Y121.656625 Z-0.125000 I1.200277 J3.019675
G03 X76.112613 Y122.134492 Z-0.125000 I-0.189193 J1.856286
G01 X76.112574 Y122.134492 Z-0.125000
G00 Z5.000000

(End cutting path id: path4758)


(Start cutting path id: path4758)
(Change tool to Default tool)

G00 Z5.000000
G00 X67.115369 Y132.941351

G01 Z0.000 F1000.0(Penetrate)
G02 X70.457121 Y133.958945 Z-0.125000 I103.361995 J-333.442117
G02 X72.904802 Y134.672671 Z-0.125000 I53.250384 J-178.065035
G03 X74.892661 Y135.716550 Z-0.125000 I-1.495419 J5.262409
G03 X74.781549 Y136.207323 Z-0.125000 I-0.179456 J0.217335
G03 X72.911134 Y136.466774 Z-0.125000 I-2.141955 J-8.569869
G03 X65.673371 Y136.480096 Z-0.125000 I-3.849270 J-125.161639
G03 X58.465232 Y135.972883 Z-0.125000 I2.264398 J-83.651931
G03 X57.114802 Y135.505027 Z-0.125000 I0.370544 J-3.252429
G03 X56.566033 Y134.567442 Z-0.125000 I0.609441 J-0.986096
G03 X57.053486 Y134.041117 Z-0.125000 I0.505034 J-0.021153
G02 X57.818041 Y133.903647 Z-0.125000 I-0.094859 J-2.722381
G02 X60.184555 Y133.000079 Z-0.125000 I-9.135463 J-27.477290
G03 X62.546592 Y132.070974 Z-0.125000 I14.953597 J34.549084
G03 X63.152441 Y131.946758 Z-0.125000 I0.747459 J2.106052
G03 X63.767173 Y132.002955 Z-0.125000 I0.127245 J1.998403
G03 X67.115371 Y132.941351 Z-0.125000 I-15.482178 J61.682826
G01 X67.115369 Y132.941351 Z-0.125000
G00 Z5.000000

(End cutting path id: path4758)


(Start cutting path id: path4758)
(Change tool to Default tool)

G00 Z5.000000
G00 X42.949284 Y127.203906

G01 Z0.000 F1000.0(Penetrate)
G02 X50.043246 Y132.343567 Z-0.125000 I107.695428 J-141.179940
G02 X51.668096 Y133.198509 Z-0.125000 I4.419540 J-6.427992
G03 X51.649662 Y133.645072 Z-0.125000 I-0.084490 J0.220174
G03 X48.686105 Y134.068595 Z-0.125000 I-2.963557 J-10.156828
G01 X45.113519 Y134.068595 Z-0.125000
G01 X42.741709 Y129.937866 Z-0.125000
G03 X40.420968 Y125.793522 Z-0.125000 I191.604589 J-110.016291
G03 X40.369902 Y125.593416 Z-0.125000 I0.366534 J-0.200106
G03 X40.508582 Y125.516514 Z-0.125000 I0.090662 J0.000000
G03 X42.949284 Y127.203906 Z-0.125000 I-16.818622 J26.935885
G01 X42.949284 Y127.203906 Z-0.125000
G00 Z5.000000

(End cutting path id: path4758)


(Start cutting path id: path4758)
(Change tool to Default tool)

G00 Z5.000000
G00 X40.730170 Y91.519237

G01 Z0.000 F1000.0(Penetrate)
G03 X40.582892 Y92.562671 Z-0.125000 I-3.769895 J0.000000
G03 X39.058926 Y97.321443 Z-0.125000 I-81.446680 J-23.459360
G03 X37.874805 Y97.348499 Z-0.125000 I-0.597187 J-0.210838
G03 X36.767240 Y91.667355 Z-0.125000 I14.016639 J-5.681143
G03 X36.974917 Y91.404600 Z-0.125000 I0.270059 J0.000000
G03 X38.748705 Y91.196925 Z-0.125000 I1.773788 J7.471282
G03 X40.582038 Y91.345061 Z-0.125000 I0.000000 J11.418725
G03 X40.730170 Y91.519237 Z-0.125000 I-0.028332 J0.174176
G01 X40.730170 Y91.519237 Z-0.125000
G00 Z5.000000

(End cutting path id: path4758)


(Start cutting path id: path4758)
(Change tool to Default tool)

G00 Z5.000000
G00 X34.251443 Y87.616761

G01 Z0.000 F1000.0(Penetrate)
G02 X34.664555 Y89.074168 Z-0.125000 I55.489343 J-14.941586
G02 X34.831551 Y89.565071 Z-0.125000 I6.454310 J-1.921776
G03 X34.692257 Y89.847884 Z-0.125000 I-0.200521 J0.076947
G03 X32.366574 Y90.298202 Z-0.125000 I-3.457254 J-11.624391
G03 X28.990748 Y90.504001 Z-0.125000 I-4.848364 J-51.739717
G03 X28.594623 Y90.312616 Z-0.125000 I-0.013539 J-0.477617
G03 X28.631929 Y89.963340 Z-0.125000 I0.206594 J-0.154564
G03 X30.822847 Y88.234819 Z-0.125000 I19.200802 J22.084443
G03 X33.711585 Y86.192400 Z-0.125000 I212.145357 J296.988272
G03 X33.781159 Y86.164615 Z-0.125000 I0.093957 J0.134266
G01 X33.830077 Y86.194500 Z-0.125000
G03 X34.251443 Y87.616761 Z-0.125000 I-28.237271 J9.139265
G01 X34.251443 Y87.616761 Z-0.125000
G00 Z5.000000

(End cutting path id: path4758)


(Start cutting path id: path4758)
(Change tool to Default tool)

G00 Z5.000000
G00 X37.480079 Y81.817046

G01 Z0.000 F1000.0(Penetrate)
G03 X36.702637 Y83.272666 Z-0.125000 I-1.892160 J-0.075174
G03 X34.494154 Y83.991566 Z-0.125000 I-2.208483 J-3.032812
G03 X33.302700 Y83.132898 Z-0.125000 I0.000000 J-1.255942
G03 X32.444044 Y77.843177 Z-0.125000 I15.864248 J-5.289721
G03 X32.572865 Y77.775120 Z-0.125000 I0.082388 J0.000000
G03 X34.965908 Y79.563770 Z-0.125000 I-19.525812 J28.618834
G03 X37.412718 Y81.657778 Z-0.125000 I-44.550136 J54.532560
G03 X37.480079 Y81.817046 Z-0.125000 I-0.135497 J0.151186
G01 X37.480079 Y81.817046 Z-0.125000
G00 Z5.000000

(End cutting path id: path4758)


(Start cutting path id: path4758)
(Change tool to Default tool)

G00 Z5.000000
G00 X40.771967 Y83.842112

G01 Z0.000 F1000.0(Penetrate)
G03 X42.505359 Y85.145529 Z-0.125000 I-55.720920 J75.906620
G03 X42.526196 Y85.193116 Z-0.125000 I-0.032948 J0.042782
G03 X42.514889 Y85.251324 Z-0.125000 I-0.282223 J-0.024617
G03 X41.847316 Y87.414094 Z-0.125000 I-402.947619 J-123.191754
G03 X40.825475 Y89.171454 Z-0.125000 I-4.356994 J-1.357672
G03 X39.600960 Y89.819192 Z-0.125000 I-1.548761 J-1.446542
G03 X36.840752 Y89.399582 Z-0.125000 I-0.712434 J-4.601757
G03 X35.433675 Y87.778700 Z-0.125000 I1.210342 J-2.471868
G01 X34.673729 Y85.441302 Z-0.125000
G01 X36.711207 Y83.995909 Z-0.125000
G03 X38.760287 Y82.586904 Z-0.125000 I49.144248 J69.274748
G03 X38.880562 Y82.550505 Z-0.125000 I0.120275 J0.180517
G03 X39.000323 Y82.587496 Z-0.125000 I-0.000000 J0.212364
G03 X40.771967 Y83.842112 Z-0.125000 I-35.932791 J52.618895
G01 X40.771967 Y83.842112 Z-0.125000
G00 Z5.000000

(End cutting path id: path4758)


(Start cutting path id: path4758)
(Change tool to Default tool)

G00 Z5.000000
G00 X44.484533 Y79.037905

G01 Z0.000 F1000.0(Penetrate)
G03 X43.010291 Y83.162819 Z-0.125000 I-57.856302 J-18.351907
G03 X42.782959 Y83.306214 Z-0.125000 I-0.212268 J-0.084621
G03 X42.538719 Y83.232777 Z-0.125000 I0.037314 J-0.566968
G03 X41.300764 Y82.460705 Z-0.125000 I9.223029 J-16.166892
G01 X40.082098 Y81.632600 Z-0.125000
G01 X42.117400 Y79.960278 Z-0.125000
G03 X44.180172 Y78.752541 Z-0.125000 I4.818465 J5.864330
G03 X44.484533 Y79.037905 Z-0.125000 I0.083953 J0.215452
G01 X44.484533 Y79.037905 Z-0.125000
G00 Z5.000000

(End cutting path id: path4758)


(Start cutting path id: path4758)
(Change tool to Default tool)

G00 Z5.000000
G00 X48.654217 Y89.485634

G01 Z0.000 F1000.0(Penetrate)
G03 X48.526082 Y89.626649 Z-0.125000 I-0.140489 J0.001067
G03 X45.593765 Y89.755822 Z-0.125000 I-2.932317 J-33.218341
G03 X42.677110 Y89.610227 Z-0.125000 I-0.000000 J-29.286902
G03 X42.531502 Y89.449317 Z-0.125000 I0.016105 J-0.160909
G03 X42.569367 Y89.148739 Z-0.125000 I1.211938 J-0.000000
G03 X42.923497 Y87.918186 Z-0.125000 I20.972229 J5.369177
G02 X43.313622 Y86.692978 Z-0.125000 I-403.184026 J-129.054568
G02 X43.460772 Y86.221900 Z-0.125000 I-59.110341 J-18.722797
G03 X43.729108 Y86.103587 Z-0.125000 I0.185435 J0.057118
G03 X46.129225 Y87.482844 Z-0.125000 I-7.387808 J15.633828
G03 X48.549212 Y89.270172 Z-0.125000 I-24.742813 J36.032947
G03 X48.654217 Y89.485634 Z-0.125000 I-0.172378 J0.217326
G01 X48.654217 Y89.485634 Z-0.125000
G00 Z5.000000

(End cutting path id: path4758)


(Start cutting path id: path4758)
(Change tool to Default tool)

G00 Z5.000000
G00 X8.272606 Y47.784794

G01 Z0.000 F1000.0(Penetrate)
G02 X8.074254 Y51.389711 Z-0.125000 I115.819962 J8.180644
G02 X7.982037 Y55.152239 Z-0.125000 I126.077878 J4.972474
G03 X7.801613 Y58.525683 Z-0.125000 I-38.534907 J-0.369439
G03 X7.648052 Y58.574782 Z-0.125000 I-0.087356 J-0.008525
G03 X7.407870 Y58.197001 Z-0.125000 I1.130818 J-0.984182
G03 X5.606968 Y53.960127 Z-0.125000 I144.986865 J-64.128468
G03 X4.238173 Y49.717601 Z-0.125000 I27.431623 J-11.192529
G03 X4.373718 Y48.849607 Z-0.125000 I1.118511 J-0.269915
G03 X7.863352 Y44.030816 Z-0.125000 I31.737275 J19.310306
G03 X8.455599 Y44.070984 Z-0.125000 I0.281195 J0.240196
G03 X8.487973 Y44.192146 Z-0.125000 I-0.172721 J0.111056
G03 X8.272606 Y47.784794 Z-0.125000 I-168.948291 J-8.325099
G01 X8.272606 Y47.784794 Z-0.125000
G00 Z5.000000

(End cutting path id: path4758)


(Footer)
M5
G00 X0.0000 Y0.0000
M2
(Using default footer. To add your own footer create file "footer" in the output dir.)
(end)
%