%
(Header)
(Generated by gcodetools from Inkscape.)
(Using default header. To add your own header create file "header" in the output dir.)
M3
(Header end.)
G21 (All units in mm)

(Start cutting path id: path4860)
(Change tool to Default tool)

G00 Z5.000000
G00 X12.381398 Y52.335134

G01 Z-0.125000 F100.0(Penetrate)
G01 X11.929952 Y52.318060 Z-0.125000 F400.000000
G01 X11.477956 Y52.300957 Z-0.125000
G01 X10.783424 Y52.001646 Z-0.125000
G02 X10.085950 Y51.709552 Z-0.125000 I-13.880151 J32.164809
G02 X9.857383 Y51.625718 Z-0.125000 I-1.337343 J3.292655
G03 X9.357040 Y51.378648 Z-0.125000 I0.617771 J-1.881211
G03 X9.278607 Y51.229946 Z-0.125000 I0.101745 J-0.148702
G02 X9.263695 Y51.187386 Z-0.125000 I-0.068190 J0.000000
G02 X9.139701 Y51.055761 Z-0.125000 I-0.867452 J0.692948
G03 X9.035931 Y50.833695 Z-0.125000 I0.210770 J-0.233770
G03 X9.111037 Y50.284612 Z-0.125000 I1.607423 J-0.059807
G01 X9.221832 Y49.939000 Z-0.125000
G01 X9.025048 Y50.011759 Z-0.125000
G03 X7.897050 Y50.296520 Z-0.125000 I-1.895611 J-5.132426
G03 X6.897357 Y50.313274 Z-0.125000 I-0.567057 J-4.001824
G03 X6.675349 Y50.253501 Z-0.125000 I0.079263 J-0.736571
G03 X6.639939 Y50.198621 Z-0.125000 I0.024271 J-0.054523
G03 X6.672818 Y50.130270 Z-0.125000 I0.088622 J0.000547
G03 X7.043429 Y49.872302 Z-0.125000 I1.969483 J2.434256
G02 X8.535362 Y48.899473 Z-0.125000 I-10.853213 J-18.274944
G02 X9.489171 Y48.127155 Z-0.125000 I-5.855421 J-8.206558
G02 X9.784397 Y47.812831 Z-0.125000 I-1.938968 J-2.116957
G01 X9.775252 Y47.772171 Z-0.125000
G02 X9.713161 Y47.776503 Z-0.125000 I-0.027255 J0.056502
G02 X9.289080 Y48.096839 Z-0.125000 I2.538106 J3.800978
G03 X7.757739 Y49.035669 Z-0.125000 I-3.767576 J-4.427040
G03 X5.985647 Y49.473773 Z-0.125000 I-2.311304 J-5.545996
G03 X5.553963 Y49.438956 Z-0.125000 I-0.114639 J-1.272166
G03 X5.512153 Y49.352505 Z-0.125000 I0.015599 J-0.060880
G03 X5.551252 Y49.303209 Z-0.125000 I0.115456 J0.051421
G03 X6.261254 Y48.784756 Z-0.125000 I14.780377 J19.495779
G02 X6.973163 Y48.261949 Z-0.125000 I-12.290374 J-17.481950
G02 X7.441406 Y47.879658 Z-0.125000 I-6.012618 J-7.842382
G02 X8.248191 Y47.101422 Z-0.125000 I-7.056062 J-8.122211
G02 X8.306263 Y46.954169 Z-0.125000 I-0.157656 J-0.147252
G01 X8.292766 Y46.926045 Z-0.125000
G02 X8.040026 Y46.740296 Z-0.125000 I-2.329036 J2.904194
G03 X7.708945 Y46.480404 Z-0.125000 I1.590336 J-2.366789
G03 X7.188398 Y45.964185 Z-0.125000 I5.905450 J-6.475519
G02 X6.881154 Y45.664265 Z-0.125000 I-3.166623 J2.936631
G02 X6.744119 Y45.571721 Z-0.125000 I-0.423488 J0.479349
G02 X6.594655 Y45.539010 Z-0.125000 I-0.139078 J0.277665
G02 X6.433234 Y45.582191 Z-0.125000 I0.012364 J0.369532
G02 X6.043272 Y45.862767 Z-0.125000 I0.842818 J1.582687
G02 X5.574440 Y46.395234 Z-0.125000 I2.689247 J2.840488
G03 X5.310858 Y46.410764 Z-0.125000 I-0.138199 J-0.101000
G03 X5.079449 Y45.862760 Z-0.125000 I0.636664 J-0.591710
G03 X5.084046 Y45.406794 Z-0.125000 I3.772736 J-0.189964
G03 X5.131263 Y45.128542 Z-0.125000 I1.444356 J0.101960
G02 X5.198148 Y44.856475 Z-0.125000 I-5.485737 J-1.492867
G01 X5.193550 Y44.845766 Z-0.125000
G02 X5.180755 Y44.838801 Z-0.125000 I-0.084020 J0.139119
G02 X4.919596 Y44.711821 Z-0.125000 I-58.571700 J120.131283
G03 X4.505942 Y44.429328 Z-0.125000 I0.742586 J-1.531476
G03 X4.192543 Y44.038788 Z-0.125000 I1.155837 J-1.248547
G03 X4.106345 Y43.794990 Z-0.125000 I0.595086 J-0.347538
G03 X4.057496 Y43.149678 Z-0.125000 I4.237909 J-0.645312
G03 X4.106928 Y42.504890 Z-0.125000 I4.230025 J-0.000000
G03 X4.194748 Y42.257261 Z-0.125000 I0.695501 J0.107270
G03 X4.536022 Y41.835889 Z-0.125000 I1.544458 J0.901987
G03 X4.964245 Y41.557767 Z-0.125000 I1.065737 J1.172184
G03 X5.264428 Y41.507660 Z-0.125000 I0.248720 J0.565811
G03 X5.389232 Y41.593598 Z-0.125000 I-0.012704 J0.152041
G02 X5.452948 Y41.703525 Z-0.125000 I0.742553 J-0.356973
G01 X5.471363 Y41.713210 Z-0.125000
G02 X5.494959 Y41.708837 Z-0.125000 I0.000000 J-0.065856
G02 X5.752483 Y41.605172 Z-0.125000 I-3.059603 J-7.972327
G03 X6.015833 Y41.530065 Z-0.125000 I0.440176 J1.044152
G03 X6.405673 Y41.502096 Z-0.125000 I0.358917 J2.271852
G03 X6.799918 Y41.523869 Z-0.125000 I-0.063792 J4.735202
G03 X7.125560 Y41.571548 Z-0.125000 I-0.328240 J3.377757
G02 X8.515767 Y41.801607 Z-0.125000 I4.541151 J-23.125950
G02 X8.977643 Y41.821800 Z-0.125000 I0.342310 J-2.537331
G02 X9.389717 Y41.780016 Z-0.125000 I-0.178003 J-3.808278
G02 X9.602722 Y41.723683 Z-0.125000 I-0.165598 J-1.057019
G02 X10.486612 Y41.262643 Z-0.125000 I-1.484746 J-3.924310
G02 X10.763030 Y40.929933 Z-0.125000 I-0.445376 J-0.651200
G02 X10.792972 Y40.830876 Z-0.125000 I-0.388988 J-0.171636
G02 X10.859492 Y40.373207 Z-0.125000 I-8.373781 J-1.450759
G02 X10.880674 Y39.555749 Z-0.125000 I-4.457776 J-0.524511
G02 X10.713420 Y38.142438 Z-0.125000 I-13.536053 J0.885327
G02 X10.488197 Y37.294914 Z-0.125000 I-4.836810 J0.831656
G02 X10.173780 Y36.660221 Z-0.125000 I-3.010944 J1.096351
G03 X9.833877 Y35.532633 Z-0.125000 I1.806171 J-1.159483
G03 X10.150079 Y35.059490 Z-0.125000 I0.500949 J-0.007445
G03 X11.429227 Y34.912723 Z-0.125000 I0.911676 J2.298118
G03 X12.557788 Y35.421641 Z-0.125000 I-0.339472 J2.258595
G03 X13.042159 Y36.007896 Z-0.125000 I-1.348936 J1.607731
G03 X13.484381 Y37.085208 Z-0.125000 I-4.290810 J2.390738
G02 X14.118817 Y39.228569 Z-0.125000 I63.005020 J-17.483951
G01 X14.166785 Y39.253138 Z-0.125000
G02 X14.241159 Y39.162158 Z-0.125000 I-0.034388 J-0.104001
G02 X14.299628 Y38.142438 Z-0.125000 I-8.199503 J-0.981679
G02 X14.189507 Y36.987379 Z-0.125000 I-6.422953 J0.029572
G02 X13.933070 Y36.187829 Z-0.125000 I-3.313222 J0.621741
G03 X13.683645 Y35.038876 Z-0.125000 I2.426854 J-1.128392
G03 X13.945197 Y34.593163 Z-0.125000 I0.517321 J0.003974
G03 X14.383181 Y34.432881 Z-0.125000 I0.696358 J1.224301
G03 X15.206378 Y34.357793 Z-0.125000 I0.811874 J4.350687
G03 X16.516050 Y34.848928 Z-0.125000 I-0.004763 J2.004469
G03 X17.244220 Y36.127747 Z-0.125000 I-1.455077 J1.675257
G02 X17.307224 Y36.425066 Z-0.125000 I5.122338 J-0.930118
G02 X17.549043 Y37.384516 Z-0.125000 I54.102419 J-13.125708
G03 X17.799207 Y38.342189 Z-0.125000 I-1760.444155 J460.370789
G03 X17.820240 Y38.423006 Z-0.125000 I-64.998987 J16.960258
G02 X17.869677 Y38.463525 Z-0.125000 I0.052490 J-0.013626
G02 X18.387441 Y38.454977 Z-0.125000 I0.200309 J-3.552058
G03 X19.395309 Y38.407119 Z-0.125000 I1.074814 J11.998661
G03 X20.242832 Y38.444506 Z-0.125000 I0.047504 J8.548014
G03 X21.154114 Y38.558226 Z-0.125000 I-1.412020 J15.023110
G03 X21.650084 Y38.663892 Z-0.125000 I-0.706007 J4.530677
G02 X21.711373 Y38.646441 Z-0.125000 I0.016178 J-0.059531
G02 X21.865609 Y38.433482 Z-0.125000 I-0.778318 J-0.726035
G02 X22.060369 Y37.965661 Z-0.125000 I-2.049964 J-1.127875
G02 X22.115310 Y37.584061 Z-0.125000 I-1.297752 J-0.381600
G02 X22.054094 Y37.211535 Z-0.125000 I-1.164102 J0.000000
G02 X21.758122 Y36.526829 Z-0.125000 I-4.300308 J1.452532
G03 X21.496207 Y35.898251 Z-0.125000 I3.151096 J-1.681854
G03 X21.478656 Y35.622284 Z-0.125000 I0.565454 J-0.174503
G03 X21.718365 Y35.236947 Z-0.125000 I0.596441 J0.103804
G03 X22.419581 Y34.936021 Z-0.125000 I1.008784 J1.383215
G03 X23.414633 Y35.008476 Z-0.125000 I0.357592 J1.957985
G03 X24.219299 Y35.544563 Z-0.125000 I-0.598502 J1.770295
G03 X24.701266 Y36.307225 Z-0.125000 I-2.154871 J1.895401
G03 X24.973361 Y37.300185 Z-0.125000 I-3.431260 J1.474008
G02 X25.026154 Y37.651305 Z-0.125000 I8.775009 J-1.139846
G01 X25.036751 Y37.670049 Z-0.125000
G02 X25.198831 Y37.671094 Z-0.125000 I0.081655 J-0.094772
G02 X25.647497 Y37.157420 Z-0.125000 I-1.424100 J-1.696653
G02 X25.711162 Y36.803691 Z-0.125000 I-0.404254 J-0.255352
G02 X25.418743 Y36.069321 Z-0.125000 I-2.263445 J0.475878
G03 X24.941677 Y35.179804 Z-0.125000 I7.370378 J-4.525572
G03 X24.882962 Y34.913421 Z-0.125000 I0.574917 J-0.266384
G03 X24.990959 Y34.647323 Z-0.125000 I0.381821 J0.000000
G03 X25.411577 Y34.369372 Z-0.125000 I0.844387 J0.820563
G03 X25.603119 Y34.326307 Z-0.125000 I0.241244 J0.625489
G03 X26.339824 Y34.300471 Z-0.125000 I0.698141 J9.390760
G03 X27.073326 Y34.342303 Z-0.125000 I-0.027695 J6.937279
G03 X27.290119 Y34.405200 Z-0.125000 I-0.072180 J0.653855
G03 X27.904146 Y34.847484 Z-0.125000 I-0.985332 J2.015319
G03 X28.533109 Y35.669138 Z-0.125000 I-2.988002 J2.938824
G03 X28.874454 Y36.521440 Z-0.125000 I-2.675128 J1.565889
G03 X29.014320 Y37.703673 Z-0.125000 I-5.068550 J1.199033
G03 X28.976990 Y38.256563 Z-0.125000 I-3.917055 J0.013230
G03 X28.871005 Y38.735548 Z-0.125000 I-3.057227 J-0.425253
G02 X28.740458 Y39.438484 Z-0.125000 I3.012431 J0.923051
G02 X28.815884 Y39.519378 Z-0.125000 I0.075427 J0.005282
G02 X29.069485 Y39.481130 Z-0.125000 I-0.000000 J-0.859863
G02 X30.693873 Y38.940049 Z-0.125000 I-11.396989 J-36.923938
G03 X33.678898 Y38.115741 Z-0.125000 I7.032501 J19.649546
G03 X36.366429 Y37.818326 Z-0.125000 I3.089948 J15.630269
G03 X39.572939 Y38.043204 Z-0.125000 I0.426710 J16.888608
G03 X42.131038 Y38.780198 Z-0.125000 I-1.905249 J11.421167
G03 X43.774902 Y39.632933 Z-0.125000 I-4.315107 J10.329313
G03 X45.282888 Y40.761816 Z-0.125000 I-6.175820 J9.821436
G03 X46.030810 Y41.501403 Z-0.125000 I-6.232711 J7.050929
G03 X46.089868 Y41.654784 Z-0.125000 I-0.169647 J0.153381
G03 X46.081001 Y41.784044 Z-0.125000 I-0.946548 J0.000000
G01 X46.070564 Y41.793140 Z-0.125000
G03 X46.051618 Y41.789818 Z-0.125000 I0.000000 J-0.055686
G03 X45.480212 Y41.579267 Z-0.125000 I17.613597 J-48.681380
G02 X42.279822 Y40.658526 Z-0.125000 I-7.431412 J19.808269
G02 X39.685837 Y40.396911 Z-0.125000 I-2.589888 J12.688613
G02 X36.717940 Y40.805428 Z-0.125000 I0.003126 J11.007926
G02 X34.444883 Y41.865900 Z-0.125000 I2.082858 J7.430793
G02 X33.451978 Y42.681024 Z-0.125000 I4.142872 J6.058741
G02 X31.481549 Y44.768601 Z-0.125000 I25.594348 J26.131779
G03 X29.875642 Y46.440688 Z-0.125000 I-18.234754 J-15.905814
G03 X28.425060 Y47.659725 Z-0.125000 I-11.082909 J-11.715441
G03 X27.632854 Y48.196233 Z-0.125000 I-6.376844 J-8.562890
G03 X26.996310 Y48.536708 Z-0.125000 I-3.185786 J-5.190799
G03 X25.599018 Y49.018967 Z-0.125000 I-3.113408 J-6.755369
G03 X23.020394 Y49.479838 Z-0.125000 I-5.403551 J-22.789197
G03 X21.101909 Y49.607163 Z-0.125000 I-2.123239 J-17.474961
G03 X19.812872 Y49.516767 Z-0.125000 I-0.092149 J-7.921870
G03 X18.593719 Y49.296908 Z-0.125000 I3.496110 J-22.876614
G03 X18.062213 Y49.152415 Z-0.125000 I0.931872 J-4.477629
G01 X18.020630 Y49.173745 Z-0.125000
G02 X18.009847 Y49.322739 Z-0.125000 I0.320107 J0.098054
G03 X18.009132 Y49.516683 Z-0.125000 I-0.615172 J0.094704
G03 X17.948662 Y49.700875 Z-0.125000 I-0.611689 J-0.098793
G03 X17.752670 Y49.914658 Z-0.125000 I-0.487682 J-0.250364
G03 X17.202317 Y50.169959 Z-0.125000 I-1.277037 J-2.032064
G02 X16.520152 Y50.483062 Z-0.125000 I0.928559 J2.922748
G02 X16.254227 Y50.755350 Z-0.125000 I0.413340 J0.669681
G03 X16.034602 Y51.034420 Z-0.125000 I-1.118811 J-0.654534
G03 X15.800025 Y51.192461 Z-0.125000 I-0.567510 J-0.589232
G03 X15.659888 Y51.235974 Z-0.125000 I-0.253373 J-0.568591
G03 X15.265346 Y51.291682 Z-0.125000 I-0.849861 J-4.594002
G02 X14.724001 Y51.427732 Z-0.125000 I0.183649 J1.875781
G02 X14.219691 Y51.727143 Z-0.125000 I0.803042 J1.927019
G03 X13.878128 Y51.981970 Z-0.125000 I-3.734602 J-4.649430
G03 X13.737929 Y52.060628 Z-0.125000 I-0.487452 J-0.704557
G03 X13.418718 Y52.129573 Z-0.125000 I-0.325713 J-0.734586
G03 X12.966779 Y52.066695 Z-0.125000 I-0.012660 J-1.564621
G01 X12.762278 Y52.006613 Z-0.125000
G01 X12.571557 Y52.170875 Z-0.125000
G01 X12.381398 Y52.335134 Z-0.125000
G00 Z5.000000

(End cutting path id: path4860)


(Start cutting path id: path4860)
(Change tool to Default tool)

G00 Z5.000000
G00 X11.929952 Y52.273951

G01 Z-0.125000 F100.0(Penetrate)
G02 X12.010981 Y52.282971 Z-0.125000 I0.081029 J-0.359426 F400.000000
G02 X12.092010 Y52.273951 Z-0.125000 I-0.000000 J-0.368446
G01 X12.092045 Y52.264540 Z-0.125000
G02 X12.010981 Y52.255211 Z-0.125000 I-0.081063 J0.347537
G02 X11.929917 Y52.264540 Z-0.125000 I0.000000 J0.356870
G01 X11.929952 Y52.273951 Z-0.125000
G01 X11.929952 Y52.273951 Z-0.125000
G00 Z5.000000

(End cutting path id: path4860)


(Start cutting path id: path4860)
(Change tool to Default tool)

G00 Z5.000000
G00 X11.999957 Y52.166464

G01 Z-0.125000 F100.0(Penetrate)
G02 X12.333671 Y52.083273 Z-0.125000 I-0.000616 J-0.713402 F400.000000
G02 X12.517548 Y51.891958 Z-0.125000 I-0.199185 J-0.375462
G03 X12.634274 Y51.810310 Z-0.125000 I0.130953 J0.062953
G03 X12.971749 Y51.847310 Z-0.125000 I0.080767 J0.820868
G02 X13.472814 Y51.863994 Z-0.125000 I0.279196 J-0.852524
G02 X14.068668 Y51.567292 Z-0.125000 I-0.391045 J-1.531985
G03 X14.618645 Y51.234845 Z-0.125000 I1.542690 J1.930971
G03 X15.113221 Y51.109231 Z-0.125000 I0.625404 J1.425944
G02 X15.681975 Y50.948021 Z-0.125000 I-0.130093 J-1.542871
G02 X16.061311 Y50.629674 Z-0.125000 I-0.490373 J-0.969495
G03 X16.449716 Y50.268752 Z-0.125000 I1.189359 J0.890476
G03 X17.059010 Y49.991369 Z-0.125000 I1.273859 J1.990258
G02 X17.616527 Y49.631922 Z-0.125000 I-0.328865 J-1.122170
G02 X17.767322 Y49.167853 Z-0.125000 I-0.479012 J-0.412186
G03 X17.844403 Y48.720931 Z-0.125000 I0.902914 J-0.074382
G03 X18.106871 Y48.414892 Z-0.125000 I0.653275 J0.294698
G02 X18.342731 Y48.125624 Z-0.125000 I-0.333592 J-0.512791
G02 X18.376966 Y47.727526 Z-0.125000 I-0.654177 J-0.256779
G03 X18.322525 Y47.397482 Z-0.125000 I4.202802 J-0.862764
G03 X18.308616 Y47.181271 Z-0.125000 I1.785463 J-0.223420
G03 X18.351622 Y46.982982 Z-0.125000 I0.470261 J-0.001814
G03 X18.478390 Y46.812508 Z-0.125000 I0.466481 J0.214513
G02 X18.609276 Y46.642202 Z-0.125000 I-0.371380 J-0.420868
G02 X18.668008 Y46.432171 Z-0.125000 I-0.516474 J-0.257650
G02 X18.663522 Y46.203301 Z-0.125000 I-1.118121 J-0.092563
G02 X18.566033 Y45.603143 Z-0.125000 I-7.692236 J0.941519
G02 X18.268701 Y44.756772 Z-0.125000 I-3.205606 J0.650725
G02 X17.779449 Y44.074622 Z-0.125000 I-2.551385 J1.313380
G02 X17.480294 Y43.807128 Z-0.125000 I-1.998043 J1.933504
G01 X17.460295 Y43.828231 Z-0.125000
G03 X17.734147 Y44.247943 Z-0.125000 I-1.431965 J1.233519
G03 X18.029149 Y45.021060 Z-0.125000 I-4.636968 J2.212191
G03 X18.196380 Y46.188482 Z-0.125000 I-4.009962 J1.170106
G03 X18.030250 Y46.615726 Z-0.125000 I-0.631403 J0.000406
G02 X17.869901 Y46.938196 Z-0.125000 I0.478663 J0.439118
G02 X17.912290 Y47.262300 Z-0.125000 I0.526034 J0.096025
G03 X17.982211 Y47.819420 Z-0.125000 I-0.817583 J0.385558
G03 X17.735350 Y48.177318 Z-0.125000 I-0.531954 J-0.102831
G02 X17.514372 Y48.414974 Z-0.125000 I0.322855 J0.521761
G02 X17.427220 Y48.767120 Z-0.125000 I0.679663 J0.355064
G03 X17.343543 Y49.179301 Z-0.125000 I-1.077312 J-0.004121
G03 X17.144998 Y49.440702 Z-0.125000 I-0.605163 J-0.253545
G03 X17.027186 Y49.515220 Z-0.125000 I-0.414484 J-0.524911
G03 X16.556300 Y49.731744 Z-0.125000 I-4.021647 J-8.125777
G02 X16.017091 Y50.031153 Z-0.125000 I1.158084 J2.720847
G02 X15.722311 Y50.316585 Z-0.125000 I0.748754 J1.068208
G03 X15.390768 Y50.600395 Z-0.125000 I-0.802632 J-0.602068
G03 X14.840918 Y50.785119 Z-0.125000 I-0.830851 J-1.562408
G02 X14.407249 Y50.920329 Z-0.125000 I0.253506 J1.576161
G02 X13.915428 Y51.226641 Z-0.125000 I1.115407 J2.338914
G03 X13.572329 Y51.476926 Z-0.125000 I-3.393139 J-4.291124
G03 X13.463982 Y51.529810 Z-0.125000 I-0.245503 J-0.365545
G03 X13.176294 Y51.571150 Z-0.125000 I-0.261524 J-0.798281
G03 X12.781578 Y51.508305 Z-0.125000 I0.049245 J-1.580280
G01 X12.577077 Y51.448222 Z-0.125000
G01 X12.396830 Y51.603665 Z-0.125000
G03 X12.085337 Y51.785902 Z-0.125000 I-0.651261 J-0.755849
G03 X11.732615 Y51.844544 Z-0.125000 I-0.335019 J-0.924972
G03 X11.449871 Y51.805078 Z-0.125000 I0.021220 J-1.184577
G03 X10.326465 Y51.471373 Z-0.125000 I5.134413 J-19.342623
G02 X9.964052 Y51.391901 Z-0.125000 I-0.568812 J1.727853
G01 X9.954946 Y51.428930 Z-0.125000
G03 X10.318818 Y51.575402 Z-0.125000 I-4.995607 J12.935490
G03 X10.765784 Y51.768477 Z-0.125000 I-8.615005 J20.557494
G02 X11.671444 Y52.114927 Z-0.125000 I3.698659 J-8.311748
G02 X11.999955 Y52.166455 Z-0.125000 I0.327582 J-1.015494
G01 X11.999957 Y52.166464 Z-0.125000
G00 Z5.000000

(End cutting path id: path4860)


(Start cutting path id: path4860)
(Change tool to Default tool)

G00 Z5.000000
G00 X12.485577 Y52.131736

G01 Z-0.125000 F100.0(Penetrate)
G02 X12.561051 Y52.073888 Z-0.125000 I-0.446260 J-0.660394 F400.000000
G01 X12.566606 Y52.061731 Z-0.125000
G01 X12.549712 Y52.051756 Z-0.125000
G02 X12.467938 Y52.116302 Z-0.125000 I0.153961 J0.279128
G01 X12.468749 Y52.130681 Z-0.125000
G01 X12.485577 Y52.131739 Z-0.125000
G01 X12.485577 Y52.131736 Z-0.125000
G00 Z5.000000

(End cutting path id: path4860)


(Start cutting path id: path4860)
(Change tool to Default tool)

G00 Z5.000000
G00 X13.959527 Y51.807621

G01 Z-0.125000 F100.0(Penetrate)
G01 X13.980005 Y51.800508 Z-0.125000 F400.000000
G02 X14.187179 Y51.627925 Z-0.125000 I-3.223528 J-4.080248
G02 X14.371642 Y51.455792 Z-0.125000 I-2.743624 J-3.125055
G01 X14.368529 Y51.448231 Z-0.125000
G01 X14.348050 Y51.455339 Z-0.125000
G02 X14.140877 Y51.627925 Z-0.125000 I3.224349 J4.081185
G02 X13.956414 Y51.800060 Z-0.125000 I2.742983 J3.124325
G01 X13.959527 Y51.807621 Z-0.125000
G01 X13.959527 Y51.807621 Z-0.125000
G00 Z5.000000

(End cutting path id: path4860)


(Start cutting path id: path4860)
(Change tool to Default tool)

G00 Z5.000000
G00 X11.582135 Y51.716672

G01 Z-0.125000 F100.0(Penetrate)
G02 X11.732617 Y51.724705 Z-0.125000 I0.150482 J-1.405474 F400.000000
G02 X11.883099 Y51.716672 Z-0.125000 I-0.000000 J-1.413498
G01 X11.883096 Y51.708648 Z-0.125000
G02 X11.732617 Y51.700698 Z-0.125000 I-0.150479 J1.420166
G02 X11.582140 Y51.708640 Z-0.125000 I0.000000 J1.429639
G01 X11.582135 Y51.716672 Z-0.125000
G01 X11.582135 Y51.716672 Z-0.125000
G00 Z5.000000

(End cutting path id: path4860)


(Start cutting path id: path4860)
(Change tool to Default tool)

G00 Z5.000000
G00 X12.069961 Y51.687457

G01 Z-0.125000 F100.0(Penetrate)
G02 X12.229902 Y51.640649 Z-0.125000 I0.002412 J-0.288416 F400.000000
G02 X12.384705 Y51.482405 Z-0.125000 I-0.278748 J-0.427529
G01 X12.375884 Y51.459371 Z-0.125000
G01 X12.345018 Y51.470834 Z-0.125000
G03 X12.296168 Y51.524562 Z-0.125000 I-0.188956 J-0.122728
G03 X12.169180 Y51.610291 Z-0.125000 I-0.617238 J-0.777380
G02 X12.066935 Y51.678529 Z-0.125000 I0.422360 J0.743570
G01 X12.069961 Y51.687462 Z-0.125000
G01 X12.069961 Y51.687457 Z-0.125000
G00 Z5.000000

(End cutting path id: path4860)


(Start cutting path id: path4860)
(Change tool to Default tool)

G00 Z5.000000
G00 X11.307630 Y51.674785

G01 Z-0.125000 F100.0(Penetrate)
G02 X11.366030 Y51.683746 Z-0.125000 I0.053894 J-0.156445 F400.000000
G01 X11.396376 Y51.671963 Z-0.125000
G01 X11.394008 Y51.659721 Z-0.125000
G02 X11.335191 Y51.651022 Z-0.125000 I-0.053108 J0.155886
G01 X11.305331 Y51.662712 Z-0.125000
G01 X11.307629 Y51.674728 Z-0.125000
G01 X11.307630 Y51.674785 Z-0.125000
G00 Z5.000000

(End cutting path id: path4860)


(Start cutting path id: path4860)
(Change tool to Default tool)

G00 Z5.000000
G00 X11.200143 Y51.646667

G01 Z-0.125000 F100.0(Penetrate)
G01 X11.206057 Y51.636216 Z-0.125000 F400.000000
G02 X11.176993 Y51.608082 Z-0.125000 I-0.067250 J0.040394
G02 X11.105670 Y51.576339 Z-0.125000 I-0.213618 J0.383988
G02 X11.061237 Y51.568946 Z-0.125000 I-0.044433 J0.129814
G01 X11.055169 Y51.579563 Z-0.125000
G02 X11.084388 Y51.608082 Z-0.125000 I0.067114 J-0.039535
G02 X11.155715 Y51.639470 Z-0.125000 I0.203302 J-0.365253
G02 X11.200143 Y51.646667 Z-0.125000 I0.044428 J-0.133525
G01 X11.200143 Y51.646667 Z-0.125000
G00 Z5.000000

(End cutting path id: path4860)


(Start cutting path id: path4860)
(Change tool to Default tool)

G00 Z5.000000
G00 X11.626233 Y51.624061

G01 Z-0.125000 F100.0(Penetrate)
G02 X11.842172 Y51.622370 Z-0.125000 I0.101908 J-0.774942 F400.000000
G02 X12.030273 Y51.573348 Z-0.125000 I-0.130912 J-0.887721
G02 X12.219131 Y51.467920 Z-0.125000 I-0.266529 J-0.699309
G02 X12.319662 Y51.351209 Z-0.125000 I-0.229586 J-0.299409
G03 X12.455417 Y51.259155 Z-0.125000 I0.158612 J0.087783
G03 X12.809692 Y51.288922 Z-0.125000 I0.107392 J0.844972
G02 X13.075003 Y51.358050 Z-0.125000 I1.014640 J-3.350451
G02 X13.169635 Y51.368297 Z-0.125000 I0.094633 J-0.431858
G02 X13.371674 Y51.316044 Z-0.125000 I-0.000000 J-0.416724
G02 X13.891176 Y50.968114 Z-0.125000 I-1.807380 J-3.260447
G03 X14.301495 Y50.724406 Z-0.125000 I1.081744 J1.354006
G03 X14.836510 Y50.570689 Z-0.125000 I0.915520 J2.178559
G02 X15.251271 Y50.422831 Z-0.125000 I-0.197239 J-1.208937
G02 X15.542066 Y50.163891 Z-0.125000 I-0.479320 J-0.831041
G03 X15.862052 Y49.856090 Z-0.125000 I1.079259 J0.801756
G03 X16.503937 Y49.505740 Z-0.125000 I2.058280 J3.007852
G02 X17.010840 Y49.128406 Z-0.125000 I-0.514964 J-1.220941
G02 X17.197366 Y48.665689 Z-0.125000 I-0.636661 J-0.525598
G03 X17.267713 Y48.317129 Z-0.125000 I1.446003 J0.110458
G03 X17.361628 Y48.173454 Z-0.125000 I0.320425 J0.106917
G03 X17.503511 Y48.059270 Z-0.125000 I1.065748 J1.179040
G03 X17.622904 Y47.986592 Z-0.125000 I0.553202 J0.774370
G02 X17.762048 Y47.790104 Z-0.125000 I-0.118547 J-0.231462
G02 X17.702830 Y47.398446 Z-0.125000 I-0.698116 J-0.094751
G03 X17.623232 Y46.914227 Z-0.125000 I0.827924 J-0.384749
G03 X17.798741 Y46.520910 Z-0.125000 I0.700539 J0.076784
G02 X17.947150 Y46.143050 Z-0.125000 I-0.433871 J-0.388482
G02 X17.822996 Y45.192482 Z-0.125000 I-3.247462 J-0.059239
G02 X17.468177 Y44.312975 Z-0.125000 I-4.331494 J1.236124
G02 X17.027041 Y43.696484 Z-0.125000 I-2.539224 J1.350892
G02 X16.510806 Y43.284048 Z-0.125000 I-1.685820 J1.580800
G02 X16.164389 Y43.189918 Z-0.125000 I-0.346417 J0.590372
G02 X15.985539 Y43.206210 Z-0.125000 I0.000000 J0.989789
G02 X15.490252 Y43.313940 Z-0.125000 I1.410134 J7.675472
G03 X14.463218 Y43.516458 Z-0.125000 I-2.460316 J-9.771570
G03 X13.432566 Y43.609943 Z-0.125000 I-1.408821 J-9.803873
G03 X12.731163 Y43.535916 Z-0.125000 I-0.094276 J-2.466611
G03 X12.451954 Y43.360792 Z-0.125000 I0.132173 J-0.520872
G02 X12.296947 Y43.213329 Z-0.125000 I-0.736622 J0.619105
G02 X12.121225 Y43.110543 Z-0.125000 I-0.514820 J0.678532
G02 X11.876962 Y43.084764 Z-0.125000 I-0.163165 J0.375926
G02 X11.445986 Y43.246692 Z-0.125000 I0.285579 J1.414567
G03 X11.005624 Y43.409357 Z-0.125000 I-0.706319 J-1.234728
G03 X10.783976 Y43.372919 Z-0.125000 I-0.061069 J-0.320868
G03 X10.691616 Y43.293503 Z-0.125000 I0.153587 J-0.272038
G03 X10.667670 Y43.224092 Z-0.125000 I0.088627 J-0.069411
G03 X10.697810 Y43.178028 Z-0.125000 I0.050270 J0.000000
G03 X10.795001 Y43.168418 Z-0.125000 I0.063422 J0.145132
G02 X11.060196 Y43.167201 Z-0.125000 I0.129870 J-0.594893
G02 X11.412362 Y43.027860 Z-0.125000 I-0.276771 J-1.214202
G03 X11.712777 Y42.888274 Z-0.125000 I0.886987 J1.515896
G03 X11.892470 Y42.857533 Z-0.125000 I0.178810 J0.504656
G03 X12.288422 Y42.949536 Z-0.125000 I-0.001926 J0.906315
G03 X12.612357 Y43.209210 Z-0.125000 I-0.415289 J0.849948
G02 X12.770259 Y43.365199 Z-0.125000 I0.738709 J-0.589851
G02 X12.876390 Y43.414812 Z-0.125000 I0.161773 J-0.207740
G02 X13.305385 Y43.448006 Z-0.125000 I0.336007 J-1.553790
G02 X14.426407 Y43.329375 Z-0.125000 I-0.703173 J-12.000703
G02 X13.733046 Y43.449225 Z-0.125000 I2.056671 J13.963897
G03 X13.153651 Y43.507418 Z-0.125000 I-0.591885 J-2.979631
G03 X12.891617 Y43.496477 Z-0.125000 I-0.012852 J-2.835593
G03 X12.765595 Y43.467178 Z-0.125000 I0.040611 J-0.460355
G03 X12.834552 Y43.520218 Z-0.125000 I-0.140491 J0.253995
G02 X12.879146 Y43.546003 Z-0.125000 I0.066825 J-0.064116
G02 X13.628129 Y43.593251 Z-0.125000 I0.504864 J-2.043058
G02 X15.414185 Y43.250000 Z-0.125000 I-1.434347 J-12.281774
G03 X16.117281 Y43.119523 Z-0.125000 I1.165532 J4.321062
G03 X16.419601 Y43.145820 Z-0.125000 I0.082894 J0.797963
G03 X16.783567 Y43.347205 Z-0.125000 I-0.251338 J0.883841
G03 X17.557310 Y44.171630 Z-0.125000 I-4.544158 J5.040097
G01 X17.562278 Y44.168560 Z-0.125000
G02 X17.513213 Y44.076821 Z-0.125000 I-0.870128 J0.406380
G02 X17.397764 Y43.916184 Z-0.125000 I-1.088030 J0.660161
G02 X17.184688 Y43.688215 Z-0.125000 I-2.353857 J1.986507
G03 X16.991052 Y43.459778 Z-0.125000 I1.051129 J-1.087282
G03 X16.973573 Y43.381738 Z-0.125000 I0.087937 J-0.060674
G02 X16.950995 Y43.316823 Z-0.125000 I-0.070986 J-0.011695
G02 X16.826398 Y43.248346 Z-0.125000 I-0.204947 J0.225318
G03 X16.665603 Y43.199688 Z-0.125000 I0.826755 J-3.022135
G03 X16.491811 Y43.137001 Z-0.125000 I1.141017 J-3.435558
G02 X16.173541 Y43.083261 Z-0.125000 I-0.288746 J0.740740
G02 X15.546476 Y43.172279 Z-0.125000 I0.113419 J3.052070
G03 X15.014038 Y43.259040 Z-0.125000 I-0.785415 J-3.142829
G02 X14.504128 Y43.318348 Z-0.125000 I0.532926 J6.803531
G02 X14.890701 Y43.244435 Z-0.125000 I-1.734001 J-10.116833
G02 X15.402058 Y43.127078 Z-0.125000 I-3.096972 J-14.667088
G03 X16.232215 Y43.010307 Z-0.125000 I0.977966 J3.943324
G03 X16.599849 Y43.083531 Z-0.125000 I0.029533 J0.811216
G02 X16.806244 Y43.170222 Z-0.125000 I1.458526 J-3.183443
G02 X16.966407 Y43.223541 Z-0.125000 I0.681346 J-1.779441
G03 X17.588241 Y43.559699 Z-0.125000 I-0.445914 J1.568089
G03 X18.406732 Y44.472042 Z-0.125000 I-3.208128 J3.701429
G03 X18.556466 Y44.752549 Z-0.125000 I-1.134483 J0.785801
G03 X18.704940 Y45.230514 Z-0.125000 I-3.163742 J1.244820
G03 X18.838429 Y46.541525 Z-0.125000 I-5.106455 J1.182249
G03 X18.663047 Y46.937628 Z-0.125000 I-0.566430 J-0.013919
G02 X18.554254 Y47.141126 Z-0.125000 I0.254594 J0.266942
G02 X18.562727 Y47.511996 Z-0.125000 I0.939698 J0.164063
G03 X18.617981 Y47.826410 Z-0.125000 I-3.496970 J0.776614
G03 X18.632179 Y48.045571 Z-0.125000 I-1.684355 J0.219161
G03 X18.554286 Y48.265381 Z-0.125000 I-0.349095 J-0.000000
G03 X18.132778 Y48.661831 Z-0.125000 I-1.671156 J-1.354484
G02 X18.120672 Y48.821432 Z-0.125000 I0.060560 J0.084853
G02 X18.528000 Y49.046029 Z-0.125000 I0.613613 J-0.631184
G02 X20.371942 Y49.358751 Z-0.125000 I3.199405 J-13.272351
G02 X21.873876 Y49.379514 Z-0.125000 I0.871916 J-8.738741
G02 X24.538302 Y49.043306 Z-0.125000 I-1.793891 J-24.942268
G02 X26.293521 Y48.578598 Z-0.125000 I-2.036117 J-11.237612
G02 X27.276584 Y48.122262 Z-0.125000 I-1.872938 J-5.321833
G02 X28.694065 Y47.169691 Z-0.125000 I-7.102540 J-12.099923
G02 X29.799366 Y46.210915 Z-0.125000 I-7.177943 J-9.391407
G02 X31.365253 Y44.545905 Z-0.125000 I-20.225406 J-20.590168
G03 X33.530649 Y42.313655 Z-0.125000 I21.327926 J18.522778
G03 X34.782236 Y41.391301 Z-0.125000 I4.785016 J5.182674
G03 X38.590242 Y40.244660 Z-0.125000 I4.328659 J7.478983
G03 X43.959970 Y40.837330 Z-0.125000 I0.960770 J15.917028
G03 X44.890063 Y41.126461 Z-0.125000 I-6.336903 J22.025459
G03 X45.452660 Y41.336180 Z-0.125000 I-2.786149 J8.333655
G01 X45.672596 Y41.426579 Z-0.125000
G01 X45.383208 Y41.146011 Z-0.125000
G02 X45.086085 Y40.874863 Z-0.125000 I-4.556038 J4.694132
G02 X44.641824 Y40.510460 Z-0.125000 I-8.500657 J9.910541
G02 X41.644453 Y38.835781 Z-0.125000 I-6.841978 J8.726185
G02 X37.972671 Y38.044874 Z-0.125000 I-4.603892 J12.454968
G02 X34.490405 Y38.170947 Z-0.125000 I-1.151157 J16.358745
G02 X31.084684 Y39.034305 Z-0.125000 I2.368192 J16.490904
G03 X29.808942 Y39.476535 Z-0.125000 I-11.565851 J-31.303875
G03 X29.033062 Y39.699071 Z-0.125000 I-3.646583 J-11.250106
G03 X28.767788 Y39.727974 Z-0.125000 I-0.237719 J-0.950001
G03 X28.639494 Y39.688036 Z-0.125000 I0.006995 J-0.248501
G03 X28.562411 Y39.585199 Z-0.125000 I0.101365 J-0.156287
G03 X28.521534 Y39.295022 Z-0.125000 I0.932639 J-0.279350
G03 X28.551509 Y38.985767 Z-0.125000 I1.807748 J0.019140
G03 X28.631225 Y38.701362 Z-0.125000 I1.604870 J0.296456
G02 X28.705374 Y38.415452 Z-0.125000 I-1.255634 J-0.478211
G02 X28.759659 Y37.815560 Z-0.125000 I-5.587635 J-0.808032
G02 X28.656053 Y36.669509 Z-0.125000 I-4.538381 J-0.167429
G02 X28.306009 Y35.760076 Z-0.125000 I-3.178900 J0.701488
G02 X27.967493 Y35.261181 Z-0.125000 I-3.340427 J1.902294
G02 X27.611477 Y34.891912 Z-0.125000 I-2.169306 J1.735199
G02 X27.268061 Y34.706317 Z-0.125000 I-0.595156 J0.690727
G02 X27.154519 Y34.760724 Z-0.125000 I-0.026164 J0.091078
G03 X26.845995 Y35.049368 Z-0.125000 I-0.476287 J-0.199883
G03 X26.498022 Y34.986172 Z-0.125000 I-0.117555 J-0.342323
G01 X26.371242 Y34.881992 Z-0.125000
G01 X26.224619 Y35.026411 Z-0.125000
G03 X25.945451 Y35.156208 Z-0.125000 I-0.322598 J-0.328731
G03 X25.695452 Y35.076570 Z-0.125000 I-0.031556 J-0.333159
G01 X25.586311 Y34.982311 Z-0.125000
G01 X25.418742 Y35.154842 Z-0.125000
G01 X25.251724 Y35.327373 Z-0.125000
G01 X25.514653 Y35.757322 Z-0.125000
G03 X25.912727 Y36.501518 Z-0.125000 I-6.251078 J3.822289
G03 X25.982084 Y36.766596 Z-0.125000 I-0.703553 J0.325696
G03 X25.828792 Y37.245485 Z-0.125000 I-0.662377 J0.051952
G03 X24.934224 Y38.016753 Z-0.125000 I-2.815497 J-2.361178
G02 X24.078837 Y38.763756 Z-0.125000 I1.777707 J2.898886
G02 X23.694541 Y39.533144 Z-0.125000 I1.512667 J1.236221
G02 X23.721749 Y40.459059 Z-0.125000 I1.682004 J0.413930
G02 X24.402852 Y41.823446 Z-0.125000 I4.489812 J-1.389121
G03 X24.569095 Y42.178846 Z-0.125000 I-0.848709 J0.613574
G03 X24.511993 Y42.252291 Z-0.125000 I-0.057102 J0.014525
G03 X24.214795 Y42.090056 Z-0.125000 I0.000000 J-0.353337
G03 X23.590912 Y40.820233 Z-0.125000 I5.195750 J-3.340920
G03 X23.450278 Y40.244441 Z-0.125000 I2.732697 J-0.972515
G03 X23.436021 Y39.698510 Z-0.125000 I2.439850 J-0.336872
G01 X23.456417 Y39.459284 Z-0.125000
G01 X23.208921 Y39.333055 Z-0.125000
G02 X22.410919 Y39.035397 Z-0.125000 I-1.683480 J3.294778
G02 X20.552064 Y38.678211 Z-0.125000 I-4.372270 J17.738572
G02 X18.570798 Y38.556697 Z-0.125000 I-1.780641 J12.820110
G02 X17.941508 Y38.719001 Z-0.125000 I0.021460 J1.384304
G02 X17.913495 Y38.767333 Z-0.125000 I0.024879 J0.046704
G02 X17.954186 Y39.125799 Z-0.125000 I2.194266 J-0.067536
G03 X18.016339 Y39.501127 Z-0.125000 I-5.986207 J1.184108
G03 X18.058916 Y39.907422 Z-0.125000 I-7.100519 J0.949474
G03 X18.053025 Y40.290481 Z-0.125000 I-2.095560 J0.159348
G03 X18.012063 Y40.341229 Z-0.125000 I-0.059855 J-0.006408
G03 X17.935769 Y40.356483 Z-0.125000 I-0.100286 J-0.303161
G01 X17.912844 Y40.348933 Z-0.125000
G01 X17.900348 Y40.326549 Z-0.125000
G03 X17.843391 Y39.915127 Z-0.125000 I9.576309 J-1.535392
G02 X17.707978 Y39.076439 Z-0.125000 I-9.609824 J1.121308
G02 X17.402419 Y37.783578 Z-0.125000 I-23.159612 J4.791088
G03 X17.197223 Y36.984132 Z-0.125000 I44.682804 J-11.894936
G03 X17.072241 Y36.447431 Z-0.125000 I19.766532 J-4.885924
G02 X16.652738 Y35.143090 Z-0.125000 I-6.988597 J1.528046
G02 X16.368339 Y34.814733 Z-0.125000 I-0.660618 J0.284838
G01 X16.231638 Y34.730947 Z-0.125000
G01 X16.177067 Y34.874262 Z-0.125000
G03 X16.106538 Y35.007507 Z-0.125000 I-0.582949 J-0.223278
G03 X15.983040 Y35.153730 Z-0.125000 I-0.841682 J-0.585611
G03 X15.706190 Y35.265972 Z-0.125000 I-0.274641 J-0.279862
G03 X15.410878 Y35.150428 Z-0.125000 I0.002487 J-0.441512
G02 X15.272240 Y35.068348 Z-0.125000 I-0.265984 J0.291137
G01 X15.229529 Y35.088692 Z-0.125000
G03 X15.068422 Y35.287404 Z-0.125000 I-0.372210 J-0.137105
G03 X14.782493 Y35.369811 Z-0.125000 I-0.285929 J-0.454848
G03 X14.655677 Y35.342066 Z-0.125000 I-0.000000 J-0.303703
G03 X14.514602 Y35.246889 Z-0.125000 I0.219276 J-0.477157
G01 X14.384515 Y35.124520 Z-0.125000
G01 X14.278682 Y35.271143 Z-0.125000
G03 X14.161125 Y35.403867 Z-0.125000 I-0.702963 J-0.504209
G03 X14.044967 Y35.485567 Z-0.125000 I-0.369819 J-0.402370
G01 X13.915982 Y35.552815 Z-0.125000
G01 X14.098435 Y35.950240 Z-0.125000
G03 X14.332079 Y36.568370 Z-0.125000 I-4.345490 J1.995758
G03 X14.485388 Y37.236778 Z-0.125000 I-4.921099 J1.480508
G03 X14.536132 Y38.737035 Z-0.125000 I-5.950062 J0.952241
G03 X14.227419 Y40.061755 Z-0.125000 I-4.927650 J-0.450011
G03 X13.897244 Y40.748004 Z-0.125000 I-4.360747 J-1.675532
G03 X13.803534 Y40.785500 Z-0.125000 I-0.071004 J-0.041606
G03 X13.750515 Y40.705892 Z-0.125000 I0.020379 J-0.071032
G03 X13.854798 Y40.345631 Z-0.125000 I1.130857 J0.132119
G02 X14.189956 Y39.558580 Z-0.125000 I-8.642397 J-4.145172
G02 X14.173400 Y39.494003 Z-0.125000 I-0.054582 J-0.020417
G02 X14.108901 Y39.482242 Z-0.125000 I-0.042263 J0.049039
G02 X13.145383 Y39.869931 Z-0.125000 I5.585440 J15.272564
G02 X12.174567 Y40.366380 Z-0.125000 I3.773790 J8.577190
G02 X10.760275 Y41.270572 Z-0.125000 I11.210444 J19.092987
G03 X9.647874 Y41.859720 Z-0.125000 I-3.005552 J-4.330178
G03 X8.838738 Y42.009752 Z-0.125000 I-0.807588 J-2.098506
G03 X8.240103 Y41.976798 Z-0.125000 I0.002948 J-5.507371
G03 X7.487159 Y41.861472 Z-0.125000 I0.978394 J-8.903395
G02 X6.298677 Y41.719654 Z-0.125000 I-1.528395 J7.757580
G02 X5.863830 Y41.792020 Z-0.125000 I-0.045906 J1.066826
G02 X5.682861 Y41.880085 Z-0.125000 I0.458329 J1.171813
G01 X5.667046 Y41.907776 Z-0.125000
G02 X5.725040 Y42.006724 Z-0.125000 I0.113408 J-0.000000
G02 X6.546785 Y42.400562 Z-0.125000 I3.503641 J-6.256166
G03 X7.287842 Y42.826696 Z-0.125000 I-1.157821 J2.870896
G03 X7.371955 Y43.041627 Z-0.125000 I-0.138288 J0.178043
G03 X7.275616 Y43.120716 Z-0.125000 I-0.093345 J-0.015484
G03 X7.127766 Y43.033894 Z-0.125000 I0.005666 J-0.178945
G02 X6.931225 Y42.827482 Z-0.125000 I-0.559000 J0.335493
G02 X6.457488 Y42.585756 Z-0.125000 I-1.258974 J1.882264
G03 X5.590274 Y42.148703 Z-0.125000 I1.497125 J-4.049545
G03 X5.216152 Y41.773264 Z-0.125000 I0.704016 J-1.075672
G02 X5.155471 Y41.745260 Z-0.125000 I-0.052556 J0.034137
G02 X4.980231 Y41.804133 Z-0.125000 I0.062120 J0.475147
G02 X4.197051 Y43.028878 Z-0.125000 I0.774292 J1.357913
G02 X4.763053 Y44.341376 Z-0.125000 I1.506147 J0.128780
G02 X5.211611 Y44.592404 Z-0.125000 I0.997067 J-1.255369
G02 X5.539715 Y44.624151 Z-0.125000 I0.225516 J-0.619345
G03 X6.322091 Y44.742494 Z-0.125000 I0.204150 J1.295691
G03 X6.668053 Y45.178122 Z-0.125000 I-0.285989 J0.582313
G02 X6.709657 Y45.288965 Z-0.125000 I0.441485 J-0.102481
G01 X6.735301 Y45.304349 Z-0.125000
G03 X6.916682 Y45.371939 Z-0.125000 I0.000000 J0.277169
G03 X7.565982 Y46.023135 Z-0.125000 I-4.099802 J4.737169
G02 X8.408401 Y46.776284 Z-0.125000 I3.283718 J-2.825227
G02 X9.785726 Y47.537875 Z-0.125000 I4.745132 J-6.955257
G01 X9.991881 Y47.627724 Z-0.125000
G01 X10.100470 Y47.513621 Z-0.125000
G02 X10.388309 Y47.143317 Z-0.125000 I-1.732693 J-1.643849
G02 X10.649481 Y46.642700 Z-0.125000 I-2.932144 J-1.848136
G01 X10.750904 Y46.401268 Z-0.125000
G01 X11.184159 Y46.402397 Z-0.125000
G03 X11.608545 Y46.442321 Z-0.125000 I-0.004889 J2.327488
G03 X11.909008 Y46.538546 Z-0.125000 I-0.234412 J1.249161
G03 X12.326370 Y46.843753 Z-0.125000 I-0.555824 J1.198044
G03 X12.427701 Y47.104094 Z-0.125000 I-0.283770 J0.260341
G03 X12.140995 Y47.845732 Z-0.125000 I-1.102570 J0.000000
G03 X10.477501 Y49.249423 Z-0.125000 I-6.112874 J-5.556739
G03 X9.935230 Y49.585911 Z-0.125000 I-12.817309 J-20.050754
G03 X9.733361 Y49.697561 Z-0.125000 I-1.619324 J-2.689486
G02 X9.566551 Y49.835679 Z-0.125000 I0.220980 J0.436674
G02 X9.426885 Y50.096090 Z-0.125000 I0.717834 J0.552655
G02 X9.331050 Y50.392172 Z-0.125000 I9.549152 J3.254413
G02 X9.270340 Y50.605414 Z-0.125000 I5.233754 J1.605308
G02 X9.259576 Y50.803488 Z-0.125000 I0.476178 J0.125206
G02 X9.312784 Y50.889290 Z-0.125000 I0.126252 J-0.018893
G02 X9.418341 Y50.944059 Z-0.125000 I0.261280 J-0.374462
G02 X9.912506 Y51.107019 Z-0.125000 I3.009472 J-8.295294
G03 X10.411749 Y51.260521 Z-0.125000 I-8.051194 J27.073848
G03 X10.922332 Y51.427826 Z-0.125000 I-8.930565 J28.117147
G02 X11.402660 Y51.577623 Z-0.125000 I3.434385 J-10.167437
G02 X11.626234 Y51.624058 Z-0.125000 I0.424624 J-1.483025
G01 X11.626233 Y51.624061 Z-0.125000
G00 Z5.000000

(End cutting path id: path4860)


(Start cutting path id: path4860)
(Change tool to Default tool)

G00 Z5.000000
G00 X14.504128 Y43.318348

G01 Z-0.125000 F100.0(Penetrate)
G02 X14.482330 Y43.322951 Z-0.125000 I0.039966 J0.243194 F400.000000
G03 X14.462235 Y43.327154 Z-0.125000 I-0.054596 J-0.210900
G03 X14.444761 Y43.328291 Z-0.125000 I-0.014314 J-0.085142
G02 X14.426406 Y43.329412 Z-0.125000 I-0.003454 J0.094283
G03 X14.465143 Y43.323985 Z-0.125000 I0.380582 J2.575913
G02 X14.504128 Y43.318377 Z-0.125000 I-0.230326 J-1.739238
G01 X14.504128 Y43.318348 Z-0.125000
G00 Z5.000000

(End cutting path id: path4860)


(Start cutting path id: path4860)
(Change tool to Default tool)

G00 Z5.000000
G00 X10.968633 Y51.566742

G01 Z-0.125000 F100.0(Penetrate)
G01 X10.974547 Y51.556290 Z-0.125000 F400.000000
G02 X10.945482 Y51.528156 Z-0.125000 I-0.067250 J0.040394
G02 X10.874157 Y51.496772 Z-0.125000 I-0.203622 J0.366019
G02 X10.829727 Y51.489571 Z-0.125000 I-0.044430 J0.133462
G01 X10.823813 Y51.500022 Z-0.125000
G02 X10.852878 Y51.528156 Z-0.125000 I0.067250 J-0.040394
G02 X10.924203 Y51.559540 Z-0.125000 I0.203618 J-0.366009
G02 X10.968633 Y51.566742 Z-0.125000 I0.044430 J-0.133463
G01 X10.968633 Y51.566742 Z-0.125000
G00 Z5.000000

(End cutting path id: path4860)


(Start cutting path id: path4860)
(Change tool to Default tool)

G00 Z5.000000
G00 X10.737122 Y51.486813

G01 Z-0.125000 F100.0(Penetrate)
G01 X10.743036 Y51.476363 Z-0.125000 F400.000000
G02 X10.713972 Y51.448231 Z-0.125000 I-0.067242 J0.040391
G02 X10.642646 Y51.416847 Z-0.125000 I-0.203621 J0.366017
G02 X10.598216 Y51.409645 Z-0.125000 I-0.044430 J0.133463
G01 X10.592302 Y51.420097 Z-0.125000
G02 X10.621367 Y51.448231 Z-0.125000 I0.067250 J-0.040394
G02 X10.692692 Y51.479613 Z-0.125000 I0.203573 J-0.365931
G02 X10.737122 Y51.486813 Z-0.125000 I0.044430 J-0.133481
G01 X10.737122 Y51.486813 Z-0.125000
G00 Z5.000000

(End cutting path id: path4860)


(Start cutting path id: path4860)
(Change tool to Default tool)

G00 Z5.000000
G00 X13.110655 Y51.474678

G01 Z-0.125000 F100.0(Penetrate)
G02 X13.168533 Y51.484448 Z-0.125000 I0.057878 J-0.166540 F400.000000
G02 X13.226411 Y51.474678 Z-0.125000 I0.000000 J-0.176308
G01 X13.226381 Y51.464434 Z-0.125000
G02 X13.168533 Y51.454838 Z-0.125000 I-0.057848 J0.169565
G02 X13.110685 Y51.464434 Z-0.125000 I0.000000 J0.179159
G01 X13.110655 Y51.474678 Z-0.125000
G01 X13.110655 Y51.474678 Z-0.125000
G00 Z5.000000

(End cutting path id: path4860)


(Start cutting path id: path4860)
(Change tool to Default tool)

G00 Z5.000000
G00 X13.360907 Y51.446015

G01 Z-0.125000 F100.0(Penetrate)
G02 X13.521737 Y51.400615 Z-0.125000 I0.009024 J-0.275601 F400.000000
G02 X14.045517 Y50.994570 Z-0.125000 I-2.388343 J-3.621702
G01 X14.032045 Y50.975241 Z-0.125000
G02 X13.827235 Y51.108672 Z-0.125000 I0.590785 J1.130726
G03 X13.495265 Y51.354459 Z-0.125000 I-3.574225 J-4.480425
G03 X13.393429 Y51.405776 Z-0.125000 I-0.240533 J-0.350624
G02 X13.354869 Y51.432811 Z-0.125000 I0.027865 J0.080762
G01 X13.360907 Y51.446015 Z-0.125000
G01 X13.360907 Y51.446015 Z-0.125000
G00 Z5.000000

(End cutting path id: path4860)


(Start cutting path id: path4860)
(Change tool to Default tool)

G00 Z5.000000
G00 X12.928203 Y51.435545

G01 Z-0.125000 F100.0(Penetrate)
G02 X12.986624 Y51.444177 Z-0.125000 I0.052264 J-0.151712 F400.000000
G01 X13.016949 Y51.432243 Z-0.125000
G01 X13.014618 Y51.420050 Z-0.125000
G02 X12.956315 Y51.411302 Z-0.125000 I-0.052705 J0.152600
G01 X12.925844 Y51.423260 Z-0.125000
G01 X12.928203 Y51.435545 Z-0.125000
G01 X12.928203 Y51.435545 Z-0.125000
G00 Z5.000000

(End cutting path id: path4860)


(Start cutting path id: path4860)
(Change tool to Default tool)

G00 Z5.000000
G00 X12.751814 Y51.385936

G01 Z-0.125000 F100.0(Penetrate)
G01 X12.755968 Y51.377822 Z-0.125000 F400.000000
G02 X12.711576 Y51.350658 Z-0.125000 I-0.101262 J0.115629
G02 X12.461883 Y51.288129 Z-0.125000 I-0.357589 J0.898129
G01 X12.427700 Y51.318688 Z-0.125000
G01 X12.440461 Y51.336479 Z-0.125000
G02 X12.531879 Y51.353966 Z-0.125000 I0.108976 J-0.322004
G03 X12.635383 Y51.364110 Z-0.125000 I-0.058368 J1.128629
G03 X12.751814 Y51.385936 Z-0.125000 I-0.204094 J1.410226
G01 X12.751814 Y51.385936 Z-0.125000
G00 Z5.000000

(End cutting path id: path4860)


(Start cutting path id: path4860)
(Change tool to Default tool)

G00 Z5.000000
G00 X10.436159 Y51.385372

G01 Z-0.125000 F100.0(Penetrate)
G02 X10.481007 Y51.385754 Z-0.125000 I0.023287 J-0.101040 F400.000000
G01 X10.482461 Y51.375437 Z-0.125000
G02 X10.410826 Y51.344169 Z-0.125000 I-0.236149 J0.443327
G02 X10.297253 Y51.311497 Z-0.125000 I-0.361476 J1.042800
G02 X10.252359 Y51.311426 Z-0.125000 I-0.022602 J0.098065
G01 X10.250951 Y51.321967 Z-0.125000
G02 X10.322588 Y51.353011 Z-0.125000 I0.228148 J-0.428307
G02 X10.436159 Y51.385357 Z-0.125000 I0.374144 J-1.098094
G01 X10.436159 Y51.385372 Z-0.125000
G00 Z5.000000

(End cutting path id: path4860)


(Start cutting path id: path4860)
(Change tool to Default tool)

G00 Z5.000000
G00 X9.544844 Y51.373800

G01 Z-0.125000 F100.0(Penetrate)
G01 X9.561672 Y51.372742 Z-0.125000 F400.000000
G01 X9.562483 Y51.358363 Z-0.125000
G02 X9.480709 Y51.293816 Z-0.125000 I-0.235588 J0.214392
G01 X9.463815 Y51.303792 Z-0.125000
G01 X9.469370 Y51.315949 Z-0.125000
G02 X9.544844 Y51.373795 Z-0.125000 I0.521882 J-0.602764
G01 X9.544844 Y51.373800 Z-0.125000
G00 Z5.000000

(End cutting path id: path4860)


(Start cutting path id: path4860)
(Change tool to Default tool)

G00 Z5.000000
G00 X9.366801 Y51.146702

G01 Z-0.125000 F100.0(Penetrate)
G01 X9.398163 Y51.164435 Z-0.125000 F400.000000
G01 X9.427986 Y51.139533 Z-0.125000
G02 X9.426095 Y51.068803 Z-0.125000 I-0.107166 J-0.032525
G02 X9.389401 Y51.033150 Z-0.125000 I-0.055096 J0.019995
G01 X9.355945 Y51.052636 Z-0.125000
G02 X9.366801 Y51.146702 Z-0.125000 I0.151446 J0.030182
G01 X9.366801 Y51.146702 Z-0.125000
G00 Z5.000000

(End cutting path id: path4860)


(Start cutting path id: path4860)
(Change tool to Default tool)

G00 Z5.000000
G00 X15.911931 Y51.014410

G01 Z-0.125000 F100.0(Penetrate)
G02 X15.987406 Y50.956562 Z-0.125000 I-0.446260 J-0.660394 F400.000000
G01 X15.992960 Y50.944405 Z-0.125000
G01 X15.976089 Y50.934518 Z-0.125000
G02 X15.894293 Y50.999526 Z-0.125000 I0.159352 J0.284470
G01 X15.895226 Y51.013522 Z-0.125000
G01 X15.911931 Y51.014399 Z-0.125000
G01 X15.911931 Y51.014410 Z-0.125000
G00 Z5.000000

(End cutting path id: path4860)


(Start cutting path id: path4860)
(Change tool to Default tool)

G00 Z5.000000
G00 X9.220729 Y50.974721

G01 Z-0.125000 F100.0(Penetrate)
G01 X9.236368 Y50.970764 Z-0.125000 F400.000000
G01 X9.233957 Y50.949378 Z-0.125000
G03 X9.166287 Y50.869336 Z-0.125000 I11.656045 J-9.923080
G03 X9.152928 Y50.852914 Z-0.125000 I0.522033 J-0.438290
G01 X9.145723 Y50.853595 Z-0.125000
G02 X9.139701 Y50.878258 Z-0.125000 I0.047485 J0.024662
G02 X9.152418 Y50.913181 Z-0.125000 I0.054310 J-0.000000
G02 X9.220729 Y50.974721 Z-0.125000 I0.254033 J-0.213298
G01 X9.220729 Y50.974721 Z-0.125000
G00 Z5.000000

(End cutting path id: path4860)


(Start cutting path id: path4860)
(Change tool to Default tool)

G00 Z5.000000
G00 X14.233481 Y50.831956

G01 Z-0.125000 F100.0(Penetrate)
G01 X14.242176 Y50.838448 Z-0.125000 F400.000000
G02 X14.365773 Y50.792821 Z-0.125000 I-0.285639 J-0.963958
G03 X14.502415 Y50.746693 Z-0.125000 I0.314068 J0.704899
G03 X14.789106 Y50.693049 Z-0.125000 I0.713382 J3.019678
G02 X15.075681 Y50.645502 Z-0.125000 I-0.754842 J-5.436889
G02 X15.103850 Y50.631866 Z-0.125000 I-0.011551 J-0.059777
G01 X15.098522 Y50.618847 Z-0.125000
G02 X14.752174 Y50.655009 Z-0.125000 I0.297841 J4.529384
G02 X14.278776 Y50.768641 Z-0.125000 I0.371587 J2.590959
G02 X14.233481 Y50.831948 Z-0.125000 I0.021593 J0.063306
G01 X14.233481 Y50.831956 Z-0.125000
G00 Z5.000000

(End cutting path id: path4860)


(Start cutting path id: path4860)
(Change tool to Default tool)

G00 Z5.000000
G00 X9.145213 Y50.630213

G01 Z-0.125000 F100.0(Penetrate)
G01 X9.157501 Y50.633352 Z-0.125000 F400.000000
G02 X9.191515 Y50.554696 Z-0.125000 I-0.257569 J-0.158063
G02 X9.222877 Y50.402142 Z-0.125000 I-1.191477 J-0.324445
G01 X9.215769 Y50.383268 Z-0.125000
G01 X9.171926 Y50.396391 Z-0.125000
G02 X9.145213 Y50.630213 Z-0.125000 I0.692838 J0.197589
G01 X9.145213 Y50.630213 Z-0.125000
G00 Z5.000000

(End cutting path id: path4860)


(Start cutting path id: path4860)
(Change tool to Default tool)

G00 Z5.000000
G00 X15.192596 Y50.610372

G01 Z-0.125000 F100.0(Penetrate)
G02 X15.363962 Y50.550489 Z-0.125000 I0.000742 J-0.273015 F400.000000
G02 X15.636324 Y50.255390 Z-0.125000 I-0.837710 J-1.046403
G01 X15.622891 Y50.239713 Z-0.125000
G02 X15.556949 Y50.292872 Z-0.125000 I0.076900 J0.162869
G03 X15.420393 Y50.438761 Z-0.125000 I-0.814520 J-0.625560
G03 X15.284648 Y50.532101 Z-0.125000 I-0.459458 J-0.522813
G02 X15.187892 Y50.597547 Z-0.125000 I0.245240 J0.466816
G01 X15.192596 Y50.610372 Z-0.125000
G01 X15.192596 Y50.610372 Z-0.125000
G00 Z5.000000

(End cutting path id: path4860)


(Start cutting path id: path4860)
(Change tool to Default tool)

G00 Z5.000000
G00 X9.264275 Y50.298937

G01 Z-0.125000 F100.0(Penetrate)
G02 X9.273817 Y50.249649 Z-0.125000 I-0.094382 J-0.043838 F400.000000
G01 X9.260417 Y50.222317 Z-0.125000
G01 X9.245765 Y50.225487 Z-0.125000
G02 X9.236163 Y50.274683 Z-0.125000 I0.095559 J0.044186
G01 X9.249525 Y50.302103 Z-0.125000
G01 X9.264275 Y50.298926 Z-0.125000
G01 X9.264275 Y50.298937 Z-0.125000
G00 Z5.000000

(End cutting path id: path4860)


(Start cutting path id: path4860)
(Change tool to Default tool)

G00 Z5.000000
G00 X7.137135 Y50.237752

G01 Z-0.125000 F100.0(Penetrate)
G02 X7.195014 Y50.247522 Z-0.125000 I0.057878 J-0.166545 F400.000000
G02 X7.252891 Y50.237752 Z-0.125000 I0.000000 J-0.176309
G01 X7.252862 Y50.227507 Z-0.125000
G02 X7.195013 Y50.217911 Z-0.125000 I-0.057848 J0.169565
G02 X7.137164 Y50.227508 Z-0.125000 I0.000000 J0.179160
G01 X7.137135 Y50.237752 Z-0.125000
G01 X7.137135 Y50.237752 Z-0.125000
G00 Z5.000000

(End cutting path id: path4860)


(Start cutting path id: path4860)
(Change tool to Default tool)

G00 Z5.000000
G00 X6.789870 Y50.210743

G01 Z-0.125000 F100.0(Penetrate)
G02 X6.855562 Y50.195994 Z-0.125000 I0.000946 J-0.149458 F400.000000
G01 X6.870898 Y50.171607 Z-0.125000
G01 X6.851810 Y50.152519 Z-0.125000
G02 X6.778294 Y50.171607 Z-0.125000 I-0.000000 J0.151113
G01 X6.768801 Y50.194874 Z-0.125000
G01 X6.789871 Y50.210743 Z-0.125000
G01 X6.789870 Y50.210743 Z-0.125000
G00 Z5.000000

(End cutting path id: path4860)


(Start cutting path id: path4860)
(Change tool to Default tool)

G00 Z5.000000
G00 X9.294041 Y50.158377

G01 Z-0.125000 F100.0(Penetrate)
G01 X9.308080 Y50.155936 Z-0.125000 F400.000000
G02 X9.344753 Y50.069081 Z-0.125000 I-0.354103 J-0.200685
G02 X9.364562 Y49.966128 Z-0.125000 I-0.539805 J-0.157249
G01 X9.356329 Y49.945609 Z-0.125000
G01 X9.342173 Y49.948011 Z-0.125000
G02 X9.305066 Y50.034904 Z-0.125000 I0.341347 J0.197140
G02 X9.285709 Y50.137857 Z-0.125000 I0.516098 J0.150336
G01 X9.294043 Y50.158377 Z-0.125000
G01 X9.294041 Y50.158377 Z-0.125000
G00 Z5.000000

(End cutting path id: path4860)


(Start cutting path id: path4860)
(Change tool to Default tool)

G00 Z5.000000
G00 X7.032956 Y50.142403

G01 Z-0.125000 F100.0(Penetrate)
G01 X7.426523 Y50.114830 Z-0.125000 F400.000000
G02 X9.297833 Y49.653990 Z-0.125000 I-0.394022 J-5.629775
G02 X11.157148 Y48.479925 Z-0.125000 I-2.949843 J-6.730827
G02 X12.102499 Y47.486038 Z-0.125000 I-4.633217 J-5.353493
G02 X12.241389 Y47.092515 Z-0.125000 I-0.516322 J-0.403502
G02 X12.166718 Y46.932819 Z-0.125000 I-0.201494 J-0.003090
G02 X11.746398 Y46.691231 Z-0.125000 I-0.963254 J1.189456
G02 X11.473960 Y46.607109 Z-0.125000 I-0.801512 J2.112541
G02 X11.210616 Y46.562247 Z-0.125000 I-0.462889 J1.921868
G01 X10.943277 Y46.535239 Z-0.125000
G01 X10.889809 Y46.667530 Z-0.125000
G03 X10.043554 Y47.901840 Z-0.125000 I-3.224748 J-1.303665
G03 X7.472826 Y49.870092 Z-0.125000 I-11.139879 J-11.886826
G01 X7.032956 Y50.142403 Z-0.125000
G00 Z5.000000

(End cutting path id: path4860)


(Start cutting path id: path4860)
(Change tool to Default tool)

G00 Z5.000000
G00 X15.764206 Y50.025546

G01 Z-0.125000 F100.0(Penetrate)
G01 X15.773447 Y50.036964 Z-0.125000 F400.000000
G02 X15.860117 Y49.984756 Z-0.125000 I-0.141099 J-0.332287
G03 X16.022765 Y49.868251 Z-0.125000 I1.032514 J1.269669
G03 X16.224471 Y49.756001 Z-0.125000 I1.167067 J1.859778
G02 X16.384366 Y49.664879 Z-0.125000 I-0.645204 J-1.318014
G01 X16.381016 Y49.653475 Z-0.125000
G02 X16.072491 Y49.737716 Z-0.125000 I-0.005751 J0.586030
G02 X15.764206 Y50.025546 Z-0.125000 I0.527109 J0.873581
G01 X15.764206 Y50.025546 Z-0.125000
G00 Z5.000000

(End cutting path id: path4860)


(Start cutting path id: path4860)
(Change tool to Default tool)

G00 Z5.000000
G00 X9.343650 Y49.836480

G01 Z-0.125000 F100.0(Penetrate)
G01 X9.391101 Y49.841910 Z-0.125000 F400.000000
G02 X9.450035 Y49.786317 Z-0.125000 I-0.056251 J-0.118666
G02 X9.496032 Y49.696679 Z-0.125000 I-1.638681 J-0.897508
G01 X9.494132 Y49.694265 Z-0.125000
G01 X9.487204 Y49.696579 Z-0.125000
G02 X9.387747 Y49.743874 Z-0.125000 I2.495313 J5.375591
G02 X9.334603 Y49.797541 Z-0.125000 I0.050043 J0.102703
G01 X9.343650 Y49.836480 Z-0.125000
G01 X9.343650 Y49.836480 Z-0.125000
G00 Z5.000000

(End cutting path id: path4860)


(Start cutting path id: path4860)
(Change tool to Default tool)

G00 Z5.000000
G00 X20.760972 Y49.495829

G01 Z-0.125000 F100.0(Penetrate)
G02 X21.199745 Y49.511243 Z-0.125000 I0.438419 J-6.227088 F400.000000
G02 X21.663863 Y49.495829 Z-0.125000 I-0.000397 J-7.006812
G01 X21.663893 Y49.480380 Z-0.125000
G02 X21.225096 Y49.464959 Z-0.125000 I-0.438753 J6.234080
G02 X20.761002 Y49.480380 Z-0.125000 I0.000051 J6.992754
G01 X20.760972 Y49.495829 Z-0.125000
G01 X20.760972 Y49.495829 Z-0.125000
G00 Z5.000000

(End cutting path id: path4860)


(Start cutting path id: path4860)
(Change tool to Default tool)

G00 Z5.000000
G00 X20.056519 Y49.441809

G01 Z-0.125000 F100.0(Penetrate)
G02 X20.160974 Y49.449997 Z-0.125000 I0.100044 J-0.605855 F400.000000
G02 X20.241727 Y49.440680 Z-0.125000 I-0.002716 J-0.378142
G01 X20.241457 Y49.431761 Z-0.125000
G02 X20.136997 Y49.423605 Z-0.125000 I-0.100978 J0.620326
G02 X20.056253 Y49.432767 Z-0.125000 I0.001023 J0.369417
G01 X20.056519 Y49.441780 Z-0.125000
G01 X20.056519 Y49.441809 Z-0.125000
G00 Z5.000000

(End cutting path id: path4860)


(Start cutting path id: path4860)
(Change tool to Default tool)

G00 Z5.000000
G00 X22.232166 Y49.441809

G01 Z-0.125000 F100.0(Penetrate)
G02 X22.336346 Y49.450396 Z-0.125000 I0.104180 J-0.627650 F400.000000
G02 X22.440525 Y49.441809 Z-0.125000 I0.000000 J-0.636237
G01 X22.440544 Y49.432986 Z-0.125000
G02 X22.336346 Y49.424170 Z-0.125000 I-0.104199 J0.611383
G02 X22.232147 Y49.432986 Z-0.125000 I-0.000000 J0.620188
G01 X22.232166 Y49.441809 Z-0.125000
G01 X22.232166 Y49.441809 Z-0.125000
G00 Z5.000000

(End cutting path id: path4860)


(Start cutting path id: path4860)
(Change tool to Default tool)

G00 Z5.000000
G00 X22.649436 Y49.401569

G01 Z-0.125000 F100.0(Penetrate)
G02 X22.753890 Y49.410075 Z-0.125000 I0.103726 J-0.628157 F400.000000
G02 X22.834644 Y49.401005 Z-0.125000 I-0.000421 J-0.367752
G01 X22.834402 Y49.391909 Z-0.125000
G02 X22.729913 Y49.383366 Z-0.125000 I-0.101150 J0.593919
G02 X22.649176 Y49.392587 Z-0.125000 I0.002085 J0.376318
G01 X22.649436 Y49.401569 Z-0.125000
G01 X22.649436 Y49.401569 Z-0.125000
G00 Z5.000000

(End cutting path id: path4860)


(Start cutting path id: path4860)
(Change tool to Default tool)

G00 Z5.000000
G00 X19.755556 Y49.401016

G01 Z-0.125000 F100.0(Penetrate)
G02 X19.836905 Y49.409839 Z-0.125000 I0.079073 J-0.349656 F400.000000
G02 X19.894462 Y49.399887 Z-0.125000 I-0.001130 J-0.177966
G01 X19.893926 Y49.389971 Z-0.125000
G02 X19.812882 Y49.381148 Z-0.125000 I-0.077256 J0.332991
G02 X19.755007 Y49.391187 Z-0.125000 I0.002034 J0.183576
G01 X19.755556 Y49.400988 Z-0.125000
G01 X19.755556 Y49.401016 Z-0.125000
G00 Z5.000000

(End cutting path id: path4860)


(Start cutting path id: path4860)
(Change tool to Default tool)

G00 Z5.000000
G00 X5.678620 Y49.372907

G01 Z-0.125000 F100.0(Penetrate)
G02 X5.744329 Y49.358141 Z-0.125000 I0.000946 J-0.149380 F400.000000
G01 X5.759648 Y49.333771 Z-0.125000
G01 X5.740560 Y49.314683 Z-0.125000
G02 X5.667044 Y49.333771 Z-0.125000 I-0.000000 J0.151113
G01 X5.657551 Y49.357038 Z-0.125000
G01 X5.678621 Y49.372907 Z-0.125000
G01 X5.678620 Y49.372907 Z-0.125000
G00 Z5.000000

(End cutting path id: path4860)


(Start cutting path id: path4860)
(Change tool to Default tool)

G00 Z5.000000
G00 X23.054028 Y49.365738

G01 Z-0.125000 F100.0(Penetrate)
G02 X23.192327 Y49.361112 Z-0.125000 I0.030180 J-1.167156 F400.000000
G02 X23.378143 Y49.335973 Z-0.125000 I-0.208071 J-2.237240
G02 X23.428054 Y49.315436 Z-0.125000 I-0.022328 J-0.125183
G01 X23.424445 Y49.304002 Z-0.125000
G02 X23.286004 Y49.310896 Z-0.125000 I0.012090 J1.636466
G02 X23.100330 Y49.333768 Z-0.125000 I0.282536 J3.058592
G02 X23.050413 Y49.353633 Z-0.125000 I0.018303 J0.118640
G01 X23.054028 Y49.365738 Z-0.125000
G01 X23.054028 Y49.365738 Z-0.125000
G00 Z5.000000

(End cutting path id: path4860)


(Start cutting path id: path4860)
(Change tool to Default tool)

G00 Z5.000000
G00 X19.558221 Y49.365174

G01 Z-0.125000 F100.0(Penetrate)
G01 X19.564424 Y49.352827 Z-0.125000 F400.000000
G01 X19.535070 Y49.333754 Z-0.125000
G02 X19.395513 Y49.308895 Z-0.125000 I-0.385349 J1.759155
G02 X19.303560 Y49.302334 Z-0.125000 I-0.095844 J0.695659
G01 X19.297710 Y49.313793 Z-0.125000
G02 X19.326710 Y49.333754 Z-0.125000 I0.043312 J-0.031879
G02 X19.443533 Y49.357691 Z-0.125000 I0.235847 J-0.854017
G02 X19.558221 Y49.365174 Z-0.125000 I0.111024 J-0.818940
G01 X19.558221 Y49.365174 Z-0.125000
G00 Z5.000000

(End cutting path id: path4860)


(Start cutting path id: path4860)
(Change tool to Default tool)

G00 Z5.000000
G00 X6.167548 Y49.360771

G01 Z-0.125000 F100.0(Penetrate)
G02 X6.225948 Y49.369733 Z-0.125000 I0.053894 J-0.156447 F400.000000
G01 X6.256294 Y49.357949 Z-0.125000
G01 X6.253962 Y49.345757 Z-0.125000
G02 X6.195660 Y49.337008 Z-0.125000 I-0.052705 J0.152600
G02 X6.165321 Y49.348674 Z-0.125000 I0.001833 J0.050051
G01 X6.167548 Y49.360715 Z-0.125000
G01 X6.167548 Y49.360771 Z-0.125000
G00 Z5.000000

(End cutting path id: path4860)


(Start cutting path id: path4860)
(Change tool to Default tool)

G00 Z5.000000
G00 X23.645482 Y49.281396

G01 Z-0.125000 F100.0(Penetrate)
G02 X23.726832 Y49.290219 Z-0.125000 I0.079074 J-0.349658 F400.000000
G02 X23.784388 Y49.280267 Z-0.125000 I-0.001130 J-0.177961
G01 X23.783840 Y49.270324 Z-0.125000
G02 X23.702257 Y49.261528 Z-0.125000 I-0.077737 J0.338267
G02 X23.644916 Y49.271587 Z-0.125000 I0.001993 J0.179831
G01 X23.645482 Y49.281368 Z-0.125000
G01 X23.645482 Y49.281396 Z-0.125000
G00 Z5.000000

(End cutting path id: path4860)


(Start cutting path id: path4860)
(Change tool to Default tool)

G00 Z5.000000
G00 X19.045590 Y49.273127

G01 Z-0.125000 F100.0(Penetrate)
G01 X19.047878 Y49.263632 Z-0.125000 F400.000000
G02 X18.886840 Y49.214699 Z-0.125000 I-0.504764 J1.371720
G02 X18.562200 Y49.142281 Z-0.125000 I-2.185427 J9.033113
G02 X18.516424 Y49.139182 Z-0.125000 I-0.034383 J0.168250
G01 X18.513234 Y49.174037 Z-0.125000
G02 X19.045590 Y49.273127 Z-0.125000 I1.039801 J-4.106676
G01 X19.045590 Y49.273127 Z-0.125000
G00 Z5.000000

(End cutting path id: path4860)


(Start cutting path id: path4860)
(Change tool to Default tool)

G00 Z5.000000
G00 X5.970213 Y49.267059

G01 Z-0.125000 F100.0(Penetrate)
G01 X6.244718 Y49.239486 Z-0.125000 F400.000000
G02 X7.693512 Y48.852115 Z-0.125000 I-0.473214 J-4.672828
G02 X9.131432 Y47.945235 Z-0.125000 I-2.473807 J-5.515792
G01 X9.474840 Y47.654193 Z-0.125000
G01 X9.064184 Y47.413334 Z-0.125000
G03 X8.655747 Y47.168978 Z-0.125000 I14.155966 J-24.125036
G03 X8.584076 Y47.120638 Z-0.125000 I0.492351 J-0.807289
G02 X8.522491 Y47.120594 Z-0.125000 I-0.030822 J0.041472
G02 X8.352565 Y47.292066 Z-0.125000 I0.473915 J0.639575
G03 X7.874175 Y47.813142 Z-0.125000 I-2.513566 J-1.827518
G03 X6.547886 Y48.855865 Z-0.125000 I-11.571691 J-13.353739
G01 X5.970213 Y49.267059 Z-0.125000
G00 Z5.000000

(End cutting path id: path4860)


(Start cutting path id: path4860)
(Change tool to Default tool)

G00 Z5.000000
G00 X23.899041 Y49.240615

G01 Z-0.125000 F100.0(Penetrate)
G02 X23.956919 Y49.250386 Z-0.125000 I0.057878 J-0.166540 F400.000000
G02 X24.014796 Y49.240615 Z-0.125000 I-0.000000 J-0.176308
G01 X24.014828 Y49.230166 Z-0.125000
G02 X23.956919 Y49.220211 Z-0.125000 I-0.057909 J0.163453
G02 X23.899010 Y49.230166 Z-0.125000 I0.000000 J0.173406
G01 X23.899041 Y49.240615 Z-0.125000
G01 X23.899041 Y49.240615 Z-0.125000
G00 Z5.000000

(End cutting path id: path4860)


(Start cutting path id: path4860)
(Change tool to Default tool)

G00 Z5.000000
G00 X10.401432 Y49.219110

G01 Z-0.125000 F100.0(Penetrate)
G02 X10.476906 Y49.161262 Z-0.125000 I-0.446246 J-0.660375 F400.000000
G01 X10.482461 Y49.149105 Z-0.125000
G01 X10.465697 Y49.139322 Z-0.125000
G02 X10.384345 Y49.204226 Z-0.125000 I0.161641 J0.286045
G01 X10.385148 Y49.218100 Z-0.125000
G01 X10.401433 Y49.219099 Z-0.125000
G01 X10.401432 Y49.219110 Z-0.125000
G00 Z5.000000

(End cutting path id: path4860)


(Start cutting path id: path4860)
(Change tool to Default tool)

G00 Z5.000000
G00 X24.188429 Y49.205337

G01 Z-0.125000 F100.0(Penetrate)
G02 X24.303115 Y49.197858 Z-0.125000 I0.003665 J-0.826801 F400.000000
G02 X24.419939 Y49.173918 Z-0.125000 I-0.118803 J-0.876750
G02 X24.448760 Y49.154295 Z-0.125000 I-0.014375 J-0.052089
G01 X24.443090 Y49.143051 Z-0.125000
G02 X24.351138 Y49.149388 Z-0.125000 I0.004039 J0.728868
G02 X24.211580 Y49.173918 Z-0.125000 I0.222712 J1.676381
G01 X24.182225 Y49.192990 Z-0.125000
G01 X24.188429 Y49.205337 Z-0.125000
G01 X24.188429 Y49.205337 Z-0.125000
G00 Z5.000000

(End cutting path id: path4860)


(Start cutting path id: path4860)
(Change tool to Default tool)

G00 Z5.000000
G00 X17.876463 Y49.181631

G01 Z-0.125000 F100.0(Penetrate)
G02 X17.886337 Y49.132344 Z-0.125000 I-0.097023 J-0.045070 F400.000000
G01 X17.873155 Y49.105013 Z-0.125000
G01 X17.858297 Y49.108128 Z-0.125000
G02 X17.848351 Y49.157379 Z-0.125000 I0.092750 J0.044360
G01 X17.861712 Y49.184800 Z-0.125000
G01 X17.876463 Y49.181622 Z-0.125000
G01 X17.876463 Y49.181631 Z-0.125000
G00 Z5.000000

(End cutting path id: path4860)


(Start cutting path id: path4860)
(Change tool to Default tool)

G00 Z5.000000
G00 X8.364141 Y49.179373

G01 Z-0.125000 F100.0(Penetrate)
G02 X8.439615 Y49.121527 Z-0.125000 I-0.446384 J-0.660579 F400.000000
G01 X8.445169 Y49.109371 Z-0.125000
G01 X8.428382 Y49.099500 Z-0.125000
G02 X8.347053 Y49.163938 Z-0.125000 I0.156132 J0.280600
G01 X8.347731 Y49.178199 Z-0.125000
G01 X8.364142 Y49.179376 Z-0.125000
G01 X8.364141 Y49.179373 Z-0.125000
G00 Z5.000000

(End cutting path id: path4860)


(Start cutting path id: path4860)
(Change tool to Default tool)

G00 Z5.000000
G00 X24.593572 Y49.120945

G01 Z-0.125000 F100.0(Penetrate)
G02 X24.651449 Y49.130715 Z-0.125000 I0.057877 J-0.166538 F400.000000
G02 X24.709327 Y49.120945 Z-0.125000 I0.000000 J-0.176311
G01 X24.709359 Y49.110495 Z-0.125000
G02 X24.651450 Y49.100540 Z-0.125000 I-0.057909 J0.163453
G02 X24.593541 Y49.110495 Z-0.125000 I0.000000 J0.173406
G01 X24.593572 Y49.120945 Z-0.125000
G01 X24.593572 Y49.120945 Z-0.125000
G00 Z5.000000

(End cutting path id: path4860)


(Start cutting path id: path4860)
(Change tool to Default tool)

G00 Z5.000000
G00 X10.586641 Y49.099439

G01 Z-0.125000 F100.0(Penetrate)
G02 X10.662115 Y49.041591 Z-0.125000 I-0.446246 J-0.660375 F400.000000
G01 X10.667669 Y49.029434 Z-0.125000
G01 X10.650907 Y49.019652 Z-0.125000
G02 X10.569553 Y49.084558 Z-0.125000 I0.161630 J0.286028
G01 X10.570356 Y49.098432 Z-0.125000
G01 X10.586642 Y49.099431 Z-0.125000
G01 X10.586641 Y49.099439 Z-0.125000
G00 Z5.000000

(End cutting path id: path4860)


(Start cutting path id: path4860)
(Change tool to Default tool)

G00 Z5.000000
G00 X18.206641 Y49.081800

G01 Z-0.125000 F100.0(Penetrate)
G02 X18.265062 Y49.090432 Z-0.125000 I0.052264 J-0.151712 F400.000000
G01 X18.295386 Y49.078498 Z-0.125000
G01 X18.293055 Y49.066306 Z-0.125000
G02 X18.234753 Y49.057557 Z-0.125000 I-0.052705 J0.152600
G01 X18.204281 Y49.069515 Z-0.125000
G01 X18.206641 Y49.081800 Z-0.125000
G01 X18.206641 Y49.081800 Z-0.125000
G00 Z5.000000

(End cutting path id: path4860)


(Start cutting path id: path4860)
(Change tool to Default tool)

G00 Z5.000000
G00 X24.827839 Y49.081800

G01 Z-0.125000 F100.0(Penetrate)
G02 X24.886260 Y49.090432 Z-0.125000 I0.052264 J-0.151711 F400.000000
G01 X24.916584 Y49.078498 Z-0.125000
G01 X24.914253 Y49.066306 Z-0.125000
G02 X24.855951 Y49.057557 Z-0.125000 I-0.052705 J0.152599
G01 X24.825479 Y49.069515 Z-0.125000
G01 X24.827839 Y49.081800 Z-0.125000
G01 X24.827839 Y49.081800 Z-0.125000
G00 Z5.000000

(End cutting path id: path4860)


(Start cutting path id: path4860)
(Change tool to Default tool)

G00 Z5.000000
G00 X24.997613 Y49.041011

G01 Z-0.125000 F100.0(Penetrate)
G01 X24.999051 Y49.043450 Z-0.125000 F400.000000
G02 X25.114471 Y49.027775 Z-0.125000 I-0.863490 J-6.790566
G02 X25.275145 Y48.998591 Z-0.125000 I-0.332263 J-2.286232
G02 X25.369132 Y48.972103 Z-0.125000 I-0.174675 J-0.799797
G01 X25.364416 Y48.950831 Z-0.125000
G02 X25.137622 Y48.995810 Z-0.125000 I0.125257 J1.225844
G02 X25.003275 Y49.036951 Z-0.125000 I2.657636 J8.918465
G01 X24.997613 Y49.041011 Z-0.125000
G01 X24.997613 Y49.041011 Z-0.125000
G00 Z5.000000

(End cutting path id: path4860)


(Start cutting path id: path4860)
(Change tool to Default tool)

G00 Z5.000000
G00 X8.560924 Y49.034407

G01 Z-0.125000 F100.0(Penetrate)
G01 X8.665104 Y48.958339 Z-0.125000 F400.000000
G02 X8.764174 Y48.879655 Z-0.125000 I-0.910135 J-1.247631
G01 X8.769284 Y48.868491 Z-0.125000
G01 X8.753834 Y48.859988 Z-0.125000
G02 X8.649119 Y48.944559 Z-0.125000 I0.314293 J0.496270
G01 X8.560924 Y49.034407 Z-0.125000
G00 Z5.000000

(End cutting path id: path4860)


(Start cutting path id: path4860)
(Change tool to Default tool)

G00 Z5.000000
G00 X17.289419 Y49.034407

G01 Z-0.125000 F100.0(Penetrate)
G02 X17.314193 Y48.950959 Z-0.125000 I-0.224956 J-0.112189 F400.000000
G02 X17.332413 Y48.661236 Z-0.125000 I-2.786006 J-0.320638
G03 X17.349272 Y48.459923 Z-0.125000 I1.395389 J0.015494
G03 X17.394701 Y48.343736 Z-0.125000 I0.286557 J0.045068
G03 X17.343520 Y48.390711 Z-0.125000 I-0.095041 J-0.052180
G02 X17.290521 Y48.449569 Z-0.125000 I0.039177 J0.088568
G02 X17.201352 Y49.013579 Z-0.125000 I1.760495 J0.567385
G01 X17.289420 Y49.034407 Z-0.125000
G01 X17.289419 Y49.034407 Z-0.125000
G00 Z5.000000

(End cutting path id: path4860)


(Start cutting path id: path4860)
(Change tool to Default tool)

G00 Z5.000000
G00 X17.918355 Y49.027803

G01 Z-0.125000 F100.0(Penetrate)
G02 X17.952905 Y48.999812 Z-0.125000 I-0.019691 J-0.059623 F400.000000
G01 X17.947018 Y48.978747 Z-0.125000
G03 X17.911868 Y48.946463 Z-0.125000 I0.047013 J-0.086464
G03 X17.878668 Y48.874565 Z-0.125000 I0.220663 J-0.145511
G01 X17.865110 Y48.872961 Z-0.125000
G02 X17.850555 Y48.923623 Z-0.125000 I0.097164 J0.055336
G02 X17.874867 Y49.012525 Z-0.125000 I0.151501 J0.006345
G01 X17.918355 Y49.027803 Z-0.125000
G01 X17.918355 Y49.027803 Z-0.125000
G00 Z5.000000

(End cutting path id: path4860)


(Start cutting path id: path4860)
(Change tool to Default tool)

G00 Z5.000000
G00 X10.737122 Y48.994732

G01 Z-0.125000 F100.0(Penetrate)
G01 X10.841302 Y48.918662 Z-0.125000 F400.000000
G02 X10.940370 Y48.839980 Z-0.125000 I-0.911058 J-1.248817
G01 X10.945482 Y48.828814 Z-0.125000
G01 X10.930033 Y48.820311 Z-0.125000
G02 X10.825317 Y48.904884 Z-0.125000 I0.314271 J0.496238
G01 X10.737122 Y48.994732 Z-0.125000
G00 Z5.000000

(End cutting path id: path4860)


(Start cutting path id: path4860)
(Change tool to Default tool)

G00 Z5.000000
G00 X25.670096 Y48.889999

G01 Z-0.125000 F100.0(Penetrate)
G02 X25.737885 Y48.881992 Z-0.125000 I0.003821 J-0.258590 F400.000000
G02 X25.878455 Y48.836532 Z-0.125000 I-0.290965 J-1.139796
G01 X25.874993 Y48.817555 Z-0.125000
G02 X25.762700 Y48.834839 Z-0.125000 I-0.005033 J0.340727
G02 X25.667058 Y48.878614 Z-0.125000 I0.152578 J0.459735
G01 X25.670096 Y48.889960 Z-0.125000
G01 X25.670096 Y48.889999 Z-0.125000
G00 Z5.000000

(End cutting path id: path4860)


(Start cutting path id: path4860)
(Change tool to Default tool)

G00 Z5.000000
G00 X6.373151 Y48.859683

G01 Z-0.125000 F100.0(Penetrate)
G02 X6.448626 Y48.802270 Z-0.125000 I-0.473954 J-0.701377 F400.000000
G01 X6.454180 Y48.790231 Z-0.125000
G01 X6.437393 Y48.780361 Z-0.125000
G02 X6.356063 Y48.844801 Z-0.125000 I0.156132 J0.280593
G01 X6.356866 Y48.858676 Z-0.125000
G01 X6.373152 Y48.859675 Z-0.125000
G01 X6.373151 Y48.859683 Z-0.125000
G00 Z5.000000

(End cutting path id: path4860)


(Start cutting path id: path4860)
(Change tool to Default tool)

G00 Z5.000000
G00 X8.885039 Y48.795190

G01 Z-0.125000 F100.0(Penetrate)
G01 X9.151276 Y48.576910 Z-0.125000 F400.000000
G02 X9.413242 Y48.356919 Z-0.125000 I-8.825394 J-10.775238
G01 X9.417513 Y48.347605 Z-0.125000
G01 X9.404713 Y48.341359 Z-0.125000
G02 X9.138598 Y48.565334 Z-0.125000 I2.913603 J3.731862
G01 X8.885039 Y48.795190 Z-0.125000
G00 Z5.000000

(End cutting path id: path4860)


(Start cutting path id: path4860)
(Change tool to Default tool)

G00 Z5.000000
G00 X11.061237 Y48.754953

G01 Z-0.125000 F100.0(Penetrate)
G01 X11.258021 Y48.597304 Z-0.125000 F400.000000
G02 X11.450348 Y48.437779 Z-0.125000 I-4.641986 J-5.792189
G01 X11.454805 Y48.428081 Z-0.125000
G01 X11.441464 Y48.421421 Z-0.125000
G02 X11.244792 Y48.585730 Z-0.125000 I1.504309 J2.000464
G01 X11.061237 Y48.754953 Z-0.125000
G00 Z5.000000

(End cutting path id: path4860)


(Start cutting path id: path4860)
(Change tool to Default tool)

G00 Z5.000000
G00 X17.868195 Y48.754953

G01 Z-0.125000 F100.0(Penetrate)
G01 X18.018676 Y48.638093 Z-0.125000 F400.000000
G02 X18.164495 Y48.518225 Z-0.125000 I-2.195839 J-2.819851
G01 X18.169158 Y48.508009 Z-0.125000
G01 X18.155056 Y48.500724 Z-0.125000
G02 X18.003794 Y48.625416 Z-0.125000 I0.786209 J1.107841
G01 X17.868195 Y48.754953 Z-0.125000
G00 Z5.000000

(End cutting path id: path4860)


(Start cutting path id: path4860)
(Change tool to Default tool)

G00 Z5.000000
G00 X26.202570 Y48.734012

G01 Z-0.125000 F100.0(Penetrate)
G02 X26.246994 Y48.726823 Z-0.125000 I-0.000000 J-0.140843 F400.000000
G02 X26.318325 Y48.695427 Z-0.125000 I-0.131323 J-0.395092
G02 X26.347395 Y48.667299 Z-0.125000 I-0.038072 J-0.068434
G01 X26.341475 Y48.656841 Z-0.125000
G02 X26.297051 Y48.664031 Z-0.125000 I-0.000000 J0.140843
G02 X26.225720 Y48.695427 Z-0.125000 I0.131325 J0.395100
G02 X26.196650 Y48.723554 Z-0.125000 I0.038073 J0.068435
G01 X26.202569 Y48.734012 Z-0.125000
G01 X26.202570 Y48.734012 Z-0.125000
G00 Z5.000000

(End cutting path id: path4860)


(Start cutting path id: path4860)
(Change tool to Default tool)

G00 Z5.000000
G00 X6.650964 Y48.660699

G01 Z-0.125000 F100.0(Penetrate)
G02 X6.726441 Y48.602847 Z-0.125000 I-0.446174 J-0.660267 F400.000000
G01 X6.731992 Y48.590697 Z-0.125000
G01 X6.715205 Y48.580827 Z-0.125000
G02 X6.633876 Y48.645265 Z-0.125000 I0.156130 J0.280599
G01 X6.634553 Y48.659525 Z-0.125000
G01 X6.650964 Y48.660702 Z-0.125000
G01 X6.650964 Y48.660699 Z-0.125000
G00 Z5.000000

(End cutting path id: path4860)


(Start cutting path id: path4860)
(Change tool to Default tool)

G00 Z5.000000
G00 X26.434080 Y48.652430

G01 Z-0.125000 F100.0(Penetrate)
G02 X26.478612 Y48.644882 Z-0.125000 I-0.000000 J-0.135139 F400.000000
G02 X26.596137 Y48.595656 Z-0.125000 I-0.345227 J-0.989113
G02 X26.669201 Y48.548355 Z-0.125000 I-0.165015 J-0.334975
G01 X26.665590 Y48.538331 Z-0.125000
G02 X26.621057 Y48.546013 Z-0.125000 I-0.000000 J0.132917
G02 X26.503533 Y48.595656 Z-0.125000 I0.368574 J1.036499
G02 X26.430555 Y48.642532 Z-0.125000 I0.169600 J0.344281
G01 X26.434080 Y48.652430 Z-0.125000
G01 X26.434080 Y48.652430 Z-0.125000
G00 Z5.000000

(End cutting path id: path4860)


(Start cutting path id: path4860)
(Change tool to Default tool)

G00 Z5.000000
G00 X6.847747 Y48.515730

G01 Z-0.125000 F100.0(Penetrate)
G01 X6.951927 Y48.439663 Z-0.125000 F400.000000
G02 X7.050996 Y48.360978 Z-0.125000 I-0.910782 J-1.248439
G01 X7.056107 Y48.349815 Z-0.125000
G01 X7.040657 Y48.341311 Z-0.125000
G02 X6.935942 Y48.425882 Z-0.125000 I0.314292 J0.496267
G01 X6.847747 Y48.515730 Z-0.125000
G00 Z5.000000

(End cutting path id: path4860)


(Start cutting path id: path4860)
(Change tool to Default tool)

G00 Z5.000000
G00 X27.016715 Y48.405486

G01 Z-0.125000 F100.0(Penetrate)
G01 X27.020230 Y48.406510 Z-0.125000 F400.000000
G02 X27.093885 Y48.376823 Z-0.125000 I-1.182716 J-3.040611
G02 X27.190418 Y48.328476 Z-0.125000 I-0.303193 J-0.725918
G01 X27.198064 Y48.315087 Z-0.125000
G01 X27.183355 Y48.304823 Z-0.125000
G02 X27.079553 Y48.358634 Z-0.125000 I0.160538 J0.436701
G02 X27.017162 Y48.402450 Z-0.125000 I2.676891 J3.878005
G01 X27.016715 Y48.405486 Z-0.125000
G01 X27.016715 Y48.405486 Z-0.125000
G00 Z5.000000

(End cutting path id: path4860)


(Start cutting path id: path4860)
(Change tool to Default tool)

G00 Z5.000000
G00 X8.827162 Y48.341546

G01 Z-0.125000 F100.0(Penetrate)
G02 X8.902635 Y48.283699 Z-0.125000 I-0.446706 J-0.660992 F400.000000
G01 X8.908190 Y48.271543 Z-0.125000
G01 X8.891403 Y48.261673 Z-0.125000
G02 X8.810074 Y48.326114 Z-0.125000 I0.156135 J0.280597
G01 X8.810751 Y48.340374 Z-0.125000
G01 X8.827162 Y48.341551 Z-0.125000
G01 X8.827162 Y48.341546 Z-0.125000
G00 Z5.000000

(End cutting path id: path4860)


(Start cutting path id: path4860)
(Change tool to Default tool)

G00 Z5.000000
G00 X9.440664 Y48.316202

G01 Z-0.125000 F100.0(Penetrate)
G01 X9.614297 Y48.178949 Z-0.125000 F400.000000
G02 X9.783391 Y48.038949 Z-0.125000 I-3.126160 J-3.947946
G01 X9.787930 Y48.029018 Z-0.125000
G01 X9.774290 Y48.022131 Z-0.125000
G02 X9.600517 Y48.166822 Z-0.125000 I1.143542 J1.550086
G01 X9.440664 Y48.316202 Z-0.125000
G00 Z5.000000

(End cutting path id: path4860)


(Start cutting path id: path4860)
(Change tool to Default tool)

G00 Z5.000000
G00 X17.431632 Y48.306832

G01 Z-0.125000 F100.0(Penetrate)
G03 X17.525123 Y48.213323 Z-0.125000 I0.517263 J0.423671 F400.000000
G03 X17.789371 Y48.010829 Z-0.125000 I3.236830 J3.950292
G02 X17.899129 Y47.884968 Z-0.125000 I-0.211027 J-0.294818
G02 X17.936545 Y47.731361 Z-0.125000 I-0.287373 J-0.151359
G02 X17.913722 Y47.563947 Z-0.125000 I-0.659843 J0.004693
G02 X17.847248 Y47.398980 Z-0.125000 I-0.722096 J0.195092
G01 X17.825327 Y47.397401 Z-0.125000
G01 X17.821893 Y47.432604 Z-0.125000
G03 X17.873891 Y47.579790 Z-0.125000 I-0.628817 J0.304924
G03 X17.891346 Y47.732465 Z-0.125000 I-0.658961 J0.152675
G03 X17.852686 Y47.869539 Z-0.125000 I-0.262334 J0.000000
G03 X17.717714 Y48.015791 Z-0.125000 I-0.436733 J-0.267644
G02 X17.491551 Y48.227800 Z-0.125000 I0.743398 J1.019660
G02 X17.431633 Y48.306832 Z-0.125000 I0.831308 J0.692486
G01 X17.431632 Y48.306832 Z-0.125000
G00 Z5.000000

(End cutting path id: path4860)


(Start cutting path id: path4860)
(Change tool to Default tool)

G00 Z5.000000
G00 X18.498785 Y48.267143

G01 Z-0.125000 F100.0(Penetrate)
G02 X18.535722 Y48.217811 Z-0.125000 I-0.091553 J-0.107044 F400.000000
G01 X18.530755 Y48.195484 Z-0.125000
G01 X18.509734 Y48.195468 Z-0.125000
G02 X18.472878 Y48.245096 Z-0.125000 I0.091195 J0.106227
G01 X18.477943 Y48.267179 Z-0.125000
G01 X18.498786 Y48.267138 Z-0.125000
G01 X18.498785 Y48.267143 Z-0.125000
G00 Z5.000000

(End cutting path id: path4860)


(Start cutting path id: path4860)
(Change tool to Default tool)

G00 Z5.000000
G00 X11.605287 Y48.261640

G01 Z-0.125000 F100.0(Penetrate)
G02 X11.680761 Y48.203792 Z-0.125000 I-0.446246 J-0.660375 F400.000000
G01 X11.686315 Y48.191635 Z-0.125000
G01 X11.669551 Y48.181853 Z-0.125000
G02 X11.588199 Y48.246756 Z-0.125000 I0.161643 J0.286048
G01 X11.589002 Y48.260630 Z-0.125000
G01 X11.605287 Y48.261629 Z-0.125000
G01 X11.605287 Y48.261640 Z-0.125000
G00 Z5.000000

(End cutting path id: path4860)


(Start cutting path id: path4860)
(Change tool to Default tool)

G00 Z5.000000
G00 X7.264466 Y48.196596

G01 Z-0.125000 F100.0(Penetrate)
G01 X7.553854 Y47.958471 Z-0.125000 F400.000000
G02 X7.839007 Y47.718554 Z-0.125000 I-10.831585 J-13.163218
G01 X7.843242 Y47.709323 Z-0.125000
G01 X7.830562 Y47.703176 Z-0.125000
G02 X7.541176 Y47.947448 Z-0.125000 I3.554433 J4.504445
G01 X7.264466 Y48.196596 Z-0.125000
G00 Z5.000000

(End cutting path id: path4860)


(Start cutting path id: path4860)
(Change tool to Default tool)

G00 Z5.000000
G00 X9.023945 Y48.196596

G01 Z-0.125000 F100.0(Penetrate)
G01 X9.220729 Y48.038950 Z-0.125000 F400.000000
G02 X9.413062 Y47.878899 Z-0.125000 I-4.244711 J-5.296477
G01 X9.417513 Y47.869173 Z-0.125000
G01 X9.404140 Y47.862505 Z-0.125000
G02 X9.206949 Y48.027373 Z-0.125000 I1.526710 J2.026394
G01 X9.023945 Y48.196596 Z-0.125000
G00 Z5.000000

(End cutting path id: path4860)


(Start cutting path id: path4860)
(Change tool to Default tool)

G00 Z5.000000
G00 X27.613130 Y48.069816

G01 Z-0.125000 F100.0(Penetrate)
G01 X27.616282 Y48.077121 Z-0.125000 F400.000000
G02 X27.661085 Y48.059882 Z-0.125000 I-0.030027 J-0.144879
G02 X27.864019 Y47.929670 Z-0.125000 I-1.513964 J-2.582732
G02 X28.147257 Y47.719782 Z-0.125000 I-3.748026 J-5.353907
G01 X28.140274 Y47.703514 Z-0.125000
G02 X28.076150 Y47.730252 Z-0.125000 I0.020553 J0.139548
G03 X27.772387 Y47.955694 Z-0.125000 I-20.888167 J-27.827650
G03 X27.613130 Y48.069799 Z-0.125000 I-5.116701 J-6.973206
G01 X27.613130 Y48.069816 Z-0.125000
G00 Z5.000000

(End cutting path id: path4860)


(Start cutting path id: path4860)
(Change tool to Default tool)

G00 Z5.000000
G00 X18.570994 Y48.064313

G01 Z-0.125000 F100.0(Penetrate)
G02 X18.580783 Y48.015380 Z-0.125000 I-0.096209 J-0.044691 F400.000000
G01 X18.567686 Y47.988246 Z-0.125000
G01 X18.552828 Y47.991360 Z-0.125000
G02 X18.542882 Y48.040612 Z-0.125000 I0.092750 J0.044360
G01 X18.556270 Y48.067598 Z-0.125000
G01 X18.570994 Y48.064319 Z-0.125000
G01 X18.570994 Y48.064313 Z-0.125000
G00 Z5.000000

(End cutting path id: path4860)


(Start cutting path id: path4860)
(Change tool to Default tool)

G00 Z5.000000
G00 X18.524692 Y47.785398

G01 Z-0.125000 F100.0(Penetrate)
G02 X18.534565 Y47.736108 Z-0.125000 I-0.097070 J-0.045077 F400.000000
G01 X18.521384 Y47.708781 Z-0.125000
G01 X18.506525 Y47.711895 Z-0.125000
G02 X18.496580 Y47.761144 Z-0.125000 I0.092742 J0.044357
G01 X18.509942 Y47.788564 Z-0.125000
G01 X18.524692 Y47.785387 Z-0.125000
G01 X18.524692 Y47.785398 Z-0.125000
G00 Z5.000000

(End cutting path id: path4860)


(Start cutting path id: path4860)
(Change tool to Default tool)

G00 Z5.000000
G00 X9.963216 Y47.752325

G01 Z-0.125000 F100.0(Penetrate)
G01 X10.004350 Y47.753968 Z-0.125000 F400.000000
G02 X10.089996 Y47.697204 Z-0.125000 I-0.117058 J-0.269609
G01 X10.084501 Y47.673439 Z-0.125000
G02 X10.027157 Y47.677364 Z-0.125000 I-0.023684 J0.074831
G02 X9.958914 Y47.729695 Z-0.125000 I0.088036 J0.185466
G01 X9.963216 Y47.752328 Z-0.125000
G01 X9.963216 Y47.752325 Z-0.125000
G00 Z5.000000

(End cutting path id: path4860)


(Start cutting path id: path4860)
(Change tool to Default tool)

G00 Z5.000000
G00 X9.549805 Y47.690038

G01 Z-0.125000 F100.0(Penetrate)
G01 X9.554522 Y47.698340 Z-0.125000 F400.000000
G02 X9.592248 Y47.681769 Z-0.125000 I-0.018179 J-0.092617
G02 X9.691731 Y47.603991 Z-0.125000 I-1.262969 J-1.717925
G01 X9.695326 Y47.596332 Z-0.125000
G01 X9.691185 Y47.589867 Z-0.125000
G02 X9.623667 Y47.563259 Z-0.125000 I-0.270377 J0.587106
G02 X9.585885 Y47.564412 Z-0.125000 I-0.017309 J0.052391
G01 X9.581224 Y47.580361 Z-0.125000
G01 X9.588206 Y47.620477 Z-0.125000
G03 X9.549805 Y47.690052 Z-0.125000 I-0.169837 J-0.048354
G01 X9.549805 Y47.690038 Z-0.125000
G00 Z5.000000

(End cutting path id: path4860)


(Start cutting path id: path4860)
(Change tool to Default tool)

G00 Z5.000000
G00 X18.478390 Y47.546170

G01 Z-0.125000 F100.0(Penetrate)
G02 X18.488263 Y47.496882 Z-0.125000 I-0.097035 J-0.045071 F400.000000
G01 X18.475082 Y47.469552 Z-0.125000
G01 X18.460223 Y47.472667 Z-0.125000
G02 X18.450278 Y47.521919 Z-0.125000 I0.092750 J0.044360
G01 X18.463640 Y47.549339 Z-0.125000
G01 X18.478390 Y47.546161 Z-0.125000
G01 X18.478390 Y47.546170 Z-0.125000
G00 Z5.000000

(End cutting path id: path4860)


(Start cutting path id: path4860)
(Change tool to Default tool)

G00 Z5.000000
G00 X7.993724 Y47.543348

G01 Z-0.125000 F100.0(Penetrate)
G02 X8.069199 Y47.485933 Z-0.125000 I-0.473781 J-0.701122 F400.000000
G01 X8.074753 Y47.473893 Z-0.125000
G01 X8.057965 Y47.464023 Z-0.125000
G02 X7.976636 Y47.528463 Z-0.125000 I0.156133 J0.280594
G01 X7.977439 Y47.542338 Z-0.125000
G01 X7.993725 Y47.543336 Z-0.125000
G01 X7.993724 Y47.543348 Z-0.125000
G00 Z5.000000

(End cutting path id: path4860)


(Start cutting path id: path4860)
(Change tool to Default tool)

G00 Z5.000000
G00 X9.510117 Y47.526245

G01 Z-0.125000 F100.0(Penetrate)
G01 X9.503150 Y47.513786 Z-0.125000 F400.000000
G02 X9.243880 Y47.362534 Z-0.125000 I-3.430778 J5.583047
G02 X9.109207 Y47.299261 Z-0.125000 I-0.546375 J0.987980
G01 X9.104423 Y47.307963 Z-0.125000
G02 X9.479396 Y47.544599 Z-0.125000 I1.894280 J-2.586262
G01 X9.510117 Y47.526245 Z-0.125000
G01 X9.510117 Y47.526245 Z-0.125000
G00 Z5.000000

(End cutting path id: path4860)


(Start cutting path id: path4860)
(Change tool to Default tool)

G00 Z5.000000
G00 X28.648863 Y47.341587

G01 Z-0.125000 F100.0(Penetrate)
G01 X28.652157 Y47.344498 Z-0.125000 F400.000000
G02 X29.165903 Y46.940854 Z-0.125000 I-35.949702 J-46.284397
G02 X29.904338 Y46.307537 Z-0.125000 I-8.095202 J-10.186007
G02 X30.507562 Y45.700070 Z-0.125000 I-6.825112 J-7.380672
G02 X30.706223 Y45.471094 Z-0.125000 I-4.540445 J-4.139994
G01 X30.702690 Y45.463599 Z-0.125000
G01 X30.685285 Y45.470823 Z-0.125000
G02 X30.324558 Y45.842835 Z-0.125000 I13.212935 J13.173063
G03 X29.953532 Y46.207882 Z-0.125000 I-5.061703 J-4.773527
G03 X29.219370 Y46.851559 Z-0.125000 I-16.423835 J-17.992095
G02 X28.664367 Y47.323152 Z-0.125000 I51.585602 J61.271896
G02 X28.648863 Y47.341587 Z-0.125000 I0.048404 J0.056443
G01 X28.648863 Y47.341587 Z-0.125000
G00 Z5.000000

(End cutting path id: path4860)


(Start cutting path id: path4860)
(Change tool to Default tool)

G00 Z5.000000
G00 X18.433741 Y47.288670

G01 Z-0.125000 F100.0(Penetrate)
G02 X18.443198 Y47.178606 Z-0.125000 I-0.617701 J-0.108512 F400.000000
G02 X18.433177 Y47.089131 Z-0.125000 I-0.413587 J0.001024
G01 X18.423255 Y47.089367 Z-0.125000
G02 X18.413884 Y47.199375 Z-0.125000 I0.620135 J0.108226
G02 X18.423830 Y47.288891 Z-0.125000 I0.419468 J-0.001295
G01 X18.433727 Y47.288670 Z-0.125000
G01 X18.433741 Y47.288670 Z-0.125000
G00 Z5.000000

(End cutting path id: path4860)


(Start cutting path id: path4860)
(Change tool to Default tool)

G00 Z5.000000
G00 X8.954492 Y47.206541

G01 Z-0.125000 F100.0(Penetrate)
G01 X8.947506 Y47.192417 Z-0.125000 F400.000000
G02 X8.784718 Y47.077004 Z-0.125000 I-1.714879 J2.246280
G02 X8.654021 Y47.003051 Z-0.125000 I-0.620611 J0.944335
G01 X8.647465 Y47.010859 Z-0.125000
G02 X8.890998 Y47.241372 Z-0.125000 I0.719033 J-0.515747
G01 X8.954492 Y47.206541 Z-0.125000
G01 X8.954492 Y47.206541 Z-0.125000
G00 Z5.000000

(End cutting path id: path4860)


(Start cutting path id: path4860)
(Change tool to Default tool)

G00 Z5.000000
G00 X17.705586 Y47.179532

G01 Z-0.125000 F100.0(Penetrate)
G01 X17.722080 Y47.175742 Z-0.125000 F400.000000
G02 X17.722121 Y47.091888 Z-0.125000 I-0.224213 J-0.042038
G03 X17.743228 Y46.850567 Z-0.125000 I0.443895 J-0.082759
G03 X17.913944 Y46.580911 Z-0.125000 I0.731905 J0.274493
G02 X18.071233 Y46.411366 Z-0.125000 I-3.764191 J-3.649807
G01 X18.076553 Y46.397356 Z-0.125000
G01 X18.072601 Y46.385254 Z-0.125000
G01 X18.064976 Y46.381382 Z-0.125000
G02 X17.993505 Y46.412793 Z-0.125000 I0.000014 J0.097049
G02 X17.719364 Y46.757861 Z-0.125000 I2.274034 J2.088046
G02 X17.644982 Y46.985170 Z-0.125000 I0.352647 J0.241221
G02 X17.705583 Y47.179544 Z-0.125000 I0.309661 J0.010089
G01 X17.705586 Y47.179532 Z-0.125000
G00 Z5.000000

(End cutting path id: path4860)


(Start cutting path id: path4860)
(Change tool to Default tool)

G00 Z5.000000
G00 X12.365412 Y47.149213

G01 Z-0.125000 F100.0(Penetrate)
G02 X12.376512 Y47.099329 Z-0.125000 I-0.106542 J-0.049884 F400.000000
G02 X12.365412 Y47.049445 Z-0.125000 I-0.117642 J0.000000
G01 X12.353215 Y47.049491 Z-0.125000
G02 X12.342262 Y47.099604 Z-0.125000 I0.109165 J0.050113
G02 X12.353254 Y47.149203 Z-0.125000 I0.117397 J0.000000
G01 X12.365412 Y47.149213 Z-0.125000
G01 X12.365412 Y47.149213 Z-0.125000
G00 Z5.000000

(End cutting path id: path4860)


(Start cutting path id: path4860)
(Change tool to Default tool)

G00 Z5.000000
G00 X8.505252 Y46.988259

G01 Z-0.125000 F100.0(Penetrate)
G01 X8.533512 Y46.954592 Z-0.125000 F400.000000
G02 X8.509663 Y46.895103 Z-0.125000 I-0.077004 J-0.003655
G02 X8.430270 Y46.821613 Z-0.125000 I-2.648283 J2.781361
G01 X8.426429 Y46.820139 Z-0.125000
G01 X8.424164 Y46.822301 Z-0.125000
G02 X8.422018 Y46.913845 Z-0.125000 I1.951573 J0.091545
G02 X8.448888 Y46.973710 Z-0.125000 I0.080121 J0.000000
G02 X8.505252 Y46.988259 Z-0.125000 I0.042349 J-0.047608
G01 X8.505252 Y46.988259 Z-0.125000
G00 Z5.000000

(End cutting path id: path4860)


(Start cutting path id: path4860)
(Change tool to Default tool)

G00 Z5.000000
G00 X18.504848 Y46.945265

G01 Z-0.125000 F100.0(Penetrate)
G02 X18.580341 Y46.887382 Z-0.125000 I-0.445121 J-0.658713 F400.000000
G01 X18.585877 Y46.875260 Z-0.125000
G01 X18.568983 Y46.865285 Z-0.125000
G02 X18.487209 Y46.929830 Z-0.125000 I0.153959 J0.279125
G01 X18.488020 Y46.944210 Z-0.125000
G01 X18.504848 Y46.945268 Z-0.125000
G01 X18.504848 Y46.945265 Z-0.125000
G00 Z5.000000

(End cutting path id: path4860)


(Start cutting path id: path4860)
(Change tool to Default tool)

G00 Z5.000000
G00 X12.281628 Y46.900065

G01 Z-0.125000 F100.0(Penetrate)
G01 X12.285152 Y46.892414 Z-0.125000 F400.000000
G02 X12.196189 Y46.800293 Z-0.125000 I-0.803163 J0.686617
G02 X12.084434 Y46.707386 Z-0.125000 I-1.009749 J1.100932
G01 X12.063898 Y46.700525 Z-0.125000
G01 X12.060406 Y46.708160 Z-0.125000
G02 X12.149887 Y46.800293 Z-0.125000 I0.840294 J-0.726579
G02 X12.261172 Y46.893185 Z-0.125000 I1.050616 J-1.145548
G01 X12.281628 Y46.900065 Z-0.125000
G01 X12.281628 Y46.900065 Z-0.125000
G00 Z5.000000

(End cutting path id: path4860)


(Start cutting path id: path4860)
(Change tool to Default tool)

G00 Z5.000000
G00 X8.345951 Y46.820139

G01 Z-0.125000 F100.0(Penetrate)
G01 X8.349442 Y46.812505 Z-0.125000 F400.000000
G02 X8.259961 Y46.720368 Z-0.125000 I-0.841081 J0.727316
G02 X8.148675 Y46.627479 Z-0.125000 I-1.049778 J1.144575
G01 X8.128220 Y46.620600 Z-0.125000
G01 X8.124696 Y46.628250 Z-0.125000
G02 X8.213659 Y46.720368 Z-0.125000 I0.803572 J-0.687030
G02 X8.325414 Y46.813277 Z-0.125000 I1.009997 J-1.101197
G01 X8.345951 Y46.820139 Z-0.125000
G01 X8.345951 Y46.820139 Z-0.125000
G00 Z5.000000

(End cutting path id: path4860)


(Start cutting path id: path4860)
(Change tool to Default tool)

G00 Z5.000000
G00 X8.065933 Y46.620600

G01 Z-0.125000 F100.0(Penetrate)
G01 X8.069782 Y46.612856 Z-0.125000 F400.000000
G02 X8.005299 Y46.540671 Z-0.125000 I-0.477943 J0.362052
G02 X7.918794 Y46.468024 Z-0.125000 I-0.625413 J0.656888
G01 X7.898364 Y46.461296 Z-0.125000
G01 X7.894576 Y46.468973 Z-0.125000
G02 X7.958997 Y46.540671 Z-0.125000 I0.491193 J-0.376546
G02 X8.045497 Y46.613796 Z-0.125000 I0.661363 J-0.694603
G01 X8.065933 Y46.620600 Z-0.125000
G01 X8.065933 Y46.620600 Z-0.125000
G00 Z5.000000

(End cutting path id: path4860)


(Start cutting path id: path4860)
(Change tool to Default tool)

G00 Z5.000000
G00 X5.334110 Y46.521932

G01 Z-0.125000 F100.0(Penetrate)
G01 X5.339205 Y46.499606 Z-0.125000 F400.000000
G02 X5.302691 Y46.450273 Z-0.125000 I-0.125503 J0.054711
G01 X5.281763 Y46.450390 Z-0.125000
G01 X5.276783 Y46.472879 Z-0.125000
G02 X5.313294 Y46.521970 Z-0.125000 I0.126260 J-0.055783
G01 X5.334109 Y46.521938 Z-0.125000
G01 X5.334110 Y46.521932 Z-0.125000
G00 Z5.000000

(End cutting path id: path4860)


(Start cutting path id: path4860)
(Change tool to Default tool)

G00 Z5.000000
G00 X18.804709 Y46.471219

G01 Z-0.125000 F100.0(Penetrate)
G02 X18.814008 Y46.341408 Z-0.125000 I-0.901399 J-0.129811 F400.000000
G02 X18.804709 Y46.211598 Z-0.125000 I-0.910699 J-0.000000
G01 X18.795291 Y46.211597 Z-0.125000
G02 X18.785967 Y46.341682 Z-0.125000 I0.902795 J0.130085
G02 X18.795305 Y46.471224 Z-0.125000 I0.903184 J-0.000000
G01 X18.804709 Y46.471219 Z-0.125000
G01 X18.804709 Y46.471219 Z-0.125000
G00 Z5.000000

(End cutting path id: path4860)


(Start cutting path id: path4860)
(Change tool to Default tool)

G00 Z5.000000
G00 X10.835790 Y46.453016

G01 Z-0.125000 F100.0(Penetrate)
G01 X10.859344 Y46.497127 Z-0.125000 F400.000000
G02 X11.200143 Y46.441445 Z-0.125000 I-0.043000 J-1.333943
G01 X11.199489 Y46.434041 Z-0.125000
G02 X11.052417 Y46.424370 Z-0.125000 I-0.170559 J1.470756
G02 X10.865372 Y46.435287 Z-0.125000 I-0.020058 J1.264240
G01 X10.835790 Y46.453036 Z-0.125000
G01 X10.835790 Y46.453016 Z-0.125000
G00 Z5.000000

(End cutting path id: path4860)


(Start cutting path id: path4860)
(Change tool to Default tool)

G00 Z5.000000
G00 X7.785365 Y46.426572

G01 Z-0.125000 F100.0(Penetrate)
G01 X7.802193 Y46.425514 Z-0.125000 F400.000000
G01 X7.803004 Y46.411134 Z-0.125000
G02 X7.721229 Y46.346588 Z-0.125000 I-0.235613 J0.214426
G01 X7.704336 Y46.356564 Z-0.125000
G01 X7.709872 Y46.368686 Z-0.125000
G02 X7.785365 Y46.426569 Z-0.125000 I0.520613 J-0.600830
G01 X7.785365 Y46.426572 Z-0.125000
G00 Z5.000000

(End cutting path id: path4860)


(Start cutting path id: path4860)
(Change tool to Default tool)

G00 Z5.000000
G00 X5.355056 Y46.304753

G01 Z-0.125000 F100.0(Penetrate)
G01 X5.473016 Y46.153169 Z-0.125000 F400.000000
G03 X5.856195 Y45.736210 Z-0.125000 I2.744233 J2.137358
G03 X6.218811 Y45.463599 Z-0.125000 I1.520222 J1.644660
G02 X6.429098 Y45.311658 Z-0.125000 I-0.813593 J-1.347512
G02 X6.451975 Y45.264059 Z-0.125000 I-0.042640 J-0.049790
G02 X6.378186 Y45.069956 Z-0.125000 I-0.268618 J-0.008961
G02 X6.071636 Y44.863876 Z-0.125000 I-0.616178 J0.585542
G02 X5.704208 Y44.784673 Z-0.125000 I-0.428283 J1.094960
G02 X5.515460 Y44.835211 Z-0.125000 I-0.016402 J0.316473
G02 X5.282905 Y45.199562 Z-0.125000 I0.283397 J0.437277
G02 X5.325842 Y46.178524 Z-0.125000 I2.648031 J0.374279
G01 X5.355056 Y46.304753 Z-0.125000
G00 Z5.000000

(End cutting path id: path4860)


(Start cutting path id: path4860)
(Change tool to Default tool)

G00 Z5.000000
G00 X7.695517 Y46.301451

G01 Z-0.125000 F100.0(Penetrate)
G01 X7.699365 Y46.293708 Z-0.125000 F400.000000
G02 X7.634883 Y46.221523 Z-0.125000 I-0.477943 J0.362052
G02 X7.548377 Y46.148876 Z-0.125000 I-0.625413 J0.656888
G01 X7.527947 Y46.142148 Z-0.125000
G01 X7.524159 Y46.149824 Z-0.125000
G02 X7.588581 Y46.221523 Z-0.125000 I0.491193 J-0.376546
G02 X7.675080 Y46.294648 Z-0.125000 I0.661363 J-0.694603
G01 X7.695517 Y46.301451 Z-0.125000
G01 X7.695517 Y46.301451 Z-0.125000
G00 Z5.000000

(End cutting path id: path4860)


(Start cutting path id: path4860)
(Change tool to Default tool)

G00 Z5.000000
G00 X18.127266 Y46.235304

G01 Z-0.125000 F100.0(Penetrate)
G02 X18.148291 Y46.107908 Z-0.125000 I-0.382412 J-0.128547 F400.000000
G02 X18.128366 Y45.896307 Z-0.125000 I-1.100238 J-0.003137
G01 X18.107071 Y45.894862 Z-0.125000
G02 X18.085923 Y46.021984 Z-0.125000 I0.380288 J0.128587
G02 X18.105916 Y46.233889 Z-0.125000 I1.090511 J0.004004
G01 X18.127264 Y46.235304 Z-0.125000
G01 X18.127266 Y46.235304 Z-0.125000
G00 Z5.000000

(End cutting path id: path4860)


(Start cutting path id: path4860)
(Change tool to Default tool)

G00 Z5.000000
G00 X5.189692 Y46.069389

G01 Z-0.125000 F100.0(Penetrate)
G02 X5.199148 Y46.020453 Z-0.125000 I-0.093576 J-0.043464 F400.000000
G01 X5.185834 Y45.993321 Z-0.125000
G01 X5.171182 Y45.996492 Z-0.125000
G02 X5.161580 Y46.045688 Z-0.125000 I0.095559 J0.044186
G01 X5.174968 Y46.072674 Z-0.125000
G01 X5.189692 Y46.069394 Z-0.125000
G01 X5.189692 Y46.069389 Z-0.125000
G00 Z5.000000

(End cutting path id: path4860)


(Start cutting path id: path4860)
(Change tool to Default tool)

G00 Z5.000000
G00 X7.461250 Y46.067131

G01 Z-0.125000 F100.0(Penetrate)
G01 X7.477957 Y46.066252 Z-0.125000 F400.000000
G01 X7.478889 Y46.052258 Z-0.125000
G02 X7.397092 Y45.987250 Z-0.125000 I-0.241124 J0.219431
G01 X7.380222 Y45.997137 Z-0.125000
G01 X7.385776 Y46.009294 Z-0.125000
G02 X7.461250 Y46.067142 Z-0.125000 I0.521720 J-0.602527
G01 X7.461250 Y46.067131 Z-0.125000
G00 Z5.000000

(End cutting path id: path4860)


(Start cutting path id: path4860)
(Change tool to Default tool)

G00 Z5.000000
G00 X5.771224 Y45.987205

G01 Z-0.125000 F100.0(Penetrate)
G02 X5.846680 Y45.929825 Z-0.125000 I-0.475060 J-0.703014 F400.000000
G01 X5.852253 Y45.917751 Z-0.125000
G01 X5.835465 Y45.907881 Z-0.125000
G02 X5.754136 Y45.972321 Z-0.125000 I0.156135 J0.280597
G01 X5.754939 Y45.986196 Z-0.125000
G01 X5.771225 Y45.987194 Z-0.125000
G01 X5.771224 Y45.987205 Z-0.125000
G00 Z5.000000

(End cutting path id: path4860)


(Start cutting path id: path4860)
(Change tool to Default tool)

G00 Z5.000000
G00 X7.371402 Y45.942555

G01 Z-0.125000 F100.0(Penetrate)
G01 X7.375250 Y45.934812 Z-0.125000 F400.000000
G02 X7.310768 Y45.862630 Z-0.125000 I-0.478009 J0.362123
G02 X7.224269 Y45.789508 Z-0.125000 I-0.661488 J0.694780
G01 X7.203833 Y45.782704 Z-0.125000
G01 X7.199984 Y45.790448 Z-0.125000
G02 X7.264466 Y45.862630 Z-0.125000 I0.477862 J-0.361994
G02 X7.350966 Y45.935752 Z-0.125000 I0.661156 J-0.694386
G01 X7.371402 Y45.942555 Z-0.125000
G01 X7.371402 Y45.942555 Z-0.125000
G00 Z5.000000

(End cutting path id: path4860)


(Start cutting path id: path4860)
(Change tool to Default tool)

G00 Z5.000000
G00 X18.756202 Y45.910035

G01 Z-0.125000 F100.0(Penetrate)
G02 X18.766076 Y45.860744 Z-0.125000 I-0.097039 J-0.045072 F400.000000
G01 X18.752895 Y45.833414 Z-0.125000
G01 X18.738036 Y45.836528 Z-0.125000
G02 X18.728090 Y45.885780 Z-0.125000 I0.092750 J0.044360
G01 X18.741452 Y45.913201 Z-0.125000
G01 X18.756202 Y45.910023 Z-0.125000
G01 X18.756202 Y45.910035 Z-0.125000
G00 Z5.000000

(End cutting path id: path4860)


(Start cutting path id: path4860)
(Change tool to Default tool)

G00 Z5.000000
G00 X7.188398 Y45.743015

G01 Z-0.125000 F100.0(Penetrate)
G01 X7.191889 Y45.735382 Z-0.125000 F400.000000
G02 X7.102409 Y45.643247 Z-0.125000 I-0.841242 J0.727490
G02 X6.991124 Y45.550355 Z-0.125000 I-1.050046 J1.144863
G01 X6.970669 Y45.543476 Z-0.125000
G01 X6.967144 Y45.551126 Z-0.125000
G02 X7.056107 Y45.643247 Z-0.125000 I0.803449 J-0.686889
G02 X7.167862 Y45.736154 Z-0.125000 I1.009708 J-1.100882
G01 X7.188398 Y45.743015 Z-0.125000
G01 X7.188398 Y45.743015 Z-0.125000
G00 Z5.000000

(End cutting path id: path4860)


(Start cutting path id: path4860)
(Change tool to Default tool)

G00 Z5.000000
G00 X18.709900 Y45.670806

G01 Z-0.125000 F100.0(Penetrate)
G02 X18.719773 Y45.621518 Z-0.125000 I-0.097035 J-0.045071 F400.000000
G01 X18.706593 Y45.594188 Z-0.125000
G01 X18.691734 Y45.597303 Z-0.125000
G02 X18.681788 Y45.646552 Z-0.125000 I0.092742 J0.044357
G01 X18.695150 Y45.673972 Z-0.125000
G01 X18.709900 Y45.670795 Z-0.125000
G01 X18.709900 Y45.670806 Z-0.125000
G00 Z5.000000

(End cutting path id: path4860)


(Start cutting path id: path4860)
(Change tool to Default tool)

G00 Z5.000000
G00 X18.068837 Y45.603558

G01 Z-0.125000 F100.0(Penetrate)
G02 X18.007874 Y45.236446 Z-0.125000 I-1.087940 J-0.007953 F400.000000
G01 X17.943160 Y45.244165 Z-0.125000
G02 X17.946110 Y45.283322 Z-0.125000 I0.112958 J0.011180
G02 X18.003794 Y45.483394 Z-0.125000 I3.186782 J-0.810447
G02 X18.056475 Y45.606639 Z-0.125000 I0.697122 J-0.225103
G01 X18.068837 Y45.603558 Z-0.125000
G01 X18.068837 Y45.603558 Z-0.125000
G00 Z5.000000

(End cutting path id: path4860)


(Start cutting path id: path4860)
(Change tool to Default tool)

G00 Z5.000000
G00 X6.897357 Y45.507648

G01 Z-0.125000 F100.0(Penetrate)
G02 X6.735470 Y45.367661 Z-0.125000 I-0.372529 J0.267210 F400.000000
G01 X6.685690 Y45.397956 Z-0.125000
G01 X6.692402 Y45.410849 Z-0.125000
G02 X6.807509 Y45.483394 Z-0.125000 I0.806666 J-1.152339
G02 X6.890646 Y45.517339 Z-0.125000 I0.175347 J-0.310672
G01 X6.897357 Y45.507637 Z-0.125000
G01 X6.897357 Y45.507648 Z-0.125000
G00 Z5.000000

(End cutting path id: path4860)


(Start cutting path id: path4860)
(Change tool to Default tool)

G00 Z5.000000
G00 X5.189692 Y45.471267

G01 Z-0.125000 F100.0(Penetrate)
G02 X5.199233 Y45.421977 Z-0.125000 I-0.094383 J-0.043839 F400.000000
G01 X5.185834 Y45.394649 Z-0.125000
G01 X5.171181 Y45.397820 Z-0.125000
G02 X5.161580 Y45.447012 Z-0.125000 I0.095551 J0.044184
G01 X5.174942 Y45.474432 Z-0.125000
G01 X5.189692 Y45.471255 Z-0.125000
G01 X5.189692 Y45.471267 Z-0.125000
G00 Z5.000000

(End cutting path id: path4860)


(Start cutting path id: path4860)
(Change tool to Default tool)

G00 Z5.000000
G00 X18.663598 Y45.471267

G01 Z-0.125000 F100.0(Penetrate)
G02 X18.673471 Y45.421978 Z-0.125000 I-0.097065 J-0.045075 F400.000000
G01 X18.660290 Y45.394649 Z-0.125000
G01 X18.645431 Y45.397763 Z-0.125000
G02 X18.635486 Y45.447012 Z-0.125000 I0.092742 J0.044357
G01 X18.648848 Y45.474432 Z-0.125000
G01 X18.663598 Y45.471255 Z-0.125000
G01 X18.663598 Y45.471267 Z-0.125000
G00 Z5.000000

(End cutting path id: path4860)


(Start cutting path id: path4860)
(Change tool to Default tool)

G00 Z5.000000
G00 X30.752853 Y45.409530

G01 Z-0.125000 F100.0(Penetrate)
G02 X30.800096 Y45.375012 Z-0.125000 I-0.097155 J-0.182562 F400.000000
G02 X30.903334 Y45.262908 Z-0.125000 I-0.992746 J-1.017806
G01 X30.892437 Y45.247746 Z-0.125000
G02 X30.830021 Y45.291017 Z-0.125000 I0.057193 J0.149152
G02 X30.745698 Y45.401712 Z-0.125000 I0.707605 J0.626489
G01 X30.752853 Y45.409528 Z-0.125000
G01 X30.752853 Y45.409530 Z-0.125000
G00 Z5.000000

(End cutting path id: path4860)


(Start cutting path id: path4860)
(Change tool to Default tool)

G00 Z5.000000
G00 X18.617296 Y45.271727

G01 Z-0.125000 F100.0(Penetrate)
G02 X18.627170 Y45.222439 Z-0.125000 I-0.097057 J-0.045076 F400.000000
G01 X18.613989 Y45.195106 Z-0.125000
G01 X18.599130 Y45.198221 Z-0.125000
G02 X18.589184 Y45.247473 Z-0.125000 I0.092750 J0.044360
G01 X18.602546 Y45.274893 Z-0.125000
G01 X18.617296 Y45.271716 Z-0.125000
G01 X18.617296 Y45.271727 Z-0.125000
G00 Z5.000000

(End cutting path id: path4860)


(Start cutting path id: path4860)
(Change tool to Default tool)

G00 Z5.000000
G00 X17.922765 Y45.152113

G01 Z-0.125000 F100.0(Penetrate)
G02 X17.932638 Y45.102824 Z-0.125000 I-0.097035 J-0.045071 F400.000000
G01 X17.919457 Y45.075495 Z-0.125000
G01 X17.904598 Y45.078609 Z-0.125000
G02 X17.894653 Y45.127859 Z-0.125000 I0.092742 J0.044357
G01 X17.908014 Y45.155279 Z-0.125000
G01 X17.922765 Y45.152101 Z-0.125000
G01 X17.922765 Y45.152113 Z-0.125000
G00 Z5.000000

(End cutting path id: path4860)


(Start cutting path id: path4860)
(Change tool to Default tool)

G00 Z5.000000
G00 X30.971685 Y45.124540

G01 Z-0.125000 F100.0(Penetrate)
G01 X31.075864 Y45.048472 Z-0.125000 F400.000000
G02 X31.174934 Y44.969787 Z-0.125000 I-0.910214 J-1.247726
G01 X31.180044 Y44.958624 Z-0.125000
G01 X31.164594 Y44.950121 Z-0.125000
G02 X31.059879 Y45.034694 Z-0.125000 I0.314319 J0.496290
G01 X30.971685 Y45.124540 Z-0.125000
G00 Z5.000000

(End cutting path id: path4860)


(Start cutting path id: path4860)
(Change tool to Default tool)

G00 Z5.000000
G00 X9.388299 Y45.113505

G01 Z-0.125000 F100.0(Penetrate)
G03 X9.189161 Y45.049059 Z-0.125000 I0.156485 J-0.823423 F400.000000
G03 X9.000794 Y44.924989 Z-0.125000 I0.332843 J-0.710361
G03 X8.884228 Y44.764938 Z-0.125000 I0.308834 J-0.347401
G03 X8.842044 Y44.564495 Z-0.125000 I0.455130 J-0.200443
G03 X8.885606 Y44.365039 Z-0.125000 I0.478406 J0.000000
G03 X9.007960 Y44.202347 Z-0.125000 I0.434096 J0.199113
G03 X9.184150 Y44.080750 Z-0.125000 I0.653432 J0.758355
G03 X9.330421 Y44.027612 Z-0.125000 I0.250745 J0.462330
G03 X9.671258 Y44.015232 Z-0.125000 I0.207896 J1.025595
G03 X9.926836 Y44.104230 Z-0.125000 I-0.083360 J0.650862
G03 X10.181720 Y44.338848 Z-0.125000 I-0.447705 J0.742137
G03 X10.250951 Y44.552918 Z-0.125000 I-0.296351 J0.214071
G03 X9.983465 Y45.013955 Z-0.125000 I-0.531062 J-0.000000
G03 X9.388299 Y45.113505 Z-0.125000 I-0.432424 J-0.756375
G01 X9.388299 Y45.113505 Z-0.125000
G00 Z5.000000

(End cutting path id: path4860)


(Start cutting path id: path4860)
(Change tool to Default tool)

G00 Z5.000000
G00 X9.666662 Y45.048461

G01 Z-0.125000 F100.0(Penetrate)
G02 X9.722733 Y45.007389 Z-0.125000 I-0.012199 J-0.075463 F400.000000
G01 X9.702491 Y44.977355 Z-0.125000
G03 X9.461989 Y44.894785 Z-0.125000 I-0.025952 J-0.315953
G03 X9.380030 Y44.680802 Z-0.125000 I0.174083 J-0.189363
G03 X9.603953 Y44.434343 Z-0.125000 I0.276898 J0.026626
G03 X9.956602 Y44.568906 Z-0.125000 I0.068081 J0.350955
G03 X9.999626 Y44.675447 Z-0.125000 I-0.173708 J0.132106
G03 X9.984714 Y44.807581 Z-0.125000 I-0.289885 J0.034193
G01 X10.006977 Y44.842524 Z-0.125000
G02 X10.066294 Y44.815286 Z-0.125000 I0.006121 J-0.064878
G02 X10.125630 Y44.487280 Z-0.125000 I-0.321561 J-0.227540
G02 X9.896519 Y44.172570 Z-0.125000 I-0.518587 J0.136783
G02 X9.220269 Y44.109699 Z-0.125000 I-0.398887 J0.622133
G02 X8.908190 Y44.572753 Z-0.125000 I0.187494 J0.463053
G02 X9.108836 Y44.935415 Z-0.125000 I0.428074 J0.000000
G02 X9.666663 Y45.048450 Z-0.125000 I0.428979 J-0.684060
G01 X9.666662 Y45.048461 Z-0.125000
G00 Z5.000000

(End cutting path id: path4860)


(Start cutting path id: path4860)
(Change tool to Default tool)

G00 Z5.000000
G00 X17.876463 Y44.992239

G01 Z-0.125000 F100.0(Penetrate)
G02 X17.886336 Y44.942948 Z-0.125000 I-0.097050 J-0.045073 F400.000000
G01 X17.873155 Y44.915619 Z-0.125000
G01 X17.858297 Y44.918733 Z-0.125000
G02 X17.848351 Y44.967985 Z-0.125000 I0.092750 J0.044360
G01 X17.861713 Y44.995405 Z-0.125000
G01 X17.876463 Y44.992228 Z-0.125000
G01 X17.876463 Y44.992239 Z-0.125000
G00 Z5.000000

(End cutting path id: path4860)


(Start cutting path id: path4860)
(Change tool to Default tool)

G00 Z5.000000
G00 X31.204298 Y44.896326

G01 Z-0.125000 F100.0(Penetrate)
G02 X31.246171 Y44.865012 Z-0.125000 I-0.074787 J-0.143654 F400.000000
G02 X31.403838 Y44.689071 Z-0.125000 I-2.373555 J-2.285648
G02 X31.540063 Y44.513769 Z-0.125000 I-2.493529 J-2.078279
G01 X31.536129 Y44.506067 Z-0.125000
G01 X31.516515 Y44.514492 Z-0.125000
G02 X31.291939 Y44.763484 Z-0.125000 I4.782444 J4.539252
G02 X31.197503 Y44.888791 Z-0.125000 I0.952121 J0.815793
G01 X31.204298 Y44.896326 Z-0.125000
G01 X31.204298 Y44.896326 Z-0.125000
G00 Z5.000000

(End cutting path id: path4860)


(Start cutting path id: path4860)
(Change tool to Default tool)

G00 Z5.000000
G00 X9.556970 Y44.845614

G01 Z-0.125000 F100.0(Penetrate)
G02 X9.830491 Y44.833111 Z-0.125000 I0.129457 J-0.166020 F400.000000
G02 X9.825412 Y44.593711 Z-0.125000 I-0.110186 J-0.117417
G02 X9.764446 Y44.559840 Z-0.125000 I-0.112304 J0.130340
G02 X9.672174 Y44.545753 Z-0.125000 I-0.092272 J0.295144
G02 X9.505475 Y44.660351 Z-0.125000 I-0.000000 J0.178543
G02 X9.556970 Y44.845614 Z-0.125000 I0.150840 J0.057861
G01 X9.556970 Y44.845614 Z-0.125000
G00 Z5.000000

(End cutting path id: path4860)


(Start cutting path id: path4860)
(Change tool to Default tool)

G00 Z5.000000
G00 X17.835673 Y44.805377

G01 Z-0.125000 F100.0(Penetrate)
G02 X17.827734 Y44.726952 Z-0.125000 I-0.391333 J0.000000 F400.000000
G02 X17.798741 Y44.625681 Z-0.125000 I-0.670310 J0.137115
G02 X17.774719 Y44.598120 Z-0.125000 I-0.048502 J0.018026
G01 X17.761810 Y44.605841 Z-0.125000
G02 X17.769749 Y44.684266 Z-0.125000 I0.391316 J-0.000000
G02 X17.798741 Y44.785537 Z-0.125000 I0.670443 J-0.137150
G02 X17.822764 Y44.813098 Z-0.125000 I0.048504 J-0.018027
G01 X17.835673 Y44.805377 Z-0.125000
G01 X17.835673 Y44.805377 Z-0.125000
G00 Z5.000000

(End cutting path id: path4860)


(Start cutting path id: path4860)
(Change tool to Default tool)

G00 Z5.000000
G00 X5.609167 Y44.694187

G01 Z-0.125000 F100.0(Penetrate)
G02 X5.713347 Y44.702775 Z-0.125000 I0.104180 J-0.627655 F400.000000
G02 X5.817526 Y44.694187 Z-0.125000 I0.000000 J-0.636236
G01 X5.817545 Y44.685364 Z-0.125000
G02 X5.713346 Y44.676549 Z-0.125000 I-0.104199 J0.611370
G02 X5.609148 Y44.685364 Z-0.125000 I0.000000 J0.620190
G01 X5.609167 Y44.694187 Z-0.125000
G01 X5.609167 Y44.694187 Z-0.125000
G00 Z5.000000

(End cutting path id: path4860)


(Start cutting path id: path4860)
(Change tool to Default tool)

G00 Z5.000000
G00 X5.065117 Y44.648436

G01 Z-0.125000 F100.0(Penetrate)
